Luts Download/Canon Luts/1dlut/canonlog2-to-gamma-1dlut/full-to-full-range/CanonLog2_12-to-HLG_FF_Ver.2.1.cube
# Gamma : Canon Log 2 to HLG
# Range : Full in / Full out
# Version : 2.1 2018/10/3
# Copyright(c) 2018 Canon Inc. All Rights Reserved.

LUT_1D_SIZE 4096
0.000000 0.000000 0.000000
0.000000 0.000000 0.000000
0.000000 0.000000 0.000000
0.000000 0.000000 0.000000
0.000000 0.000000 0.000000
0.000000 0.000000 0.000000
0.000000 0.000000 0.000000
0.000000 0.000000 0.000000
0.000000 0.000000 0.000000
0.000000 0.000000 0.000000
0.000000 0.000000 0.000000
0.000000 0.000000 0.000000
0.000000 0.000000 0.000000
0.000000 0.000000 0.000000
0.000000 0.000000 0.000000
0.000000 0.000000 0.000000
0.000000 0.000000 0.000000
0.000000 0.000000 0.000000
0.000000 0.000000 0.000000
0.000000 0.000000 0.000000
0.000000 0.000000 0.000000
0.000000 0.000000 0.000000
0.000000 0.000000 0.000000
0.000000 0.000000 0.000000
0.000000 0.000000 0.000000
0.000000 0.000000 0.000000
0.000000 0.000000 0.000000
0.000000 0.000000 0.000000
0.000000 0.000000 0.000000
0.000000 0.000000 0.000000
0.000000 0.000000 0.000000
0.000000 0.000000 0.000000
0.000000 0.000000 0.000000
0.000000 0.000000 0.000000
0.000000 0.000000 0.000000
0.000000 0.000000 0.000000
0.000000 0.000000 0.000000
0.000000 0.000000 0.000000
0.000000 0.000000 0.000000
0.000000 0.000000 0.000000
0.000000 0.000000 0.000000
0.000000 0.000000 0.000000
0.000000 0.000000 0.000000
0.000000 0.000000 0.000000
0.000000 0.000000 0.000000
0.000000 0.000000 0.000000
0.000000 0.000000 0.000000
0.000000 0.000000 0.000000
0.000000 0.000000 0.000000
0.000000 0.000000 0.000000
0.000000 0.000000 0.000000
0.000000 0.000000 0.000000
0.000000 0.000000 0.000000
0.000000 0.000000 0.000000
0.000000 0.000000 0.000000
0.000000 0.000000 0.000000
0.000000 0.000000 0.000000
0.000000 0.000000 0.000000
0.000000 0.000000 0.000000
0.000000 0.000000 0.000000
0.000000 0.000000 0.000000
0.000000 0.000000 0.000000
0.000000 0.000000 0.000000
0.000000 0.000000 0.000000
0.000000 0.000000 0.000000
0.000000 0.000000 0.000000
0.000000 0.000000 0.000000
0.000000 0.000000 0.000000
0.000000 0.000000 0.000000
0.000000 0.000000 0.000000
0.000000 0.000000 0.000000
0.000000 0.000000 0.000000
0.000000 0.000000 0.000000
0.000000 0.000000 0.000000
0.000000 0.000000 0.000000
0.000000 0.000000 0.000000
0.000000 0.000000 0.000000
0.000000 0.000000 0.000000
0.000000 0.000000 0.000000
0.000000 0.000000 0.000000
0.000000 0.000000 0.000000
0.000000 0.000000 0.000000
0.000000 0.000000 0.000000
0.000000 0.000000 0.000000
0.000000 0.000000 0.000000
0.000000 0.000000 0.000000
0.000000 0.000000 0.000000
0.000000 0.000000 0.000000
0.000000 0.000000 0.000000
0.000000 0.000000 0.000000
0.000000 0.000000 0.000000
0.000000 0.000000 0.000000
0.000000 0.000000 0.000000
0.000000 0.000000 0.000000
0.000000 0.000000 0.000000
0.000000 0.000000 0.000000
0.000000 0.000000 0.000000
0.000000 0.000000 0.000000
0.000000 0.000000 0.000000
0.000000 0.000000 0.000000
0.000000 0.000000 0.000000
0.000000 0.000000 0.000000
0.000000 0.000000 0.000000
0.000000 0.000000 0.000000
0.000000 0.000000 0.000000
0.000000 0.000000 0.000000
0.000000 0.000000 0.000000
0.000000 0.000000 0.000000
0.000000 0.000000 0.000000
0.000000 0.000000 0.000000
0.000000 0.000000 0.000000
0.000000 0.000000 0.000000
0.000000 0.000000 0.000000
0.000000 0.000000 0.000000
0.000000 0.000000 0.000000
0.000000 0.000000 0.000000
0.000000 0.000000 0.000000
0.000000 0.000000 0.000000
0.000000 0.000000 0.000000
0.000000 0.000000 0.000000
0.000000 0.000000 0.000000
0.000000 0.000000 0.000000
0.000000 0.000000 0.000000
0.000000 0.000000 0.000000
0.000000 0.000000 0.000000
0.000000 0.000000 0.000000
0.000000 0.000000 0.000000
0.000000 0.000000 0.000000
0.000000 0.000000 0.000000
0.000000 0.000000 0.000000
0.000000 0.000000 0.000000
0.000000 0.000000 0.000000
0.000000 0.000000 0.000000
0.000000 0.000000 0.000000
0.000000 0.000000 0.000000
0.000000 0.000000 0.000000
0.000000 0.000000 0.000000
0.000000 0.000000 0.000000
0.000000 0.000000 0.000000
0.000000 0.000000 0.000000
0.000000 0.000000 0.000000
0.000000 0.000000 0.000000
0.000000 0.000000 0.000000
0.000000 0.000000 0.000000
0.000000 0.000000 0.000000
0.000000 0.000000 0.000000
0.000000 0.000000 0.000000
0.000000 0.000000 0.000000
0.000000 0.000000 0.000000
0.000000 0.000000 0.000000
0.000000 0.000000 0.000000
0.000000 0.000000 0.000000
0.000000 0.000000 0.000000
0.000000 0.000000 0.000000
0.000000 0.000000 0.000000
0.000000 0.000000 0.000000
0.000000 0.000000 0.000000
0.000000 0.000000 0.000000
0.000000 0.000000 0.000000
0.000000 0.000000 0.000000
0.000000 0.000000 0.000000
0.000000 0.000000 0.000000
0.000000 0.000000 0.000000
0.000000 0.000000 0.000000
0.000000 0.000000 0.000000
0.000000 0.000000 0.000000
0.000000 0.000000 0.000000
0.000000 0.000000 0.000000
0.000000 0.000000 0.000000
0.000000 0.000000 0.000000
0.000000 0.000000 0.000000
0.000000 0.000000 0.000000
0.000000 0.000000 0.000000
0.000000 0.000000 0.000000
0.000000 0.000000 0.000000
0.000000 0.000000 0.000000
0.000000 0.000000 0.000000
0.000000 0.000000 0.000000
0.000000 0.000000 0.000000
0.000000 0.000000 0.000000
0.000000 0.000000 0.000000
0.000000 0.000000 0.000000
0.000000 0.000000 0.000000
0.000000 0.000000 0.000000
0.000000 0.000000 0.000000
0.000000 0.000000 0.000000
0.000000 0.000000 0.000000
0.000000 0.000000 0.000000
0.000000 0.000000 0.000000
0.000000 0.000000 0.000000
0.000000 0.000000 0.000000
0.000000 0.000000 0.000000
0.000000 0.000000 0.000000
0.000000 0.000000 0.000000
0.000000 0.000000 0.000000
0.000000 0.000000 0.000000
0.000000 0.000000 0.000000
0.000000 0.000000 0.000000
0.000000 0.000000 0.000000
0.000000 0.000000 0.000000
0.000000 0.000000 0.000000
0.000000 0.000000 0.000000
0.000000 0.000000 0.000000
0.000000 0.000000 0.000000
0.000000 0.000000 0.000000
0.000000 0.000000 0.000000
0.000000 0.000000 0.000000
0.000000 0.000000 0.000000
0.000000 0.000000 0.000000
0.000000 0.000000 0.000000
0.000000 0.000000 0.000000
0.000000 0.000000 0.000000
0.000000 0.000000 0.000000
0.000000 0.000000 0.000000
0.000000 0.000000 0.000000
0.000000 0.000000 0.000000
0.000000 0.000000 0.000000
0.000000 0.000000 0.000000
0.000000 0.000000 0.000000
0.000000 0.000000 0.000000
0.000000 0.000000 0.000000
0.000000 0.000000 0.000000
0.000000 0.000000 0.000000
0.000000 0.000000 0.000000
0.000000 0.000000 0.000000
0.000000 0.000000 0.000000
0.000000 0.000000 0.000000
0.000000 0.000000 0.000000
0.000000 0.000000 0.000000
0.000000 0.000000 0.000000
0.000000 0.000000 0.000000
0.000000 0.000000 0.000000
0.000000 0.000000 0.000000
0.000000 0.000000 0.000000
0.000000 0.000000 0.000000
0.000000 0.000000 0.000000
0.000000 0.000000 0.000000
0.000000 0.000000 0.000000
0.000000 0.000000 0.000000
0.000000 0.000000 0.000000
0.000000 0.000000 0.000000
0.000000 0.000000 0.000000
0.000000 0.000000 0.000000
0.000000 0.000000 0.000000
0.000000 0.000000 0.000000
0.000000 0.000000 0.000000
0.000000 0.000000 0.000000
0.000000 0.000000 0.000000
0.000000 0.000000 0.000000
0.000000 0.000000 0.000000
0.000000 0.000000 0.000000
0.000000 0.000000 0.000000
0.000000 0.000000 0.000000
0.000000 0.000000 0.000000
0.000000 0.000000 0.000000
0.000000 0.000000 0.000000
0.000000 0.000000 0.000000
0.000000 0.000000 0.000000
0.000000 0.000000 0.000000
0.000000 0.000000 0.000000
0.000000 0.000000 0.000000
0.000000 0.000000 0.000000
0.000000 0.000000 0.000000
0.000000 0.000000 0.000000
0.000000 0.000000 0.000000
0.000000 0.000000 0.000000
0.000000 0.000000 0.000000
0.000000 0.000000 0.000000
0.000000 0.000000 0.000000
0.000000 0.000000 0.000000
0.000000 0.000000 0.000000
0.000000 0.000000 0.000000
0.000000 0.000000 0.000000
0.000000 0.000000 0.000000
0.000000 0.000000 0.000000
0.000000 0.000000 0.000000
0.000000 0.000000 0.000000
0.000000 0.000000 0.000000
0.000000 0.000000 0.000000
0.000000 0.000000 0.000000
0.000000 0.000000 0.000000
0.000000 0.000000 0.000000
0.000000 0.000000 0.000000
0.000000 0.000000 0.000000
0.000000 0.000000 0.000000
0.000000 0.000000 0.000000
0.000000 0.000000 0.000000
0.000000 0.000000 0.000000
0.000000 0.000000 0.000000
0.000000 0.000000 0.000000
0.000000 0.000000 0.000000
0.000000 0.000000 0.000000
0.000000 0.000000 0.000000
0.000000 0.000000 0.000000
0.000000 0.000000 0.000000
0.000000 0.000000 0.000000
0.000000 0.000000 0.000000
0.000000 0.000000 0.000000
0.000000 0.000000 0.000000
0.000000 0.000000 0.000000
0.000000 0.000000 0.000000
0.000000 0.000000 0.000000
0.000000 0.000000 0.000000
0.000000 0.000000 0.000000
0.000000 0.000000 0.000000
0.000000 0.000000 0.000000
0.000000 0.000000 0.000000
0.000000 0.000000 0.000000
0.000000 0.000000 0.000000
0.000000 0.000000 0.000000
0.000000 0.000000 0.000000
0.000000 0.000000 0.000000
0.000000 0.000000 0.000000
0.000000 0.000000 0.000000
0.000000 0.000000 0.000000
0.000000 0.000000 0.000000
0.000000 0.000000 0.000000
0.000000 0.000000 0.000000
0.000000 0.000000 0.000000
0.000000 0.000000 0.000000
0.000000 0.000000 0.000000
0.000000 0.000000 0.000000
0.000000 0.000000 0.000000
0.000000 0.000000 0.000000
0.000000 0.000000 0.000000
0.000000 0.000000 0.000000
0.000000 0.000000 0.000000
0.000000 0.000000 0.000000
0.000000 0.000000 0.000000
0.000000 0.000000 0.000000
0.000000 0.000000 0.000000
0.000000 0.000000 0.000000
0.000000 0.000000 0.000000
0.000000 0.000000 0.000000
0.000000 0.000000 0.000000
0.000000 0.000000 0.000000
0.000000 0.000000 0.000000
0.000000 0.000000 0.000000
0.000000 0.000000 0.000000
0.000000 0.000000 0.000000
0.000000 0.000000 0.000000
0.000000 0.000000 0.000000
0.000000 0.000000 0.000000
0.000000 0.000000 0.000000
0.000000 0.000000 0.000000
0.000000 0.000000 0.000000
0.000000 0.000000 0.000000
0.000000 0.000000 0.000000
0.000000 0.000000 0.000000
0.000000 0.000000 0.000000
0.000000 0.000000 0.000000
0.000000 0.000000 0.000000
0.000000 0.000000 0.000000
0.000000 0.000000 0.000000
0.000000 0.000000 0.000000
0.000000 0.000000 0.000000
0.000000 0.000000 0.000000
0.000000 0.000000 0.000000
0.000000 0.000000 0.000000
0.000000 0.000000 0.000000
0.000000 0.000000 0.000000
0.000000 0.000000 0.000000
0.000000 0.000000 0.000000
0.000000 0.000000 0.000000
0.000000 0.000000 0.000000
0.000000 0.000000 0.000000
0.000000 0.000000 0.000000
0.000000 0.000000 0.000000
0.000000 0.000000 0.000000
0.000000 0.000000 0.000000
0.000000 0.000000 0.000000
0.000000 0.000000 0.000000
0.000000 0.000000 0.000000
0.000000 0.000000 0.000000
0.000000 0.000000 0.000000
0.000000 0.000000 0.000000
0.000000 0.000000 0.000000
0.000000 0.000000 0.000000
0.000000 0.000000 0.000000
0.000000 0.000000 0.000000
0.000000 0.000000 0.000000
0.003716 0.003716 0.003716
0.005743 0.005743 0.005743
0.007225 0.007225 0.007225
0.008454 0.008454 0.008454
0.009528 0.009528 0.009528
0.010495 0.010495 0.010495
0.011382 0.011382 0.011382
0.012206 0.012206 0.012206
0.012980 0.012980 0.012980
0.013712 0.013712 0.013712
0.014409 0.014409 0.014409
0.015074 0.015074 0.015074
0.015713 0.015713 0.015713
0.016329 0.016329 0.016329
0.016923 0.016923 0.016923
0.017499 0.017499 0.017499
0.018058 0.018058 0.018058
0.018601 0.018601 0.018601
0.019129 0.019129 0.019129
0.019645 0.019645 0.019645
0.020149 0.020149 0.020149
0.020641 0.020641 0.020641
0.021124 0.021124 0.021124
0.021596 0.021596 0.021596
0.022060 0.022060 0.022060
0.022515 0.022515 0.022515
0.022962 0.022962 0.022962
0.023401 0.023401 0.023401
0.023833 0.023833 0.023833
0.024259 0.024259 0.024259
0.024678 0.024678 0.024678
0.025092 0.025092 0.025092
0.025499 0.025499 0.025499
0.025901 0.025901 0.025901
0.026298 0.026298 0.026298
0.026690 0.026690 0.026690
0.027077 0.027077 0.027077
0.027459 0.027459 0.027459
0.027837 0.027837 0.027837
0.028211 0.028211 0.028211
0.028581 0.028581 0.028581
0.028947 0.028947 0.028947
0.029309 0.029309 0.029309
0.029667 0.029667 0.029667
0.030022 0.030022 0.030022
0.030374 0.030374 0.030374
0.030723 0.030723 0.030723
0.031068 0.031068 0.031068
0.031411 0.031411 0.031411
0.031750 0.031750 0.031750
0.032087 0.032087 0.032087
0.032421 0.032421 0.032421
0.032752 0.032752 0.032752
0.033081 0.033081 0.033081
0.033408 0.033408 0.033408
0.033732 0.033732 0.033732
0.034053 0.034053 0.034053
0.034372 0.034372 0.034372
0.034690 0.034690 0.034690
0.035005 0.035005 0.035005
0.035317 0.035317 0.035317
0.035628 0.035628 0.035628
0.035937 0.035937 0.035937
0.036244 0.036244 0.036244
0.036549 0.036549 0.036549
0.036853 0.036853 0.036853
0.037154 0.037154 0.037154
0.037454 0.037454 0.037454
0.037752 0.037752 0.037752
0.038048 0.038048 0.038048
0.038343 0.038343 0.038343
0.038636 0.038636 0.038636
0.038928 0.038928 0.038928
0.039218 0.039218 0.039218
0.039507 0.039507 0.039507
0.039794 0.039794 0.039794
0.040080 0.040080 0.040080
0.040365 0.040365 0.040365
0.040648 0.040648 0.040648
0.040930 0.040930 0.040930
0.041211 0.041211 0.041211
0.041490 0.041490 0.041490
0.041768 0.041768 0.041768
0.042045 0.042045 0.042045
0.042321 0.042321 0.042321
0.042596 0.042596 0.042596
0.042869 0.042869 0.042869
0.043142 0.043142 0.043142
0.043413 0.043413 0.043413
0.043683 0.043683 0.043683
0.043953 0.043953 0.043953
0.044221 0.044221 0.044221
0.044488 0.044488 0.044488
0.044754 0.044754 0.044754
0.045020 0.045020 0.045020
0.045284 0.045284 0.045284
0.045547 0.045547 0.045547
0.045810 0.045810 0.045810
0.046072 0.046072 0.046072
0.046332 0.046332 0.046332
0.046592 0.046592 0.046592
0.046851 0.046851 0.046851
0.047110 0.047110 0.047110
0.047367 0.047367 0.047367
0.047624 0.047624 0.047624
0.047880 0.047880 0.047880
0.048135 0.048135 0.048135
0.048389 0.048389 0.048389
0.048643 0.048643 0.048643
0.048895 0.048895 0.048895
0.049148 0.049148 0.049148
0.049399 0.049399 0.049399
0.049650 0.049650 0.049650
0.049900 0.049900 0.049900
0.050149 0.050149 0.050149
0.050398 0.050398 0.050398
0.050646 0.050646 0.050646
0.050894 0.050894 0.050894
0.051140 0.051140 0.051140
0.051387 0.051387 0.051387
0.051632 0.051632 0.051632
0.051877 0.051877 0.051877
0.052122 0.052122 0.052122
0.052366 0.052366 0.052366
0.052609 0.052609 0.052609
0.052852 0.052852 0.052852
0.053094 0.053094 0.053094
0.053336 0.053336 0.053336
0.053577 0.053577 0.053577
0.053817 0.053817 0.053817
0.054057 0.054057 0.054057
0.054297 0.054297 0.054297
0.054536 0.054536 0.054536
0.054775 0.054775 0.054775
0.055013 0.055013 0.055013
0.055250 0.055250 0.055250
0.055488 0.055488 0.055488
0.055724 0.055724 0.055724
0.055961 0.055961 0.055961
0.056196 0.056196 0.056196
0.056432 0.056432 0.056432
0.056667 0.056667 0.056667
0.056901 0.056901 0.056901
0.057135 0.057135 0.057135
0.057369 0.057369 0.057369
0.057602 0.057602 0.057602
0.057835 0.057835 0.057835
0.058068 0.058068 0.058068
0.058300 0.058300 0.058300
0.058532 0.058532 0.058532
0.058763 0.058763 0.058763
0.058994 0.058994 0.058994
0.059225 0.059225 0.059225
0.059455 0.059455 0.059455
0.059685 0.059685 0.059685
0.059914 0.059914 0.059914
0.060144 0.060144 0.060144
0.060372 0.060372 0.060372
0.060601 0.060601 0.060601
0.060829 0.060829 0.060829
0.061057 0.061057 0.061057
0.061285 0.061285 0.061285
0.061512 0.061512 0.061512
0.061739 0.061739 0.061739
0.061965 0.061965 0.061965
0.062192 0.062192 0.062192
0.062418 0.062418 0.062418
0.062644 0.062644 0.062644
0.062869 0.062869 0.062869
0.063094 0.063094 0.063094
0.063319 0.063319 0.063319
0.063544 0.063544 0.063544
0.063768 0.063768 0.063768
0.063992 0.063992 0.063992
0.064216 0.064216 0.064216
0.064440 0.064440 0.064440
0.064663 0.064663 0.064663
0.064886 0.064886 0.064886
0.065109 0.065109 0.065109
0.065331 0.065331 0.065331
0.065554 0.065554 0.065554
0.065776 0.065776 0.065776
0.065998 0.065998 0.065998
0.066219 0.066219 0.066219
0.066441 0.066441 0.066441
0.066662 0.066662 0.066662
0.066883 0.066883 0.066883
0.067104 0.067104 0.067104
0.067324 0.067324 0.067324
0.067544 0.067544 0.067544
0.067765 0.067765 0.067765
0.067985 0.067985 0.067985
0.068204 0.068204 0.068204
0.068424 0.068424 0.068424
0.068643 0.068643 0.068643
0.068862 0.068862 0.068862
0.069081 0.069081 0.069081
0.069300 0.069300 0.069300
0.069519 0.069519 0.069519
0.069737 0.069737 0.069737
0.069955 0.069955 0.069955
0.070173 0.070173 0.070173
0.070391 0.070391 0.070391
0.070609 0.070609 0.070609
0.070827 0.070827 0.070827
0.071044 0.071044 0.071044
0.071261 0.071261 0.071261
0.071478 0.071478 0.071478
0.071695 0.071695 0.071695
0.071912 0.071912 0.071912
0.072129 0.072129 0.072129
0.072345 0.072345 0.072345
0.072562 0.072562 0.072562
0.072778 0.072778 0.072778
0.072994 0.072994 0.072994
0.073210 0.073210 0.073210
0.073426 0.073426 0.073426
0.073642 0.073642 0.073642
0.073857 0.073857 0.073857
0.074072 0.074072 0.074072
0.074288 0.074288 0.074288
0.074503 0.074503 0.074503
0.074718 0.074718 0.074718
0.074933 0.074933 0.074933
0.075148 0.075148 0.075148
0.075363 0.075363 0.075363
0.075577 0.075577 0.075577
0.075792 0.075792 0.075792
0.076006 0.076006 0.076006
0.076220 0.076220 0.076220
0.076434 0.076434 0.076434
0.076649 0.076649 0.076649
0.076863 0.076863 0.076863
0.077076 0.077076 0.077076
0.077290 0.077290 0.077290
0.077504 0.077504 0.077504
0.077717 0.077717 0.077717
0.077931 0.077931 0.077931
0.078144 0.078144 0.078144
0.078358 0.078358 0.078358
0.078571 0.078571 0.078571
0.078784 0.078784 0.078784
0.078997 0.078997 0.078997
0.079210 0.079210 0.079210
0.079423 0.079423 0.079423
0.079636 0.079636 0.079636
0.079849 0.079849 0.079849
0.080062 0.080062 0.080062
0.080274 0.080274 0.080274
0.080487 0.080487 0.080487
0.080699 0.080699 0.080699
0.080912 0.080912 0.080912
0.081124 0.081124 0.081124
0.081337 0.081337 0.081337
0.081549 0.081549 0.081549
0.081761 0.081761 0.081761
0.081973 0.081973 0.081973
0.082185 0.082185 0.082185
0.082397 0.082397 0.082397
0.082609 0.082609 0.082609
0.082821 0.082821 0.082821
0.083033 0.083033 0.083033
0.083245 0.083245 0.083245
0.083457 0.083457 0.083457
0.083669 0.083669 0.083669
0.083880 0.083880 0.083880
0.084092 0.084092 0.084092
0.084304 0.084304 0.084304
0.084515 0.084515 0.084515
0.084727 0.084727 0.084727
0.084938 0.084938 0.084938
0.085150 0.085150 0.085150
0.085361 0.085361 0.085361
0.085573 0.085573 0.085573
0.085784 0.085784 0.085784
0.085995 0.085995 0.085995
0.086207 0.086207 0.086207
0.086418 0.086418 0.086418
0.086629 0.086629 0.086629
0.086841 0.086841 0.086841
0.087052 0.087052 0.087052
0.087263 0.087263 0.087263
0.087474 0.087474 0.087474
0.087686 0.087686 0.087686
0.087897 0.087897 0.087897
0.088108 0.088108 0.088108
0.088319 0.088319 0.088319
0.088530 0.088530 0.088530
0.088741 0.088741 0.088741
0.088952 0.088952 0.088952
0.089164 0.089164 0.089164
0.089375 0.089375 0.089375
0.089586 0.089586 0.089586
0.089797 0.089797 0.089797
0.090008 0.090008 0.090008
0.090219 0.090219 0.090219
0.090430 0.090430 0.090430
0.090641 0.090641 0.090641
0.090852 0.090852 0.090852
0.091063 0.091063 0.091063
0.091274 0.091274 0.091274
0.091485 0.091485 0.091485
0.091696 0.091696 0.091696
0.091908 0.091908 0.091908
0.092119 0.092119 0.092119
0.092330 0.092330 0.092330
0.092541 0.092541 0.092541
0.092752 0.092752 0.092752
0.092963 0.092963 0.092963
0.093174 0.093174 0.093174
0.093385 0.093385 0.093385
0.093597 0.093597 0.093597
0.093808 0.093808 0.093808
0.094019 0.094019 0.094019
0.094230 0.094230 0.094230
0.094441 0.094441 0.094441
0.094653 0.094653 0.094653
0.094864 0.094864 0.094864
0.095075 0.095075 0.095075
0.095287 0.095287 0.095287
0.095498 0.095498 0.095498
0.095709 0.095709 0.095709
0.095921 0.095921 0.095921
0.096132 0.096132 0.096132
0.096344 0.096344 0.096344
0.096555 0.096555 0.096555
0.096767 0.096767 0.096767
0.096978 0.096978 0.096978
0.097190 0.097190 0.097190
0.097401 0.097401 0.097401
0.097613 0.097613 0.097613
0.097825 0.097825 0.097825
0.098036 0.098036 0.098036
0.098248 0.098248 0.098248
0.098460 0.098460 0.098460
0.098672 0.098672 0.098672
0.098884 0.098884 0.098884
0.099095 0.099095 0.099095
0.099307 0.099307 0.099307
0.099519 0.099519 0.099519
0.099731 0.099731 0.099731
0.099943 0.099943 0.099943
0.100156 0.100156 0.100156
0.100368 0.100368 0.100368
0.100580 0.100580 0.100580
0.100792 0.100792 0.100792
0.101004 0.101004 0.101004
0.101217 0.101217 0.101217
0.101429 0.101429 0.101429
0.101642 0.101642 0.101642
0.101854 0.101854 0.101854
0.102067 0.102067 0.102067
0.102279 0.102279 0.102279
0.102492 0.102492 0.102492
0.102705 0.102705 0.102705
0.102917 0.102917 0.102917
0.103130 0.103130 0.103130
0.103343 0.103343 0.103343
0.103556 0.103556 0.103556
0.103769 0.103769 0.103769
0.103982 0.103982 0.103982
0.104195 0.104195 0.104195
0.104408 0.104408 0.104408
0.104622 0.104622 0.104622
0.104835 0.104835 0.104835
0.105048 0.105048 0.105048
0.105262 0.105262 0.105262
0.105475 0.105475 0.105475
0.105689 0.105689 0.105689
0.105902 0.105902 0.105902
0.106116 0.106116 0.106116
0.106330 0.106330 0.106330
0.106543 0.106543 0.106543
0.106757 0.106757 0.106757
0.106971 0.106971 0.106971
0.107185 0.107185 0.107185
0.107399 0.107399 0.107399
0.107614 0.107614 0.107614
0.107828 0.107828 0.107828
0.108042 0.108042 0.108042
0.108257 0.108257 0.108257
0.108471 0.108471 0.108471
0.108686 0.108686 0.108686
0.108900 0.108900 0.108900
0.109115 0.109115 0.109115
0.109330 0.109330 0.109330
0.109544 0.109544 0.109544
0.109759 0.109759 0.109759
0.109974 0.109974 0.109974
0.110189 0.110189 0.110189
0.110405 0.110405 0.110405
0.110620 0.110620 0.110620
0.110835 0.110835 0.110835
0.111051 0.111051 0.111051
0.111266 0.111266 0.111266
0.111482 0.111482 0.111482
0.111697 0.111697 0.111697
0.111913 0.111913 0.111913
0.112129 0.112129 0.112129
0.112345 0.112345 0.112345
0.112561 0.112561 0.112561
0.112777 0.112777 0.112777
0.112993 0.112993 0.112993
0.113209 0.113209 0.113209
0.113426 0.113426 0.113426
0.113642 0.113642 0.113642
0.113859 0.113859 0.113859
0.114076 0.114076 0.114076
0.114292 0.114292 0.114292
0.114509 0.114509 0.114509
0.114726 0.114726 0.114726
0.114943 0.114943 0.114943
0.115160 0.115160 0.115160
0.115377 0.115377 0.115377
0.115595 0.115595 0.115595
0.115812 0.115812 0.115812
0.116030 0.116030 0.116030
0.116247 0.116247 0.116247
0.116465 0.116465 0.116465
0.116683 0.116683 0.116683
0.116901 0.116901 0.116901
0.117119 0.117119 0.117119
0.117337 0.117337 0.117337
0.117555 0.117555 0.117555
0.117773 0.117773 0.117773
0.117992 0.117992 0.117992
0.118210 0.118210 0.118210
0.118429 0.118429 0.118429
0.118648 0.118648 0.118648
0.118867 0.118867 0.118867
0.119086 0.119086 0.119086
0.119305 0.119305 0.119305
0.119524 0.119524 0.119524
0.119743 0.119743 0.119743
0.119962 0.119962 0.119962
0.120182 0.120182 0.120182
0.120401 0.120401 0.120401
0.120621 0.120621 0.120621
0.120841 0.120841 0.120841
0.121061 0.121061 0.121061
0.121281 0.121281 0.121281
0.121501 0.121501 0.121501
0.121721 0.121721 0.121721
0.121942 0.121942 0.121942
0.122162 0.122162 0.122162
0.122383 0.122383 0.122383
0.122604 0.122604 0.122604
0.122825 0.122825 0.122825
0.123046 0.123046 0.123046
0.123267 0.123267 0.123267
0.123488 0.123488 0.123488
0.123709 0.123709 0.123709
0.123931 0.123931 0.123931
0.124152 0.124152 0.124152
0.124374 0.124374 0.124374
0.124596 0.124596 0.124596
0.124818 0.124818 0.124818
0.125040 0.125040 0.125040
0.125262 0.125262 0.125262
0.125484 0.125484 0.125484
0.125707 0.125707 0.125707
0.125929 0.125929 0.125929
0.126152 0.126152 0.126152
0.126375 0.126375 0.126375
0.126598 0.126598 0.126598
0.126821 0.126821 0.126821
0.127044 0.127044 0.127044
0.127267 0.127267 0.127267
0.127491 0.127491 0.127491
0.127714 0.127714 0.127714
0.127938 0.127938 0.127938
0.128162 0.128162 0.128162
0.128386 0.128386 0.128386
0.128610 0.128610 0.128610
0.128834 0.128834 0.128834
0.129058 0.129058 0.129058
0.129283 0.129283 0.129283
0.129507 0.129507 0.129507
0.129732 0.129732 0.129732
0.129957 0.129957 0.129957
0.130182 0.130182 0.130182
0.130407 0.130407 0.130407
0.130633 0.130633 0.130633
0.130858 0.130858 0.130858
0.131084 0.131084 0.131084
0.131309 0.131309 0.131309
0.131535 0.131535 0.131535
0.131761 0.131761 0.131761
0.131987 0.131987 0.131987
0.132213 0.132213 0.132213
0.132440 0.132440 0.132440
0.132666 0.132666 0.132666
0.132893 0.132893 0.132893
0.133120 0.133120 0.133120
0.133347 0.133347 0.133347
0.133574 0.133574 0.133574
0.133801 0.133801 0.133801
0.134029 0.134029 0.134029
0.134256 0.134256 0.134256
0.134484 0.134484 0.134484
0.134712 0.134712 0.134712
0.134940 0.134940 0.134940
