Luts Download/Canon Luts/1dlut/canonlog2-to-gamma-1dlut/full-to-full-range/CanonLog2_12-to-DCI_FF_Ver.2.0.cube
# Gamma : Canon Log 2 to DCI
# Range : Full in / Full out
# Version : 2.0 2016/10/27
# Copyright(c) 2016 Canon Inc. All Rights Reserved.

LUT_1D_SIZE 4096
0.000000 0.000000 0.000000
0.000000 0.000000 0.000000
0.000000 0.000000 0.000000
0.000000 0.000000 0.000000
0.000000 0.000000 0.000000
0.000000 0.000000 0.000000
0.000000 0.000000 0.000000
0.000000 0.000000 0.000000
0.000000 0.000000 0.000000
0.000000 0.000000 0.000000
0.000000 0.000000 0.000000
0.000000 0.000000 0.000000
0.000000 0.000000 0.000000
0.000000 0.000000 0.000000
0.000000 0.000000 0.000000
0.000000 0.000000 0.000000
0.000000 0.000000 0.000000
0.000000 0.000000 0.000000
0.000000 0.000000 0.000000
0.000000 0.000000 0.000000
0.000000 0.000000 0.000000
0.000000 0.000000 0.000000
0.000000 0.000000 0.000000
0.000000 0.000000 0.000000
0.000000 0.000000 0.000000
0.000000 0.000000 0.000000
0.000000 0.000000 0.000000
0.000000 0.000000 0.000000
0.000000 0.000000 0.000000
0.000000 0.000000 0.000000
0.000000 0.000000 0.000000
0.000000 0.000000 0.000000
0.000000 0.000000 0.000000
0.000000 0.000000 0.000000
0.000000 0.000000 0.000000
0.000000 0.000000 0.000000
0.000000 0.000000 0.000000
0.000000 0.000000 0.000000
0.000000 0.000000 0.000000
0.000000 0.000000 0.000000
0.000000 0.000000 0.000000
0.000000 0.000000 0.000000
0.000000 0.000000 0.000000
0.000000 0.000000 0.000000
0.000000 0.000000 0.000000
0.000000 0.000000 0.000000
0.000000 0.000000 0.000000
0.000000 0.000000 0.000000
0.000000 0.000000 0.000000
0.000000 0.000000 0.000000
0.000000 0.000000 0.000000
0.000000 0.000000 0.000000
0.000000 0.000000 0.000000
0.000000 0.000000 0.000000
0.000000 0.000000 0.000000
0.000000 0.000000 0.000000
0.000000 0.000000 0.000000
0.000000 0.000000 0.000000
0.000000 0.000000 0.000000
0.000000 0.000000 0.000000
0.000000 0.000000 0.000000
0.000000 0.000000 0.000000
0.000000 0.000000 0.000000
0.000000 0.000000 0.000000
0.000000 0.000000 0.000000
0.000000 0.000000 0.000000
0.000000 0.000000 0.000000
0.000000 0.000000 0.000000
0.000000 0.000000 0.000000
0.000000 0.000000 0.000000
0.000000 0.000000 0.000000
0.000000 0.000000 0.000000
0.000000 0.000000 0.000000
0.000000 0.000000 0.000000
0.000000 0.000000 0.000000
0.000000 0.000000 0.000000
0.000000 0.000000 0.000000
0.000000 0.000000 0.000000
0.000000 0.000000 0.000000
0.000000 0.000000 0.000000
0.000000 0.000000 0.000000
0.000000 0.000000 0.000000
0.000000 0.000000 0.000000
0.000000 0.000000 0.000000
0.000000 0.000000 0.000000
0.000000 0.000000 0.000000
0.000000 0.000000 0.000000
0.000000 0.000000 0.000000
0.000000 0.000000 0.000000
0.000000 0.000000 0.000000
0.000000 0.000000 0.000000
0.000000 0.000000 0.000000
0.000000 0.000000 0.000000
0.000000 0.000000 0.000000
0.000000 0.000000 0.000000
0.000000 0.000000 0.000000
0.000000 0.000000 0.000000
0.000000 0.000000 0.000000
0.000000 0.000000 0.000000
0.000000 0.000000 0.000000
0.000000 0.000000 0.000000
0.000000 0.000000 0.000000
0.000000 0.000000 0.000000
0.000000 0.000000 0.000000
0.000000 0.000000 0.000000
0.000000 0.000000 0.000000
0.000000 0.000000 0.000000
0.000000 0.000000 0.000000
0.000000 0.000000 0.000000
0.000000 0.000000 0.000000
0.000000 0.000000 0.000000
0.000000 0.000000 0.000000
0.000000 0.000000 0.000000
0.000000 0.000000 0.000000
0.000000 0.000000 0.000000
0.000000 0.000000 0.000000
0.000000 0.000000 0.000000
0.000000 0.000000 0.000000
0.000000 0.000000 0.000000
0.000000 0.000000 0.000000
0.000000 0.000000 0.000000
0.000000 0.000000 0.000000
0.000000 0.000000 0.000000
0.000000 0.000000 0.000000
0.000000 0.000000 0.000000
0.000000 0.000000 0.000000
0.000000 0.000000 0.000000
0.000000 0.000000 0.000000
0.000000 0.000000 0.000000
0.000000 0.000000 0.000000
0.000000 0.000000 0.000000
0.000000 0.000000 0.000000
0.000000 0.000000 0.000000
0.000000 0.000000 0.000000
0.000000 0.000000 0.000000
0.000000 0.000000 0.000000
0.000000 0.000000 0.000000
0.000000 0.000000 0.000000
0.000000 0.000000 0.000000
0.000000 0.000000 0.000000
0.000000 0.000000 0.000000
0.000000 0.000000 0.000000
0.000000 0.000000 0.000000
0.000000 0.000000 0.000000
0.000000 0.000000 0.000000
0.000000 0.000000 0.000000
0.000000 0.000000 0.000000
0.000000 0.000000 0.000000
0.000000 0.000000 0.000000
0.000000 0.000000 0.000000
0.000000 0.000000 0.000000
0.000000 0.000000 0.000000
0.000000 0.000000 0.000000
0.000000 0.000000 0.000000
0.000000 0.000000 0.000000
0.000000 0.000000 0.000000
0.000000 0.000000 0.000000
0.000000 0.000000 0.000000
0.000000 0.000000 0.000000
0.000000 0.000000 0.000000
0.000000 0.000000 0.000000
0.000000 0.000000 0.000000
0.000000 0.000000 0.000000
0.000000 0.000000 0.000000
0.000000 0.000000 0.000000
0.000000 0.000000 0.000000
0.000000 0.000000 0.000000
0.000000 0.000000 0.000000
0.000000 0.000000 0.000000
0.000000 0.000000 0.000000
0.000000 0.000000 0.000000
0.000000 0.000000 0.000000
0.000000 0.000000 0.000000
0.000000 0.000000 0.000000
0.000000 0.000000 0.000000
0.000000 0.000000 0.000000
0.000000 0.000000 0.000000
0.000000 0.000000 0.000000
0.000000 0.000000 0.000000
0.000000 0.000000 0.000000
0.000000 0.000000 0.000000
0.000000 0.000000 0.000000
0.000000 0.000000 0.000000
0.000000 0.000000 0.000000
0.000000 0.000000 0.000000
0.000000 0.000000 0.000000
0.000000 0.000000 0.000000
0.000000 0.000000 0.000000
0.000000 0.000000 0.000000
0.000000 0.000000 0.000000
0.000000 0.000000 0.000000
0.000000 0.000000 0.000000
0.000000 0.000000 0.000000
0.000000 0.000000 0.000000
0.000000 0.000000 0.000000
0.000000 0.000000 0.000000
0.000000 0.000000 0.000000
0.000000 0.000000 0.000000
0.000000 0.000000 0.000000
0.000000 0.000000 0.000000
0.000000 0.000000 0.000000
0.000000 0.000000 0.000000
0.000000 0.000000 0.000000
0.000000 0.000000 0.000000
0.000000 0.000000 0.000000
0.000000 0.000000 0.000000
0.000000 0.000000 0.000000
0.000000 0.000000 0.000000
0.000000 0.000000 0.000000
0.000000 0.000000 0.000000
0.000000 0.000000 0.000000
0.000000 0.000000 0.000000
0.000000 0.000000 0.000000
0.000000 0.000000 0.000000
0.000000 0.000000 0.000000
0.000000 0.000000 0.000000
0.000000 0.000000 0.000000
0.000000 0.000000 0.000000
0.000000 0.000000 0.000000
0.000000 0.000000 0.000000
0.000000 0.000000 0.000000
0.000000 0.000000 0.000000
0.000000 0.000000 0.000000
0.000000 0.000000 0.000000
0.000000 0.000000 0.000000
0.000000 0.000000 0.000000
0.000000 0.000000 0.000000
0.000000 0.000000 0.000000
0.000000 0.000000 0.000000
0.000000 0.000000 0.000000
0.000000 0.000000 0.000000
0.000000 0.000000 0.000000
0.000000 0.000000 0.000000
0.000000 0.000000 0.000000
0.000000 0.000000 0.000000
0.000000 0.000000 0.000000
0.000000 0.000000 0.000000
0.000000 0.000000 0.000000
0.000000 0.000000 0.000000
0.000000 0.000000 0.000000
0.000000 0.000000 0.000000
0.000000 0.000000 0.000000
0.000000 0.000000 0.000000
0.000000 0.000000 0.000000
0.000000 0.000000 0.000000
0.000000 0.000000 0.000000
0.000000 0.000000 0.000000
0.000000 0.000000 0.000000
0.000000 0.000000 0.000000
0.000000 0.000000 0.000000
0.000000 0.000000 0.000000
0.000000 0.000000 0.000000
0.000000 0.000000 0.000000
0.000000 0.000000 0.000000
0.000000 0.000000 0.000000
0.000000 0.000000 0.000000
0.000000 0.000000 0.000000
0.000000 0.000000 0.000000
0.000000 0.000000 0.000000
0.000000 0.000000 0.000000
0.000000 0.000000 0.000000
0.000000 0.000000 0.000000
0.000000 0.000000 0.000000
0.000000 0.000000 0.000000
0.000000 0.000000 0.000000
0.000000 0.000000 0.000000
0.000000 0.000000 0.000000
0.000000 0.000000 0.000000
0.000000 0.000000 0.000000
0.000000 0.000000 0.000000
0.000000 0.000000 0.000000
0.000000 0.000000 0.000000
0.000000 0.000000 0.000000
0.000000 0.000000 0.000000
0.000000 0.000000 0.000000
0.000000 0.000000 0.000000
0.000000 0.000000 0.000000
0.000000 0.000000 0.000000
0.000000 0.000000 0.000000
0.000000 0.000000 0.000000
0.000000 0.000000 0.000000
0.000000 0.000000 0.000000
0.000000 0.000000 0.000000
0.000000 0.000000 0.000000
0.000000 0.000000 0.000000
0.000000 0.000000 0.000000
0.000000 0.000000 0.000000
0.000000 0.000000 0.000000
0.000000 0.000000 0.000000
0.000000 0.000000 0.000000
0.000000 0.000000 0.000000
0.000000 0.000000 0.000000
0.000000 0.000000 0.000000
0.000000 0.000000 0.000000
0.000000 0.000000 0.000000
0.000000 0.000000 0.000000
0.000000 0.000000 0.000000
0.000000 0.000000 0.000000
0.000000 0.000000 0.000000
0.000000 0.000000 0.000000
0.000000 0.000000 0.000000
0.000000 0.000000 0.000000
0.000000 0.000000 0.000000
0.000000 0.000000 0.000000
0.000000 0.000000 0.000000
0.000000 0.000000 0.000000
0.000000 0.000000 0.000000
0.000000 0.000000 0.000000
0.000000 0.000000 0.000000
0.000000 0.000000 0.000000
0.000000 0.000000 0.000000
0.000000 0.000000 0.000000
0.000000 0.000000 0.000000
0.000000 0.000000 0.000000
0.000000 0.000000 0.000000
0.000000 0.000000 0.000000
0.000000 0.000000 0.000000
0.000000 0.000000 0.000000
0.000000 0.000000 0.000000
0.000000 0.000000 0.000000
0.000000 0.000000 0.000000
0.000000 0.000000 0.000000
0.000000 0.000000 0.000000
0.000000 0.000000 0.000000
0.000000 0.000000 0.000000
0.000000 0.000000 0.000000
0.000000 0.000000 0.000000
0.000000 0.000000 0.000000
0.000000 0.000000 0.000000
0.000000 0.000000 0.000000
0.000000 0.000000 0.000000
0.000000 0.000000 0.000000
0.000000 0.000000 0.000000
0.000000 0.000000 0.000000
0.000000 0.000000 0.000000
0.000000 0.000000 0.000000
0.000000 0.000000 0.000000
0.000000 0.000000 0.000000
0.000000 0.000000 0.000000
0.000000 0.000000 0.000000
0.000000 0.000000 0.000000
0.000000 0.000000 0.000000
0.000000 0.000000 0.000000
0.000000 0.000000 0.000000
0.000000 0.000000 0.000000
0.000000 0.000000 0.000000
0.000000 0.000000 0.000000
0.000000 0.000000 0.000000
0.000000 0.000000 0.000000
0.000000 0.000000 0.000000
0.000000 0.000000 0.000000
0.000000 0.000000 0.000000
0.000000 0.000000 0.000000
0.000000 0.000000 0.000000
0.000000 0.000000 0.000000
0.000000 0.000000 0.000000
0.000000 0.000000 0.000000
0.000000 0.000000 0.000000
0.000000 0.000000 0.000000
0.000000 0.000000 0.000000
0.000000 0.000000 0.000000
0.000000 0.000000 0.000000
0.000000 0.000000 0.000000
0.000000 0.000000 0.000000
0.000000 0.000000 0.000000
0.000000 0.000000 0.000000
0.000000 0.000000 0.000000
0.000000 0.000000 0.000000
0.000000 0.000000 0.000000
0.000000 0.000000 0.000000
0.000000 0.000000 0.000000
0.000000 0.000000 0.000000
0.000000 0.000000 0.000000
0.000000 0.000000 0.000000
0.000000 0.000000 0.000000
0.000000 0.000000 0.000000
0.000000 0.000000 0.000000
0.000000 0.000000 0.000000
0.000000 0.000000 0.000000
0.000000 0.000000 0.000000
0.000000 0.000000 0.000000
0.000091 0.000091 0.000091
0.000217 0.000217 0.000217
0.000343 0.000343 0.000343
0.000469 0.000469 0.000469
0.000596 0.000596 0.000596
0.000723 0.000723 0.000723
0.000850 0.000850 0.000850
0.000978 0.000978 0.000978
0.001106 0.001106 0.001106
0.001234 0.001234 0.001234
0.001363 0.001363 0.001363
0.001492 0.001492 0.001492
0.001621 0.001621 0.001621
0.001750 0.001750 0.001750
0.001880 0.001880 0.001880
0.002010 0.002010 0.002010
0.002141 0.002141 0.002141
0.002271 0.002271 0.002271
0.002402 0.002402 0.002402
0.002533 0.002533 0.002533
0.002665 0.002665 0.002665
0.002797 0.002797 0.002797
0.002929 0.002929 0.002929
0.003062 0.003062 0.003062
0.003194 0.003194 0.003194
0.003328 0.003328 0.003328
0.003461 0.003461 0.003461
0.003595 0.003595 0.003595
0.003729 0.003729 0.003729
0.003863 0.003863 0.003863
0.003998 0.003998 0.003998
0.004133 0.004133 0.004133
0.004268 0.004268 0.004268
0.004404 0.004404 0.004404
0.004540 0.004540 0.004540
0.004676 0.004676 0.004676
0.004813 0.004813 0.004813
0.004950 0.004950 0.004950
0.005087 0.005087 0.005087
0.005224 0.005224 0.005224
0.005362 0.005362 0.005362
0.005500 0.005500 0.005500
0.005639 0.005639 0.005639
0.005778 0.005778 0.005778
0.005917 0.005917 0.005917
0.006056 0.006056 0.006056
0.006196 0.006196 0.006196
0.006336 0.006336 0.006336
0.006477 0.006477 0.006477
0.006618 0.006618 0.006618
0.006759 0.006759 0.006759
0.006900 0.006900 0.006900
0.007042 0.007042 0.007042
0.007184 0.007184 0.007184
0.007326 0.007326 0.007326
0.007469 0.007469 0.007469
0.007612 0.007612 0.007612
0.007756 0.007756 0.007756
0.007899 0.007899 0.007899
0.008044 0.008044 0.008044
0.008188 0.008188 0.008188
0.008333 0.008333 0.008333
0.008478 0.008478 0.008478
0.008623 0.008623 0.008623
0.008769 0.008769 0.008769
0.008915 0.008915 0.008915
0.009062 0.009062 0.009062
0.009209 0.009209 0.009209
0.009356 0.009356 0.009356
0.009503 0.009503 0.009503
0.009651 0.009651 0.009651
0.009799 0.009799 0.009799
0.009948 0.009948 0.009948
0.010097 0.010097 0.010097
0.010246 0.010246 0.010246
0.010395 0.010395 0.010395
0.010545 0.010545 0.010545
0.010696 0.010696 0.010696
0.010846 0.010846 0.010846
0.010997 0.010997 0.010997
0.011149 0.011149 0.011149
0.011300 0.011300 0.011300
0.011452 0.011452 0.011452
0.011605 0.011605 0.011605
0.011757 0.011757 0.011757
0.011911 0.011911 0.011911
0.012064 0.012064 0.012064
0.012218 0.012218 0.012218
0.012372 0.012372 0.012372
0.012527 0.012527 0.012527
0.012681 0.012681 0.012681
0.012837 0.012837 0.012837
0.012992 0.012992 0.012992
0.013148 0.013148 0.013148
0.013305 0.013305 0.013305
0.013461 0.013461 0.013461
0.013618 0.013618 0.013618
0.013776 0.013776 0.013776
0.013934 0.013934 0.013934
0.014092 0.014092 0.014092
0.014250 0.014250 0.014250
0.014409 0.014409 0.014409
0.014569 0.014569 0.014569
0.014728 0.014728 0.014728
0.014888 0.014888 0.014888
0.015049 0.015049 0.015049
0.015209 0.015209 0.015209
0.015371 0.015371 0.015371
0.015532 0.015532 0.015532
0.015694 0.015694 0.015694
0.015856 0.015856 0.015856
0.016019 0.016019 0.016019
0.016182 0.016182 0.016182
0.016345 0.016345 0.016345
0.016509 0.016509 0.016509
0.016673 0.016673 0.016673
0.016838 0.016838 0.016838
0.017003 0.017003 0.017003
0.017168 0.017168 0.017168
0.017334 0.017334 0.017334
0.017500 0.017500 0.017500
0.017667 0.017667 0.017667
0.017834 0.017834 0.017834
0.018001 0.018001 0.018001
0.018168 0.018168 0.018168
0.018337 0.018337 0.018337
0.018505 0.018505 0.018505
0.018674 0.018674 0.018674
0.018843 0.018843 0.018843
0.019013 0.019013 0.019013
0.019183 0.019183 0.019183
0.019353 0.019353 0.019353
0.019524 0.019524 0.019524
0.019695 0.019695 0.019695
0.019867 0.019867 0.019867
0.020039 0.020039 0.020039
0.020211 0.020211 0.020211
0.020384 0.020384 0.020384
0.020557 0.020557 0.020557
0.020731 0.020731 0.020731
0.020905 0.020905 0.020905
0.021079 0.021079 0.021079
0.021254 0.021254 0.021254
0.021429 0.021429 0.021429
0.021605 0.021605 0.021605
0.021781 0.021781 0.021781
0.021958 0.021958 0.021958
0.022135 0.022135 0.022135
0.022312 0.022312 0.022312
0.022490 0.022490 0.022490
0.022668 0.022668 0.022668
0.022846 0.022846 0.022846
0.023025 0.023025 0.023025
0.023205 0.023205 0.023205
0.023384 0.023384 0.023384
0.023565 0.023565 0.023565
0.023745 0.023745 0.023745
0.023926 0.023926 0.023926
0.024108 0.024108 0.024108
0.024290 0.024290 0.024290
0.024472 0.024472 0.024472
0.024655 0.024655 0.024655
0.024838 0.024838 0.024838
0.025022 0.025022 0.025022
0.025206 0.025206 0.025206
0.025390 0.025390 0.025390
0.025575 0.025575 0.025575
0.025760 0.025760 0.025760
0.025946 0.025946 0.025946
0.026132 0.026132 0.026132
0.026319 0.026319 0.026319
0.026506 0.026506 0.026506
0.026693 0.026693 0.026693
0.026881 0.026881 0.026881
0.027070 0.027070 0.027070
0.027259 0.027259 0.027259
0.027448 0.027448 0.027448
0.027638 0.027638 0.027638
0.027828 0.027828 0.027828
0.028018 0.028018 0.028018
0.028209 0.028209 0.028209
0.028401 0.028401 0.028401
0.028593 0.028593 0.028593
0.028785 0.028785 0.028785
0.028978 0.028978 0.028978
0.029171 0.029171 0.029171
0.029365 0.029365 0.029365
0.029559 0.029559 0.029559
0.029754 0.029754 0.029754
0.029949 0.029949 0.029949
0.030144 0.030144 0.030144
0.030340 0.030340 0.030340
0.030537 0.030537 0.030537
0.030734 0.030734 0.030734
0.030931 0.030931 0.030931
0.031129 0.031129 0.031129
0.031327 0.031327 0.031327
0.031526 0.031526 0.031526
0.031725 0.031725 0.031725
0.031925 0.031925 0.031925
0.032125 0.032125 0.032125
0.032325 0.032325 0.032325
0.032527 0.032527 0.032527
0.032728 0.032728 0.032728
0.032930 0.032930 0.032930
0.033133 0.033133 0.033133
0.033336 0.033336 0.033336
0.033539 0.033539 0.033539
0.033743 0.033743 0.033743
0.033947 0.033947 0.033947
0.034152 0.034152 0.034152
0.034357 0.034357 0.034357
0.034563 0.034563 0.034563
0.034770 0.034770 0.034770
0.034976 0.034976 0.034976
0.035184 0.035184 0.035184
0.035391 0.035391 0.035391
0.035600 0.035600 0.035600
0.035808 0.035808 0.035808
0.036017 0.036017 0.036017
0.036227 0.036227 0.036227
0.036437 0.036437 0.036437
0.036648 0.036648 0.036648
0.036859 0.036859 0.036859
0.037071 0.037071 0.037071
0.037283 0.037283 0.037283
0.037496 0.037496 0.037496
0.037709 0.037709 0.037709
0.037922 0.037922 0.037922
0.038136 0.038136 0.038136
0.038351 0.038351 0.038351
0.038566 0.038566 0.038566
0.038782 0.038782 0.038782
0.038998 0.038998 0.038998
0.039215 0.039215 0.039215
0.039432 0.039432 0.039432
0.039649 0.039649 0.039649
0.039868 0.039868 0.039868
0.040086 0.040086 0.040086
0.040305 0.040305 0.040305
0.040525 0.040525 0.040525
0.040745 0.040745 0.040745
0.040966 0.040966 0.040966
0.041187 0.041187 0.041187
0.041409 0.041409 0.041409
0.041631 0.041631 0.041631
0.041854 0.041854 0.041854
0.042077 0.042077 0.042077
0.042301 0.042301 0.042301
0.042525 0.042525 0.042525
0.042750 0.042750 0.042750
0.042976 0.042976 0.042976
0.043202 0.043202 0.043202
0.043428 0.043428 0.043428
0.043655 0.043655 0.043655
0.043883 0.043883 0.043883
0.044111 0.044111 0.044111
0.044339 0.044339 0.044339
0.044568 0.044568 0.044568
0.044798 0.044798 0.044798
0.045028 0.045028 0.045028
0.045259 0.045259 0.045259
0.045490 0.045490 0.045490
0.045722 0.045722 0.045722
0.045954 0.045954 0.045954
0.046187 0.046187 0.046187
0.046420 0.046420 0.046420
0.046654 0.046654 0.046654
0.046889 0.046889 0.046889
0.047124 0.047124 0.047124
0.047359 0.047359 0.047359
0.047596 0.047596 0.047596
0.047832 0.047832 0.047832
0.048069 0.048069 0.048069
0.048307 0.048307 0.048307
0.048546 0.048546 0.048546
0.048784 0.048784 0.048784
0.049024 0.049024 0.049024
0.049264 0.049264 0.049264
0.049505 0.049505 0.049505
0.049746 0.049746 0.049746
0.049987 0.049987 0.049987
0.050230 0.050230 0.050230
0.050473 0.050473 0.050473
0.050716 0.050716 0.050716
0.050960 0.050960 0.050960
0.051204 0.051204 0.051204
0.051450 0.051450 0.051450
0.051695 0.051695 0.051695
0.051941 0.051941 0.051941
0.052188 0.052188 0.052188
0.052436 0.052436 0.052436
0.052684 0.052684 0.052684
0.052932 0.052932 0.052932
0.053181 0.053181 0.053181
0.053431 0.053431 0.053431
0.053681 0.053681 0.053681
0.053932 0.053932 0.053932
0.054184 0.054184 0.054184
0.054436 0.054436 0.054436
0.054688 0.054688 0.054688
0.054942 0.054942 0.054942
0.055195 0.055195 0.055195
0.055450 0.055450 0.055450
0.055705 0.055705 0.055705
0.055961 0.055961 0.055961
0.056217 0.056217 0.056217
0.056474 0.056474 0.056474
0.056731 0.056731 0.056731
0.056989 0.056989 0.056989
0.057248 0.057248 0.057248
0.057507 0.057507 0.057507
0.057767 0.057767 0.057767
0.058027 0.058027 0.058027
0.058288 0.058288 0.058288
0.058550 0.058550 0.058550
0.058812 0.058812 0.058812
0.059075 0.059075 0.059075
0.059338 0.059338 0.059338
0.059602 0.059602 0.059602
0.059867 0.059867 0.059867
0.060132 0.060132 0.060132
0.060398 0.060398 0.060398
0.060665 0.060665 0.060665
0.060932 0.060932 0.060932
0.061200 0.061200 0.061200
0.061468 0.061468 0.061468
0.061737 0.061737 0.061737
0.062007 0.062007 0.062007
0.062277 0.062277 0.062277
0.062548 0.062548 0.062548
0.062820 0.062820 0.062820
0.063092 0.063092 0.063092
0.063365 0.063365 0.063365
0.063638 0.063638 0.063638
0.063912 0.063912 0.063912
0.064187 0.064187 0.064187
0.064462 0.064462 0.064462
0.064738 0.064738 0.064738
0.065015 0.065015 0.065015
0.065292 0.065292 0.065292
0.065570 0.065570 0.065570
0.065849 0.065849 0.065849
0.066128 0.066128 0.066128
0.066408 0.066408 0.066408
0.066689 0.066689 0.066689
0.066970 0.066970 0.066970
0.067252 0.067252 0.067252
0.067534 0.067534 0.067534
0.067818 0.067818 0.067818
0.068101 0.068101 0.068101
0.068386 0.068386 0.068386
0.068671 0.068671 0.068671
0.068957 0.068957 0.068957
0.069243 0.069243 0.069243
0.069531 0.069531 0.069531
0.069818 0.069818 0.069818
0.070107 0.070107 0.070107
0.070396 0.070396 0.070396
0.070686 0.070686 0.070686
0.070977 0.070977 0.070977
0.071268 0.071268 0.071268
0.071560 0.071560 0.071560
0.071852 0.071852 0.071852
0.072146 0.072146 0.072146
0.072440 0.072440 0.072440
0.072734 0.072734 0.072734
0.073030 0.073030 0.073030
0.073326 0.073326 0.073326
0.073622 0.073622 0.073622
0.073920 0.073920 0.073920
0.074218 0.074218 0.074218
0.074516 0.074516 0.074516
0.074816 0.074816 0.074816
0.075116 0.075116 0.075116
0.075417 0.075417 0.075417
0.075719 0.075719 0.075719
0.076021 0.076021 0.076021
0.076324 0.076324 0.076324
0.076628 0.076628 0.076628
0.076932 0.076932 0.076932
0.077237 0.077237 0.077237
0.077543 0.077543 0.077543
0.077849 0.077849 0.077849
0.078157 0.078157 0.078157
0.078465 0.078465 0.078465
0.078773 0.078773 0.078773
0.079083 0.079083 0.079083
0.079393 0.079393 0.079393
0.079704 0.079704 0.079704
0.080015 0.080015 0.080015
0.080328 0.080328 0.080328
0.080641 0.080641 0.080641
0.080954 0.080954 0.080954
0.081269 0.081269 0.081269
0.081584 0.081584 0.081584
0.081900 0.081900 0.081900
0.082217 0.082217 0.082217
0.082534 0.082534 0.082534
0.082852 0.082852 0.082852
0.083171 0.083171 0.083171
0.083491 0.083491 0.083491
0.083811 0.083811 0.083811
0.084133 0.084133 0.084133
0.084455 0.084455 0.084455
0.084777 0.084777 0.084777
0.085101 0.085101 0.085101
0.085425 0.085425 0.085425
0.085750 0.085750 0.085750
0.086075 0.086075 0.086075
0.086402 0.086402 0.086402
0.086729 0.086729 0.086729
0.087057 0.087057 0.087057
0.087386 0.087386 0.087386
0.087715 0.087715 0.087715
0.088045 0.088045 0.088045
0.088377 0.088377 0.088377
0.088708 0.088708 0.088708
0.089041 0.089041 0.089041
0.089374 0.089374 0.089374
0.089708 0.089708 0.089708
0.090043 0.090043 0.090043
0.090379 0.090379 0.090379
0.090715 0.090715 0.090715
0.091053 0.091053 0.091053
0.091391 0.091391 0.091391
0.091730 0.091730 0.091730
0.092069 0.092069 0.092069
0.092410 0.092410 0.092410
0.092751 0.092751 0.092751
0.093093 0.093093 0.093093
0.093436 0.093436 0.093436
0.093779 0.093779 0.093779
0.094124 0.094124 0.094124
0.094469 0.094469 0.094469
0.094815 0.094815 0.094815
0.095162 0.095162 0.095162
0.095509 0.095509 0.095509
0.095858 0.095858 0.095858
0.096207 0.096207 0.096207
0.096557 0.096557 0.096557
0.096908 0.096908 0.096908
0.097260 0.097260 0.097260
0.097612 0.097612 0.097612
0.097966 0.097966 0.097966
0.098320 0.098320 0.098320
0.098675 0.098675 0.098675
0.099031 0.099031 0.099031
0.099387 0.099387 0.099387
0.099745 0.099745 0.099745
0.100103 0.100103 0.100103
0.100462 0.100462 0.100462
0.100822 0.100822 0.100822
0.101183 0.101183 0.101183
0.101545 0.101545 0.101545
0.101907 0.101907 0.101907
0.102271 0.102271 0.102271
0.102635 0.102635 0.102635
0.103000 0.103000 0.103000
0.103366 0.103366 0.103366
0.103732 0.103732 0.103732
0.104098 0.104098 0.104098
0.104464 0.104464 0.104464
0.104831 0.104831 0.104831
0.105197 0.105197 0.105197
0.105563 0.105563 0.105563
0.105930 0.105930 0.105930
0.106296 0.106296 0.106296
0.106663 0.106663 0.106663
0.107030 0.107030 0.107030
0.107396 0.107396 0.107396
0.107763 0.107763 0.107763
0.108130 0.108130 0.108130
0.108497 0.108497 0.108497
0.108864 0.108864 0.108864
0.109231 0.109231 0.109231
0.109598 0.109598 0.109598
0.109965 0.109965 0.109965
0.110333 0.110333 0.110333
0.110700 0.110700 0.110700
0.111067 0.111067 0.111067
0.111435 0.111435 0.111435
0.111802 0.111802 0.111802
0.112170 0.112170 0.112170
0.112538 0.112538 0.112538
0.112905 0.112905 0.112905
0.113273 0.113273 0.113273
0.113641 0.113641 0.113641
0.114009 0.114009 0.114009
0.114377 0.114377 0.114377
0.114746 0.114746 0.114746
0.115114 0.115114 0.115114
0.115482 0.115482 0.115482
0.115851 0.115851 0.115851
0.116219 0.116219 0.116219
0.116588 0.116588 0.116588
0.116956 0.116956 0.116956
0.117325 0.117325 0.117325
0.117694 0.117694 0.117694
0.118063 0.118063 0.118063
0.118432 0.118432 0.118432
0.118801 0.118801 0.118801
