Luts Download/Canon Luts/1dlut/canonlog2-to-gamma-1dlut/full-to-full-range/CanonLog2_12-to-WideDR_FF_Ver.2.0.cube
# Gamma : Canon Log 2 to Wide DR
# Range : Full in / Full out
# Version : 2.0 2016/10/27
# Copyright(c) 2016 Canon Inc. All Rights Reserved.

LUT_1D_SIZE 4096
0.000000 0.000000 0.000000
0.000000 0.000000 0.000000
0.000000 0.000000 0.000000
0.000000 0.000000 0.000000
0.000000 0.000000 0.000000
0.000000 0.000000 0.000000
0.000000 0.000000 0.000000
0.000000 0.000000 0.000000
0.000000 0.000000 0.000000
0.000000 0.000000 0.000000
0.000000 0.000000 0.000000
0.000000 0.000000 0.000000
0.000000 0.000000 0.000000
0.000000 0.000000 0.000000
0.000000 0.000000 0.000000
0.000000 0.000000 0.000000
0.000000 0.000000 0.000000
0.000000 0.000000 0.000000
0.000000 0.000000 0.000000
0.000000 0.000000 0.000000
0.000000 0.000000 0.000000
0.000000 0.000000 0.000000
0.000000 0.000000 0.000000
0.000000 0.000000 0.000000
0.000000 0.000000 0.000000
0.000000 0.000000 0.000000
0.000000 0.000000 0.000000
0.000000 0.000000 0.000000
0.000000 0.000000 0.000000
0.000000 0.000000 0.000000
0.000000 0.000000 0.000000
0.000000 0.000000 0.000000
0.000000 0.000000 0.000000
0.000000 0.000000 0.000000
0.000000 0.000000 0.000000
0.000000 0.000000 0.000000
0.000000 0.000000 0.000000
0.000000 0.000000 0.000000
0.000000 0.000000 0.000000
0.000000 0.000000 0.000000
0.000000 0.000000 0.000000
0.000000 0.000000 0.000000
0.000000 0.000000 0.000000
0.000000 0.000000 0.000000
0.000000 0.000000 0.000000
0.000000 0.000000 0.000000
0.000000 0.000000 0.000000
0.000000 0.000000 0.000000
0.000000 0.000000 0.000000
0.000000 0.000000 0.000000
0.000000 0.000000 0.000000
0.000000 0.000000 0.000000
0.000000 0.000000 0.000000
0.000000 0.000000 0.000000
0.000000 0.000000 0.000000
0.000000 0.000000 0.000000
0.000000 0.000000 0.000000
0.000000 0.000000 0.000000
0.000000 0.000000 0.000000
0.000000 0.000000 0.000000
0.000000 0.000000 0.000000
0.000000 0.000000 0.000000
0.000000 0.000000 0.000000
0.000000 0.000000 0.000000
0.000000 0.000000 0.000000
0.000000 0.000000 0.000000
0.000000 0.000000 0.000000
0.000000 0.000000 0.000000
0.000000 0.000000 0.000000
0.000000 0.000000 0.000000
0.000000 0.000000 0.000000
0.000000 0.000000 0.000000
0.000000 0.000000 0.000000
0.000000 0.000000 0.000000
0.000000 0.000000 0.000000
0.000000 0.000000 0.000000
0.000000 0.000000 0.000000
0.000000 0.000000 0.000000
0.000000 0.000000 0.000000
0.000000 0.000000 0.000000
0.000000 0.000000 0.000000
0.000000 0.000000 0.000000
0.000000 0.000000 0.000000
0.000000 0.000000 0.000000
0.000000 0.000000 0.000000
0.000000 0.000000 0.000000
0.000000 0.000000 0.000000
0.000000 0.000000 0.000000
0.000000 0.000000 0.000000
0.000000 0.000000 0.000000
0.000000 0.000000 0.000000
0.000000 0.000000 0.000000
0.000000 0.000000 0.000000
0.000000 0.000000 0.000000
0.000000 0.000000 0.000000
0.000000 0.000000 0.000000
0.000000 0.000000 0.000000
0.000000 0.000000 0.000000
0.000000 0.000000 0.000000
0.000000 0.000000 0.000000
0.000000 0.000000 0.000000
0.000000 0.000000 0.000000
0.000000 0.000000 0.000000
0.000000 0.000000 0.000000
0.000000 0.000000 0.000000
0.000000 0.000000 0.000000
0.000000 0.000000 0.000000
0.000000 0.000000 0.000000
0.000000 0.000000 0.000000
0.000000 0.000000 0.000000
0.000000 0.000000 0.000000
0.000000 0.000000 0.000000
0.000000 0.000000 0.000000
0.000000 0.000000 0.000000
0.000000 0.000000 0.000000
0.000000 0.000000 0.000000
0.000000 0.000000 0.000000
0.000000 0.000000 0.000000
0.000000 0.000000 0.000000
0.000000 0.000000 0.000000
0.000000 0.000000 0.000000
0.000000 0.000000 0.000000
0.000000 0.000000 0.000000
0.000000 0.000000 0.000000
0.000000 0.000000 0.000000
0.000000 0.000000 0.000000
0.000000 0.000000 0.000000
0.000000 0.000000 0.000000
0.000000 0.000000 0.000000
0.000000 0.000000 0.000000
0.000000 0.000000 0.000000
0.000000 0.000000 0.000000
0.000000 0.000000 0.000000
0.000000 0.000000 0.000000
0.000000 0.000000 0.000000
0.000000 0.000000 0.000000
0.000000 0.000000 0.000000
0.000000 0.000000 0.000000
0.000000 0.000000 0.000000
0.000000 0.000000 0.000000
0.000000 0.000000 0.000000
0.000000 0.000000 0.000000
0.000000 0.000000 0.000000
0.000000 0.000000 0.000000
0.000000 0.000000 0.000000
0.000000 0.000000 0.000000
0.000000 0.000000 0.000000
0.000000 0.000000 0.000000
0.000000 0.000000 0.000000
0.000000 0.000000 0.000000
0.000000 0.000000 0.000000
0.000000 0.000000 0.000000
0.000000 0.000000 0.000000
0.000000 0.000000 0.000000
0.000000 0.000000 0.000000
0.000000 0.000000 0.000000
0.000000 0.000000 0.000000
0.000000 0.000000 0.000000
0.000000 0.000000 0.000000
0.000000 0.000000 0.000000
0.000000 0.000000 0.000000
0.000000 0.000000 0.000000
0.000000 0.000000 0.000000
0.000000 0.000000 0.000000
0.000000 0.000000 0.000000
0.000000 0.000000 0.000000
0.000000 0.000000 0.000000
0.000000 0.000000 0.000000
0.000000 0.000000 0.000000
0.000000 0.000000 0.000000
0.000000 0.000000 0.000000
0.000000 0.000000 0.000000
0.000000 0.000000 0.000000
0.000000 0.000000 0.000000
0.000000 0.000000 0.000000
0.000000 0.000000 0.000000
0.000000 0.000000 0.000000
0.000000 0.000000 0.000000
0.000000 0.000000 0.000000
0.000000 0.000000 0.000000
0.000000 0.000000 0.000000
0.000000 0.000000 0.000000
0.000000 0.000000 0.000000
0.000000 0.000000 0.000000
0.000000 0.000000 0.000000
0.000000 0.000000 0.000000
0.000000 0.000000 0.000000
0.000000 0.000000 0.000000
0.000000 0.000000 0.000000
0.000000 0.000000 0.000000
0.000000 0.000000 0.000000
0.000000 0.000000 0.000000
0.000000 0.000000 0.000000
0.000000 0.000000 0.000000
0.000000 0.000000 0.000000
0.000000 0.000000 0.000000
0.000000 0.000000 0.000000
0.000000 0.000000 0.000000
0.000000 0.000000 0.000000
0.000000 0.000000 0.000000
0.000000 0.000000 0.000000
0.000000 0.000000 0.000000
0.000000 0.000000 0.000000
0.000000 0.000000 0.000000
0.000000 0.000000 0.000000
0.000000 0.000000 0.000000
0.000000 0.000000 0.000000
0.000000 0.000000 0.000000
0.000000 0.000000 0.000000
0.000000 0.000000 0.000000
0.000000 0.000000 0.000000
0.000000 0.000000 0.000000
0.000000 0.000000 0.000000
0.000000 0.000000 0.000000
0.000000 0.000000 0.000000
0.000000 0.000000 0.000000
0.000000 0.000000 0.000000
0.000000 0.000000 0.000000
0.000000 0.000000 0.000000
0.000000 0.000000 0.000000
0.000000 0.000000 0.000000
0.000000 0.000000 0.000000
0.000000 0.000000 0.000000
0.000000 0.000000 0.000000
0.000000 0.000000 0.000000
0.000000 0.000000 0.000000
0.000000 0.000000 0.000000
0.000000 0.000000 0.000000
0.000000 0.000000 0.000000
0.000000 0.000000 0.000000
0.000000 0.000000 0.000000
0.000000 0.000000 0.000000
0.000000 0.000000 0.000000
0.000000 0.000000 0.000000
0.000000 0.000000 0.000000
0.000000 0.000000 0.000000
0.000000 0.000000 0.000000
0.000000 0.000000 0.000000
0.000000 0.000000 0.000000
0.000000 0.000000 0.000000
0.000000 0.000000 0.000000
0.000000 0.000000 0.000000
0.000000 0.000000 0.000000
0.000000 0.000000 0.000000
0.000000 0.000000 0.000000
0.000000 0.000000 0.000000
0.000000 0.000000 0.000000
0.000000 0.000000 0.000000
0.000000 0.000000 0.000000
0.000000 0.000000 0.000000
0.000000 0.000000 0.000000
0.000000 0.000000 0.000000
0.000000 0.000000 0.000000
0.000000 0.000000 0.000000
0.000000 0.000000 0.000000
0.000000 0.000000 0.000000
0.000000 0.000000 0.000000
0.000000 0.000000 0.000000
0.000000 0.000000 0.000000
0.000000 0.000000 0.000000
0.000000 0.000000 0.000000
0.000000 0.000000 0.000000
0.000000 0.000000 0.000000
0.000000 0.000000 0.000000
0.000000 0.000000 0.000000
0.000000 0.000000 0.000000
0.000000 0.000000 0.000000
0.000000 0.000000 0.000000
0.000000 0.000000 0.000000
0.000000 0.000000 0.000000
0.000000 0.000000 0.000000
0.000000 0.000000 0.000000
0.000000 0.000000 0.000000
0.000000 0.000000 0.000000
0.000000 0.000000 0.000000
0.000000 0.000000 0.000000
0.000000 0.000000 0.000000
0.000000 0.000000 0.000000
0.000000 0.000000 0.000000
0.000000 0.000000 0.000000
0.000000 0.000000 0.000000
0.000000 0.000000 0.000000
0.000000 0.000000 0.000000
0.000000 0.000000 0.000000
0.000000 0.000000 0.000000
0.000000 0.000000 0.000000
0.000000 0.000000 0.000000
0.000000 0.000000 0.000000
0.000000 0.000000 0.000000
0.000000 0.000000 0.000000
0.000000 0.000000 0.000000
0.000000 0.000000 0.000000
0.000000 0.000000 0.000000
0.000000 0.000000 0.000000
0.000000 0.000000 0.000000
0.000000 0.000000 0.000000
0.000000 0.000000 0.000000
0.000000 0.000000 0.000000
0.000000 0.000000 0.000000
0.000000 0.000000 0.000000
0.000000 0.000000 0.000000
0.000000 0.000000 0.000000
0.000000 0.000000 0.000000
0.000000 0.000000 0.000000
0.000000 0.000000 0.000000
0.000000 0.000000 0.000000
0.000000 0.000000 0.000000
0.000000 0.000000 0.000000
0.000000 0.000000 0.000000
0.000000 0.000000 0.000000
0.000000 0.000000 0.000000
0.000000 0.000000 0.000000
0.000000 0.000000 0.000000
0.000000 0.000000 0.000000
0.000000 0.000000 0.000000
0.000000 0.000000 0.000000
0.000000 0.000000 0.000000
0.000000 0.000000 0.000000
0.000000 0.000000 0.000000
0.000000 0.000000 0.000000
0.000000 0.000000 0.000000
0.000000 0.000000 0.000000
0.000000 0.000000 0.000000
0.000000 0.000000 0.000000
0.000000 0.000000 0.000000
0.000000 0.000000 0.000000
0.000000 0.000000 0.000000
0.000000 0.000000 0.000000
0.000000 0.000000 0.000000
0.000000 0.000000 0.000000
0.000000 0.000000 0.000000
0.000000 0.000000 0.000000
0.000000 0.000000 0.000000
0.000000 0.000000 0.000000
0.000000 0.000000 0.000000
0.000000 0.000000 0.000000
0.000000 0.000000 0.000000
0.000000 0.000000 0.000000
0.000000 0.000000 0.000000
0.000000 0.000000 0.000000
0.000000 0.000000 0.000000
0.000000 0.000000 0.000000
0.000000 0.000000 0.000000
0.000000 0.000000 0.000000
0.000000 0.000000 0.000000
0.000000 0.000000 0.000000
0.000000 0.000000 0.000000
0.000000 0.000000 0.000000
0.000000 0.000000 0.000000
0.000000 0.000000 0.000000
0.000000 0.000000 0.000000
0.000000 0.000000 0.000000
0.000000 0.000000 0.000000
0.000000 0.000000 0.000000
0.000000 0.000000 0.000000
0.000000 0.000000 0.000000
0.000000 0.000000 0.000000
0.000000 0.000000 0.000000
0.000000 0.000000 0.000000
0.000000 0.000000 0.000000
0.000000 0.000000 0.000000
0.000000 0.000000 0.000000
0.000000 0.000000 0.000000
0.000000 0.000000 0.000000
0.000000 0.000000 0.000000
0.000000 0.000000 0.000000
0.000000 0.000000 0.000000
0.000000 0.000000 0.000000
0.000000 0.000000 0.000000
0.000000 0.000000 0.000000
0.000000 0.000000 0.000000
0.000000 0.000000 0.000000
0.000000 0.000000 0.000000
0.000000 0.000000 0.000000
0.000000 0.000000 0.000000
0.000000 0.000000 0.000000
0.000000 0.000000 0.000000
0.000000 0.000000 0.000000
0.000000 0.000000 0.000000
0.000000 0.000000 0.000000
0.000000 0.000000 0.000000
0.000090 0.000090 0.000090
0.000215 0.000215 0.000215
0.000340 0.000340 0.000340
0.000466 0.000466 0.000466
0.000592 0.000592 0.000592
0.000718 0.000718 0.000718
0.000844 0.000844 0.000844
0.000971 0.000971 0.000971
0.001098 0.001098 0.001098
0.001226 0.001226 0.001226
0.001353 0.001353 0.001353
0.001481 0.001481 0.001481
0.001610 0.001610 0.001610
0.001738 0.001738 0.001738
0.001867 0.001867 0.001867
0.001996 0.001996 0.001996
0.002125 0.002125 0.002125
0.002255 0.002255 0.002255
0.002385 0.002385 0.002385
0.002515 0.002515 0.002515
0.002646 0.002646 0.002646
0.002777 0.002777 0.002777
0.002908 0.002908 0.002908
0.003040 0.003040 0.003040
0.003171 0.003171 0.003171
0.003303 0.003303 0.003303
0.003436 0.003436 0.003436
0.003568 0.003568 0.003568
0.003701 0.003701 0.003701
0.003834 0.003834 0.003834
0.003968 0.003968 0.003968
0.004102 0.004102 0.004102
0.004236 0.004236 0.004236
0.004370 0.004370 0.004370
0.004505 0.004505 0.004505
0.004640 0.004640 0.004640
0.004775 0.004775 0.004775
0.004910 0.004910 0.004910
0.005046 0.005046 0.005046
0.005182 0.005182 0.005182
0.005319 0.005319 0.005319
0.005456 0.005456 0.005456
0.005592 0.005592 0.005592
0.005730 0.005730 0.005730
0.005867 0.005867 0.005867
0.006005 0.006005 0.006005
0.006143 0.006143 0.006143
0.006282 0.006282 0.006282
0.006420 0.006420 0.006420
0.006559 0.006559 0.006559
0.006699 0.006699 0.006699
0.006838 0.006838 0.006838
0.006978 0.006978 0.006978
0.007118 0.007118 0.007118
0.007259 0.007259 0.007259
0.007400 0.007400 0.007400
0.007541 0.007541 0.007541
0.007682 0.007682 0.007682
0.007824 0.007824 0.007824
0.007965 0.007965 0.007965
0.008108 0.008108 0.008108
0.008250 0.008250 0.008250
0.008393 0.008393 0.008393
0.008536 0.008536 0.008536
0.008679 0.008679 0.008679
0.008823 0.008823 0.008823
0.008967 0.008967 0.008967
0.009111 0.009111 0.009111
0.009256 0.009256 0.009256
0.009400 0.009400 0.009400
0.009545 0.009545 0.009545
0.009691 0.009691 0.009691
0.009837 0.009837 0.009837
0.009982 0.009982 0.009982
0.010129 0.010129 0.010129
0.010275 0.010275 0.010275
0.010422 0.010422 0.010422
0.010569 0.010569 0.010569
0.010717 0.010717 0.010717
0.010864 0.010864 0.010864
0.011012 0.011012 0.011012
0.011161 0.011161 0.011161
0.011309 0.011309 0.011309
0.011458 0.011458 0.011458
0.011607 0.011607 0.011607
0.011757 0.011757 0.011757
0.011906 0.011906 0.011906
0.012056 0.012056 0.012056
0.012207 0.012207 0.012207
0.012357 0.012357 0.012357
0.012508 0.012508 0.012508
0.012659 0.012659 0.012659
0.012811 0.012811 0.012811
0.012963 0.012963 0.012963
0.013115 0.013115 0.013115
0.013267 0.013267 0.013267
0.013420 0.013420 0.013420
0.013573 0.013573 0.013573
0.013726 0.013726 0.013726
0.013879 0.013879 0.013879
0.014033 0.014033 0.014033
0.014187 0.014187 0.014187
0.014342 0.014342 0.014342
0.014496 0.014496 0.014496
0.014651 0.014651 0.014651
0.014807 0.014807 0.014807
0.014962 0.014962 0.014962
0.015118 0.015118 0.015118
0.015274 0.015274 0.015274
0.015431 0.015431 0.015431
0.015587 0.015587 0.015587
0.015745 0.015745 0.015745
0.015902 0.015902 0.015902
0.016060 0.016060 0.016060
0.016217 0.016217 0.016217
0.016376 0.016376 0.016376
0.016534 0.016534 0.016534
0.016693 0.016693 0.016693
0.016852 0.016852 0.016852
0.017011 0.017011 0.017011
0.017171 0.017171 0.017171
0.017331 0.017331 0.017331
0.017491 0.017491 0.017491
0.017652 0.017652 0.017652
0.017813 0.017813 0.017813
0.017974 0.017974 0.017974
0.018136 0.018136 0.018136
0.018297 0.018297 0.018297
0.018459 0.018459 0.018459
0.018622 0.018622 0.018622
0.018785 0.018785 0.018785
0.018947 0.018947 0.018947
0.019111 0.019111 0.019111
0.019274 0.019274 0.019274
0.019438 0.019438 0.019438
0.019602 0.019602 0.019602
0.019767 0.019767 0.019767
0.019932 0.019932 0.019932
0.020097 0.020097 0.020097
0.020262 0.020262 0.020262
0.020428 0.020428 0.020428
0.020594 0.020594 0.020594
0.020760 0.020760 0.020760
0.020926 0.020926 0.020926
0.021093 0.021093 0.021093
0.021261 0.021261 0.021261
0.021428 0.021428 0.021428
0.021596 0.021596 0.021596
0.021764 0.021764 0.021764
0.021932 0.021932 0.021932
0.022101 0.022101 0.022101
0.022270 0.022270 0.022270
0.022439 0.022439 0.022439
0.022609 0.022609 0.022609
0.022779 0.022779 0.022779
0.022949 0.022949 0.022949
0.023119 0.023119 0.023119
0.023290 0.023290 0.023290
0.023461 0.023461 0.023461
0.023633 0.023633 0.023633
0.023804 0.023804 0.023804
0.023977 0.023977 0.023977
0.024149 0.024149 0.024149
0.024322 0.024322 0.024322
0.024494 0.024494 0.024494
0.024668 0.024668 0.024668
0.024841 0.024841 0.024841
0.025015 0.025015 0.025015
0.025189 0.025189 0.025189
0.025364 0.025364 0.025364
0.025539 0.025539 0.025539
0.025714 0.025714 0.025714
0.025889 0.025889 0.025889
0.026065 0.026065 0.026065
0.026241 0.026241 0.026241
0.026417 0.026417 0.026417
0.026594 0.026594 0.026594
0.026771 0.026771 0.026771
0.026948 0.026948 0.026948
0.027126 0.027126 0.027126
0.027304 0.027304 0.027304
0.027482 0.027482 0.027482
0.027661 0.027661 0.027661
0.027840 0.027840 0.027840
0.028019 0.028019 0.028019
0.028198 0.028198 0.028198
0.028378 0.028378 0.028378
0.028558 0.028558 0.028558
0.028739 0.028739 0.028739
0.028919 0.028919 0.028919
0.029100 0.029100 0.029100
0.029282 0.029282 0.029282
0.029464 0.029464 0.029464
0.029646 0.029646 0.029646
0.029828 0.029828 0.029828
0.030011 0.030011 0.030011
0.030194 0.030194 0.030194
0.030377 0.030377 0.030377
0.030561 0.030561 0.030561
0.030744 0.030744 0.030744
0.030929 0.030929 0.030929
0.031113 0.031113 0.031113
0.031298 0.031298 0.031298
0.031483 0.031483 0.031483
0.031669 0.031669 0.031669
0.031855 0.031855 0.031855
0.032041 0.032041 0.032041
0.032228 0.032228 0.032228
0.032414 0.032414 0.032414
0.032602 0.032602 0.032602
0.032789 0.032789 0.032789
0.032977 0.032977 0.032977
0.033165 0.033165 0.033165
0.033354 0.033354 0.033354
0.033542 0.033542 0.033542
0.033732 0.033732 0.033732
0.033921 0.033921 0.033921
0.034111 0.034111 0.034111
0.034301 0.034301 0.034301
0.034491 0.034491 0.034491
0.034682 0.034682 0.034682
0.034873 0.034873 0.034873
0.035065 0.035065 0.035065
0.035256 0.035256 0.035256
0.035449 0.035449 0.035449
0.035641 0.035641 0.035641
0.035834 0.035834 0.035834
0.036027 0.036027 0.036027
0.036220 0.036220 0.036220
0.036414 0.036414 0.036414
0.036608 0.036608 0.036608
0.036803 0.036803 0.036803
0.036997 0.036997 0.036997
0.037192 0.037192 0.037192
0.037388 0.037388 0.037388
0.037584 0.037584 0.037584
0.037780 0.037780 0.037780
0.037976 0.037976 0.037976
0.038173 0.038173 0.038173
0.038370 0.038370 0.038370
0.038568 0.038568 0.038568
0.038765 0.038765 0.038765
0.038964 0.038964 0.038964
0.039162 0.039162 0.039162
0.039361 0.039361 0.039361
0.039560 0.039560 0.039560
0.039760 0.039760 0.039760
0.039959 0.039959 0.039959
0.040160 0.040160 0.040160
0.040360 0.040360 0.040360
0.040561 0.040561 0.040561
0.040762 0.040762 0.040762
0.040964 0.040964 0.040964
0.041166 0.041166 0.041166
0.041368 0.041368 0.041368
0.041571 0.041571 0.041571
0.041774 0.041774 0.041774
0.041977 0.041977 0.041977
0.042181 0.042181 0.042181
0.042385 0.042385 0.042385
0.042589 0.042589 0.042589
0.042794 0.042794 0.042794
0.042999 0.042999 0.042999
0.043204 0.043204 0.043204
0.043410 0.043410 0.043410
0.043616 0.043616 0.043616
0.043823 0.043823 0.043823
0.044030 0.044030 0.044030
0.044237 0.044237 0.044237
0.044444 0.044444 0.044444
0.044652 0.044652 0.044652
0.044860 0.044860 0.044860
0.045069 0.045069 0.045069
0.045278 0.045278 0.045278
0.045487 0.045487 0.045487
0.045697 0.045697 0.045697
0.045907 0.045907 0.045907
0.046118 0.046118 0.046118
0.046328 0.046328 0.046328
0.046539 0.046539 0.046539
0.046751 0.046751 0.046751
0.046963 0.046963 0.046963
0.047175 0.047175 0.047175
0.047388 0.047388 0.047388
0.047601 0.047601 0.047601
0.047814 0.047814 0.047814
0.048028 0.048028 0.048028
0.048242 0.048242 0.048242
0.048456 0.048456 0.048456
0.048671 0.048671 0.048671
0.048886 0.048886 0.048886
0.049102 0.049102 0.049102
0.049318 0.049318 0.049318
0.049534 0.049534 0.049534
0.049750 0.049750 0.049750
0.049967 0.049967 0.049967
0.050185 0.050185 0.050185
0.050403 0.050403 0.050403
0.050621 0.050621 0.050621
0.050839 0.050839 0.050839
0.051058 0.051058 0.051058
0.051277 0.051277 0.051277
0.051497 0.051497 0.051497
0.051717 0.051717 0.051717
0.051937 0.051937 0.051937
0.052158 0.052158 0.052158
0.052379 0.052379 0.052379
0.052601 0.052601 0.052601
0.052823 0.052823 0.052823
0.053045 0.053045 0.053045
0.053268 0.053268 0.053268
0.053491 0.053491 0.053491
0.053714 0.053714 0.053714
0.053938 0.053938 0.053938
0.054162 0.054162 0.054162
0.054387 0.054387 0.054387
0.054612 0.054612 0.054612
0.054837 0.054837 0.054837
0.055063 0.055063 0.055063
0.055289 0.055289 0.055289
0.055515 0.055515 0.055515
0.055742 0.055742 0.055742
0.055970 0.055970 0.055970
0.056197 0.056197 0.056197
0.056425 0.056425 0.056425
0.056654 0.056654 0.056654
0.056883 0.056883 0.056883
0.057112 0.057112 0.057112
0.057342 0.057342 0.057342
0.057572 0.057572 0.057572
0.057802 0.057802 0.057802
0.058033 0.058033 0.058033
0.058264 0.058264 0.058264
0.058496 0.058496 0.058496
0.058728 0.058728 0.058728
0.058960 0.058960 0.058960
0.059193 0.059193 0.059193
0.059426 0.059426 0.059426
0.059660 0.059660 0.059660
0.059894 0.059894 0.059894
0.060128 0.060128 0.060128
0.060363 0.060363 0.060363
0.060599 0.060599 0.060599
0.060834 0.060834 0.060834
0.061070 0.061070 0.061070
0.061307 0.061307 0.061307
0.061544 0.061544 0.061544
0.061781 0.061781 0.061781
0.062019 0.062019 0.062019
0.062257 0.062257 0.062257
0.062495 0.062495 0.062495
0.062734 0.062734 0.062734
0.062973 0.062973 0.062973
0.063213 0.063213 0.063213
0.063453 0.063453 0.063453
0.063694 0.063694 0.063694
0.063935 0.063935 0.063935
0.064176 0.064176 0.064176
0.064418 0.064418 0.064418
0.064660 0.064660 0.064660
0.064903 0.064903 0.064903
0.065146 0.065146 0.065146
0.065390 0.065390 0.065390
0.065634 0.065634 0.065634
0.065878 0.065878 0.065878
0.066123 0.066123 0.066123
0.066368 0.066368 0.066368
0.066613 0.066613 0.066613
0.066860 0.066860 0.066860
0.067106 0.067106 0.067106
0.067353 0.067353 0.067353
0.067600 0.067600 0.067600
0.067848 0.067848 0.067848
0.068096 0.068096 0.068096
0.068345 0.068345 0.068345
0.068594 0.068594 0.068594
0.068843 0.068843 0.068843
0.069093 0.069093 0.069093
0.069343 0.069343 0.069343
0.069594 0.069594 0.069594
0.069845 0.069845 0.069845
0.070097 0.070097 0.070097
0.070349 0.070349 0.070349
0.070602 0.070602 0.070602
0.070855 0.070855 0.070855
0.071108 0.071108 0.071108
0.071362 0.071362 0.071362
0.071616 0.071616 0.071616
0.071871 0.071871 0.071871
0.072126 0.072126 0.072126
0.072382 0.072382 0.072382
0.072638 0.072638 0.072638
0.072894 0.072894 0.072894
0.073151 0.073151 0.073151
0.073408 0.073408 0.073408
0.073666 0.073666 0.073666
0.073924 0.073924 0.073924
0.074183 0.074183 0.074183
0.074442 0.074442 0.074442
0.074702 0.074702 0.074702
0.074962 0.074962 0.074962
0.075223 0.075223 0.075223
0.075484 0.075484 0.075484
0.075745 0.075745 0.075745
0.076007 0.076007 0.076007
0.076382 0.076382 0.076382
0.076645 0.076645 0.076645
0.076908 0.076908 0.076908
0.077171 0.077171 0.077171
0.077434 0.077434 0.077434
0.077697 0.077697 0.077697
0.077960 0.077960 0.077960
0.078224 0.078224 0.078224
0.078488 0.078488 0.078488
0.078751 0.078751 0.078751
0.079016 0.079016 0.079016
0.079280 0.079280 0.079280
0.079544 0.079544 0.079544
0.079809 0.079809 0.079809
0.080073 0.080073 0.080073
0.080338 0.080338 0.080338
0.080603 0.080603 0.080603
0.080869 0.080869 0.080869
0.081134 0.081134 0.081134
0.081400 0.081400 0.081400
0.081665 0.081665 0.081665
0.081931 0.081931 0.081931
0.082197 0.082197 0.082197
0.082464 0.082464 0.082464
0.082730 0.082730 0.082730
0.082997 0.082997 0.082997
0.083263 0.083263 0.083263
0.083530 0.083530 0.083530
0.083798 0.083798 0.083798
0.084065 0.084065 0.084065
0.084332 0.084332 0.084332
0.084600 0.084600 0.084600
0.084868 0.084868 0.084868
0.085136 0.085136 0.085136
0.085404 0.085404 0.085404
0.085672 0.085672 0.085672
0.085941 0.085941 0.085941
0.086210 0.086210 0.086210
0.086479 0.086479 0.086479
0.086748 0.086748 0.086748
0.087017 0.087017 0.087017
0.087287 0.087287 0.087287
0.087556 0.087556 0.087556
0.087826 0.087826 0.087826
0.088096 0.088096 0.088096
0.088366 0.088366 0.088366
0.088637 0.088637 0.088637
0.088907 0.088907 0.088907
0.089178 0.089178 0.089178
0.089449 0.089449 0.089449
0.089720 0.089720 0.089720
0.089991 0.089991 0.089991
0.090263 0.090263 0.090263
0.090535 0.090535 0.090535
0.090807 0.090807 0.090807
0.091079 0.091079 0.091079
0.091351 0.091351 0.091351
0.091623 0.091623 0.091623
0.091896 0.091896 0.091896
0.092169 0.092169 0.092169
0.092442 0.092442 0.092442
0.092715 0.092715 0.092715
0.092989 0.092989 0.092989
0.093262 0.093262 0.093262
0.093536 0.093536 0.093536
0.093810 0.093810 0.093810
0.094084 0.094084 0.094084
0.094359 0.094359 0.094359
0.094633 0.094633 0.094633
0.094908 0.094908 0.094908
0.095183 0.095183 0.095183
0.095458 0.095458 0.095458
0.095734 0.095734 0.095734
0.096009 0.096009 0.096009
0.096285 0.096285 0.096285
0.096561 0.096561 0.096561
0.096837 0.096837 0.096837
0.097114 0.097114 0.097114
0.097390 0.097390 0.097390
0.097667 0.097667 0.097667
0.097944 0.097944 0.097944
0.098221 0.098221 0.098221
0.098499 0.098499 0.098499
0.098776 0.098776 0.098776
0.099054 0.099054 0.099054
0.099332 0.099332 0.099332
0.099610 0.099610 0.099610
0.099889 0.099889 0.099889
0.100167 0.100167 0.100167
0.100446 0.100446 0.100446
0.100725 0.100725 0.100725
0.101005 0.101005 0.101005
0.101284 0.101284 0.101284
0.101564 0.101564 0.101564
0.101844 0.101844 0.101844
0.102124 0.102124 0.102124
0.102404 0.102404 0.102404
