Luts Download/Canon Luts/1dlut/canonlog2-to-gamma-1dlut/full-to-full-range/CanonLog2_10-to-PQ_FF_Ver.2.1.cube
# Gamma : Canon Log 2 to PQ
# Range : Full in / Full out
# Version : 2.1 2018/10/3
# Copyright(c) 2018 Canon Inc. All Rights Reserved.

LUT_1D_SIZE 1024
0.000000 0.000000 0.000000
0.000000 0.000000 0.000000
0.000000 0.000000 0.000000
0.000000 0.000000 0.000000
0.000000 0.000000 0.000000
0.000000 0.000000 0.000000
0.000000 0.000000 0.000000
0.000000 0.000000 0.000000
0.000000 0.000000 0.000000
0.000000 0.000000 0.000000
0.000000 0.000000 0.000000
0.000000 0.000000 0.000000
0.000000 0.000000 0.000000
0.000000 0.000000 0.000000
0.000000 0.000000 0.000000
0.000000 0.000000 0.000000
0.000000 0.000000 0.000000
0.000000 0.000000 0.000000
0.000000 0.000000 0.000000
0.000000 0.000000 0.000000
0.000000 0.000000 0.000000
0.000000 0.000000 0.000000
0.000000 0.000000 0.000000
0.000000 0.000000 0.000000
0.000000 0.000000 0.000000
0.000000 0.000000 0.000000
0.000000 0.000000 0.000000
0.000000 0.000000 0.000000
0.000000 0.000000 0.000000
0.000000 0.000000 0.000000
0.000000 0.000000 0.000000
0.000000 0.000000 0.000000
0.000000 0.000000 0.000000
0.000000 0.000000 0.000000
0.000000 0.000000 0.000000
0.000000 0.000000 0.000000
0.000000 0.000000 0.000000
0.000000 0.000000 0.000000
0.000000 0.000000 0.000000
0.000000 0.000000 0.000000
0.000000 0.000000 0.000000
0.000000 0.000000 0.000000
0.000000 0.000000 0.000000
0.000000 0.000000 0.000000
0.000000 0.000000 0.000000
0.000000 0.000000 0.000000
0.000000 0.000000 0.000000
0.000000 0.000000 0.000000
0.000000 0.000000 0.000000
0.000000 0.000000 0.000000
0.000000 0.000000 0.000000
0.000000 0.000000 0.000000
0.000000 0.000000 0.000000
0.000000 0.000000 0.000000
0.000000 0.000000 0.000000
0.000000 0.000000 0.000000
0.000000 0.000000 0.000000
0.000000 0.000000 0.000000
0.000000 0.000000 0.000000
0.000000 0.000000 0.000000
0.000000 0.000000 0.000000
0.000000 0.000000 0.000000
0.000000 0.000000 0.000000
0.000000 0.000000 0.000000
0.000000 0.000000 0.000000
0.000000 0.000000 0.000000
0.000000 0.000000 0.000000
0.000000 0.000000 0.000000
0.000000 0.000000 0.000000
0.000000 0.000000 0.000000
0.000000 0.000000 0.000000
0.000000 0.000000 0.000000
0.000000 0.000000 0.000000
0.000000 0.000000 0.000000
0.000000 0.000000 0.000000
0.000000 0.000000 0.000000
0.000000 0.000000 0.000000
0.000000 0.000000 0.000000
0.000000 0.000000 0.000000
0.000000 0.000000 0.000000
0.000000 0.000000 0.000000
0.000000 0.000000 0.000000
0.000000 0.000000 0.000000
0.000000 0.000000 0.000000
0.000000 0.000000 0.000000
0.000000 0.000000 0.000000
0.000000 0.000000 0.000000
0.000000 0.000000 0.000000
0.000000 0.000000 0.000000
0.000000 0.000000 0.000000
0.000000 0.000000 0.000000
0.000000 0.000000 0.000000
0.000000 0.000000 0.000000
0.000000 0.000000 0.000000
0.000000 0.000000 0.000000
0.000001 0.000001 0.000001
0.000243 0.000243 0.000243
0.000637 0.000637 0.000637
0.001137 0.001137 0.001137
0.001720 0.001720 0.001720
0.002370 0.002370 0.002370
0.003079 0.003079 0.003079
0.003838 0.003838 0.003838
0.004641 0.004641 0.004641
0.005484 0.005484 0.005484
0.006363 0.006363 0.006363
0.007275 0.007275 0.007275
0.008216 0.008216 0.008216
0.009185 0.009185 0.009185
0.010180 0.010180 0.010180
0.011198 0.011198 0.011198
0.012239 0.012239 0.012239
0.013301 0.013301 0.013301
0.014383 0.014383 0.014383
0.015483 0.015483 0.015483
0.016601 0.016601 0.016601
0.017736 0.017736 0.017736
0.018887 0.018887 0.018887
0.020053 0.020053 0.020053
0.021234 0.021234 0.021234
0.022430 0.022430 0.022430
0.023638 0.023638 0.023638
0.024860 0.024860 0.024860
0.026095 0.026095 0.026095
0.027342 0.027342 0.027342
0.028601 0.028601 0.028601
0.029871 0.029871 0.029871
0.031153 0.031153 0.031153
0.032445 0.032445 0.032445
0.033748 0.033748 0.033748
0.035061 0.035061 0.035061
0.036384 0.036384 0.036384
0.037718 0.037718 0.037718
0.039060 0.039060 0.039060
0.040412 0.040412 0.040412
0.041773 0.041773 0.041773
0.043144 0.043144 0.043144
0.044523 0.044523 0.044523
0.045911 0.045911 0.045911
0.047307 0.047307 0.047307
0.048712 0.048712 0.048712
0.050124 0.050124 0.050124
0.051546 0.051546 0.051546
0.052975 0.052975 0.052975
0.054411 0.054411 0.054411
0.055856 0.055856 0.055856
0.057308 0.057308 0.057308
0.058768 0.058768 0.058768
0.060236 0.060236 0.060236
0.061710 0.061710 0.061710
0.063192 0.063192 0.063192
0.064682 0.064682 0.064682
0.066178 0.066178 0.066178
0.067681 0.067681 0.067681
0.069192 0.069192 0.069192
0.070709 0.070709 0.070709
0.072233 0.072233 0.072233
0.073764 0.073764 0.073764
0.075302 0.075302 0.075302
0.076846 0.076846 0.076846
0.078397 0.078397 0.078397
0.079955 0.079955 0.079955
0.081519 0.081519 0.081519
0.083089 0.083089 0.083089
0.084666 0.084666 0.084666
0.086249 0.086249 0.086249
0.087839 0.087839 0.087839
0.089691 0.089691 0.089691
0.091281 0.091281 0.091281
0.092861 0.092861 0.092861
0.094431 0.094431 0.094431
0.095992 0.095992 0.095992
0.097543 0.097543 0.097543
0.099084 0.099084 0.099084
0.100616 0.100616 0.100616
0.102140 0.102140 0.102140
0.103655 0.103655 0.103655
0.105161 0.105161 0.105161
0.106660 0.106660 0.106660
0.108150 0.108150 0.108150
0.109632 0.109632 0.109632
0.111107 0.111107 0.111107
0.112574 0.112574 0.112574
0.114033 0.114033 0.114033
0.115486 0.115486 0.115486
0.116931 0.116931 0.116931
0.118370 0.118370 0.118370
0.119802 0.119802 0.119802
0.121227 0.121227 0.121227
0.122646 0.122646 0.122646
0.124059 0.124059 0.124059
0.125465 0.125465 0.125465
0.126865 0.126865 0.126865
0.128260 0.128260 0.128260
0.129649 0.129649 0.129649
0.131032 0.131032 0.131032
0.132409 0.132409 0.132409
0.133782 0.133782 0.133782
0.135148 0.135148 0.135148
0.136510 0.136510 0.136510
0.137867 0.137867 0.137867
0.139218 0.139218 0.139218
0.140565 0.140565 0.140565
0.141907 0.141907 0.141907
0.143244 0.143244 0.143244
0.144577 0.144577 0.144577
0.145905 0.145905 0.145905
0.147229 0.147229 0.147229
0.148549 0.148549 0.148549
0.149864 0.149864 0.149864
0.151175 0.151175 0.151175
0.152482 0.152482 0.152482
0.153785 0.153785 0.153785
0.155085 0.155085 0.155085
0.156380 0.156380 0.156380
0.157672 0.157672 0.157672
0.158960 0.158960 0.158960
0.160244 0.160244 0.160244
0.161525 0.161525 0.161525
0.162802 0.162802 0.162802
0.164076 0.164076 0.164076
0.165347 0.165347 0.165347
0.166614 0.166614 0.166614
0.167878 0.167878 0.167878
0.169139 0.169139 0.169139
0.170397 0.170397 0.170397
0.171652 0.171652 0.171652
0.172904 0.172904 0.172904
0.174153 0.174153 0.174153
0.175399 0.175399 0.175399
0.176642 0.176642 0.176642
0.177883 0.177883 0.177883
0.179121 0.179121 0.179121
0.180356 0.180356 0.180356
0.181588 0.181588 0.181588
0.182818 0.182818 0.182818
0.184046 0.184046 0.184046
0.185271 0.185271 0.185271
0.186494 0.186494 0.186494
0.187714 0.187714 0.187714
0.188932 0.188932 0.188932
0.190148 0.190148 0.190148
0.191361 0.191361 0.191361
0.192572 0.192572 0.192572
0.193781 0.193781 0.193781
0.194988 0.194988 0.194988
0.196193 0.196193 0.196193
0.197396 0.197396 0.197396
0.198597 0.198597 0.198597
0.199796 0.199796 0.199796
0.200993 0.200993 0.200993
0.202188 0.202188 0.202188
0.203381 0.203381 0.203381
0.204573 0.204573 0.204573
0.205762 0.205762 0.205762
0.206950 0.206950 0.206950
0.208136 0.208136 0.208136
0.209320 0.209320 0.209320
0.210503 0.210503 0.210503
0.211684 0.211684 0.211684
0.212864 0.212864 0.212864
0.214042 0.214042 0.214042
0.215218 0.215218 0.215218
0.216393 0.216393 0.216393
0.217566 0.217566 0.217566
0.218738 0.218738 0.218738
0.219909 0.219909 0.219909
0.221078 0.221078 0.221078
0.222246 0.222246 0.222246
0.223412 0.223412 0.223412
0.224577 0.224577 0.224577
0.225741 0.225741 0.225741
0.226903 0.226903 0.226903
0.228064 0.228064 0.228064
0.229224 0.229224 0.229224
0.230383 0.230383 0.230383
0.231541 0.231541 0.231541
0.232697 0.232697 0.232697
0.233852 0.233852 0.233852
0.235006 0.235006 0.235006
0.236160 0.236160 0.236160
0.237312 0.237312 0.237312
0.238462 0.238462 0.238462
0.239612 0.239612 0.239612
0.240761 0.240761 0.240761
0.241909 0.241909 0.241909
0.243056 0.243056 0.243056
0.244202 0.244202 0.244202
0.245347 0.245347 0.245347
0.246491 0.246491 0.246491
0.247634 0.247634 0.247634
0.248777 0.248777 0.248777
0.249918 0.249918 0.249918
0.251059 0.251059 0.251059
0.252198 0.252198 0.252198
0.253337 0.253337 0.253337
0.254476 0.254476 0.254476
0.255613 0.255613 0.255613
0.256750 0.256750 0.256750
0.257885 0.257885 0.257885
0.259021 0.259021 0.259021
0.260155 0.260155 0.260155
0.261289 0.261289 0.261289
0.262422 0.262422 0.262422
0.263554 0.263554 0.263554
0.264686 0.264686 0.264686
0.265817 0.265817 0.265817
0.266947 0.266947 0.266947
0.268077 0.268077 0.268077
0.269206 0.269206 0.269206
0.270335 0.270335 0.270335
0.271463 0.271463 0.271463
0.272590 0.272590 0.272590
0.273717 0.273717 0.273717
0.274844 0.274844 0.274844
0.275970 0.275970 0.275970
0.277095 0.277095 0.277095
0.278220 0.278220 0.278220
0.279344 0.279344 0.279344
0.280468 0.280468 0.280468
0.281591 0.281591 0.281591
0.282714 0.282714 0.282714
0.283837 0.283837 0.283837
0.284959 0.284959 0.284959
0.286081 0.286081 0.286081
0.287202 0.287202 0.287202
0.288323 0.288323 0.288323
0.289443 0.289443 0.289443
0.290563 0.290563 0.290563
0.291683 0.291683 0.291683
0.292802 0.292802 0.292802
0.293921 0.293921 0.293921
0.295040 0.295040 0.295040
0.296158 0.296158 0.296158
0.297276 0.297276 0.297276
0.298394 0.298394 0.298394
0.299511 0.299511 0.299511
0.300628 0.300628 0.300628
0.301745 0.301745 0.301745
0.302862 0.302862 0.302862
0.303978 0.303978 0.303978
0.305094 0.305094 0.305094
0.306210 0.306210 0.306210
0.307325 0.307325 0.307325
0.308440 0.308440 0.308440
0.309555 0.309555 0.309555
0.310670 0.310670 0.310670
0.311785 0.311785 0.311785
0.312899 0.312899 0.312899
0.314013 0.314013 0.314013
0.315127 0.315127 0.315127
0.316241 0.316241 0.316241
0.317355 0.317355 0.317355
0.318468 0.318468 0.318468
0.319581 0.319581 0.319581
0.320694 0.320694 0.320694
0.321807 0.321807 0.321807
0.322920 0.322920 0.322920
0.324033 0.324033 0.324033
0.325145 0.325145 0.325145
0.326258 0.326258 0.326258
0.327370 0.327370 0.327370
0.328482 0.328482 0.328482
0.329595 0.329595 0.329595
0.330707 0.330707 0.330707
0.331818 0.331818 0.331818
0.332930 0.332930 0.332930
0.334042 0.334042 0.334042
0.335154 0.335154 0.335154
0.336265 0.336265 0.336265
0.337377 0.337377 0.337377
0.338488 0.338488 0.338488
0.339600 0.339600 0.339600
0.340711 0.340711 0.340711
0.341822 0.341822 0.341822
0.342934 0.342934 0.342934
0.344045 0.344045 0.344045
0.345156 0.345156 0.345156
0.346267 0.346267 0.346267
0.347379 0.347379 0.347379
0.348490 0.348490 0.348490
0.349601 0.349601 0.349601
0.350712 0.350712 0.350712
0.351823 0.351823 0.351823
0.352934 0.352934 0.352934
0.354046 0.354046 0.354046
0.355157 0.355157 0.355157
0.356268 0.356268 0.356268
0.357379 0.357379 0.357379
0.358490 0.358490 0.358490
0.359602 0.359602 0.359602
0.360713 0.360713 0.360713
0.361824 0.361824 0.361824
0.362935 0.362935 0.362935
0.364047 0.364047 0.364047
0.365158 0.365158 0.365158
0.366270 0.366270 0.366270
0.367381 0.367381 0.367381
0.368493 0.368493 0.368493
0.369605 0.369605 0.369605
0.370716 0.370716 0.370716
0.371828 0.371828 0.371828
0.372940 0.372940 0.372940
0.374052 0.374052 0.374052
0.375164 0.375164 0.375164
0.376276 0.376276 0.376276
0.377388 0.377388 0.377388
0.378501 0.378501 0.378501
0.379613 0.379613 0.379613
0.380725 0.380725 0.380725
0.381838 0.381838 0.381838
0.382950 0.382950 0.382950
0.384063 0.384063 0.384063
0.385176 0.385176 0.385176
0.386289 0.386289 0.386289
0.387402 0.387402 0.387402
0.388515 0.388515 0.388515
0.389628 0.389628 0.389628
0.390742 0.390742 0.390742
0.391855 0.391855 0.391855
0.392969 0.392969 0.392969
0.394083 0.394083 0.394083
0.395197 0.395197 0.395197
0.396311 0.396311 0.396311
0.397425 0.397425 0.397425
0.398539 0.398539 0.398539
0.399653 0.399653 0.399653
0.400768 0.400768 0.400768
0.401883 0.401883 0.401883
0.402997 0.402997 0.402997
0.404112 0.404112 0.404112
0.405227 0.405227 0.405227
0.406343 0.406343 0.406343
0.407458 0.407458 0.407458
0.408574 0.408574 0.408574
0.409689 0.409689 0.409689
0.410805 0.410805 0.410805
0.411921 0.411921 0.411921
0.413037 0.413037 0.413037
0.414153 0.414153 0.414153
0.415270 0.415270 0.415270
0.416387 0.416387 0.416387
0.417503 0.417503 0.417503
0.418620 0.418620 0.418620
0.419737 0.419737 0.419737
0.420855 0.420855 0.420855
0.421972 0.421972 0.421972
0.423090 0.423090 0.423090
0.424207 0.424207 0.424207
0.425325 0.425325 0.425325
0.426443 0.426443 0.426443
0.427562 0.427562 0.427562
0.428680 0.428680 0.428680
0.429799 0.429799 0.429799
0.430917 0.430917 0.430917
0.432036 0.432036 0.432036
0.433156 0.433156 0.433156
0.434275 0.434275 0.434275
0.435394 0.435394 0.435394
0.436514 0.436514 0.436514
0.437634 0.437634 0.437634
0.438754 0.438754 0.438754
0.439874 0.439874 0.439874
0.440995 0.440995 0.440995
0.442115 0.442115 0.442115
0.443236 0.443236 0.443236
0.444357 0.444357 0.444357
0.445478 0.445478 0.445478
0.446600 0.446600 0.446600
0.447721 0.447721 0.447721
0.448843 0.448843 0.448843
0.449965 0.449965 0.449965
0.451087 0.451087 0.451087
0.452209 0.452209 0.452209
0.453332 0.453332 0.453332
0.454454 0.454454 0.454454
0.455577 0.455577 0.455577
0.456700 0.456700 0.456700
0.457823 0.457823 0.457823
0.458947 0.458947 0.458947
0.460070 0.460070 0.460070
0.461194 0.461194 0.461194
0.462318 0.462318 0.462318
0.463442 0.463442 0.463442
0.464567 0.464567 0.464567
0.465691 0.465691 0.465691
0.466816 0.466816 0.466816
0.467941 0.467941 0.467941
0.469066 0.469066 0.469066
0.470192 0.470192 0.470192
0.471317 0.471317 0.471317
0.472443 0.472443 0.472443
0.473569 0.473569 0.473569
0.474695 0.474695 0.474695
0.475821 0.475821 0.475821
0.476948 0.476948 0.476948
0.478075 0.478075 0.478075
0.479202 0.479202 0.479202
0.480329 0.480329 0.480329
0.481456 0.481456 0.481456
0.482583 0.482583 0.482583
0.483711 0.483711 0.483711
0.484839 0.484839 0.484839
0.485967 0.485967 0.485967
0.487095 0.487095 0.487095
0.488224 0.488224 0.488224
0.489353 0.489353 0.489353
0.490481 0.490481 0.490481
0.491610 0.491610 0.491610
0.492740 0.492740 0.492740
0.493869 0.493869 0.493869
0.494999 0.494999 0.494999
0.496128 0.496128 0.496128
0.497258 0.497258 0.497258
0.498389 0.498389 0.498389
0.499519 0.499519 0.499519
0.500650 0.500650 0.500650
0.501780 0.501780 0.501780
0.502911 0.502911 0.502911
0.504042 0.504042 0.504042
0.505174 0.505174 0.505174
0.506305 0.506305 0.506305
0.507437 0.507437 0.507437
0.508569 0.508569 0.508569
0.509701 0.509701 0.509701
0.510833 0.510833 0.510833
0.511965 0.511965 0.511965
0.513098 0.513098 0.513098
0.514231 0.514231 0.514231
0.515364 0.515364 0.515364
0.516497 0.516497 0.516497
0.517630 0.517630 0.517630
0.518764 0.518764 0.518764
0.519898 0.519898 0.519898
0.521031 0.521031 0.521031
0.522165 0.522165 0.522165
0.523300 0.523300 0.523300
0.524434 0.524434 0.524434
0.525569 0.525569 0.525569
0.526703 0.526703 0.526703
0.527838 0.527838 0.527838
0.528973 0.528973 0.528973
0.530109 0.530109 0.530109
0.531244 0.531244 0.531244
0.532380 0.532380 0.532380
0.533516 0.533516 0.533516
0.534652 0.534652 0.534652
0.535788 0.535788 0.535788
0.536924 0.536924 0.536924
0.538060 0.538060 0.538060
0.539197 0.539197 0.539197
0.540334 0.540334 0.540334
0.541471 0.541471 0.541471
0.542608 0.542608 0.542608
0.543745 0.543745 0.543745
0.544883 0.544883 0.544883
0.546020 0.546020 0.546020
0.547158 0.547158 0.547158
0.548296 0.548296 0.548296
0.549434 0.549434 0.549434
0.550572 0.550572 0.550572
0.551710 0.551710 0.551710
0.552849 0.552849 0.552849
0.553988 0.553988 0.553988
0.555126 0.555126 0.555126
0.556265 0.556265 0.556265
0.557405 0.557405 0.557405
0.558544 0.558544 0.558544
0.559683 0.559683 0.559683
0.560823 0.560823 0.560823
0.561963 0.561963 0.561963
0.563102 0.563102 0.563102
0.564242 0.564242 0.564242
0.565383 0.565383 0.565383
0.566523 0.566523 0.566523
0.567663 0.567663 0.567663
0.568804 0.568804 0.568804
0.569945 0.569945 0.569945
0.571085 0.571085 0.571085
0.572226 0.572226 0.572226
0.573367 0.573367 0.573367
0.574509 0.574509 0.574509
0.575650 0.575650 0.575650
0.576791 0.576791 0.576791
0.577933 0.577933 0.577933
0.579075 0.579075 0.579075
0.580217 0.580217 0.580217
0.581359 0.581359 0.581359
0.582501 0.582501 0.582501
0.583643 0.583643 0.583643
0.584785 0.584785 0.584785
0.585928 0.585928 0.585928
0.587070 0.587070 0.587070
0.588213 0.588213 0.588213
0.589356 0.589356 0.589356
0.590499 0.590499 0.590499
0.591642 0.591642 0.591642
0.592785 0.592785 0.592785
0.593928 0.593928 0.593928
0.595071 0.595071 0.595071
0.596215 0.596215 0.596215
0.597359 0.597359 0.597359
0.598502 0.598502 0.598502
0.599646 0.599646 0.599646
0.600790 0.600790 0.600790
0.601934 0.601934 0.601934
0.603078 0.603078 0.603078
0.604222 0.604222 0.604222
0.605366 0.605366 0.605366
0.606511 0.606511 0.606511
0.607655 0.607655 0.607655
0.608800 0.608800 0.608800
0.609944 0.609944 0.609944
0.611089 0.611089 0.611089
0.612234 0.612234 0.612234
0.613379 0.613379 0.613379
0.614523 0.614523 0.614523
0.615669 0.615669 0.615669
0.616814 0.616814 0.616814
0.617959 0.617959 0.617959
0.619104 0.619104 0.619104
0.620249 0.620249 0.620249
0.621395 0.621395 0.621395
0.622540 0.622540 0.622540
0.623686 0.623686 0.623686
0.624831 0.624831 0.624831
0.625977 0.625977 0.625977
0.627123 0.627123 0.627123
0.628269 0.628269 0.628269
0.629415 0.629415 0.629415
0.630561 0.630561 0.630561
0.631707 0.631707 0.631707
0.632853 0.632853 0.632853
0.633999 0.633999 0.633999
0.635145 0.635145 0.635145
0.636291 0.636291 0.636291
0.637437 0.637437 0.637437
0.638584 0.638584 0.638584
0.639730 0.639730 0.639730
0.640876 0.640876 0.640876
0.642023 0.642023 0.642023
0.643169 0.643169 0.643169
0.644316 0.644316 0.644316
0.645462 0.645462 0.645462
0.646609 0.646609 0.646609
0.647756 0.647756 0.647756
0.648902 0.648902 0.648902
0.650049 0.650049 0.650049
0.651196 0.651196 0.651196
0.652343 0.652343 0.652343
0.653489 0.653489 0.653489
0.654636 0.654636 0.654636
0.655783 0.655783 0.655783
0.656930 0.656930 0.656930
0.658077 0.658077 0.658077
0.659224 0.659224 0.659224
0.660371 0.660371 0.660371
0.661517 0.661517 0.661517
0.662664 0.662664 0.662664
0.663811 0.663811 0.663811
0.664958 0.664958 0.664958
0.666105 0.666105 0.666105
0.667252 0.667252 0.667252
0.668399 0.668399 0.668399
0.669546 0.669546 0.669546
0.670693 0.670693 0.670693
0.671840 0.671840 0.671840
0.672987 0.672987 0.672987
0.674134 0.674134 0.674134
0.675281 0.675281 0.675281
0.676428 0.676428 0.676428
0.677575 0.677575 0.677575
0.678722 0.678722 0.678722
0.679869 0.679869 0.679869
0.681016 0.681016 0.681016
0.682163 0.682163 0.682163
0.683310 0.683310 0.683310
0.684457 0.684457 0.684457
0.685603 0.685603 0.685603
0.686750 0.686750 0.686750
0.687897 0.687897 0.687897
0.689044 0.689044 0.689044
0.690191 0.690191 0.690191
0.691337 0.691337 0.691337
0.692484 0.692484 0.692484
0.693631 0.693631 0.693631
0.694777 0.694777 0.694777
0.695924 0.695924 0.695924
0.697070 0.697070 0.697070
0.698217 0.698217 0.698217
0.699363 0.699363 0.699363
0.700510 0.700510 0.700510
0.701656 0.701656 0.701656
0.702802 0.702802 0.702802
0.703949 0.703949 0.703949
0.705095 0.705095 0.705095
0.706241 0.706241 0.706241
0.707387 0.707387 0.707387
0.708533 0.708533 0.708533
0.709679 0.709679 0.709679
0.710825 0.710825 0.710825
0.711971 0.711971 0.711971
0.713117 0.713117 0.713117
0.714262 0.714262 0.714262
0.715408 0.715408 0.715408
0.716554 0.716554 0.716554
0.717699 0.717699 0.717699
0.718845 0.718845 0.718845
0.719990 0.719990 0.719990
0.721135 0.721135 0.721135
0.722280 0.722280 0.722280
0.723426 0.723426 0.723426
0.724571 0.724571 0.724571
0.725716 0.725716 0.725716
0.726860 0.726860 0.726860
0.728005 0.728005 0.728005
0.729150 0.729150 0.729150
0.730294 0.730294 0.730294
0.731439 0.731439 0.731439
0.732583 0.732583 0.732583
0.733728 0.733728 0.733728
0.734872 0.734872 0.734872
0.736016 0.736016 0.736016
0.737160 0.737160 0.737160
0.738304 0.738304 0.738304
0.739448 0.739448 0.739448
0.740591 0.740591 0.740591
0.741735 0.741735 0.741735
0.742878 0.742878 0.742878
0.744022 0.744022 0.744022
0.745165 0.745165 0.745165
0.746308 0.746308 0.746308
0.747451 0.747451 0.747451
0.748594 0.748594 0.748594
0.749737 0.749737 0.749737
0.750879 0.750879 0.750879
0.752022 0.752022 0.752022
0.753164 0.753164 0.753164
0.754306 0.754306 0.754306
0.755448 0.755448 0.755448
0.756590 0.756590 0.756590
0.757732 0.757732 0.757732
0.758874 0.758874 0.758874
0.760015 0.760015 0.760015
0.761157 0.761157 0.761157
0.762298 0.762298 0.762298
0.763439 0.763439 0.763439
0.764580 0.764580 0.764580
0.765721 0.765721 0.765721
0.766861 0.766861 0.766861
0.768002 0.768002 0.768002
0.769142 0.769142 0.769142
0.770282 0.770282 0.770282
0.771422 0.771422 0.771422
0.772562 0.772562 0.772562
0.773702 0.773702 0.773702
0.774842 0.774842 0.774842
0.775981 0.775981 0.775981
0.777120 0.777120 0.777120
0.778259 0.778259 0.778259
0.779398 0.779398 0.779398
0.780537 0.780537 0.780537
0.781675 0.781675 0.781675
0.782814 0.782814 0.782814
0.783952 0.783952 0.783952
0.785090 0.785090 0.785090
0.786227 0.786227 0.786227
0.787365 0.787365 0.787365
0.788503 0.788503 0.788503
0.789640 0.789640 0.789640
0.790777 0.790777 0.790777
0.791914 0.791914 0.791914
0.793050 0.793050 0.793050
0.794187 0.794187 0.794187
0.795323 0.795323 0.795323
0.796459 0.796459 0.796459
0.797595 0.797595 0.797595
0.798731 0.798731 0.798731
0.799866 0.799866 0.799866
0.801001 0.801001 0.801001
0.802136 0.802136 0.802136
0.803271 0.803271 0.803271
0.804406 0.804406 0.804406
0.805540 0.805540 0.805540
0.806674 0.806674 0.806674
0.807808 0.807808 0.807808
0.808942 0.808942 0.808942
0.810075 0.810075 0.810075
0.811209 0.811209 0.811209
0.812342 0.812342 0.812342
0.813475 0.813475 0.813475
0.814607 0.814607 0.814607
0.815740 0.815740 0.815740
0.816872 0.816872 0.816872
0.818004 0.818004 0.818004
0.819135 0.819135 0.819135
0.820267 0.820267 0.820267
0.821398 0.821398 0.821398
0.822529 0.822529 0.822529
0.823660 0.823660 0.823660
0.824790 0.824790 0.824790
0.825920 0.825920 0.825920
0.827050 0.827050 0.827050
0.828180 0.828180 0.828180
0.829309 0.829309 0.829309
0.830439 0.830439 0.830439
0.831568 0.831568 0.831568
0.832696 0.832696 0.832696
0.833825 0.833825 0.833825
0.834953 0.834953 0.834953
0.836081 0.836081 0.836081
0.837208 0.837208 0.837208
0.838336 0.838336 0.838336
0.839463 0.839463 0.839463
0.840590 0.840590 0.840590
0.841716 0.841716 0.841716
0.842843 0.842843 0.842843
0.843969 0.843969 0.843969
0.845094 0.845094 0.845094
0.846220 0.846220 0.846220
0.847345 0.847345 0.847345
0.848470 0.848470 0.848470
0.849594 0.849594 0.849594
0.850719 0.850719 0.850719
0.851843 0.851843 0.851843
0.852967 0.852967 0.852967
0.854090 0.854090 0.854090
0.855213 0.855213 0.855213
0.856336 0.856336 0.856336
0.857459 0.857459 0.857459
0.858581 0.858581 0.858581
0.859703 0.859703 0.859703
0.860825 0.860825 0.860825
0.861946 0.861946 0.861946
0.863067 0.863067 0.863067
0.864188 0.864188 0.864188
0.865308 0.865308 0.865308
0.866428 0.866428 0.866428
0.867548 0.867548 0.867548
0.868668 0.868668 0.868668
0.869787 0.869787 0.869787
0.870906 0.870906 0.870906
0.872024 0.872024 0.872024
0.873142 0.873142 0.873142
0.874260 0.874260 0.874260
0.875378 0.875378 0.875378
0.876495 0.876495 0.876495
0.877612 0.877612 0.877612
0.878729 0.878729 0.878729
0.879845 0.879845 0.879845
0.880961 0.880961 0.880961
0.882076 0.882076 0.882076
0.883192 0.883192 0.883192
0.884307 0.884307 0.884307
0.885421 0.885421 0.885421
0.886535 0.886535 0.886535
0.887649 0.887649 0.887649
0.888763 0.888763 0.888763
0.889876 0.889876 0.889876
0.890989 0.890989 0.890989
0.892101 0.892101 0.892101
0.893213 0.893213 0.893213
0.894325 0.894325 0.894325
0.895437 0.895437 0.895437
0.896548 0.896548 0.896548
0.897658 0.897658 0.897658
0.898769 0.898769 0.898769
0.899879 0.899879 0.899879
0.900988 0.900988 0.900988
0.902098 0.902098 0.902098
0.903207 0.903207 0.903207
0.904315 0.904315 0.904315
0.905423 0.905423 0.905423
0.906531 0.906531 0.906531
0.907638 0.907638 0.907638
0.908745 0.908745 0.908745
0.909852 0.909852 0.909852
0.910958 0.910958 0.910958
0.912064 0.912064 0.912064
0.913170 0.913170 0.913170
0.914275 0.914275 0.914275
0.915380 0.915380 0.915380
0.916484 0.916484 0.916484
