Luts Download/Canon Luts/1dlut/canonlog2-to-gamma-1dlut/full-to-full-range/CanonLog2_12-to-PQ_FF_Ver.2.1.cube
# Gamma : Canon Log 2 to PQ
# Range : Full in / Full out
# Version : 2.1 2018/10/3
# Copyright(c) 2018 Canon Inc. All Rights Reserved.

LUT_1D_SIZE 4096
0.000000 0.000000 0.000000
0.000000 0.000000 0.000000
0.000000 0.000000 0.000000
0.000000 0.000000 0.000000
0.000000 0.000000 0.000000
0.000000 0.000000 0.000000
0.000000 0.000000 0.000000
0.000000 0.000000 0.000000
0.000000 0.000000 0.000000
0.000000 0.000000 0.000000
0.000000 0.000000 0.000000
0.000000 0.000000 0.000000
0.000000 0.000000 0.000000
0.000000 0.000000 0.000000
0.000000 0.000000 0.000000
0.000000 0.000000 0.000000
0.000000 0.000000 0.000000
0.000000 0.000000 0.000000
0.000000 0.000000 0.000000
0.000000 0.000000 0.000000
0.000000 0.000000 0.000000
0.000000 0.000000 0.000000
0.000000 0.000000 0.000000
0.000000 0.000000 0.000000
0.000000 0.000000 0.000000
0.000000 0.000000 0.000000
0.000000 0.000000 0.000000
0.000000 0.000000 0.000000
0.000000 0.000000 0.000000
0.000000 0.000000 0.000000
0.000000 0.000000 0.000000
0.000000 0.000000 0.000000
0.000000 0.000000 0.000000
0.000000 0.000000 0.000000
0.000000 0.000000 0.000000
0.000000 0.000000 0.000000
0.000000 0.000000 0.000000
0.000000 0.000000 0.000000
0.000000 0.000000 0.000000
0.000000 0.000000 0.000000
0.000000 0.000000 0.000000
0.000000 0.000000 0.000000
0.000000 0.000000 0.000000
0.000000 0.000000 0.000000
0.000000 0.000000 0.000000
0.000000 0.000000 0.000000
0.000000 0.000000 0.000000
0.000000 0.000000 0.000000
0.000000 0.000000 0.000000
0.000000 0.000000 0.000000
0.000000 0.000000 0.000000
0.000000 0.000000 0.000000
0.000000 0.000000 0.000000
0.000000 0.000000 0.000000
0.000000 0.000000 0.000000
0.000000 0.000000 0.000000
0.000000 0.000000 0.000000
0.000000 0.000000 0.000000
0.000000 0.000000 0.000000
0.000000 0.000000 0.000000
0.000000 0.000000 0.000000
0.000000 0.000000 0.000000
0.000000 0.000000 0.000000
0.000000 0.000000 0.000000
0.000000 0.000000 0.000000
0.000000 0.000000 0.000000
0.000000 0.000000 0.000000
0.000000 0.000000 0.000000
0.000000 0.000000 0.000000
0.000000 0.000000 0.000000
0.000000 0.000000 0.000000
0.000000 0.000000 0.000000
0.000000 0.000000 0.000000
0.000000 0.000000 0.000000
0.000000 0.000000 0.000000
0.000000 0.000000 0.000000
0.000000 0.000000 0.000000
0.000000 0.000000 0.000000
0.000000 0.000000 0.000000
0.000000 0.000000 0.000000
0.000000 0.000000 0.000000
0.000000 0.000000 0.000000
0.000000 0.000000 0.000000
0.000000 0.000000 0.000000
0.000000 0.000000 0.000000
0.000000 0.000000 0.000000
0.000000 0.000000 0.000000
0.000000 0.000000 0.000000
0.000000 0.000000 0.000000
0.000000 0.000000 0.000000
0.000000 0.000000 0.000000
0.000000 0.000000 0.000000
0.000000 0.000000 0.000000
0.000000 0.000000 0.000000
0.000000 0.000000 0.000000
0.000000 0.000000 0.000000
0.000000 0.000000 0.000000
0.000000 0.000000 0.000000
0.000000 0.000000 0.000000
0.000000 0.000000 0.000000
0.000000 0.000000 0.000000
0.000000 0.000000 0.000000
0.000000 0.000000 0.000000
0.000000 0.000000 0.000000
0.000000 0.000000 0.000000
0.000000 0.000000 0.000000
0.000000 0.000000 0.000000
0.000000 0.000000 0.000000
0.000000 0.000000 0.000000
0.000000 0.000000 0.000000
0.000000 0.000000 0.000000
0.000000 0.000000 0.000000
0.000000 0.000000 0.000000
0.000000 0.000000 0.000000
0.000000 0.000000 0.000000
0.000000 0.000000 0.000000
0.000000 0.000000 0.000000
0.000000 0.000000 0.000000
0.000000 0.000000 0.000000
0.000000 0.000000 0.000000
0.000000 0.000000 0.000000
0.000000 0.000000 0.000000
0.000000 0.000000 0.000000
0.000000 0.000000 0.000000
0.000000 0.000000 0.000000
0.000000 0.000000 0.000000
0.000000 0.000000 0.000000
0.000000 0.000000 0.000000
0.000000 0.000000 0.000000
0.000000 0.000000 0.000000
0.000000 0.000000 0.000000
0.000000 0.000000 0.000000
0.000000 0.000000 0.000000
0.000000 0.000000 0.000000
0.000000 0.000000 0.000000
0.000000 0.000000 0.000000
0.000000 0.000000 0.000000
0.000000 0.000000 0.000000
0.000000 0.000000 0.000000
0.000000 0.000000 0.000000
0.000000 0.000000 0.000000
0.000000 0.000000 0.000000
0.000000 0.000000 0.000000
0.000000 0.000000 0.000000
0.000000 0.000000 0.000000
0.000000 0.000000 0.000000
0.000000 0.000000 0.000000
0.000000 0.000000 0.000000
0.000000 0.000000 0.000000
0.000000 0.000000 0.000000
0.000000 0.000000 0.000000
0.000000 0.000000 0.000000
0.000000 0.000000 0.000000
0.000000 0.000000 0.000000
0.000000 0.000000 0.000000
0.000000 0.000000 0.000000
0.000000 0.000000 0.000000
0.000000 0.000000 0.000000
0.000000 0.000000 0.000000
0.000000 0.000000 0.000000
0.000000 0.000000 0.000000
0.000000 0.000000 0.000000
0.000000 0.000000 0.000000
0.000000 0.000000 0.000000
0.000000 0.000000 0.000000
0.000000 0.000000 0.000000
0.000000 0.000000 0.000000
0.000000 0.000000 0.000000
0.000000 0.000000 0.000000
0.000000 0.000000 0.000000
0.000000 0.000000 0.000000
0.000000 0.000000 0.000000
0.000000 0.000000 0.000000
0.000000 0.000000 0.000000
0.000000 0.000000 0.000000
0.000000 0.000000 0.000000
0.000000 0.000000 0.000000
0.000000 0.000000 0.000000
0.000000 0.000000 0.000000
0.000000 0.000000 0.000000
0.000000 0.000000 0.000000
0.000000 0.000000 0.000000
0.000000 0.000000 0.000000
0.000000 0.000000 0.000000
0.000000 0.000000 0.000000
0.000000 0.000000 0.000000
0.000000 0.000000 0.000000
0.000000 0.000000 0.000000
0.000000 0.000000 0.000000
0.000000 0.000000 0.000000
0.000000 0.000000 0.000000
0.000000 0.000000 0.000000
0.000000 0.000000 0.000000
0.000000 0.000000 0.000000
0.000000 0.000000 0.000000
0.000000 0.000000 0.000000
0.000000 0.000000 0.000000
0.000000 0.000000 0.000000
0.000000 0.000000 0.000000
0.000000 0.000000 0.000000
0.000000 0.000000 0.000000
0.000000 0.000000 0.000000
0.000000 0.000000 0.000000
0.000000 0.000000 0.000000
0.000000 0.000000 0.000000
0.000000 0.000000 0.000000
0.000000 0.000000 0.000000
0.000000 0.000000 0.000000
0.000000 0.000000 0.000000
0.000000 0.000000 0.000000
0.000000 0.000000 0.000000
0.000000 0.000000 0.000000
0.000000 0.000000 0.000000
0.000000 0.000000 0.000000
0.000000 0.000000 0.000000
0.000000 0.000000 0.000000
0.000000 0.000000 0.000000
0.000000 0.000000 0.000000
0.000000 0.000000 0.000000
0.000000 0.000000 0.000000
0.000000 0.000000 0.000000
0.000000 0.000000 0.000000
0.000000 0.000000 0.000000
0.000000 0.000000 0.000000
0.000000 0.000000 0.000000
0.000000 0.000000 0.000000
0.000000 0.000000 0.000000
0.000000 0.000000 0.000000
0.000000 0.000000 0.000000
0.000000 0.000000 0.000000
0.000000 0.000000 0.000000
0.000000 0.000000 0.000000
0.000000 0.000000 0.000000
0.000000 0.000000 0.000000
0.000000 0.000000 0.000000
0.000000 0.000000 0.000000
0.000000 0.000000 0.000000
0.000000 0.000000 0.000000
0.000000 0.000000 0.000000
0.000000 0.000000 0.000000
0.000000 0.000000 0.000000
0.000000 0.000000 0.000000
0.000000 0.000000 0.000000
0.000000 0.000000 0.000000
0.000000 0.000000 0.000000
0.000000 0.000000 0.000000
0.000000 0.000000 0.000000
0.000000 0.000000 0.000000
0.000000 0.000000 0.000000
0.000000 0.000000 0.000000
0.000000 0.000000 0.000000
0.000000 0.000000 0.000000
0.000000 0.000000 0.000000
0.000000 0.000000 0.000000
0.000000 0.000000 0.000000
0.000000 0.000000 0.000000
0.000000 0.000000 0.000000
0.000000 0.000000 0.000000
0.000000 0.000000 0.000000
0.000000 0.000000 0.000000
0.000000 0.000000 0.000000
0.000000 0.000000 0.000000
0.000000 0.000000 0.000000
0.000000 0.000000 0.000000
0.000000 0.000000 0.000000
0.000000 0.000000 0.000000
0.000000 0.000000 0.000000
0.000000 0.000000 0.000000
0.000000 0.000000 0.000000
0.000000 0.000000 0.000000
0.000000 0.000000 0.000000
0.000000 0.000000 0.000000
0.000000 0.000000 0.000000
0.000000 0.000000 0.000000
0.000000 0.000000 0.000000
0.000000 0.000000 0.000000
0.000000 0.000000 0.000000
0.000000 0.000000 0.000000
0.000000 0.000000 0.000000
0.000000 0.000000 0.000000
0.000000 0.000000 0.000000
0.000000 0.000000 0.000000
0.000000 0.000000 0.000000
0.000000 0.000000 0.000000
0.000000 0.000000 0.000000
0.000000 0.000000 0.000000
0.000000 0.000000 0.000000
0.000000 0.000000 0.000000
0.000000 0.000000 0.000000
0.000000 0.000000 0.000000
0.000000 0.000000 0.000000
0.000000 0.000000 0.000000
0.000000 0.000000 0.000000
0.000000 0.000000 0.000000
0.000000 0.000000 0.000000
0.000000 0.000000 0.000000
0.000000 0.000000 0.000000
0.000000 0.000000 0.000000
0.000000 0.000000 0.000000
0.000000 0.000000 0.000000
0.000000 0.000000 0.000000
0.000000 0.000000 0.000000
0.000000 0.000000 0.000000
0.000000 0.000000 0.000000
0.000000 0.000000 0.000000
0.000000 0.000000 0.000000
0.000000 0.000000 0.000000
0.000000 0.000000 0.000000
0.000000 0.000000 0.000000
0.000000 0.000000 0.000000
0.000000 0.000000 0.000000
0.000000 0.000000 0.000000
0.000000 0.000000 0.000000
0.000000 0.000000 0.000000
0.000000 0.000000 0.000000
0.000000 0.000000 0.000000
0.000000 0.000000 0.000000
0.000000 0.000000 0.000000
0.000000 0.000000 0.000000
0.000000 0.000000 0.000000
0.000000 0.000000 0.000000
0.000000 0.000000 0.000000
0.000000 0.000000 0.000000
0.000000 0.000000 0.000000
0.000000 0.000000 0.000000
0.000000 0.000000 0.000000
0.000000 0.000000 0.000000
0.000000 0.000000 0.000000
0.000000 0.000000 0.000000
0.000000 0.000000 0.000000
0.000000 0.000000 0.000000
0.000000 0.000000 0.000000
0.000000 0.000000 0.000000
0.000000 0.000000 0.000000
0.000000 0.000000 0.000000
0.000000 0.000000 0.000000
0.000000 0.000000 0.000000
0.000000 0.000000 0.000000
0.000000 0.000000 0.000000
0.000000 0.000000 0.000000
0.000000 0.000000 0.000000
0.000000 0.000000 0.000000
0.000000 0.000000 0.000000
0.000000 0.000000 0.000000
0.000000 0.000000 0.000000
0.000000 0.000000 0.000000
0.000000 0.000000 0.000000
0.000000 0.000000 0.000000
0.000000 0.000000 0.000000
0.000000 0.000000 0.000000
0.000000 0.000000 0.000000
0.000000 0.000000 0.000000
0.000000 0.000000 0.000000
0.000000 0.000000 0.000000
0.000000 0.000000 0.000000
0.000000 0.000000 0.000000
0.000000 0.000000 0.000000
0.000000 0.000000 0.000000
0.000000 0.000000 0.000000
0.000000 0.000000 0.000000
0.000000 0.000000 0.000000
0.000000 0.000000 0.000000
0.000000 0.000000 0.000000
0.000000 0.000000 0.000000
0.000000 0.000000 0.000000
0.000000 0.000000 0.000000
0.000000 0.000000 0.000000
0.000000 0.000000 0.000000
0.000000 0.000000 0.000000
0.000000 0.000000 0.000000
0.000000 0.000000 0.000000
0.000000 0.000000 0.000000
0.000000 0.000000 0.000000
0.000000 0.000000 0.000000
0.000000 0.000000 0.000000
0.000000 0.000000 0.000000
0.000000 0.000000 0.000000
0.000000 0.000000 0.000000
0.000000 0.000000 0.000000
0.000000 0.000000 0.000000
0.000000 0.000000 0.000000
0.000030 0.000030 0.000030
0.000081 0.000081 0.000081
0.000146 0.000146 0.000146
0.000220 0.000220 0.000220
0.000305 0.000305 0.000305
0.000397 0.000397 0.000397
0.000498 0.000498 0.000498
0.000606 0.000606 0.000606
0.000720 0.000720 0.000720
0.000840 0.000840 0.000840
0.000967 0.000967 0.000967
0.001098 0.001098 0.001098
0.001235 0.001235 0.001235
0.001377 0.001377 0.001377
0.001524 0.001524 0.001524
0.001675 0.001675 0.001675
0.001830 0.001830 0.001830
0.001990 0.001990 0.001990
0.002153 0.002153 0.002153
0.002321 0.002321 0.002321
0.002491 0.002491 0.002491
0.002666 0.002666 0.002666
0.002844 0.002844 0.002844
0.003025 0.003025 0.003025
0.003209 0.003209 0.003209
0.003396 0.003396 0.003396
0.003586 0.003586 0.003586
0.003779 0.003779 0.003779
0.003975 0.003975 0.003975
0.004174 0.004174 0.004174
0.004375 0.004375 0.004375
0.004579 0.004579 0.004579
0.004785 0.004785 0.004785
0.004994 0.004994 0.004994
0.005205 0.005205 0.005205
0.005419 0.005419 0.005419
0.005634 0.005634 0.005634
0.005852 0.005852 0.005852
0.006072 0.006072 0.006072
0.006294 0.006294 0.006294
0.006518 0.006518 0.006518
0.006745 0.006745 0.006745
0.006973 0.006973 0.006973
0.007203 0.007203 0.007203
0.007435 0.007435 0.007435
0.007668 0.007668 0.007668
0.007904 0.007904 0.007904
0.008141 0.008141 0.008141
0.008380 0.008380 0.008380
0.008621 0.008621 0.008621
0.008864 0.008864 0.008864
0.009108 0.009108 0.009108
0.009353 0.009353 0.009353
0.009600 0.009600 0.009600
0.009849 0.009849 0.009849
0.010100 0.010100 0.010100
0.010351 0.010351 0.010351
0.010605 0.010605 0.010605
0.010859 0.010859 0.010859
0.011115 0.011115 0.011115
0.011373 0.011373 0.011373
0.011632 0.011632 0.011632
0.011892 0.011892 0.011892
0.012154 0.012154 0.012154
0.012417 0.012417 0.012417
0.012681 0.012681 0.012681
0.012946 0.012946 0.012946
0.013213 0.013213 0.013213
0.013481 0.013481 0.013481
0.013750 0.013750 0.013750
0.014021 0.014021 0.014021
0.014292 0.014292 0.014292
0.014565 0.014565 0.014565
0.014839 0.014839 0.014839
0.015114 0.015114 0.015114
0.015390 0.015390 0.015390
0.015668 0.015668 0.015668
0.015946 0.015946 0.015946
0.016225 0.016225 0.016225
0.016506 0.016506 0.016506
0.016788 0.016788 0.016788
0.017070 0.017070 0.017070
0.017354 0.017354 0.017354
0.017639 0.017639 0.017639
0.017924 0.017924 0.017924
0.018211 0.018211 0.018211
0.018499 0.018499 0.018499
0.018787 0.018787 0.018787
0.019077 0.019077 0.019077
0.019368 0.019368 0.019368
0.019659 0.019659 0.019659
0.019952 0.019952 0.019952
0.020245 0.020245 0.020245
0.020539 0.020539 0.020539
0.020835 0.020835 0.020835
0.021131 0.021131 0.021131
0.021428 0.021428 0.021428
0.021726 0.021726 0.021726
0.022024 0.022024 0.022024
0.022324 0.022324 0.022324
0.022624 0.022624 0.022624
0.022926 0.022926 0.022926
0.023228 0.023228 0.023228
0.023531 0.023531 0.023531
0.023835 0.023835 0.023835
0.024139 0.024139 0.024139
0.024445 0.024445 0.024445
0.024751 0.024751 0.024751
0.025058 0.025058 0.025058
0.025366 0.025366 0.025366
0.025674 0.025674 0.025674
0.025983 0.025983 0.025983
0.026294 0.026294 0.026294
0.026604 0.026604 0.026604
0.026916 0.026916 0.026916
0.027228 0.027228 0.027228
0.027541 0.027541 0.027541
0.027855 0.027855 0.027855
0.028170 0.028170 0.028170
0.028485 0.028485 0.028485
0.028801 0.028801 0.028801
0.029118 0.029118 0.029118
0.029435 0.029435 0.029435
0.029754 0.029754 0.029754
0.030072 0.030072 0.030072
0.030392 0.030392 0.030392
0.030712 0.030712 0.030712
0.031033 0.031033 0.031033
0.031355 0.031355 0.031355
0.031677 0.031677 0.031677
0.032000 0.032000 0.032000
0.032323 0.032323 0.032323
0.032648 0.032648 0.032648
0.032973 0.032973 0.032973
0.033298 0.033298 0.033298
0.033624 0.033624 0.033624
0.033951 0.033951 0.033951
0.034279 0.034279 0.034279
0.034607 0.034607 0.034607
0.034936 0.034936 0.034936
0.035265 0.035265 0.035265
0.035595 0.035595 0.035595
0.035926 0.035926 0.035926
0.036257 0.036257 0.036257
0.036589 0.036589 0.036589
0.036921 0.036921 0.036921
0.037254 0.037254 0.037254
0.037588 0.037588 0.037588
0.037922 0.037922 0.037922
0.038257 0.038257 0.038257
0.038593 0.038593 0.038593
0.038929 0.038929 0.038929
0.039266 0.039266 0.039266
0.039603 0.039603 0.039603
0.039941 0.039941 0.039941
0.040279 0.040279 0.040279
0.040618 0.040618 0.040618
0.040958 0.040958 0.040958
0.041298 0.041298 0.041298
0.041638 0.041638 0.041638
0.041980 0.041980 0.041980
0.042322 0.042322 0.042322
0.042664 0.042664 0.042664
0.043007 0.043007 0.043007
0.043350 0.043350 0.043350
0.043694 0.043694 0.043694
0.044039 0.044039 0.044039
0.044384 0.044384 0.044384
0.044730 0.044730 0.044730
0.045076 0.045076 0.045076
0.045423 0.045423 0.045423
0.045770 0.045770 0.045770
0.046118 0.046118 0.046118
0.046466 0.046466 0.046466
0.046815 0.046815 0.046815
0.047164 0.047164 0.047164
0.047514 0.047514 0.047514
0.047865 0.047865 0.047865
0.048216 0.048216 0.048216
0.048567 0.048567 0.048567
0.048919 0.048919 0.048919
0.049272 0.049272 0.049272
0.049625 0.049625 0.049625
0.049978 0.049978 0.049978
0.050332 0.050332 0.050332
0.050687 0.050687 0.050687
0.051042 0.051042 0.051042
0.051397 0.051397 0.051397
0.051753 0.051753 0.051753
0.052110 0.052110 0.052110
0.052467 0.052467 0.052467
0.052824 0.052824 0.052824
0.053182 0.053182 0.053182
0.053541 0.053541 0.053541
0.053900 0.053900 0.053900
0.054259 0.054259 0.054259
0.054619 0.054619 0.054619
0.054980 0.054980 0.054980
0.055341 0.055341 0.055341
0.055702 0.055702 0.055702
0.056064 0.056064 0.056064
0.056427 0.056427 0.056427
0.056789 0.056789 0.056789
0.057153 0.057153 0.057153
0.057516 0.057516 0.057516
0.057881 0.057881 0.057881
0.058245 0.058245 0.058245
0.058611 0.058611 0.058611
0.058976 0.058976 0.058976
0.059343 0.059343 0.059343
0.059709 0.059709 0.059709
0.060076 0.060076 0.060076
0.060444 0.060444 0.060444
0.060812 0.060812 0.060812
0.061180 0.061180 0.061180
0.061549 0.061549 0.061549
0.061918 0.061918 0.061918
0.062288 0.062288 0.062288
0.062658 0.062658 0.062658
0.063029 0.063029 0.063029
0.063400 0.063400 0.063400
0.063772 0.063772 0.063772
0.064144 0.064144 0.064144
0.064516 0.064516 0.064516
0.064889 0.064889 0.064889
0.065263 0.065263 0.065263
0.065637 0.065637 0.065637
0.066011 0.066011 0.066011
0.066386 0.066386 0.066386
0.066761 0.066761 0.066761
0.067136 0.067136 0.067136
0.067512 0.067512 0.067512
0.067889 0.067889 0.067889
0.068266 0.068266 0.068266
0.068643 0.068643 0.068643
0.069021 0.069021 0.069021
0.069399 0.069399 0.069399
0.069778 0.069778 0.069778
0.070157 0.070157 0.070157
0.070536 0.070536 0.070536
0.070916 0.070916 0.070916
0.071297 0.071297 0.071297
0.071677 0.071677 0.071677
0.072059 0.072059 0.072059
0.072440 0.072440 0.072440
0.072822 0.072822 0.072822
0.073205 0.073205 0.073205
0.073588 0.073588 0.073588
0.073971 0.073971 0.073971
0.074355 0.074355 0.074355
0.074739 0.074739 0.074739
0.075123 0.075123 0.075123
0.075508 0.075508 0.075508
0.075894 0.075894 0.075894
0.076280 0.076280 0.076280
0.076666 0.076666 0.076666
0.077053 0.077053 0.077053
0.077440 0.077440 0.077440
0.077827 0.077827 0.077827
0.078215 0.078215 0.078215
0.078603 0.078603 0.078603
0.078992 0.078992 0.078992
0.079381 0.079381 0.079381
0.079771 0.079771 0.079771
0.080160 0.080160 0.080160
0.080551 0.080551 0.080551
0.080941 0.080941 0.080941
0.081333 0.081333 0.081333
0.081724 0.081724 0.081724
0.082116 0.082116 0.082116
0.082508 0.082508 0.082508
0.082901 0.082901 0.082901
0.083294 0.083294 0.083294
0.083688 0.083688 0.083688
0.084082 0.084082 0.084082
0.084476 0.084476 0.084476
0.084871 0.084871 0.084871
0.085266 0.085266 0.085266
0.085662 0.085662 0.085662
0.086057 0.086057 0.086057
0.086454 0.086454 0.086454
0.086851 0.086851 0.086851
0.087248 0.087248 0.087248
0.087645 0.087645 0.087645
0.088043 0.088043 0.088043
0.088441 0.088441 0.088441
0.088840 0.088840 0.088840
0.089496 0.089496 0.089496
0.089894 0.089894 0.089894
0.090292 0.090292 0.090292
0.090690 0.090690 0.090690
0.091086 0.091086 0.091086
0.091482 0.091482 0.091482
0.091878 0.091878 0.091878
0.092272 0.092272 0.092272
0.092666 0.092666 0.092666
0.093060 0.093060 0.093060
0.093453 0.093453 0.093453
0.093845 0.093845 0.093845
0.094236 0.094236 0.094236
0.094627 0.094627 0.094627
0.095018 0.095018 0.095018
0.095408 0.095408 0.095408
0.095797 0.095797 0.095797
0.096185 0.096185 0.096185
0.096573 0.096573 0.096573
0.096961 0.096961 0.096961
0.097348 0.097348 0.097348
0.097734 0.097734 0.097734
0.098120 0.098120 0.098120
0.098505 0.098505 0.098505
0.098889 0.098889 0.098889
0.099273 0.099273 0.099273
0.099657 0.099657 0.099657
0.100039 0.100039 0.100039
0.100422 0.100422 0.100422
0.100803 0.100803 0.100803
0.101185 0.101185 0.101185
0.101565 0.101565 0.101565
0.101945 0.101945 0.101945
0.102325 0.102325 0.102325
0.102704 0.102704 0.102704
0.103082 0.103082 0.103082
0.103460 0.103460 0.103460
0.103838 0.103838 0.103838
0.104214 0.104214 0.104214
0.104591 0.104591 0.104591
0.104967 0.104967 0.104967
0.105342 0.105342 0.105342
0.105717 0.105717 0.105717
0.106091 0.106091 0.106091
0.106465 0.106465 0.106465
0.106838 0.106838 0.106838
0.107211 0.107211 0.107211
0.107583 0.107583 0.107583
0.107955 0.107955 0.107955
0.108326 0.108326 0.108326
0.108697 0.108697 0.108697
0.109067 0.109067 0.109067
0.109437 0.109437 0.109437
0.109806 0.109806 0.109806
0.110175 0.110175 0.110175
0.110544 0.110544 0.110544
0.110912 0.110912 0.110912
0.111279 0.111279 0.111279
0.111646 0.111646 0.111646
0.112012 0.112012 0.112012
0.112379 0.112379 0.112379
0.112744 0.112744 0.112744
0.113109 0.113109 0.113109
0.113474 0.113474 0.113474
0.113838 0.113838 0.113838
0.114202 0.114202 0.114202
0.114565 0.114565 0.114565
0.114928 0.114928 0.114928
0.115291 0.115291 0.115291
0.115653 0.115653 0.115653
0.116014 0.116014 0.116014
0.116375 0.116375 0.116375
0.116736 0.116736 0.116736
0.117096 0.117096 0.117096
0.117456 0.117456 0.117456
0.117815 0.117815 0.117815
0.118174 0.118174 0.118174
0.118533 0.118533 0.118533
0.118891 0.118891 0.118891
0.119249 0.119249 0.119249
0.119606 0.119606 0.119606
0.119963 0.119963 0.119963
0.120319 0.120319 0.120319
0.120676 0.120676 0.120676
0.121031 0.121031 0.121031
0.121387 0.121387 0.121387
0.121741 0.121741 0.121741
0.122096 0.122096 0.122096
0.122450 0.122450 0.122450
0.122804 0.122804 0.122804
0.123157 0.123157 0.123157
0.123510 0.123510 0.123510
0.123862 0.123862 0.123862
0.124215 0.124215 0.124215
0.124566 0.124566 0.124566
0.124918 0.124918 0.124918
0.125269 0.125269 0.125269
0.125619 0.125619 0.125619
0.125969 0.125969 0.125969
0.126319 0.126319 0.126319
0.126669 0.126669 0.126669
0.127018 0.127018 0.127018
0.127367 0.127367 0.127367
0.127715 0.127715 0.127715
0.128063 0.128063 0.128063
0.128411 0.128411 0.128411
0.128758 0.128758 0.128758
0.129105 0.129105 0.129105
0.129452 0.129452 0.129452
0.129798 0.129798 0.129798
0.130144 0.130144 0.130144
0.130489 0.130489 0.130489
0.130835 0.130835 0.130835
0.131179 0.131179 0.131179
0.131524 0.131524 0.131524
0.131868 0.131868 0.131868
0.132212 0.132212 0.132212
0.132555 0.132555 0.132555
0.132899 0.132899 0.132899
0.133241 0.133241 0.133241
0.133584 0.133584 0.133584
0.133926 0.133926 0.133926
0.134268 0.134268 0.134268
0.134609 0.134609 0.134609
0.134951 0.134951 0.134951
0.135291 0.135291 0.135291
0.135632 0.135632 0.135632
0.135972 0.135972 0.135972
0.136312 0.136312 0.136312
0.136652 0.136652 0.136652
0.136991 0.136991 0.136991
0.137330 0.137330 0.137330
0.137668 0.137668 0.137668
0.138007 0.138007 0.138007
0.138345 0.138345 0.138345
0.138682 0.138682 0.138682
0.139020 0.139020 0.139020
0.139357 0.139357 0.139357
0.139694 0.139694 0.139694
0.140030 0.140030 0.140030
0.140366 0.140366 0.140366
0.140702 0.140702 0.140702
0.141038 0.141038 0.141038
0.141373 0.141373 0.141373
0.141708 0.141708 0.141708
0.142043 0.142043 0.142043
0.142377 0.142377 0.142377
0.142711 0.142711 0.142711
0.143045 0.143045 0.143045
0.143378 0.143378 0.143378
0.143712 0.143712 0.143712
0.144045 0.144045 0.144045
0.144377 0.144377 0.144377
0.144710 0.144710 0.144710
0.145042 0.145042 0.145042
0.145374 0.145374 0.145374
0.145705 0.145705 0.145705
0.146036 0.146036 0.146036
0.146368 0.146368 0.146368
0.146698 0.146698 0.146698
0.147029 0.147029 0.147029
0.147359 0.147359 0.147359
0.147689 0.147689 0.147689
0.148019 0.148019 0.148019
0.148348 0.148348 0.148348
0.148677 0.148677 0.148677
0.149006 0.149006 0.149006
0.149335 0.149335 0.149335
0.149663 0.149663 0.149663
0.149991 0.149991 0.149991
0.150319 0.150319 0.150319
0.150646 0.150646 0.150646
0.150974 0.150974 0.150974
0.151301 0.151301 0.151301
0.151628 0.151628 0.151628
0.151954 0.151954 0.151954
0.152280 0.152280 0.152280
0.152607 0.152607 0.152607
0.152932 0.152932 0.152932
0.153258 0.153258 0.153258
0.153583 0.153583 0.153583
0.153908 0.153908 0.153908
0.154233 0.154233 0.154233
0.154558 0.154558 0.154558
0.154882 0.154882 0.154882
0.155206 0.155206 0.155206
0.155530 0.155530 0.155530
0.155854 0.155854 0.155854
0.156177 0.156177 0.156177
0.156500 0.156500 0.156500
0.156823 0.156823 0.156823
0.157146 0.157146 0.157146
0.157468 0.157468 0.157468
0.157791 0.157791 0.157791
0.158113 0.158113 0.158113
0.158434 0.158434 0.158434
0.158756 0.158756 0.158756
0.159077 0.159077 0.159077
0.159398 0.159398 0.159398
0.159719 0.159719 0.159719
0.160040 0.160040 0.160040
0.160360 0.160360 0.160360
0.160681 0.160681 0.160681
0.161001 0.161001 0.161001
0.161320 0.161320 0.161320
0.161640 0.161640 0.161640
0.161959 0.161959 0.161959
0.162278 0.162278 0.162278
0.162597 0.162597 0.162597
0.162916 0.162916 0.162916
0.163235 0.163235 0.163235
0.163553 0.163553 0.163553
0.163871 0.163871 0.163871
0.164189 0.164189 0.164189
0.164506 0.164506 0.164506
