Luts Download/Canon Luts/1dlut/canonlog2-to-gamma-1dlut/full-to-full-range/CanonLog2_10-to-HLG_FF_Ver.2.1.cube
# Gamma : Canon Log 2 to HLG
# Range : Full in / Full out
# Version : 2.1 2018/10/3
# Copyright(c) 2018 Canon Inc. All Rights Reserved.

LUT_1D_SIZE 1024
0.000000 0.000000 0.000000
0.000000 0.000000 0.000000
0.000000 0.000000 0.000000
0.000000 0.000000 0.000000
0.000000 0.000000 0.000000
0.000000 0.000000 0.000000
0.000000 0.000000 0.000000
0.000000 0.000000 0.000000
0.000000 0.000000 0.000000
0.000000 0.000000 0.000000
0.000000 0.000000 0.000000
0.000000 0.000000 0.000000
0.000000 0.000000 0.000000
0.000000 0.000000 0.000000
0.000000 0.000000 0.000000
0.000000 0.000000 0.000000
0.000000 0.000000 0.000000
0.000000 0.000000 0.000000
0.000000 0.000000 0.000000
0.000000 0.000000 0.000000
0.000000 0.000000 0.000000
0.000000 0.000000 0.000000
0.000000 0.000000 0.000000
0.000000 0.000000 0.000000
0.000000 0.000000 0.000000
0.000000 0.000000 0.000000
0.000000 0.000000 0.000000
0.000000 0.000000 0.000000
0.000000 0.000000 0.000000
0.000000 0.000000 0.000000
0.000000 0.000000 0.000000
0.000000 0.000000 0.000000
0.000000 0.000000 0.000000
0.000000 0.000000 0.000000
0.000000 0.000000 0.000000
0.000000 0.000000 0.000000
0.000000 0.000000 0.000000
0.000000 0.000000 0.000000
0.000000 0.000000 0.000000
0.000000 0.000000 0.000000
0.000000 0.000000 0.000000
0.000000 0.000000 0.000000
0.000000 0.000000 0.000000
0.000000 0.000000 0.000000
0.000000 0.000000 0.000000
0.000000 0.000000 0.000000
0.000000 0.000000 0.000000
0.000000 0.000000 0.000000
0.000000 0.000000 0.000000
0.000000 0.000000 0.000000
0.000000 0.000000 0.000000
0.000000 0.000000 0.000000
0.000000 0.000000 0.000000
0.000000 0.000000 0.000000
0.000000 0.000000 0.000000
0.000000 0.000000 0.000000
0.000000 0.000000 0.000000
0.000000 0.000000 0.000000
0.000000 0.000000 0.000000
0.000000 0.000000 0.000000
0.000000 0.000000 0.000000
0.000000 0.000000 0.000000
0.000000 0.000000 0.000000
0.000000 0.000000 0.000000
0.000000 0.000000 0.000000
0.000000 0.000000 0.000000
0.000000 0.000000 0.000000
0.000000 0.000000 0.000000
0.000000 0.000000 0.000000
0.000000 0.000000 0.000000
0.000000 0.000000 0.000000
0.000000 0.000000 0.000000
0.000000 0.000000 0.000000
0.000000 0.000000 0.000000
0.000000 0.000000 0.000000
0.000000 0.000000 0.000000
0.000000 0.000000 0.000000
0.000000 0.000000 0.000000
0.000000 0.000000 0.000000
0.000000 0.000000 0.000000
0.000000 0.000000 0.000000
0.000000 0.000000 0.000000
0.000000 0.000000 0.000000
0.000000 0.000000 0.000000
0.000000 0.000000 0.000000
0.000000 0.000000 0.000000
0.000000 0.000000 0.000000
0.000000 0.000000 0.000000
0.000000 0.000000 0.000000
0.000000 0.000000 0.000000
0.000000 0.000000 0.000000
0.000000 0.000000 0.000000
0.000000 0.000000 0.000000
0.000000 0.000000 0.000000
0.000000 0.000000 0.000000
0.000003 0.000003 0.000003
0.008770 0.008770 0.008770
0.012431 0.012431 0.012431
0.015261 0.015261 0.015261
0.017663 0.017663 0.017663
0.019794 0.019794 0.019794
0.021734 0.021734 0.021734
0.023531 0.023531 0.023531
0.025215 0.025215 0.025215
0.026808 0.026808 0.026808
0.028325 0.028325 0.028325
0.029778 0.029778 0.029778
0.031176 0.031176 0.031176
0.032526 0.032526 0.032526
0.033835 0.033835 0.033835
0.035106 0.035106 0.035106
0.036344 0.036344 0.036344
0.037552 0.037552 0.037552
0.038733 0.038733 0.038733
0.039890 0.039890 0.039890
0.041025 0.041025 0.041025
0.042139 0.042139 0.042139
0.043235 0.043235 0.043235
0.044313 0.044313 0.044313
0.045376 0.045376 0.045376
0.046424 0.046424 0.046424
0.047458 0.047458 0.047458
0.048480 0.048480 0.048480
0.049490 0.049490 0.049490
0.050488 0.050488 0.050488
0.051477 0.051477 0.051477
0.052456 0.052456 0.052456
0.053425 0.053425 0.053425
0.054387 0.054387 0.054387
0.055340 0.055340 0.055340
0.056286 0.056286 0.056286
0.057225 0.057225 0.057225
0.058158 0.058158 0.058158
0.059084 0.059084 0.059084
0.060004 0.060004 0.060004
0.060919 0.060919 0.060919
0.061829 0.061829 0.061829
0.062734 0.062734 0.062734
0.063635 0.063635 0.063635
0.064531 0.064531 0.064531
0.065423 0.065423 0.065423
0.066311 0.066311 0.066311
0.067195 0.067195 0.067195
0.068077 0.068077 0.068077
0.068955 0.068955 0.068955
0.069830 0.069830 0.069830
0.070702 0.070702 0.070702
0.071572 0.071572 0.071572
0.072439 0.072439 0.072439
0.073304 0.073304 0.073304
0.074167 0.074167 0.074167
0.075028 0.075028 0.075028
0.075887 0.075887 0.075887
0.076745 0.076745 0.076745
0.077600 0.077600 0.077600
0.078455 0.078455 0.078455
0.079308 0.079308 0.079308
0.080160 0.080160 0.080160
0.081010 0.081010 0.081010
0.081860 0.081860 0.081860
0.082709 0.082709 0.082709
0.083557 0.083557 0.083557
0.084404 0.084404 0.084404
0.085251 0.085251 0.085251
0.086097 0.086097 0.086097
0.086943 0.086943 0.086943
0.087788 0.087788 0.087788
0.088634 0.088634 0.088634
0.089479 0.089479 0.089479
0.090324 0.090324 0.090324
0.091168 0.091168 0.091168
0.092013 0.092013 0.092013
0.092858 0.092858 0.092858
0.093704 0.093704 0.093704
0.094549 0.094549 0.094549
0.095395 0.095395 0.095395
0.096241 0.096241 0.096241
0.097088 0.097088 0.097088
0.097935 0.097935 0.097935
0.098783 0.098783 0.098783
0.099631 0.099631 0.099631
0.100480 0.100480 0.100480
0.101330 0.101330 0.101330
0.102181 0.102181 0.102181
0.103032 0.103032 0.103032
0.103885 0.103885 0.103885
0.104738 0.104738 0.104738
0.105592 0.105592 0.105592
0.106448 0.106448 0.106448
0.107304 0.107304 0.107304
0.108162 0.108162 0.108162
0.109020 0.109020 0.109020
0.109880 0.109880 0.109880
0.110742 0.110742 0.110742
0.111604 0.111604 0.111604
0.112468 0.112468 0.112468
0.113334 0.113334 0.113334
0.114201 0.114201 0.114201
0.115069 0.115069 0.115069
0.115939 0.115939 0.115939
0.116811 0.116811 0.116811
0.117684 0.117684 0.117684
0.118559 0.118559 0.118559
0.119435 0.119435 0.119435
0.120313 0.120313 0.120313
0.121193 0.121193 0.121193
0.122075 0.122075 0.122075
0.122959 0.122959 0.122959
0.123844 0.123844 0.123844
0.124732 0.124732 0.124732
0.125621 0.125621 0.125621
0.126513 0.126513 0.126513
0.127406 0.127406 0.127406
0.128302 0.128302 0.128302
0.129199 0.129199 0.129199
0.130099 0.130099 0.130099
0.131001 0.131001 0.131001
0.131905 0.131905 0.131905
0.132811 0.132811 0.132811
0.133720 0.133720 0.133720
0.134631 0.134631 0.134631
0.135544 0.135544 0.135544
0.136460 0.136460 0.136460
0.137377 0.137377 0.137377
0.138298 0.138298 0.138298
0.139221 0.139221 0.139221
0.140146 0.140146 0.140146
0.141074 0.141074 0.141074
0.142004 0.142004 0.142004
0.142937 0.142937 0.142937
0.143873 0.143873 0.143873
0.144811 0.144811 0.144811
0.145752 0.145752 0.145752
0.146695 0.146695 0.146695
0.147642 0.147642 0.147642
0.148591 0.148591 0.148591
0.149542 0.149542 0.149542
0.150497 0.150497 0.150497
0.151455 0.151455 0.151455
0.152415 0.152415 0.152415
0.153378 0.153378 0.153378
0.154344 0.154344 0.154344
0.155313 0.155313 0.155313
0.156286 0.156286 0.156286
0.157261 0.157261 0.157261
0.158239 0.158239 0.158239
0.159220 0.159220 0.159220
0.160205 0.160205 0.160205
0.161192 0.161192 0.161192
0.162183 0.162183 0.162183
0.163176 0.163176 0.163176
0.164173 0.164173 0.164173
0.165174 0.165174 0.165174
0.166177 0.166177 0.166177
0.167184 0.167184 0.167184
0.168194 0.168194 0.168194
0.169208 0.169208 0.169208
0.170225 0.170225 0.170225
0.171245 0.171245 0.171245
0.172268 0.172268 0.172268
0.173296 0.173296 0.173296
0.174326 0.174326 0.174326
0.175360 0.175360 0.175360
0.176398 0.176398 0.176398
0.177439 0.177439 0.177439
0.178484 0.178484 0.178484
0.179533 0.179533 0.179533
0.180585 0.180585 0.180585
0.181641 0.181641 0.181641
0.182700 0.182700 0.182700
0.183763 0.183763 0.183763
0.184830 0.184830 0.184830
0.185901 0.185901 0.185901
0.186976 0.186976 0.186976
0.188054 0.188054 0.188054
0.189137 0.189137 0.189137
0.190223 0.190223 0.190223
0.191313 0.191313 0.191313
0.192407 0.192407 0.192407
0.193505 0.193505 0.193505
0.194607 0.194607 0.194607
0.195713 0.195713 0.195713
0.196824 0.196824 0.196824
0.197938 0.197938 0.197938
0.199056 0.199056 0.199056
0.200179 0.200179 0.200179
0.201305 0.201305 0.201305
0.202436 0.202436 0.202436
0.203571 0.203571 0.203571
0.204711 0.204711 0.204711
0.205854 0.205854 0.205854
0.207002 0.207002 0.207002
0.208154 0.208154 0.208154
0.209311 0.209311 0.209311
0.210472 0.210472 0.210472
0.211638 0.211638 0.211638
0.212807 0.212807 0.212807
0.213982 0.213982 0.213982
0.215161 0.215161 0.215161
0.216344 0.216344 0.216344
0.217532 0.217532 0.217532
0.218725 0.218725 0.218725
0.219922 0.219922 0.219922
0.221124 0.221124 0.221124
0.222330 0.222330 0.222330
0.223541 0.223541 0.223541
0.224757 0.224757 0.224757
0.225978 0.225978 0.225978
0.227203 0.227203 0.227203
0.228433 0.228433 0.228433
0.229669 0.229669 0.229669
0.230909 0.230909 0.230909
0.232153 0.232153 0.232153
0.233403 0.233403 0.233403
0.234658 0.234658 0.234658
0.235918 0.235918 0.235918
0.237183 0.237183 0.237183
0.238452 0.238452 0.238452
0.239727 0.239727 0.239727
0.241007 0.241007 0.241007
0.242292 0.242292 0.242292
0.243583 0.243583 0.243583
0.244878 0.244878 0.244878
0.246179 0.246179 0.246179
0.247485 0.247485 0.247485
0.248796 0.248796 0.248796
0.250113 0.250113 0.250113
0.251435 0.251435 0.251435
0.252762 0.252762 0.252762
0.254095 0.254095 0.254095
0.255433 0.255433 0.255433
0.256776 0.256776 0.256776
0.258126 0.258126 0.258126
0.259480 0.259480 0.259480
0.260840 0.260840 0.260840
0.262206 0.262206 0.262206
0.263578 0.263578 0.263578
0.264955 0.264955 0.264955
0.266337 0.266337 0.266337
0.267726 0.267726 0.267726
0.269120 0.269120 0.269120
0.270520 0.270520 0.270520
0.271926 0.271926 0.271926
0.273337 0.273337 0.273337
0.274755 0.274755 0.274755
0.276178 0.276178 0.276178
0.277607 0.277607 0.277607
0.279043 0.279043 0.279043
0.280484 0.280484 0.280484
0.281931 0.281931 0.281931
0.283385 0.283385 0.283385
0.284844 0.284844 0.284844
0.286310 0.286310 0.286310
0.287781 0.287781 0.287781
0.289259 0.289259 0.289259
0.290744 0.290744 0.290744
0.292234 0.292234 0.292234
0.293731 0.293731 0.293731
0.295234 0.295234 0.295234
0.296743 0.296743 0.296743
0.298259 0.298259 0.298259
0.299781 0.299781 0.299781
0.301310 0.301310 0.301310
0.302845 0.302845 0.302845
0.304387 0.304387 0.304387
0.305935 0.305935 0.305935
0.307490 0.307490 0.307490
0.309052 0.309052 0.309052
0.310620 0.310620 0.310620
0.312195 0.312195 0.312195
0.313777 0.313777 0.313777
0.315365 0.315365 0.315365
0.316960 0.316960 0.316960
0.318562 0.318562 0.318562
0.320171 0.320171 0.320171
0.321787 0.321787 0.321787
0.323410 0.323410 0.323410
0.325040 0.325040 0.325040
0.326677 0.326677 0.326677
0.328321 0.328321 0.328321
0.329972 0.329972 0.329972
0.331630 0.331630 0.331630
0.333295 0.333295 0.333295
0.334968 0.334968 0.334968
0.336648 0.336648 0.336648
0.338335 0.338335 0.338335
0.340029 0.340029 0.340029
0.341731 0.341731 0.341731
0.343440 0.343440 0.343440
0.345156 0.345156 0.345156
0.346880 0.346880 0.346880
0.348612 0.348612 0.348612
0.350351 0.350351 0.350351
0.352098 0.352098 0.352098
0.353852 0.353852 0.353852
0.355614 0.355614 0.355614
0.357383 0.357383 0.357383
0.359161 0.359161 0.359161
0.360946 0.360946 0.360946
0.362739 0.362739 0.362739
0.364540 0.364540 0.364540
0.366348 0.366348 0.366348
0.368165 0.368165 0.368165
0.369990 0.369990 0.369990
0.371822 0.371822 0.371822
0.373663 0.373663 0.373663
0.375512 0.375512 0.375512
0.377369 0.377369 0.377369
0.379234 0.379234 0.379234
0.381107 0.381107 0.381107
0.382989 0.382989 0.382989
0.384879 0.384879 0.384879
0.386777 0.386777 0.386777
0.388683 0.388683 0.388683
0.390598 0.390598 0.390598
0.392522 0.392522 0.392522
0.394454 0.394454 0.394454
0.396394 0.396394 0.396394
0.398344 0.398344 0.398344
0.400301 0.400301 0.400301
0.402268 0.402268 0.402268
0.404243 0.404243 0.404243
0.406227 0.406227 0.406227
0.408220 0.408220 0.408220
0.410221 0.410221 0.410221
0.412232 0.412232 0.412232
0.414251 0.414251 0.414251
0.416280 0.416280 0.416280
0.418317 0.418317 0.418317
0.420364 0.420364 0.420364
0.422420 0.422420 0.422420
0.424484 0.424484 0.424484
0.426558 0.426558 0.426558
0.428642 0.428642 0.428642
0.430734 0.430734 0.430734
0.432836 0.432836 0.432836
0.434948 0.434948 0.434948
0.437068 0.437068 0.437068
0.439199 0.439199 0.439199
0.441338 0.441338 0.441338
0.443488 0.443488 0.443488
0.445647 0.445647 0.445647
0.447816 0.447816 0.447816
0.449994 0.449994 0.449994
0.452182 0.452182 0.452182
0.454380 0.454380 0.454380
0.456588 0.456588 0.456588
0.458806 0.458806 0.458806
0.461033 0.461033 0.461033
0.463271 0.463271 0.463271
0.465519 0.465519 0.465519
0.467777 0.467777 0.467777
0.470045 0.470045 0.470045
0.472323 0.472323 0.472323
0.474612 0.474612 0.474612
0.476910 0.476910 0.476910
0.479220 0.479220 0.479220
0.481539 0.481539 0.481539
0.483869 0.483869 0.483869
0.486210 0.486210 0.486210
0.488561 0.488561 0.488561
0.490922 0.490922 0.490922
0.493295 0.493295 0.493295
0.495678 0.495678 0.495678
0.498072 0.498072 0.498072
0.500476 0.500476 0.500476
0.502877 0.502877 0.502877
0.505268 0.505268 0.505268
0.507650 0.507650 0.507650
0.510022 0.510022 0.510022
0.512385 0.512385 0.512385
0.514739 0.514739 0.514739
0.517084 0.517084 0.517084
0.519420 0.519420 0.519420
0.521747 0.521747 0.521747
0.524066 0.524066 0.524066
0.526377 0.526377 0.526377
0.528679 0.528679 0.528679
0.530974 0.530974 0.530974
0.533260 0.533260 0.533260
0.535538 0.535538 0.535538
0.537809 0.537809 0.537809
0.540072 0.540072 0.540072
0.542328 0.542328 0.542328
0.544576 0.544576 0.544576
0.546817 0.546817 0.546817
0.549051 0.549051 0.549051
0.551278 0.551278 0.551278
0.553498 0.553498 0.553498
0.555711 0.555711 0.555711
0.557917 0.557917 0.557917
0.560117 0.560117 0.560117
0.562310 0.562310 0.562310
0.564497 0.564497 0.564497
0.566678 0.566678 0.566678
0.568853 0.568853 0.568853
0.571021 0.571021 0.571021
0.573183 0.573183 0.573183
0.575340 0.575340 0.575340
0.577490 0.577490 0.577490
0.579635 0.579635 0.579635
0.581774 0.581774 0.581774
0.583907 0.583907 0.583907
0.586035 0.586035 0.586035
0.588158 0.588158 0.588158
0.590275 0.590275 0.590275
0.592387 0.592387 0.592387
0.594494 0.594494 0.594494
0.596595 0.596595 0.596595
0.598692 0.598692 0.598692
0.600783 0.600783 0.600783
0.602870 0.602870 0.602870
0.604952 0.604952 0.604952
0.607029 0.607029 0.607029
0.609101 0.609101 0.609101
0.611168 0.611168 0.611168
0.613231 0.613231 0.613231
0.615290 0.615290 0.615290
0.617344 0.617344 0.617344
0.619393 0.619393 0.619393
0.621438 0.621438 0.621438
0.623479 0.623479 0.623479
0.625516 0.625516 0.625516
0.627549 0.627549 0.627549
0.629577 0.629577 0.629577
0.631601 0.631601 0.631601
0.633622 0.633622 0.633622
0.635638 0.635638 0.635638
0.637651 0.637651 0.637651
0.639659 0.639659 0.639659
0.641664 0.641664 0.641664
0.643665 0.643665 0.643665
0.645662 0.645662 0.645662
0.647656 0.647656 0.647656
0.649646 0.649646 0.649646
0.651633 0.651633 0.651633
0.653616 0.653616 0.653616
0.655595 0.655595 0.655595
0.657571 0.657571 0.657571
0.659544 0.659544 0.659544
0.661513 0.661513 0.661513
0.663480 0.663480 0.663480
0.665442 0.665442 0.665442
0.667402 0.667402 0.667402
0.669358 0.669358 0.669358
0.671312 0.671312 0.671312
0.673262 0.673262 0.673262
0.675209 0.675209 0.675209
0.677153 0.677153 0.677153
0.679094 0.679094 0.679094
0.681032 0.681032 0.681032
0.682968 0.682968 0.682968
0.684900 0.684900 0.684900
0.686829 0.686829 0.686829
0.688756 0.688756 0.688756
0.690680 0.690680 0.690680
0.692601 0.692601 0.692601
0.694520 0.694520 0.694520
0.696436 0.696436 0.696436
0.698349 0.698349 0.698349
0.700259 0.700259 0.700259
0.702167 0.702167 0.702167
0.704073 0.704073 0.704073
0.705976 0.705976 0.705976
0.707876 0.707876 0.707876
0.709774 0.709774 0.709774
0.711670 0.711670 0.711670
0.713563 0.713563 0.713563
0.715454 0.715454 0.715454
0.717342 0.717342 0.717342
0.719228 0.719228 0.719228
0.721112 0.721112 0.721112
0.722994 0.722994 0.722994
0.724873 0.724873 0.724873
0.726750 0.726750 0.726750
0.728625 0.728625 0.728625
0.730498 0.730498 0.730498
0.732368 0.732368 0.732368
0.734237 0.734237 0.734237
0.736103 0.736103 0.736103
0.737968 0.737968 0.737968
0.739830 0.739830 0.739830
0.741690 0.741690 0.741690
0.743549 0.743549 0.743549
0.745405 0.745405 0.745405
0.747259 0.747259 0.747259
0.749112 0.749112 0.749112
0.750962 0.750962 0.750962
0.752811 0.752811 0.752811
0.754658 0.754658 0.754658
0.756503 0.756503 0.756503
0.758346 0.758346 0.758346
0.760188 0.760188 0.760188
0.762027 0.762027 0.762027
0.763865 0.763865 0.763865
0.765701 0.765701 0.765701
0.767535 0.767535 0.767535
0.769368 0.769368 0.769368
0.771199 0.771199 0.771199
0.773029 0.773029 0.773029
0.774856 0.774856 0.774856
0.776682 0.776682 0.776682
0.778507 0.778507 0.778507
0.780330 0.780330 0.780330
0.782151 0.782151 0.782151
0.783971 0.783971 0.783971
0.785789 0.785789 0.785789
0.787606 0.787606 0.787606
0.789421 0.789421 0.789421
0.791234 0.791234 0.791234
0.793047 0.793047 0.793047
0.794857 0.794857 0.794857
0.796667 0.796667 0.796667
0.798475 0.798475 0.798475
0.800281 0.800281 0.800281
0.802086 0.802086 0.802086
0.803890 0.803890 0.803890
0.805692 0.805692 0.805692
0.807493 0.807493 0.807493
0.809293 0.809293 0.809293
0.811091 0.811091 0.811091
0.812888 0.812888 0.812888
0.814684 0.814684 0.814684
0.816479 0.816479 0.816479
0.818272 0.818272 0.818272
0.820064 0.820064 0.820064
0.821854 0.821854 0.821854
0.823644 0.823644 0.823644
0.825432 0.825432 0.825432
0.827219 0.827219 0.827219
0.829005 0.829005 0.829005
0.830790 0.830790 0.830790
0.832573 0.832573 0.832573
0.834356 0.834356 0.834356
0.836137 0.836137 0.836137
0.837917 0.837917 0.837917
0.839696 0.839696 0.839696
0.841474 0.841474 0.841474
0.843251 0.843251 0.843251
0.845027 0.845027 0.845027
0.846801 0.846801 0.846801
0.848575 0.848575 0.848575
0.850348 0.850348 0.850348
0.852119 0.852119 0.852119
0.853890 0.853890 0.853890
0.855659 0.855659 0.855659
0.857428 0.857428 0.857428
0.859195 0.859195 0.859195
0.860962 0.860962 0.860962
0.862727 0.862727 0.862727
0.864492 0.864492 0.864492
0.866256 0.866256 0.866256
0.868018 0.868018 0.868018
0.869780 0.869780 0.869780
0.871541 0.871541 0.871541
0.873301 0.873301 0.873301
0.875060 0.875060 0.875060
0.876818 0.876818 0.876818
0.878576 0.878576 0.878576
0.880332 0.880332 0.880332
0.882088 0.882088 0.882088
0.883842 0.883842 0.883842
0.885596 0.885596 0.885596
0.887349 0.887349 0.887349
0.889101 0.889101 0.889101
0.890852 0.890852 0.890852
0.892603 0.892603 0.892603
0.894353 0.894353 0.894353
0.896102 0.896102 0.896102
0.897850 0.897850 0.897850
0.899597 0.899597 0.899597
0.901344 0.901344 0.901344
0.903089 0.903089 0.903089
0.904834 0.904834 0.904834
0.906579 0.906579 0.906579
0.908322 0.908322 0.908322
0.910065 0.910065 0.910065
0.911807 0.911807 0.911807
0.913549 0.913549 0.913549
0.915289 0.915289 0.915289
0.917029 0.917029 0.917029
0.918768 0.918768 0.918768
0.920507 0.920507 0.920507
0.922245 0.922245 0.922245
0.923982 0.923982 0.923982
0.925718 0.925718 0.925718
0.927454 0.927454 0.927454
0.929190 0.929190 0.929190
0.930924 0.930924 0.930924
0.932658 0.932658 0.932658
0.934391 0.934391 0.934391
0.936124 0.936124 0.936124
0.937856 0.937856 0.937856
0.939587 0.939587 0.939587
0.941318 0.941318 0.941318
0.943048 0.943048 0.943048
0.944778 0.944778 0.944778
0.946507 0.946507 0.946507
0.948235 0.948235 0.948235
0.949963 0.949963 0.949963
0.951690 0.951690 0.951690
0.953417 0.953417 0.953417
0.955143 0.955143 0.955143
0.956868 0.956868 0.956868
0.958593 0.958593 0.958593
0.960318 0.960318 0.960318
0.962041 0.962041 0.962041
0.963765 0.963765 0.963765
0.965488 0.965488 0.965488
0.967210 0.967210 0.967210
0.968932 0.968932 0.968932
0.970653 0.970653 0.970653
0.972374 0.972374 0.972374
0.974094 0.974094 0.974094
0.975813 0.975813 0.975813
0.977533 0.977533 0.977533
0.979251 0.979251 0.979251
0.980970 0.980970 0.980970
0.982687 0.982687 0.982687
0.984405 0.984405 0.984405
0.986121 0.986121 0.986121
0.987838 0.987838 0.987838
0.989554 0.989554 0.989554
0.991269 0.991269 0.991269
0.992984 0.992984 0.992984
0.994698 0.994698 0.994698
0.996412 0.996412 0.996412
0.998126 0.998126 0.998126
0.999839 0.999839 0.999839
1.000000 1.000000 1.000000
1.000000 1.000000 1.000000
1.000000 1.000000 1.000000
1.000000 1.000000 1.000000
1.000000 1.000000 1.000000
1.000000 1.000000 1.000000
1.000000 1.000000 1.000000
1.000000 1.000000 1.000000
1.000000 1.000000 1.000000
1.000000 1.000000 1.000000
1.000000 1.000000 1.000000
1.000000 1.000000 1.000000
1.000000 1.000000 1.000000
1.000000 1.000000 1.000000
1.000000 1.000000 1.000000
1.000000 1.000000 1.000000
1.000000 1.000000 1.000000
1.000000 1.000000 1.000000
1.000000 1.000000 1.000000
1.000000 1.000000 1.000000
1.000000 1.000000 1.000000
1.000000 1.000000 1.000000
1.000000 1.000000 1.000000
1.000000 1.000000 1.000000
1.000000 1.000000 1.000000
1.000000 1.000000 1.000000
1.000000 1.000000 1.000000
1.000000 1.000000 1.000000
1.000000 1.000000 1.000000
1.000000 1.000000 1.000000
1.000000 1.000000 1.000000
1.000000 1.000000 1.000000
1.000000 1.000000 1.000000
1.000000 1.000000 1.000000
1.000000 1.000000 1.000000
1.000000 1.000000 1.000000
1.000000 1.000000 1.000000
1.000000 1.000000 1.000000
1.000000 1.000000 1.000000
1.000000 1.000000 1.000000
1.000000 1.000000 1.000000
1.000000 1.000000 1.000000
1.000000 1.000000 1.000000
1.000000 1.000000 1.000000
1.000000 1.000000 1.000000
1.000000 1.000000 1.000000
1.000000 1.000000 1.000000
1.000000 1.000000 1.000000
1.000000 1.000000 1.000000
1.000000 1.000000 1.000000
1.000000 1.000000 1.000000
1.000000 1.000000 1.000000
1.000000 1.000000 1.000000
1.000000 1.000000 1.000000
1.000000 1.000000 1.000000
1.000000 1.000000 1.000000
1.000000 1.000000 1.000000
1.000000 1.000000 1.000000
1.000000 1.000000 1.000000
1.000000 1.000000 1.000000
1.000000 1.000000 1.000000
1.000000 1.000000 1.000000
1.000000 1.000000 1.000000
1.000000 1.000000 1.000000
1.000000 1.000000 1.000000
1.000000 1.000000 1.000000
1.000000 1.000000 1.000000
1.000000 1.000000 1.000000
1.000000 1.000000 1.000000
1.000000 1.000000 1.000000
1.000000 1.000000 1.000000
1.000000 1.000000 1.000000
1.000000 1.000000 1.000000
1.000000 1.000000 1.000000
1.000000 1.000000 1.000000
1.000000 1.000000 1.000000
1.000000 1.000000 1.000000
1.000000 1.000000 1.000000
1.000000 1.000000 1.000000
1.000000 1.000000 1.000000
1.000000 1.000000 1.000000
1.000000 1.000000 1.000000
1.000000 1.000000 1.000000
1.000000 1.000000 1.000000
1.000000 1.000000 1.000000
1.000000 1.000000 1.000000
1.000000 1.000000 1.000000
1.000000 1.000000 1.000000
1.000000 1.000000 1.000000
1.000000 1.000000 1.000000
1.000000 1.000000 1.000000
1.000000 1.000000 1.000000
1.000000 1.000000 1.000000
1.000000 1.000000 1.000000
1.000000 1.000000 1.000000
1.000000 1.000000 1.000000
1.000000 1.000000 1.000000
1.000000 1.000000 1.000000
1.000000 1.000000 1.000000
1.000000 1.000000 1.000000
1.000000 1.000000 1.000000
1.000000 1.000000 1.000000
1.000000 1.000000 1.000000
1.000000 1.000000 1.000000
1.000000 1.000000 1.000000
1.000000 1.000000 1.000000
1.000000 1.000000 1.000000
1.000000 1.000000 1.000000
1.000000 1.000000 1.000000
1.000000 1.000000 1.000000
1.000000 1.000000 1.000000
1.000000 1.000000 1.000000
1.000000 1.000000 1.000000
1.000000 1.000000 1.000000
1.000000 1.000000 1.000000
1.000000 1.000000 1.000000
1.000000 1.000000 1.000000
1.000000 1.000000 1.000000
1.000000 1.000000 1.000000
1.000000 1.000000 1.000000
1.000000 1.000000 1.000000
1.000000 1.000000 1.000000
1.000000 1.000000 1.000000
1.000000 1.000000 1.000000
1.000000 1.000000 1.000000
1.000000 1.000000 1.000000
1.000000 1.000000 1.000000
1.000000 1.000000 1.000000
1.000000 1.000000 1.000000
1.000000 1.000000 1.000000
1.000000 1.000000 1.000000
1.000000 1.000000 1.000000
1.000000 1.000000 1.000000
1.000000 1.000000 1.000000
1.000000 1.000000 1.000000
1.000000 1.000000 1.000000
1.000000 1.000000 1.000000
1.000000 1.000000 1.000000
1.000000 1.000000 1.000000
1.000000 1.000000 1.000000
1.000000 1.000000 1.000000
1.000000 1.000000 1.000000
1.000000 1.000000 1.000000
1.000000 1.000000 1.000000
1.000000 1.000000 1.000000
1.000000 1.000000 1.000000
1.000000 1.000000 1.000000
1.000000 1.000000 1.000000
1.000000 1.000000 1.000000
1.000000 1.000000 1.000000
1.000000 1.000000 1.000000
1.000000 1.000000 1.000000
1.000000 1.000000 1.000000
1.000000 1.000000 1.000000
