Luts Download/Canon Luts/1dlut/canonlog2-to-gamma-1dlut/full-to-full-range/CanonLog2_10-to-WideDR_FF_Ver.2.0.cube
# Gamma : Canon Log 2 to Wide DR
# Range : Full in / Full out
# Version : 2.0 2016/10/27
# Copyright(c) 2016 Canon Inc. All Rights Reserved.

LUT_1D_SIZE 1024
0.000000 0.000000 0.000000
0.000000 0.000000 0.000000
0.000000 0.000000 0.000000
0.000000 0.000000 0.000000
0.000000 0.000000 0.000000
0.000000 0.000000 0.000000
0.000000 0.000000 0.000000
0.000000 0.000000 0.000000
0.000000 0.000000 0.000000
0.000000 0.000000 0.000000
0.000000 0.000000 0.000000
0.000000 0.000000 0.000000
0.000000 0.000000 0.000000
0.000000 0.000000 0.000000
0.000000 0.000000 0.000000
0.000000 0.000000 0.000000
0.000000 0.000000 0.000000
0.000000 0.000000 0.000000
0.000000 0.000000 0.000000
0.000000 0.000000 0.000000
0.000000 0.000000 0.000000
0.000000 0.000000 0.000000
0.000000 0.000000 0.000000
0.000000 0.000000 0.000000
0.000000 0.000000 0.000000
0.000000 0.000000 0.000000
0.000000 0.000000 0.000000
0.000000 0.000000 0.000000
0.000000 0.000000 0.000000
0.000000 0.000000 0.000000
0.000000 0.000000 0.000000
0.000000 0.000000 0.000000
0.000000 0.000000 0.000000
0.000000 0.000000 0.000000
0.000000 0.000000 0.000000
0.000000 0.000000 0.000000
0.000000 0.000000 0.000000
0.000000 0.000000 0.000000
0.000000 0.000000 0.000000
0.000000 0.000000 0.000000
0.000000 0.000000 0.000000
0.000000 0.000000 0.000000
0.000000 0.000000 0.000000
0.000000 0.000000 0.000000
0.000000 0.000000 0.000000
0.000000 0.000000 0.000000
0.000000 0.000000 0.000000
0.000000 0.000000 0.000000
0.000000 0.000000 0.000000
0.000000 0.000000 0.000000
0.000000 0.000000 0.000000
0.000000 0.000000 0.000000
0.000000 0.000000 0.000000
0.000000 0.000000 0.000000
0.000000 0.000000 0.000000
0.000000 0.000000 0.000000
0.000000 0.000000 0.000000
0.000000 0.000000 0.000000
0.000000 0.000000 0.000000
0.000000 0.000000 0.000000
0.000000 0.000000 0.000000
0.000000 0.000000 0.000000
0.000000 0.000000 0.000000
0.000000 0.000000 0.000000
0.000000 0.000000 0.000000
0.000000 0.000000 0.000000
0.000000 0.000000 0.000000
0.000000 0.000000 0.000000
0.000000 0.000000 0.000000
0.000000 0.000000 0.000000
0.000000 0.000000 0.000000
0.000000 0.000000 0.000000
0.000000 0.000000 0.000000
0.000000 0.000000 0.000000
0.000000 0.000000 0.000000
0.000000 0.000000 0.000000
0.000000 0.000000 0.000000
0.000000 0.000000 0.000000
0.000000 0.000000 0.000000
0.000000 0.000000 0.000000
0.000000 0.000000 0.000000
0.000000 0.000000 0.000000
0.000000 0.000000 0.000000
0.000000 0.000000 0.000000
0.000000 0.000000 0.000000
0.000000 0.000000 0.000000
0.000000 0.000000 0.000000
0.000000 0.000000 0.000000
0.000000 0.000000 0.000000
0.000000 0.000000 0.000000
0.000000 0.000000 0.000000
0.000000 0.000000 0.000000
0.000000 0.000000 0.000000
0.000000 0.000000 0.000000
0.000000 0.000000 0.000000
0.000000 0.000000 0.000000
0.000502 0.000502 0.000502
0.001008 0.001008 0.001008
0.001519 0.001519 0.001519
0.002035 0.002035 0.002035
0.002556 0.002556 0.002556
0.003081 0.003081 0.003081
0.003611 0.003611 0.003611
0.004145 0.004145 0.004145
0.004685 0.004685 0.004685
0.005228 0.005228 0.005228
0.005777 0.005777 0.005777
0.006330 0.006330 0.006330
0.006888 0.006888 0.006888
0.007450 0.007450 0.007450
0.008018 0.008018 0.008018
0.008589 0.008589 0.008589
0.009166 0.009166 0.009166
0.009747 0.009747 0.009747
0.010332 0.010332 0.010332
0.010923 0.010923 0.010923
0.011518 0.011518 0.011518
0.012117 0.012117 0.012117
0.012722 0.012722 0.012722
0.013331 0.013331 0.013331
0.013944 0.013944 0.013944
0.014563 0.014563 0.014563
0.015186 0.015186 0.015186
0.015814 0.015814 0.015814
0.016446 0.016446 0.016446
0.017083 0.017083 0.017083
0.017725 0.017725 0.017725
0.018372 0.018372 0.018372
0.019024 0.019024 0.019024
0.019680 0.019680 0.019680
0.020341 0.020341 0.020341
0.021007 0.021007 0.021007
0.021678 0.021678 0.021678
0.022353 0.022353 0.022353
0.023034 0.023034 0.023034
0.023719 0.023719 0.023719
0.024410 0.024410 0.024410
0.025105 0.025105 0.025105
0.025805 0.025805 0.025805
0.026510 0.026510 0.026510
0.027220 0.027220 0.027220
0.027935 0.027935 0.027935
0.028656 0.028656 0.028656
0.029381 0.029381 0.029381
0.030111 0.030111 0.030111
0.030847 0.030847 0.030847
0.031588 0.031588 0.031588
0.032333 0.032333 0.032333
0.033084 0.033084 0.033084
0.033841 0.033841 0.033841
0.034602 0.034602 0.034602
0.035369 0.035369 0.035369
0.036141 0.036141 0.036141
0.036919 0.036919 0.036919
0.037702 0.037702 0.037702
0.038490 0.038490 0.038490
0.039284 0.039284 0.039284
0.040083 0.040083 0.040083
0.040888 0.040888 0.040888
0.041698 0.041698 0.041698
0.042514 0.042514 0.042514
0.043335 0.043335 0.043335
0.044162 0.044162 0.044162
0.044995 0.044995 0.044995
0.045834 0.045834 0.045834
0.046678 0.046678 0.046678
0.047528 0.047528 0.047528
0.048384 0.048384 0.048384
0.049246 0.049246 0.049246
0.050114 0.050114 0.050114
0.050988 0.050988 0.050988
0.051868 0.051868 0.051868
0.052754 0.052754 0.052754
0.053646 0.053646 0.053646
0.054544 0.054544 0.054544
0.055448 0.055448 0.055448
0.056359 0.056359 0.056359
0.057276 0.057276 0.057276
0.058199 0.058199 0.058199
0.059129 0.059129 0.059129
0.060065 0.060065 0.060065
0.061007 0.061007 0.061007
0.061956 0.061956 0.061956
0.062912 0.062912 0.062912
0.063874 0.063874 0.063874
0.064843 0.064843 0.064843
0.065818 0.065818 0.065818
0.066801 0.066801 0.066801
0.067790 0.067790 0.067790
0.068786 0.068786 0.068786
0.069789 0.069789 0.069789
0.070799 0.070799 0.070799
0.071816 0.071816 0.071816
0.072840 0.072840 0.072840
0.073871 0.073871 0.073871
0.074909 0.074909 0.074909
0.075955 0.075955 0.075955
0.077120 0.077120 0.077120
0.078174 0.078174 0.078174
0.079232 0.079232 0.079232
0.080291 0.080291 0.080291
0.081354 0.081354 0.081354
0.082419 0.082419 0.082419
0.083488 0.083488 0.083488
0.084558 0.084558 0.084558
0.085632 0.085632 0.085632
0.086709 0.086709 0.086709
0.087789 0.087789 0.087789
0.088871 0.088871 0.088871
0.089957 0.089957 0.089957
0.091045 0.091045 0.091045
0.092137 0.092137 0.092137
0.093232 0.093232 0.093232
0.094329 0.094329 0.094329
0.095430 0.095430 0.095430
0.096534 0.096534 0.096534
0.097642 0.097642 0.097642
0.098752 0.098752 0.098752
0.099866 0.099866 0.099866
0.100983 0.100983 0.100983
0.102104 0.102104 0.102104
0.103228 0.103228 0.103228
0.104355 0.104355 0.104355
0.105486 0.105486 0.105486
0.106620 0.106620 0.106620
0.107758 0.107758 0.107758
0.108899 0.108899 0.108899
0.110043 0.110043 0.110043
0.111192 0.111192 0.111192
0.112344 0.112344 0.112344
0.113499 0.113499 0.113499
0.114658 0.114658 0.114658
0.115821 0.115821 0.115821
0.116988 0.116988 0.116988
0.118158 0.118158 0.118158
0.119332 0.119332 0.119332
0.120510 0.120510 0.120510
0.121691 0.121691 0.121691
0.122877 0.122877 0.122877
0.124066 0.124066 0.124066
0.125260 0.125260 0.125260
0.126457 0.126457 0.126457
0.127658 0.127658 0.127658
0.128863 0.128863 0.128863
0.130072 0.130072 0.130072
0.131286 0.131286 0.131286
0.132503 0.132503 0.132503
0.133724 0.133724 0.133724
0.134950 0.134950 0.134950
0.136179 0.136179 0.136179
0.137413 0.137413 0.137413
0.138651 0.138651 0.138651
0.139893 0.139893 0.139893
0.141140 0.141140 0.141140
0.142391 0.142391 0.142391
0.143646 0.143646 0.143646
0.144905 0.144905 0.144905
0.146169 0.146169 0.146169
0.147437 0.147437 0.147437
0.148709 0.148709 0.148709
0.149986 0.149986 0.149986
0.151267 0.151267 0.151267
0.152553 0.152553 0.152553
0.153843 0.153843 0.153843
0.155138 0.155138 0.155138
0.156437 0.156437 0.156437
0.157741 0.157741 0.157741
0.159050 0.159050 0.159050
0.160363 0.160363 0.160363
0.161680 0.161680 0.161680
0.163003 0.163003 0.163003
0.164329 0.164329 0.164329
0.165661 0.165661 0.165661
0.166998 0.166998 0.166998
0.168339 0.168339 0.168339
0.169685 0.169685 0.169685
0.171035 0.171035 0.171035
0.172391 0.172391 0.172391
0.173751 0.173751 0.173751
0.175116 0.175116 0.175116
0.176486 0.176486 0.176486
0.177861 0.177861 0.177861
0.179241 0.179241 0.179241
0.180625 0.180625 0.180625
0.182015 0.182015 0.182015
0.183410 0.183410 0.183410
0.184809 0.184809 0.184809
0.186214 0.186214 0.186214
0.187624 0.187624 0.187624
0.189038 0.189038 0.189038
0.190458 0.190458 0.190458
0.191883 0.191883 0.191883
0.193313 0.193313 0.193313
0.194748 0.194748 0.194748
0.196189 0.196189 0.196189
0.197634 0.197634 0.197634
0.199085 0.199085 0.199085
0.200541 0.200541 0.200541
0.202002 0.202002 0.202002
0.203468 0.203468 0.203468
0.204940 0.204940 0.204940
0.206416 0.206416 0.206416
0.207899 0.207899 0.207899
0.209386 0.209386 0.209386
0.210879 0.210879 0.210879
0.212377 0.212377 0.212377
0.213881 0.213881 0.213881
0.215390 0.215390 0.215390
0.216904 0.216904 0.216904
0.218424 0.218424 0.218424
0.219949 0.219949 0.219949
0.221479 0.221479 0.221479
0.223015 0.223015 0.223015
0.224557 0.224557 0.224557
0.226104 0.226104 0.226104
0.227657 0.227657 0.227657
0.229215 0.229215 0.229215
0.230779 0.230779 0.230779
0.232348 0.232348 0.232348
0.233923 0.233923 0.233923
0.235503 0.235503 0.235503
0.237089 0.237089 0.237089
0.238681 0.238681 0.238681
0.240278 0.240278 0.240278
0.241881 0.241881 0.241881
0.243490 0.243490 0.243490
0.245104 0.245104 0.245104
0.246724 0.246724 0.246724
0.248350 0.248350 0.248350
0.249981 0.249981 0.249981
0.251618 0.251618 0.251618
0.253261 0.253261 0.253261
0.254910 0.254910 0.254910
0.256564 0.256564 0.256564
0.258224 0.258224 0.258224
0.259890 0.259890 0.259890
0.261562 0.261562 0.261562
0.263240 0.263240 0.263240
0.264923 0.264923 0.264923
0.266613 0.266613 0.266613
0.268308 0.268308 0.268308
0.270009 0.270009 0.270009
0.271716 0.271716 0.271716
0.273429 0.273429 0.273429
0.275147 0.275147 0.275147
0.276872 0.276872 0.276872
0.278602 0.278602 0.278602
0.280339 0.280339 0.280339
0.282081 0.282081 0.282081
0.283830 0.283830 0.283830
0.285584 0.285584 0.285584
0.287345 0.287345 0.287345
0.289111 0.289111 0.289111
0.290883 0.290883 0.290883
0.292662 0.292662 0.292662
0.294446 0.294446 0.294446
0.296236 0.296236 0.296236
0.298033 0.298033 0.298033
0.299835 0.299835 0.299835
0.301644 0.301644 0.301644
0.303458 0.303458 0.303458
0.305279 0.305279 0.305279
0.307106 0.307106 0.307106
0.308938 0.308938 0.308938
0.310777 0.310777 0.310777
0.312622 0.312622 0.312622
0.314473 0.314473 0.314473
0.316330 0.316330 0.316330
0.318194 0.318194 0.318194
0.320063 0.320063 0.320063
0.321938 0.321938 0.321938
0.323820 0.323820 0.323820
0.325708 0.325708 0.325708
0.327602 0.327602 0.327602
0.329502 0.329502 0.329502
0.331408 0.331408 0.331408
0.333321 0.333321 0.333321
0.335239 0.335239 0.335239
0.337164 0.337164 0.337164
0.339095 0.339095 0.339095
0.341032 0.341032 0.341032
0.342975 0.342975 0.342975
0.344925 0.344925 0.344925
0.346881 0.346881 0.346881
0.348843 0.348843 0.348843
0.350811 0.350811 0.350811
0.352785 0.352785 0.352785
0.354766 0.354766 0.354766
0.356752 0.356752 0.356752
0.358745 0.358745 0.358745
0.360744 0.360744 0.360744
0.362750 0.362750 0.362750
0.364762 0.364762 0.364762
0.366779 0.366779 0.366779
0.368804 0.368804 0.368804
0.370834 0.370834 0.370834
0.372871 0.372871 0.372871
0.374913 0.374913 0.374913
0.376962 0.376962 0.376962
0.379018 0.379018 0.379018
0.381079 0.381079 0.381079
0.383147 0.383147 0.383147
0.385221 0.385221 0.385221
0.387302 0.387302 0.387302
0.389388 0.389388 0.389388
0.391481 0.391481 0.391481
0.393580 0.393580 0.393580
0.395685 0.395685 0.395685
0.397797 0.397797 0.397797
0.399915 0.399915 0.399915
0.402039 0.402039 0.402039
0.404169 0.404169 0.404169
0.406306 0.406306 0.406306
0.408449 0.408449 0.408449
0.410598 0.410598 0.410598
0.412753 0.412753 0.412753
0.414915 0.414915 0.414915
0.417083 0.417083 0.417083
0.419257 0.419257 0.419257
0.421437 0.421437 0.421437
0.423624 0.423624 0.423624
0.425817 0.425817 0.425817
0.428016 0.428016 0.428016
0.430222 0.430222 0.430222
0.432433 0.432433 0.432433
0.434651 0.434651 0.434651
0.436875 0.436875 0.436875
0.439105 0.439105 0.439105
0.441342 0.441342 0.441342
0.443585 0.443585 0.443585
0.445834 0.445834 0.445834
0.448089 0.448089 0.448089
0.450351 0.450351 0.450351
0.452618 0.452618 0.452618
0.454892 0.454892 0.454892
0.457165 0.457165 0.457165
0.459430 0.459430 0.459430
0.461686 0.461686 0.461686
0.463933 0.463933 0.463933
0.466173 0.466173 0.466173
0.468405 0.468405 0.468405
0.470629 0.470629 0.470629
0.472845 0.472845 0.472845
0.475055 0.475055 0.475055
0.477257 0.477257 0.477257
0.479453 0.479453 0.479453
0.481641 0.481641 0.481641
0.483823 0.483823 0.483823
0.485999 0.485999 0.485999
0.488169 0.488169 0.488169
0.490332 0.490332 0.490332
0.492489 0.492489 0.492489
0.494641 0.494641 0.494641
0.496786 0.496786 0.496786
0.498926 0.498926 0.498926
0.501061 0.501061 0.501061
0.503190 0.503190 0.503190
0.505313 0.505313 0.505313
0.507432 0.507432 0.507432
0.509545 0.509545 0.509545
0.511654 0.511654 0.511654
0.513757 0.513757 0.513757
0.515856 0.515856 0.515856
0.517950 0.517950 0.517950
0.520039 0.520039 0.520039
0.522124 0.522124 0.522124
0.524204 0.524204 0.524204
0.526280 0.526280 0.526280
0.528351 0.528351 0.528351
0.530418 0.530418 0.530418
0.532481 0.532481 0.532481
0.534539 0.534539 0.534539
0.536594 0.536594 0.536594
0.538644 0.538644 0.538644
0.540690 0.540690 0.540690
0.542733 0.542733 0.542733
0.544771 0.544771 0.544771
0.546805 0.546805 0.546805
0.548836 0.548836 0.548836
0.550863 0.550863 0.550863
0.552886 0.552886 0.552886
0.554905 0.554905 0.554905
0.556921 0.556921 0.556921
0.558933 0.558933 0.558933
0.560941 0.560941 0.560941
0.562946 0.562946 0.562946
0.564947 0.564947 0.564947
0.566945 0.566945 0.566945
0.568939 0.568939 0.568939
0.570930 0.570930 0.570930
0.572917 0.572917 0.572917
0.574901 0.574901 0.574901
0.576881 0.576881 0.576881
0.578858 0.578858 0.578858
0.580832 0.580832 0.580832
0.582802 0.582802 0.582802
0.584769 0.584769 0.584769
0.586733 0.586733 0.586733
0.588693 0.588693 0.588693
0.590650 0.590650 0.590650
0.592604 0.592604 0.592604
0.594554 0.594554 0.594554
0.596501 0.596501 0.596501
0.598445 0.598445 0.598445
0.600386 0.600386 0.600386
0.602323 0.602323 0.602323
0.604257 0.604257 0.604257
0.606188 0.606188 0.606188
0.608116 0.608116 0.608116
0.610040 0.610040 0.610040
0.611962 0.611962 0.611962
0.613880 0.613880 0.613880
0.615794 0.615794 0.615794
0.617706 0.617706 0.617706
0.619614 0.619614 0.619614
0.621519 0.621519 0.621519
0.623421 0.623421 0.623421
0.625320 0.625320 0.625320
0.627215 0.627215 0.627215
0.629108 0.629108 0.629108
0.630996 0.630996 0.630996
0.632882 0.632882 0.632882
0.634765 0.634765 0.634765
0.636644 0.636644 0.636644
0.638520 0.638520 0.638520
0.640392 0.640392 0.640392
0.642262 0.642262 0.642262
0.644128 0.644128 0.644128
0.645990 0.645990 0.645990
0.647850 0.647850 0.647850
0.649706 0.649706 0.649706
0.651559 0.651559 0.651559
0.653408 0.653408 0.653408
0.655254 0.655254 0.655254
0.657097 0.657097 0.657097
0.658936 0.658936 0.658936
0.660772 0.660772 0.660772
0.662605 0.662605 0.662605
0.664434 0.664434 0.664434
0.666260 0.666260 0.666260
0.668082 0.668082 0.668082
0.669901 0.669901 0.669901
0.671716 0.671716 0.671716
0.673528 0.673528 0.673528
0.675337 0.675337 0.675337
0.677142 0.677142 0.677142
0.678943 0.678943 0.678943
0.680741 0.680741 0.680741
0.682535 0.682535 0.682535
0.684326 0.684326 0.684326
0.686113 0.686113 0.686113
0.687896 0.687896 0.687896
0.689676 0.689676 0.689676
0.691452 0.691452 0.691452
0.693225 0.693225 0.693225
0.694994 0.694994 0.694994
0.696759 0.696759 0.696759
0.698520 0.698520 0.698520
0.700278 0.700278 0.700278
0.702032 0.702032 0.702032
0.703782 0.703782 0.703782
0.705528 0.705528 0.705528
0.707271 0.707271 0.707271
0.709010 0.709010 0.709010
0.710744 0.710744 0.710744
0.712475 0.712475 0.712475
0.714203 0.714203 0.714203
0.715926 0.715926 0.715926
0.717645 0.717645 0.717645
0.719360 0.719360 0.719360
0.721072 0.721072 0.721072
0.722779 0.722779 0.722779
0.724483 0.724483 0.724483
0.726182 0.726182 0.726182
0.727877 0.727877 0.727877
0.729569 0.729569 0.729569
0.731256 0.731256 0.731256
0.732939 0.732939 0.732939
0.734618 0.734618 0.734618
0.736293 0.736293 0.736293
0.737963 0.737963 0.737963
0.739630 0.739630 0.739630
0.741292 0.741292 0.741292
0.742950 0.742950 0.742950
0.744604 0.744604 0.744604
0.746254 0.746254 0.746254
0.747899 0.747899 0.747899
0.749540 0.749540 0.749540
0.751177 0.751177 0.751177
0.752809 0.752809 0.752809
0.754437 0.754437 0.754437
0.756060 0.756060 0.756060
0.757680 0.757680 0.757680
0.759294 0.759294 0.759294
0.760905 0.760905 0.760905
0.762511 0.762511 0.762511
0.764112 0.764112 0.764112
0.765709 0.765709 0.765709
0.767301 0.767301 0.767301
0.768889 0.768889 0.768889
0.770472 0.770472 0.770472
0.772051 0.772051 0.772051
0.773625 0.773625 0.773625
0.775195 0.775195 0.775195
0.776760 0.776760 0.776760
0.778320 0.778320 0.778320
0.779876 0.779876 0.779876
0.781427 0.781427 0.781427
0.782973 0.782973 0.782973
0.784514 0.784514 0.784514
0.786051 0.786051 0.786051
0.787583 0.787583 0.787583
0.789110 0.789110 0.789110
0.790633 0.790633 0.790633
0.792151 0.792151 0.792151
0.793664 0.793664 0.793664
0.795172 0.795172 0.795172
0.796675 0.796675 0.796675
0.798173 0.798173 0.798173
0.799667 0.799667 0.799667
0.801155 0.801155 0.801155
0.802639 0.802639 0.802639
0.804118 0.804118 0.804118
0.805592 0.805592 0.805592
0.807061 0.807061 0.807061
0.808525 0.808525 0.808525
0.809984 0.809984 0.809984
0.811438 0.811438 0.811438
0.812887 0.812887 0.812887
0.814331 0.814331 0.814331
0.815770 0.815770 0.815770
0.817204 0.817204 0.817204
0.818632 0.818632 0.818632
0.820056 0.820056 0.820056
0.821475 0.821475 0.821475
0.822889 0.822889 0.822889
0.824297 0.824297 0.824297
0.825701 0.825701 0.825701
0.827099 0.827099 0.827099
0.828493 0.828493 0.828493
0.829881 0.829881 0.829881
0.831264 0.831264 0.831264
0.832642 0.832642 0.832642
0.834015 0.834015 0.834015
0.835382 0.835382 0.835382
0.836745 0.836745 0.836745
0.838102 0.838102 0.838102
0.839454 0.839454 0.839454
0.840801 0.840801 0.840801
0.842143 0.842143 0.842143
0.843479 0.843479 0.843479
0.844811 0.844811 0.844811
0.846137 0.846137 0.846137
0.847458 0.847458 0.847458
0.848773 0.848773 0.848773
0.850084 0.850084 0.850084
0.851389 0.851389 0.851389
0.852689 0.852689 0.852689
0.853984 0.853984 0.853984
0.855274 0.855274 0.855274
0.856559 0.856559 0.856559
0.857838 0.857838 0.857838
0.859112 0.859112 0.859112
0.860381 0.860381 0.860381
0.861645 0.861645 0.861645
0.862903 0.862903 0.862903
0.864156 0.864156 0.864156
0.865404 0.865404 0.865404
0.866647 0.866647 0.866647
0.867885 0.867885 0.867885
0.869117 0.869117 0.869117
0.870345 0.870345 0.870345
0.871567 0.871567 0.871567
0.872784 0.872784 0.872784
0.873996 0.873996 0.873996
0.875202 0.875202 0.875202
0.876404 0.876404 0.876404
0.877600 0.877600 0.877600
0.878791 0.878791 0.878791
0.879978 0.879978 0.879978
0.881159 0.881159 0.881159
0.882335 0.882335 0.882335
0.883505 0.883505 0.883505
0.884671 0.884671 0.884671
0.885832 0.885832 0.885832
0.886988 0.886988 0.886988
0.888138 0.888138 0.888138
0.889284 0.889284 0.889284
0.890425 0.890425 0.890425
0.891560 0.891560 0.891560
0.892691 0.892691 0.892691
0.893817 0.893817 0.893817
0.894938 0.894938 0.894938
0.896054 0.896054 0.896054
0.897165 0.897165 0.897165
0.898271 0.898271 0.898271
0.899373 0.899373 0.899373
0.900469 0.900469 0.900469
0.901561 0.901561 0.901561
0.902648 0.902648 0.902648
0.903730 0.903730 0.903730
0.904808 0.904808 0.904808
0.905880 0.905880 0.905880
0.906948 0.906948 0.906948
0.908012 0.908012 0.908012
0.909071 0.909071 0.909071
0.910125 0.910125 0.910125
0.911175 0.911175 0.911175
0.912220 0.912220 0.912220
0.913261 0.913261 0.913261
0.914297 0.914297 0.914297
0.915329 0.915329 0.915329
0.916356 0.916356 0.916356
0.917379 0.917379 0.917379
0.918398 0.918398 0.918398
0.919412 0.919412 0.919412
0.920422 0.920422 0.920422
0.921428 0.921428 0.921428
0.922430 0.922430 0.922430
0.923427 0.923427 0.923427
0.924421 0.924421 0.924421
0.925410 0.925410 0.925410
0.926396 0.926396 0.926396
0.927377 0.927377 0.927377
0.928354 0.928354 0.928354
0.929328 0.929328 0.929328
0.930298 0.930298 0.930298
0.931264 0.931264 0.931264
0.932226 0.932226 0.932226
0.933184 0.933184 0.933184
0.934139 0.934139 0.934139
0.935090 0.935090 0.935090
0.936038 0.936038 0.936038
0.936982 0.936982 0.936982
0.937923 0.937923 0.937923
0.938860 0.938860 0.938860
0.939794 0.939794 0.939794
0.940725 0.940725 0.940725
0.941653 0.941653 0.941653
0.942577 0.942577 0.942577
0.943498 0.943498 0.943498
0.944416 0.944416 0.944416
0.945332 0.945332 0.945332
0.946244 0.946244 0.946244
0.947153 0.947153 0.947153
0.948060 0.948060 0.948060
0.948964 0.948964 0.948964
0.949865 0.949865 0.949865
0.950764 0.950764 0.950764
0.951660 0.951660 0.951660
0.952553 0.952553 0.952553
0.953444 0.953444 0.953444
0.954333 0.954333 0.954333
0.955220 0.955220 0.955220
0.956105 0.956105 0.956105
0.956987 0.956987 0.956987
0.957867 0.957867 0.957867
0.958746 0.958746 0.958746
0.959622 0.959622 0.959622
0.960497 0.960497 0.960497
0.961370 0.961370 0.961370
0.962242 0.962242 0.962242
0.963111 0.963111 0.963111
0.963980 0.963980 0.963980
0.964847 0.964847 0.964847
0.965713 0.965713 0.965713
0.966577 0.966577 0.966577
0.967441 0.967441 0.967441
0.968303 0.968303 0.968303
0.969165 0.969165 0.969165
0.970025 0.970025 0.970025
0.970885 0.970885 0.970885
0.971745 0.971745 0.971745
0.972603 0.972603 0.972603
0.973462 0.973462 0.973462
0.974320 0.974320 0.974320
0.975177 0.975177 0.975177
0.976035 0.976035 0.976035
0.976892 0.976892 0.976892
0.977750 0.977750 0.977750
0.978607 0.978607 0.978607
0.979465 0.979465 0.979465
0.980324 0.980324 0.980324
0.981182 0.981182 0.981182
0.982042 0.982042 0.982042
0.982902 0.982902 0.982902
0.983763 0.983763 0.983763
0.984624 0.984624 0.984624
0.985487 0.985487 0.985487
0.986351 0.986351 0.986351
0.987217 0.987217 0.987217
0.988083 0.988083 0.988083
0.988952 0.988952 0.988952
0.989821 0.989821 0.989821
0.990693 0.990693 0.990693
0.991567 0.991567 0.991567
0.992442 0.992442 0.992442
0.993320 0.993320 0.993320
0.994200 0.994200 0.994200
0.995082 0.995082 0.995082
0.995967 0.995967 0.995967
0.996855 0.996855 0.996855
0.997745 0.997745 0.997745
0.998638 0.998638 0.998638
0.999535 0.999535 0.999535
1.000000 1.000000 1.000000
1.000000 1.000000 1.000000
1.000000 1.000000 1.000000
1.000000 1.000000 1.000000
1.000000 1.000000 1.000000
1.000000 1.000000 1.000000
1.000000 1.000000 1.000000
1.000000 1.000000 1.000000
1.000000 1.000000 1.000000
1.000000 1.000000 1.000000
1.000000 1.000000 1.000000
1.000000 1.000000 1.000000
1.000000 1.000000 1.000000
1.000000 1.000000 1.000000
1.000000 1.000000 1.000000
1.000000 1.000000 1.000000
1.000000 1.000000 1.000000
1.000000 1.000000 1.000000
1.000000 1.000000 1.000000
1.000000 1.000000 1.000000
1.000000 1.000000 1.000000
1.000000 1.000000 1.000000
1.000000 1.000000 1.000000
1.000000 1.000000 1.000000
1.000000 1.000000 1.000000
1.000000 1.000000 1.000000
1.000000 1.000000 1.000000
1.000000 1.000000 1.000000
1.000000 1.000000 1.000000
1.000000 1.000000 1.000000
1.000000 1.000000 1.000000
1.000000 1.000000 1.000000
1.000000 1.000000 1.000000
1.000000 1.000000 1.000000
1.000000 1.000000 1.000000
1.000000 1.000000 1.000000
1.000000 1.000000 1.000000
1.000000 1.000000 1.000000
1.000000 1.000000 1.000000
1.000000 1.000000 1.000000
1.000000 1.000000 1.000000
1.000000 1.000000 1.000000
1.000000 1.000000 1.000000
1.000000 1.000000 1.000000
1.000000 1.000000 1.000000
1.000000 1.000000 1.000000
1.000000 1.000000 1.000000
1.000000 1.000000 1.000000
1.000000 1.000000 1.000000
1.000000 1.000000 1.000000
1.000000 1.000000 1.000000
1.000000 1.000000 1.000000
1.000000 1.000000 1.000000
1.000000 1.000000 1.000000
1.000000 1.000000 1.000000
1.000000 1.000000 1.000000
1.000000 1.000000 1.000000
1.000000 1.000000 1.000000
1.000000 1.000000 1.000000
1.000000 1.000000 1.000000
1.000000 1.000000 1.000000
1.000000 1.000000 1.000000
1.000000 1.000000 1.000000
1.000000 1.000000 1.000000
1.000000 1.000000 1.000000
1.000000 1.000000 1.000000
1.000000 1.000000 1.000000
1.000000 1.000000 1.000000
1.000000 1.000000 1.000000
1.000000 1.000000 1.000000
1.000000 1.000000 1.000000
1.000000 1.000000 1.000000
1.000000 1.000000 1.000000
1.000000 1.000000 1.000000
1.000000 1.000000 1.000000
1.000000 1.000000 1.000000
1.000000 1.000000 1.000000
1.000000 1.000000 1.000000
