Luts Download/Canon Luts/1dlut/canonlog2-to-gamma-1dlut/full-to-full-range/CanonLog2_10-to-DCI_FF_Ver.2.0.cube
# Gamma : Canon Log 2 to DCI
# Range : Full in / Full out
# Version : 2.0 2016/10/27
# Copyright(c) 2016 Canon Inc. All Rights Reserved.

LUT_1D_SIZE 1024
0.000000 0.000000 0.000000
0.000000 0.000000 0.000000
0.000000 0.000000 0.000000
0.000000 0.000000 0.000000
0.000000 0.000000 0.000000
0.000000 0.000000 0.000000
0.000000 0.000000 0.000000
0.000000 0.000000 0.000000
0.000000 0.000000 0.000000
0.000000 0.000000 0.000000
0.000000 0.000000 0.000000
0.000000 0.000000 0.000000
0.000000 0.000000 0.000000
0.000000 0.000000 0.000000
0.000000 0.000000 0.000000
0.000000 0.000000 0.000000
0.000000 0.000000 0.000000
0.000000 0.000000 0.000000
0.000000 0.000000 0.000000
0.000000 0.000000 0.000000
0.000000 0.000000 0.000000
0.000000 0.000000 0.000000
0.000000 0.000000 0.000000
0.000000 0.000000 0.000000
0.000000 0.000000 0.000000
0.000000 0.000000 0.000000
0.000000 0.000000 0.000000
0.000000 0.000000 0.000000
0.000000 0.000000 0.000000
0.000000 0.000000 0.000000
0.000000 0.000000 0.000000
0.000000 0.000000 0.000000
0.000000 0.000000 0.000000
0.000000 0.000000 0.000000
0.000000 0.000000 0.000000
0.000000 0.000000 0.000000
0.000000 0.000000 0.000000
0.000000 0.000000 0.000000
0.000000 0.000000 0.000000
0.000000 0.000000 0.000000
0.000000 0.000000 0.000000
0.000000 0.000000 0.000000
0.000000 0.000000 0.000000
0.000000 0.000000 0.000000
0.000000 0.000000 0.000000
0.000000 0.000000 0.000000
0.000000 0.000000 0.000000
0.000000 0.000000 0.000000
0.000000 0.000000 0.000000
0.000000 0.000000 0.000000
0.000000 0.000000 0.000000
0.000000 0.000000 0.000000
0.000000 0.000000 0.000000
0.000000 0.000000 0.000000
0.000000 0.000000 0.000000
0.000000 0.000000 0.000000
0.000000 0.000000 0.000000
0.000000 0.000000 0.000000
0.000000 0.000000 0.000000
0.000000 0.000000 0.000000
0.000000 0.000000 0.000000
0.000000 0.000000 0.000000
0.000000 0.000000 0.000000
0.000000 0.000000 0.000000
0.000000 0.000000 0.000000
0.000000 0.000000 0.000000
0.000000 0.000000 0.000000
0.000000 0.000000 0.000000
0.000000 0.000000 0.000000
0.000000 0.000000 0.000000
0.000000 0.000000 0.000000
0.000000 0.000000 0.000000
0.000000 0.000000 0.000000
0.000000 0.000000 0.000000
0.000000 0.000000 0.000000
0.000000 0.000000 0.000000
0.000000 0.000000 0.000000
0.000000 0.000000 0.000000
0.000000 0.000000 0.000000
0.000000 0.000000 0.000000
0.000000 0.000000 0.000000
0.000000 0.000000 0.000000
0.000000 0.000000 0.000000
0.000000 0.000000 0.000000
0.000000 0.000000 0.000000
0.000000 0.000000 0.000000
0.000000 0.000000 0.000000
0.000000 0.000000 0.000000
0.000000 0.000000 0.000000
0.000000 0.000000 0.000000
0.000000 0.000000 0.000000
0.000000 0.000000 0.000000
0.000000 0.000000 0.000000
0.000000 0.000000 0.000000
0.000000 0.000000 0.000000
0.000000 0.000000 0.000000
0.000505 0.000505 0.000505
0.001014 0.001014 0.001014
0.001529 0.001529 0.001529
0.002048 0.002048 0.002048
0.002572 0.002572 0.002572
0.003101 0.003101 0.003101
0.003635 0.003635 0.003635
0.004174 0.004174 0.004174
0.004718 0.004718 0.004718
0.005267 0.005267 0.005267
0.005821 0.005821 0.005821
0.006380 0.006380 0.006380
0.006945 0.006945 0.006945
0.007515 0.007515 0.007515
0.008090 0.008090 0.008090
0.008671 0.008671 0.008671
0.009257 0.009257 0.009257
0.009848 0.009848 0.009848
0.010446 0.010446 0.010446
0.011048 0.011048 0.011048
0.011657 0.011657 0.011657
0.012271 0.012271 0.012271
0.012890 0.012890 0.012890
0.013516 0.013516 0.013516
0.014148 0.014148 0.014148
0.014785 0.014785 0.014785
0.015428 0.015428 0.015428
0.016078 0.016078 0.016078
0.016733 0.016733 0.016733
0.017395 0.017395 0.017395
0.018063 0.018063 0.018063
0.018737 0.018737 0.018737
0.019417 0.019417 0.019417
0.020104 0.020104 0.020104
0.020797 0.020797 0.020797
0.021497 0.021497 0.021497
0.022203 0.022203 0.022203
0.022916 0.022916 0.022916
0.023636 0.023636 0.023636
0.024362 0.024362 0.024362
0.025095 0.025095 0.025095
0.025835 0.025835 0.025835
0.026582 0.026582 0.026582
0.027336 0.027336 0.027336
0.028097 0.028097 0.028097
0.028865 0.028865 0.028865
0.029640 0.029640 0.029640
0.030423 0.030423 0.030423
0.031212 0.031212 0.031212
0.032010 0.032010 0.032010
0.032814 0.032814 0.032814
0.033627 0.033627 0.033627
0.034447 0.034447 0.034447
0.035274 0.035274 0.035274
0.036110 0.036110 0.036110
0.036953 0.036953 0.036953
0.037804 0.037804 0.037804
0.038663 0.038663 0.038663
0.039530 0.039530 0.039530
0.040405 0.040405 0.040405
0.041289 0.041289 0.041289
0.042180 0.042180 0.042180
0.043080 0.043080 0.043080
0.043989 0.043989 0.043989
0.044906 0.044906 0.044906
0.045831 0.045831 0.045831
0.046766 0.046766 0.046766
0.047709 0.047709 0.047709
0.048660 0.048660 0.048660
0.049621 0.049621 0.049621
0.050591 0.050591 0.050591
0.051570 0.051570 0.051570
0.052558 0.052558 0.052558
0.053555 0.053555 0.053555
0.054562 0.054562 0.054562
0.055578 0.055578 0.055578
0.056603 0.056603 0.056603
0.057638 0.057638 0.057638
0.058683 0.058683 0.058683
0.059738 0.059738 0.059738
0.060803 0.060803 0.060803
0.061877 0.061877 0.061877
0.062962 0.062962 0.062962
0.064056 0.064056 0.064056
0.065161 0.065161 0.065161
0.066277 0.066277 0.066277
0.067403 0.067403 0.067403
0.068539 0.068539 0.068539
0.069686 0.069686 0.069686
0.070844 0.070844 0.070844
0.072012 0.072012 0.072012
0.073192 0.073192 0.073192
0.074382 0.074382 0.074382
0.075584 0.075584 0.075584
0.076797 0.076797 0.076797
0.078021 0.078021 0.078021
0.079257 0.079257 0.079257
0.080505 0.080505 0.080505
0.081764 0.081764 0.081764
0.083035 0.083035 0.083035
0.084318 0.084318 0.084318
0.085612 0.085612 0.085612
0.086919 0.086919 0.086919
0.088239 0.088239 0.088239
0.089570 0.089570 0.089570
0.090914 0.090914 0.090914
0.092271 0.092271 0.092271
0.093640 0.093640 0.093640
0.095022 0.095022 0.095022
0.096417 0.096417 0.096417
0.097826 0.097826 0.097826
0.099247 0.099247 0.099247
0.100682 0.100682 0.100682
0.102130 0.102130 0.102130
0.103591 0.103591 0.103591
0.105057 0.105057 0.105057
0.106524 0.106524 0.106524
0.107992 0.107992 0.107992
0.109461 0.109461 0.109461
0.110931 0.110931 0.110931
0.112403 0.112403 0.112403
0.113875 0.113875 0.113875
0.115349 0.115349 0.115349
0.116825 0.116825 0.116825
0.118301 0.118301 0.118301
0.119779 0.119779 0.119779
0.121259 0.121259 0.121259
0.122740 0.122740 0.122740
0.124223 0.124223 0.124223
0.125707 0.125707 0.125707
0.127194 0.127194 0.127194
0.128681 0.128681 0.128681
0.130171 0.130171 0.130171
0.131663 0.131663 0.131663
0.133156 0.133156 0.133156
0.134652 0.134652 0.134652
0.136149 0.136149 0.136149
0.137649 0.137649 0.137649
0.139151 0.139151 0.139151
0.140654 0.140654 0.140654
0.142160 0.142160 0.142160
0.143669 0.143669 0.143669
0.145179 0.145179 0.145179
0.146692 0.146692 0.146692
0.148207 0.148207 0.148207
0.149725 0.149725 0.149725
0.151245 0.151245 0.151245
0.152767 0.152767 0.152767
0.154292 0.154292 0.154292
0.155820 0.155820 0.155820
0.157350 0.157350 0.157350
0.158883 0.158883 0.158883
0.160418 0.160418 0.160418
0.161957 0.161957 0.161957
0.163498 0.163498 0.163498
0.165041 0.165041 0.165041
0.166588 0.166588 0.166588
0.168138 0.168138 0.168138
0.169690 0.169690 0.169690
0.171245 0.171245 0.171245
0.172804 0.172804 0.172804
0.174365 0.174365 0.174365
0.175930 0.175930 0.175930
0.177497 0.177497 0.177497
0.179068 0.179068 0.179068
0.180642 0.180642 0.180642
0.182219 0.182219 0.182219
0.183800 0.183800 0.183800
0.185383 0.185383 0.185383
0.186970 0.186970 0.186970
0.188561 0.188561 0.188561
0.190154 0.190154 0.190154
0.191751 0.191751 0.191751
0.193352 0.193352 0.193352
0.194956 0.194956 0.194956
0.196564 0.196564 0.196564
0.198175 0.198175 0.198175
0.199789 0.199789 0.199789
0.201408 0.201408 0.201408
0.203030 0.203030 0.203030
0.204655 0.204655 0.204655
0.206285 0.206285 0.206285
0.207918 0.207918 0.207918
0.209555 0.209555 0.209555
0.211196 0.211196 0.211196
0.212840 0.212840 0.212840
0.214489 0.214489 0.214489
0.216141 0.216141 0.216141
0.217797 0.217797 0.217797
0.219458 0.219458 0.219458
0.221122 0.221122 0.221122
0.222790 0.222790 0.222790
0.224463 0.224463 0.224463
0.226139 0.226139 0.226139
0.227820 0.227820 0.227820
0.229505 0.229505 0.229505
0.231194 0.231194 0.231194
0.232887 0.232887 0.232887
0.234584 0.234584 0.234584
0.236286 0.236286 0.236286
0.237992 0.237992 0.237992
0.239703 0.239703 0.239703
0.241418 0.241418 0.241418
0.243137 0.243137 0.243137
0.244861 0.244861 0.244861
0.246589 0.246589 0.246589
0.248321 0.248321 0.248321
0.250059 0.250059 0.250059
0.251800 0.251800 0.251800
0.253547 0.253547 0.253547
0.255298 0.255298 0.255298
0.257053 0.257053 0.257053
0.258814 0.258814 0.258814
0.260579 0.260579 0.260579
0.262348 0.262348 0.262348
0.264123 0.264123 0.264123
0.265902 0.265902 0.265902
0.267687 0.267687 0.267687
0.269476 0.269476 0.269476
0.271270 0.271270 0.271270
0.273068 0.273068 0.273068
0.274872 0.274872 0.274872
0.276681 0.276681 0.276681
0.278495 0.278495 0.278495
0.280314 0.280314 0.280314
0.282138 0.282138 0.282138
0.283967 0.283967 0.283967
0.285801 0.285801 0.285801
0.287640 0.287640 0.287640
0.289485 0.289485 0.289485
0.291334 0.291334 0.291334
0.293189 0.293189 0.293189
0.295050 0.295050 0.295050
0.296915 0.296915 0.296915
0.298786 0.298786 0.298786
0.300662 0.300662 0.300662
0.302544 0.302544 0.302544
0.304431 0.304431 0.304431
0.306324 0.306324 0.306324
0.308222 0.308222 0.308222
0.310125 0.310125 0.310125
0.312034 0.312034 0.312034
0.313949 0.313949 0.313949
0.315869 0.315869 0.315869
0.317795 0.317795 0.317795
0.319727 0.319727 0.319727
0.321664 0.321664 0.321664
0.323607 0.323607 0.323607
0.325556 0.325556 0.325556
0.327510 0.327510 0.327510
0.329471 0.329471 0.329471
0.331437 0.331437 0.331437
0.333409 0.333409 0.333409
0.335387 0.335387 0.335387
0.337371 0.337371 0.337371
0.339360 0.339360 0.339360
0.341356 0.341356 0.341356
0.343358 0.343358 0.343358
0.345366 0.345366 0.345366
0.347380 0.347380 0.347380
0.349400 0.349400 0.349400
0.351426 0.351426 0.351426
0.353459 0.353459 0.353459
0.355497 0.355497 0.355497
0.357542 0.357542 0.357542
0.359593 0.359593 0.359593
0.361651 0.361651 0.361651
0.363714 0.363714 0.363714
0.365784 0.365784 0.365784
0.367861 0.367861 0.367861
0.369944 0.369944 0.369944
0.372033 0.372033 0.372033
0.374129 0.374129 0.374129
0.376231 0.376231 0.376231
0.378340 0.378340 0.378340
0.380455 0.380455 0.380455
0.382577 0.382577 0.382577
0.384706 0.384706 0.384706
0.386841 0.386841 0.386841
0.388983 0.388983 0.388983
0.391132 0.391132 0.391132
0.393287 0.393287 0.393287
0.395449 0.395449 0.395449
0.397618 0.397618 0.397618
0.399794 0.399794 0.399794
0.401977 0.401977 0.401977
0.404167 0.404167 0.404167
0.406363 0.406363 0.406363
0.408567 0.408567 0.408567
0.410777 0.410777 0.410777
0.412995 0.412995 0.412995
0.415219 0.415219 0.415219
0.417451 0.417451 0.417451
0.419690 0.419690 0.419690
0.421936 0.421936 0.421936
0.424189 0.424189 0.424189
0.426449 0.426449 0.426449
0.428717 0.428717 0.428717
0.430992 0.430992 0.430992
0.433274 0.433274 0.433274
0.435564 0.435564 0.435564
0.437861 0.437861 0.437861
0.440165 0.440165 0.440165
0.442477 0.442477 0.442477
0.444796 0.444796 0.444796
0.447123 0.447123 0.447123
0.449457 0.449457 0.449457
0.451799 0.451799 0.451799
0.454149 0.454149 0.454149
0.456506 0.456506 0.456506
0.458871 0.458871 0.458871
0.461244 0.461244 0.461244
0.463624 0.463624 0.463624
0.466012 0.466012 0.466012
0.468408 0.468408 0.468408
0.470811 0.470811 0.470811
0.473223 0.473223 0.473223
0.475642 0.475642 0.475642
0.478070 0.478070 0.478070
0.480505 0.480505 0.480505
0.482949 0.482949 0.482949
0.485400 0.485400 0.485400
0.487860 0.487860 0.487860
0.490327 0.490327 0.490327
0.492803 0.492803 0.492803
0.495287 0.495287 0.495287
0.497779 0.497779 0.497779
0.500279 0.500279 0.500279
0.502777 0.502777 0.502777
0.505266 0.505266 0.505266
0.507747 0.507747 0.507747
0.510218 0.510218 0.510218
0.512681 0.512681 0.512681
0.515134 0.515134 0.515134
0.517579 0.517579 0.517579
0.520016 0.520016 0.520016
0.522443 0.522443 0.522443
0.524862 0.524862 0.524862
0.527273 0.527273 0.527273
0.529674 0.529674 0.529674
0.532067 0.532067 0.532067
0.534452 0.534452 0.534452
0.536828 0.536828 0.536828
0.539196 0.539196 0.539196
0.541555 0.541555 0.541555
0.543906 0.543906 0.543906
0.546249 0.546249 0.546249
0.548583 0.548583 0.548583
0.550909 0.550909 0.550909
0.553227 0.553227 0.553227
0.555536 0.555536 0.555536
0.557837 0.557837 0.557837
0.560130 0.560130 0.560130
0.562415 0.562415 0.562415
0.564692 0.564692 0.564692
0.566961 0.566961 0.566961
0.569221 0.569221 0.569221
0.571474 0.571474 0.571474
0.573719 0.573719 0.573719
0.575955 0.575955 0.575955
0.578184 0.578184 0.578184
0.580405 0.580405 0.580405
0.582618 0.582618 0.582618
0.584823 0.584823 0.584823
0.587020 0.587020 0.587020
0.589209 0.589209 0.589209
0.591391 0.591391 0.591391
0.593565 0.593565 0.593565
0.595731 0.595731 0.595731
0.597889 0.597889 0.597889
0.600040 0.600040 0.600040
0.602183 0.602183 0.602183
0.604319 0.604319 0.604319
0.606447 0.606447 0.606447
0.608567 0.608567 0.608567
0.610680 0.610680 0.610680
0.612785 0.612785 0.612785
0.614883 0.614883 0.614883
0.616973 0.616973 0.616973
0.619056 0.619056 0.619056
0.621132 0.621132 0.621132
0.623200 0.623200 0.623200
0.625260 0.625260 0.625260
0.627314 0.627314 0.627314
0.629360 0.629360 0.629360
0.631399 0.631399 0.631399
0.633430 0.633430 0.633430
0.635454 0.635454 0.635454
0.637471 0.637471 0.637471
0.639481 0.639481 0.639481
0.641484 0.641484 0.641484
0.643479 0.643479 0.643479
0.645468 0.645468 0.645468
0.647449 0.647449 0.647449
0.649423 0.649423 0.649423
0.651390 0.651390 0.651390
0.653350 0.653350 0.653350
0.655303 0.655303 0.655303
0.657249 0.657249 0.657249
0.659188 0.659188 0.659188
0.661120 0.661120 0.661120
0.663045 0.663045 0.663045
0.664963 0.664963 0.664963
0.666875 0.666875 0.666875
0.668779 0.668779 0.668779
0.670677 0.670677 0.670677
0.672567 0.672567 0.672567
0.674451 0.674451 0.674451
0.676328 0.676328 0.676328
0.678199 0.678199 0.678199
0.680062 0.680062 0.680062
0.681919 0.681919 0.681919
0.683769 0.683769 0.683769
0.685613 0.685613 0.685613
0.687450 0.687450 0.687450
0.689280 0.689280 0.689280
0.691103 0.691103 0.691103
0.692920 0.692920 0.692920
0.694731 0.694731 0.694731
0.696534 0.696534 0.696534
0.698332 0.698332 0.698332
0.700122 0.700122 0.700122
0.701906 0.701906 0.701906
0.703684 0.703684 0.703684
0.705455 0.705455 0.705455
0.707220 0.707220 0.707220
0.708978 0.708978 0.708978
0.710730 0.710730 0.710730
0.712476 0.712476 0.712476
0.714215 0.714215 0.714215
0.715947 0.715947 0.715947
0.717674 0.717674 0.717674
0.719394 0.719394 0.719394
0.721108 0.721108 0.721108
0.722815 0.722815 0.722815
0.724516 0.724516 0.724516
0.726211 0.726211 0.726211
0.727900 0.727900 0.727900
0.729582 0.729582 0.729582
0.731258 0.731258 0.731258
0.732929 0.732929 0.732929
0.734592 0.734592 0.734592
0.736250 0.736250 0.736250
0.737902 0.737902 0.737902
0.739547 0.739547 0.739547
0.741187 0.741187 0.741187
0.742820 0.742820 0.742820
0.744447 0.744447 0.744447
0.746069 0.746069 0.746069
0.747684 0.747684 0.747684
0.749293 0.749293 0.749293
0.750896 0.750896 0.750896
0.752493 0.752493 0.752493
0.754084 0.754084 0.754084
0.755670 0.755670 0.755670
0.757249 0.757249 0.757249
0.758822 0.758822 0.758822
0.760390 0.760390 0.760390
0.761952 0.761952 0.761952
0.763507 0.763507 0.763507
0.765057 0.765057 0.765057
0.766601 0.766601 0.766601
0.768140 0.768140 0.768140
0.769672 0.769672 0.769672
0.771199 0.771199 0.771199
0.772720 0.772720 0.772720
0.774235 0.774235 0.774235
0.775744 0.775744 0.775744
0.777248 0.777248 0.777248
0.778746 0.778746 0.778746
0.780238 0.780238 0.780238
0.781725 0.781725 0.781725
0.783206 0.783206 0.783206
0.784681 0.784681 0.784681
0.786151 0.786151 0.786151
0.787615 0.787615 0.787615
0.789073 0.789073 0.789073
0.790526 0.790526 0.790526
0.791973 0.791973 0.791973
0.793415 0.793415 0.793415
0.794851 0.794851 0.794851
0.796282 0.796282 0.796282
0.797707 0.797707 0.797707
0.799127 0.799127 0.799127
0.800541 0.800541 0.800541
0.801949 0.801949 0.801949
0.803353 0.803353 0.803353
0.804751 0.804751 0.804751
0.806143 0.806143 0.806143
0.807530 0.807530 0.807530
0.808911 0.808911 0.808911
0.810288 0.810288 0.810288
0.811658 0.811658 0.811658
0.813024 0.813024 0.813024
0.814384 0.814384 0.814384
0.815739 0.815739 0.815739
0.817088 0.817088 0.817088
0.818433 0.818433 0.818433
0.819771 0.819771 0.819771
0.821105 0.821105 0.821105
0.822434 0.822434 0.822434
0.823757 0.823757 0.823757
0.825075 0.825075 0.825075
0.826387 0.826387 0.826387
0.827695 0.827695 0.827695
0.828997 0.828997 0.828997
0.830294 0.830294 0.830294
0.831586 0.831586 0.831586
0.832873 0.832873 0.832873
0.834155 0.834155 0.834155
0.835432 0.835432 0.835432
0.836703 0.836703 0.836703
0.837970 0.837970 0.837970
0.839231 0.839231 0.839231
0.840487 0.840487 0.840487
0.841739 0.841739 0.841739
0.842985 0.842985 0.842985
0.844226 0.844226 0.844226
0.845462 0.845462 0.845462
0.846693 0.846693 0.846693
0.847920 0.847920 0.847920
0.849141 0.849141 0.849141
0.850357 0.850357 0.850357
0.851568 0.851568 0.851568
0.852775 0.852775 0.852775
0.853976 0.853976 0.853976
0.855173 0.855173 0.855173
0.856365 0.856365 0.856365
0.857551 0.857551 0.857551
0.858733 0.858733 0.858733
0.859910 0.859910 0.859910
0.861083 0.861083 0.861083
0.862250 0.862250 0.862250
0.863413 0.863413 0.863413
0.864571 0.864571 0.864571
0.865724 0.865724 0.865724
0.866872 0.866872 0.866872
0.868016 0.868016 0.868016
0.869154 0.869154 0.869154
0.870288 0.870288 0.870288
0.871418 0.871418 0.871418
0.872542 0.872542 0.872542
0.873662 0.873662 0.873662
0.874777 0.874777 0.874777
0.875888 0.875888 0.875888
0.876994 0.876994 0.876994
0.878095 0.878095 0.878095
0.879191 0.879191 0.879191
0.880283 0.880283 0.880283
0.881371 0.881371 0.881371
0.882454 0.882454 0.882454
0.883532 0.883532 0.883532
0.884605 0.884605 0.884605
0.885674 0.885674 0.885674
0.886739 0.886739 0.886739
0.887799 0.887799 0.887799
0.888854 0.888854 0.888854
0.889905 0.889905 0.889905
0.890952 0.890952 0.890952
0.891993 0.891993 0.891993
0.893031 0.893031 0.893031
0.894064 0.894064 0.894064
0.895092 0.895092 0.895092
0.896116 0.896116 0.896116
0.897136 0.897136 0.897136
0.898151 0.898151 0.898151
0.899162 0.899162 0.899162
0.900169 0.900169 0.900169
0.901171 0.901171 0.901171
0.902168 0.902168 0.902168
0.903162 0.903162 0.903162
0.904151 0.904151 0.904151
0.905135 0.905135 0.905135
0.906116 0.906116 0.906116
0.907092 0.907092 0.907092
0.908063 0.908063 0.908063
0.909031 0.909031 0.909031
0.909994 0.909994 0.909994
0.910953 0.910953 0.910953
0.911907 0.911907 0.911907
0.912858 0.912858 0.912858
0.913804 0.913804 0.913804
0.914746 0.914746 0.914746
0.915684 0.915684 0.915684
0.916617 0.916617 0.916617
0.917547 0.917547 0.917547
0.918472 0.918472 0.918472
0.919393 0.919393 0.919393
0.920310 0.920310 0.920310
0.921223 0.921223 0.921223
0.922131 0.922131 0.922131
0.923036 0.923036 0.923036
0.923936 0.923936 0.923936
0.924832 0.924832 0.924832
0.925725 0.925725 0.925725
0.926613 0.926613 0.926613
0.927497 0.927497 0.927497
0.928377 0.928377 0.928377
0.929253 0.929253 0.929253
0.930125 0.930125 0.930125
0.930993 0.930993 0.930993
0.931857 0.931857 0.931857
0.932717 0.932717 0.932717
0.933573 0.933573 0.933573
0.934425 0.934425 0.934425
0.935273 0.935273 0.935273
0.936118 0.936118 0.936118
0.936958 0.936958 0.936958
0.937794 0.937794 0.937794
0.938627 0.938627 0.938627
0.939455 0.939455 0.939455
0.940280 0.940280 0.940280
0.941101 0.941101 0.941101
0.941917 0.941917 0.941917
0.942731 0.942731 0.942731
0.943540 0.943540 0.943540
0.944345 0.944345 0.944345
0.945147 0.945147 0.945147
0.945944 0.945944 0.945944
0.946738 0.946738 0.946738
0.947528 0.947528 0.947528
0.948315 0.948315 0.948315
0.949097 0.949097 0.949097
0.949876 0.949876 0.949876
0.950651 0.950651 0.950651
0.951423 0.951423 0.951423
0.952190 0.952190 0.952190
0.952954 0.952954 0.952954
0.953714 0.953714 0.953714
0.954471 0.954471 0.954471
0.955224 0.955224 0.955224
0.955973 0.955973 0.955973
0.956718 0.956718 0.956718
0.957460 0.957460 0.957460
0.958199 0.958199 0.958199
0.958933 0.958933 0.958933
0.959664 0.959664 0.959664
0.960391 0.960391 0.960391
0.961115 0.961115 0.961115
0.961835 0.961835 0.961835
0.962552 0.962552 0.962552
0.963265 0.963265 0.963265
0.963975 0.963975 0.963975
0.964681 0.964681 0.964681
0.965383 0.965383 0.965383
0.966082 0.966082 0.966082
0.966777 0.966777 0.966777
0.967469 0.967469 0.967469
0.968158 0.968158 0.968158
0.968843 0.968843 0.968843
0.969524 0.969524 0.969524
0.970202 0.970202 0.970202
0.970877 0.970877 0.970877
0.971548 0.971548 0.971548
0.972215 0.972215 0.972215
0.972880 0.972880 0.972880
0.973541 0.973541 0.973541
0.974198 0.974198 0.974198
0.974852 0.974852 0.974852
0.975503 0.975503 0.975503
0.976150 0.976150 0.976150
0.976794 0.976794 0.976794
0.977435 0.977435 0.977435
0.978072 0.978072 0.978072
0.978706 0.978706 0.978706
0.979337 0.979337 0.979337
0.979964 0.979964 0.979964
0.980588 0.980588 0.980588
0.981209 0.981209 0.981209
0.981827 0.981827 0.981827
0.982441 0.982441 0.982441
0.983052 0.983052 0.983052
0.983660 0.983660 0.983660
0.984264 0.984264 0.984264
0.984866 0.984866 0.984866
0.985464 0.985464 0.985464
0.986059 0.986059 0.986059
0.986650 0.986650 0.986650
0.987239 0.987239 0.987239
0.987824 0.987824 0.987824
0.988407 0.988407 0.988407
0.988986 0.988986 0.988986
0.989562 0.989562 0.989562
0.990134 0.990134 0.990134
0.990704 0.990704 0.990704
0.991271 0.991271 0.991271
0.991834 0.991834 0.991834
0.992395 0.992395 0.992395
0.992952 0.992952 0.992952
0.993506 0.993506 0.993506
0.994057 0.994057 0.994057
0.994605 0.994605 0.994605
0.995151 0.995151 0.995151
0.995693 0.995693 0.995693
0.996232 0.996232 0.996232
0.996768 0.996768 0.996768
0.997301 0.997301 0.997301
0.997831 0.997831 0.997831
0.998358 0.998358 0.998358
0.998882 0.998882 0.998882
0.999403 0.999403 0.999403
0.999921 0.999921 0.999921
1.000000 1.000000 1.000000
1.000000 1.000000 1.000000
1.000000 1.000000 1.000000
1.000000 1.000000 1.000000
1.000000 1.000000 1.000000
1.000000 1.000000 1.000000
1.000000 1.000000 1.000000
1.000000 1.000000 1.000000
1.000000 1.000000 1.000000
1.000000 1.000000 1.000000
1.000000 1.000000 1.000000
1.000000 1.000000 1.000000
1.000000 1.000000 1.000000
1.000000 1.000000 1.000000
1.000000 1.000000 1.000000
1.000000 1.000000 1.000000
1.000000 1.000000 1.000000
1.000000 1.000000 1.000000
1.000000 1.000000 1.000000
1.000000 1.000000 1.000000
1.000000 1.000000 1.000000
1.000000 1.000000 1.000000
1.000000 1.000000 1.000000
1.000000 1.000000 1.000000
1.000000 1.000000 1.000000
1.000000 1.000000 1.000000
1.000000 1.000000 1.000000
1.000000 1.000000 1.000000
1.000000 1.000000 1.000000
1.000000 1.000000 1.000000
1.000000 1.000000 1.000000
1.000000 1.000000 1.000000
1.000000 1.000000 1.000000
1.000000 1.000000 1.000000
1.000000 1.000000 1.000000
1.000000 1.000000 1.000000
1.000000 1.000000 1.000000
1.000000 1.000000 1.000000
1.000000 1.000000 1.000000
1.000000 1.000000 1.000000
1.000000 1.000000 1.000000
1.000000 1.000000 1.000000
1.000000 1.000000 1.000000
1.000000 1.000000 1.000000
1.000000 1.000000 1.000000
1.000000 1.000000 1.000000
1.000000 1.000000 1.000000
1.000000 1.000000 1.000000
1.000000 1.000000 1.000000
1.000000 1.000000 1.000000
1.000000 1.000000 1.000000
1.000000 1.000000 1.000000
1.000000 1.000000 1.000000
1.000000 1.000000 1.000000
1.000000 1.000000 1.000000
1.000000 1.000000 1.000000
1.000000 1.000000 1.000000
1.000000 1.000000 1.000000
1.000000 1.000000 1.000000
1.000000 1.000000 1.000000
1.000000 1.000000 1.000000
1.000000 1.000000 1.000000
1.000000 1.000000 1.000000
1.000000 1.000000 1.000000
1.000000 1.000000 1.000000
1.000000 1.000000 1.000000
1.000000 1.000000 1.000000
1.000000 1.000000 1.000000
1.000000 1.000000 1.000000
1.000000 1.000000 1.000000
1.000000 1.000000 1.000000
1.000000 1.000000 1.000000
1.000000 1.000000 1.000000
1.000000 1.000000 1.000000
1.000000 1.000000 1.000000
1.000000 1.000000 1.000000
1.000000 1.000000 1.000000
1.000000 1.000000 1.000000
1.000000 1.000000 1.000000
1.000000 1.000000 1.000000
1.000000 1.000000 1.000000
1.000000 1.000000 1.000000
1.000000 1.000000 1.000000
1.000000 1.000000 1.000000
1.000000 1.000000 1.000000
