Luts Download/Canon Luts/1dlut/canonlog2-to-gamma-1dlut/full-to-full-range/CanonLog2_12-to-Cineon_FF_Ver.2.0.cube
# Gamma : Canon Log 2 to Cineon
# Range : Full in / Full out
# Version : 2.0 2016/10/27
# Copyright(c) 2016 Canon Inc. All Rights Reserved.

LUT_1D_SIZE 4096
0.000000 0.000000 0.000000
0.000000 0.000000 0.000000
0.000000 0.000000 0.000000
0.000000 0.000000 0.000000
0.000000 0.000000 0.000000
0.000000 0.000000 0.000000
0.000000 0.000000 0.000000
0.000000 0.000000 0.000000
0.000000 0.000000 0.000000
0.000000 0.000000 0.000000
0.000000 0.000000 0.000000
0.000000 0.000000 0.000000
0.000000 0.000000 0.000000
0.000000 0.000000 0.000000
0.000000 0.000000 0.000000
0.000000 0.000000 0.000000
0.000000 0.000000 0.000000
0.000000 0.000000 0.000000
0.000000 0.000000 0.000000
0.000000 0.000000 0.000000
0.000000 0.000000 0.000000
0.000000 0.000000 0.000000
0.000000 0.000000 0.000000
0.000000 0.000000 0.000000
0.000000 0.000000 0.000000
0.000000 0.000000 0.000000
0.000000 0.000000 0.000000
0.000000 0.000000 0.000000
0.000000 0.000000 0.000000
0.000000 0.000000 0.000000
0.000000 0.000000 0.000000
0.000000 0.000000 0.000000
0.000000 0.000000 0.000000
0.000000 0.000000 0.000000
0.000000 0.000000 0.000000
0.000000 0.000000 0.000000
0.000000 0.000000 0.000000
0.000000 0.000000 0.000000
0.000000 0.000000 0.000000
0.000000 0.000000 0.000000
0.000000 0.000000 0.000000
0.000000 0.000000 0.000000
0.000000 0.000000 0.000000
0.000000 0.000000 0.000000
0.000000 0.000000 0.000000
0.000000 0.000000 0.000000
0.000000 0.000000 0.000000
0.000000 0.000000 0.000000
0.000000 0.000000 0.000000
0.000000 0.000000 0.000000
0.000000 0.000000 0.000000
0.000000 0.000000 0.000000
0.000000 0.000000 0.000000
0.000000 0.000000 0.000000
0.000000 0.000000 0.000000
0.000000 0.000000 0.000000
0.000000 0.000000 0.000000
0.000000 0.000000 0.000000
0.000000 0.000000 0.000000
0.000000 0.000000 0.000000
0.000000 0.000000 0.000000
0.000000 0.000000 0.000000
0.000000 0.000000 0.000000
0.000000 0.000000 0.000000
0.000000 0.000000 0.000000
0.000000 0.000000 0.000000
0.000000 0.000000 0.000000
0.000000 0.000000 0.000000
0.000000 0.000000 0.000000
0.000000 0.000000 0.000000
0.000000 0.000000 0.000000
0.000000 0.000000 0.000000
0.000000 0.000000 0.000000
0.000000 0.000000 0.000000
0.000000 0.000000 0.000000
0.000000 0.000000 0.000000
0.000000 0.000000 0.000000
0.000000 0.000000 0.000000
0.000000 0.000000 0.000000
0.000188 0.000188 0.000188
0.000492 0.000492 0.000492
0.000796 0.000796 0.000796
0.001100 0.001100 0.001100
0.001404 0.001404 0.001404
0.001708 0.001708 0.001708
0.002012 0.002012 0.002012
0.002316 0.002316 0.002316
0.002620 0.002620 0.002620
0.002924 0.002924 0.002924
0.003228 0.003228 0.003228
0.003532 0.003532 0.003532
0.003836 0.003836 0.003836
0.004140 0.004140 0.004140
0.004444 0.004444 0.004444
0.004749 0.004749 0.004749
0.005053 0.005053 0.005053
0.005357 0.005357 0.005357
0.005661 0.005661 0.005661
0.005965 0.005965 0.005965
0.006270 0.006270 0.006270
0.006574 0.006574 0.006574
0.006878 0.006878 0.006878
0.007183 0.007183 0.007183
0.007487 0.007487 0.007487
0.007791 0.007791 0.007791
0.008096 0.008096 0.008096
0.008400 0.008400 0.008400
0.008705 0.008705 0.008705
0.009009 0.009009 0.009009
0.009313 0.009313 0.009313
0.009618 0.009618 0.009618
0.009922 0.009922 0.009922
0.010227 0.010227 0.010227
0.010531 0.010531 0.010531
0.010836 0.010836 0.010836
0.011140 0.011140 0.011140
0.011445 0.011445 0.011445
0.011750 0.011750 0.011750
0.012054 0.012054 0.012054
0.012359 0.012359 0.012359
0.012664 0.012664 0.012664
0.012968 0.012968 0.012968
0.013273 0.013273 0.013273
0.013578 0.013578 0.013578
0.013882 0.013882 0.013882
0.014187 0.014187 0.014187
0.014492 0.014492 0.014492
0.014797 0.014797 0.014797
0.015102 0.015102 0.015102
0.015406 0.015406 0.015406
0.015711 0.015711 0.015711
0.016016 0.016016 0.016016
0.016321 0.016321 0.016321
0.016626 0.016626 0.016626
0.016931 0.016931 0.016931
0.017236 0.017236 0.017236
0.017541 0.017541 0.017541
0.017846 0.017846 0.017846
0.018151 0.018151 0.018151
0.018456 0.018456 0.018456
0.018761 0.018761 0.018761
0.019066 0.019066 0.019066
0.019371 0.019371 0.019371
0.019676 0.019676 0.019676
0.019981 0.019981 0.019981
0.020287 0.020287 0.020287
0.020592 0.020592 0.020592
0.020897 0.020897 0.020897
0.021202 0.021202 0.021202
0.021508 0.021508 0.021508
0.021813 0.021813 0.021813
0.022118 0.022118 0.022118
0.022423 0.022423 0.022423
0.022729 0.022729 0.022729
0.023034 0.023034 0.023034
0.023339 0.023339 0.023339
0.023645 0.023645 0.023645
0.023950 0.023950 0.023950
0.024256 0.024256 0.024256
0.024561 0.024561 0.024561
0.024867 0.024867 0.024867
0.025172 0.025172 0.025172
0.025478 0.025478 0.025478
0.025783 0.025783 0.025783
0.026089 0.026089 0.026089
0.026394 0.026394 0.026394
0.026700 0.026700 0.026700
0.027006 0.027006 0.027006
0.027311 0.027311 0.027311
0.027617 0.027617 0.027617
0.027923 0.027923 0.027923
0.028228 0.028228 0.028228
0.028534 0.028534 0.028534
0.028840 0.028840 0.028840
0.029146 0.029146 0.029146
0.029452 0.029452 0.029452
0.029757 0.029757 0.029757
0.030063 0.030063 0.030063
0.030369 0.030369 0.030369
0.030675 0.030675 0.030675
0.030981 0.030981 0.030981
0.031287 0.031287 0.031287
0.031593 0.031593 0.031593
0.031899 0.031899 0.031899
0.032205 0.032205 0.032205
0.032511 0.032511 0.032511
0.032817 0.032817 0.032817
0.033123 0.033123 0.033123
0.033429 0.033429 0.033429
0.033735 0.033735 0.033735
0.034041 0.034041 0.034041
0.034348 0.034348 0.034348
0.034654 0.034654 0.034654
0.034960 0.034960 0.034960
0.035266 0.035266 0.035266
0.035573 0.035573 0.035573
0.035879 0.035879 0.035879
0.036185 0.036185 0.036185
0.036492 0.036492 0.036492
0.036798 0.036798 0.036798
0.037104 0.037104 0.037104
0.037411 0.037411 0.037411
0.037717 0.037717 0.037717
0.038024 0.038024 0.038024
0.038330 0.038330 0.038330
0.038637 0.038637 0.038637
0.038943 0.038943 0.038943
0.039250 0.039250 0.039250
0.039556 0.039556 0.039556
0.039863 0.039863 0.039863
0.040170 0.040170 0.040170
0.040476 0.040476 0.040476
0.040783 0.040783 0.040783
0.041090 0.041090 0.041090
0.041396 0.041396 0.041396
0.041703 0.041703 0.041703
0.042010 0.042010 0.042010
0.042317 0.042317 0.042317
0.042624 0.042624 0.042624
0.042930 0.042930 0.042930
0.043237 0.043237 0.043237
0.043544 0.043544 0.043544
0.043851 0.043851 0.043851
0.044158 0.044158 0.044158
0.044465 0.044465 0.044465
0.044772 0.044772 0.044772
0.045079 0.045079 0.045079
0.045386 0.045386 0.045386
0.045693 0.045693 0.045693
0.046000 0.046000 0.046000
0.046307 0.046307 0.046307
0.046615 0.046615 0.046615
0.046922 0.046922 0.046922
0.047229 0.047229 0.047229
0.047536 0.047536 0.047536
0.047844 0.047844 0.047844
0.048151 0.048151 0.048151
0.048458 0.048458 0.048458
0.048766 0.048766 0.048766
0.049073 0.049073 0.049073
0.049380 0.049380 0.049380
0.049688 0.049688 0.049688
0.049995 0.049995 0.049995
0.050303 0.050303 0.050303
0.050610 0.050610 0.050610
0.050918 0.050918 0.050918
0.051225 0.051225 0.051225
0.051533 0.051533 0.051533
0.051840 0.051840 0.051840
0.052148 0.052148 0.052148
0.052456 0.052456 0.052456
0.052763 0.052763 0.052763
0.053071 0.053071 0.053071
0.053379 0.053379 0.053379
0.053687 0.053687 0.053687
0.053994 0.053994 0.053994
0.054302 0.054302 0.054302
0.054610 0.054610 0.054610
0.054918 0.054918 0.054918
0.055226 0.055226 0.055226
0.055534 0.055534 0.055534
0.055842 0.055842 0.055842
0.056150 0.056150 0.056150
0.056458 0.056458 0.056458
0.056766 0.056766 0.056766
0.057074 0.057074 0.057074
0.057382 0.057382 0.057382
0.057690 0.057690 0.057690
0.057998 0.057998 0.057998
0.058306 0.058306 0.058306
0.058615 0.058615 0.058615
0.058923 0.058923 0.058923
0.059231 0.059231 0.059231
0.059540 0.059540 0.059540
0.059848 0.059848 0.059848
0.060156 0.060156 0.060156
0.060465 0.060465 0.060465
0.060773 0.060773 0.060773
0.061081 0.061081 0.061081
0.061390 0.061390 0.061390
0.061698 0.061698 0.061698
0.062007 0.062007 0.062007
0.062316 0.062316 0.062316
0.062624 0.062624 0.062624
0.062933 0.062933 0.062933
0.063241 0.063241 0.063241
0.063550 0.063550 0.063550
0.063859 0.063859 0.063859
0.064168 0.064168 0.064168
0.064476 0.064476 0.064476
0.064785 0.064785 0.064785
0.065094 0.065094 0.065094
0.065403 0.065403 0.065403
0.065712 0.065712 0.065712
0.066021 0.066021 0.066021
0.066330 0.066330 0.066330
0.066639 0.066639 0.066639
0.066948 0.066948 0.066948
0.067257 0.067257 0.067257
0.067566 0.067566 0.067566
0.067875 0.067875 0.067875
0.068184 0.068184 0.068184
0.068493 0.068493 0.068493
0.068802 0.068802 0.068802
0.069111 0.069111 0.069111
0.069421 0.069421 0.069421
0.069730 0.069730 0.069730
0.070039 0.070039 0.070039
0.070349 0.070349 0.070349
0.070658 0.070658 0.070658
0.070967 0.070967 0.070967
0.071277 0.071277 0.071277
0.071586 0.071586 0.071586
0.071896 0.071896 0.071896
0.072205 0.072205 0.072205
0.072515 0.072515 0.072515
0.072825 0.072825 0.072825
0.073134 0.073134 0.073134
0.073444 0.073444 0.073444
0.073754 0.073754 0.073754
0.074063 0.074063 0.074063
0.074373 0.074373 0.074373
0.074683 0.074683 0.074683
0.074993 0.074993 0.074993
0.075303 0.075303 0.075303
0.075612 0.075612 0.075612
0.075922 0.075922 0.075922
0.076232 0.076232 0.076232
0.076542 0.076542 0.076542
0.076852 0.076852 0.076852
0.077162 0.077162 0.077162
0.077472 0.077472 0.077472
0.077783 0.077783 0.077783
0.078093 0.078093 0.078093
0.078403 0.078403 0.078403
0.078713 0.078713 0.078713
0.079023 0.079023 0.079023
0.079334 0.079334 0.079334
0.079644 0.079644 0.079644
0.079954 0.079954 0.079954
0.080265 0.080265 0.080265
0.080575 0.080575 0.080575
0.080886 0.080886 0.080886
0.081196 0.081196 0.081196
0.081507 0.081507 0.081507
0.081817 0.081817 0.081817
0.082128 0.082128 0.082128
0.082438 0.082438 0.082438
0.082749 0.082749 0.082749
0.083060 0.083060 0.083060
0.083371 0.083371 0.083371
0.083681 0.083681 0.083681
0.083992 0.083992 0.083992
0.084303 0.084303 0.084303
0.084614 0.084614 0.084614
0.084925 0.084925 0.084925
0.085236 0.085236 0.085236
0.085547 0.085547 0.085547
0.085858 0.085858 0.085858
0.086169 0.086169 0.086169
0.086480 0.086480 0.086480
0.086791 0.086791 0.086791
0.087102 0.087102 0.087102
0.087413 0.087413 0.087413
0.087725 0.087725 0.087725
0.088036 0.088036 0.088036
0.088347 0.088347 0.088347
0.088658 0.088658 0.088658
0.088970 0.088970 0.088970
0.089281 0.089281 0.089281
0.089593 0.089593 0.089593
0.089904 0.089904 0.089904
0.090216 0.090216 0.090216
0.090527 0.090527 0.090527
0.090839 0.090839 0.090839
0.091150 0.091150 0.091150
0.091462 0.091462 0.091462
0.091774 0.091774 0.091774
0.092086 0.092086 0.092086
0.092397 0.092397 0.092397
0.092709 0.092709 0.092709
0.093021 0.093021 0.093021
0.093333 0.093333 0.093333
0.093645 0.093645 0.093645
0.093956 0.093956 0.093956
0.094268 0.094268 0.094268
0.094580 0.094580 0.094580
0.094891 0.094891 0.094891
0.095203 0.095203 0.095203
0.095514 0.095514 0.095514
0.095826 0.095826 0.095826
0.096137 0.096137 0.096137
0.096449 0.096449 0.096449
0.096760 0.096760 0.096760
0.097072 0.097072 0.097072
0.097383 0.097383 0.097383
0.097694 0.097694 0.097694
0.098005 0.098005 0.098005
0.098317 0.098317 0.098317
0.098628 0.098628 0.098628
0.098939 0.098939 0.098939
0.099250 0.099250 0.099250
0.099561 0.099561 0.099561
0.099872 0.099872 0.099872
0.100183 0.100183 0.100183
0.100494 0.100494 0.100494
0.100805 0.100805 0.100805
0.101116 0.101116 0.101116
0.101427 0.101427 0.101427
0.101738 0.101738 0.101738
0.102048 0.102048 0.102048
0.102359 0.102359 0.102359
0.102670 0.102670 0.102670
0.102981 0.102981 0.102981
0.103291 0.103291 0.103291
0.103602 0.103602 0.103602
0.103912 0.103912 0.103912
0.104223 0.104223 0.104223
0.104534 0.104534 0.104534
0.104844 0.104844 0.104844
0.105154 0.105154 0.105154
0.105465 0.105465 0.105465
0.105775 0.105775 0.105775
0.106086 0.106086 0.106086
0.106396 0.106396 0.106396
0.106706 0.106706 0.106706
0.107016 0.107016 0.107016
0.107327 0.107327 0.107327
0.107637 0.107637 0.107637
0.107947 0.107947 0.107947
0.108257 0.108257 0.108257
0.108567 0.108567 0.108567
0.108877 0.108877 0.108877
0.109187 0.109187 0.109187
0.109497 0.109497 0.109497
0.109807 0.109807 0.109807
0.110117 0.110117 0.110117
0.110427 0.110427 0.110427
0.110737 0.110737 0.110737
0.111047 0.111047 0.111047
0.111356 0.111356 0.111356
0.111666 0.111666 0.111666
0.111976 0.111976 0.111976
0.112285 0.112285 0.112285
0.112595 0.112595 0.112595
0.112905 0.112905 0.112905
0.113214 0.113214 0.113214
0.113524 0.113524 0.113524
0.113833 0.113833 0.113833
0.114143 0.114143 0.114143
0.114452 0.114452 0.114452
0.114762 0.114762 0.114762
0.115071 0.115071 0.115071
0.115381 0.115381 0.115381
0.115690 0.115690 0.115690
0.115999 0.115999 0.115999
0.116308 0.116308 0.116308
0.116618 0.116618 0.116618
0.116927 0.116927 0.116927
0.117236 0.117236 0.117236
0.117545 0.117545 0.117545
0.117854 0.117854 0.117854
0.118163 0.118163 0.118163
0.118472 0.118472 0.118472
0.118782 0.118782 0.118782
0.119090 0.119090 0.119090
0.119399 0.119399 0.119399
0.119708 0.119708 0.119708
0.120017 0.120017 0.120017
0.120326 0.120326 0.120326
0.120635 0.120635 0.120635
0.120944 0.120944 0.120944
0.121253 0.121253 0.121253
0.121561 0.121561 0.121561
0.121870 0.121870 0.121870
0.122179 0.122179 0.122179
0.122487 0.122487 0.122487
0.122796 0.122796 0.122796
0.123105 0.123105 0.123105
0.123413 0.123413 0.123413
0.123722 0.123722 0.123722
0.124030 0.124030 0.124030
0.124339 0.124339 0.124339
0.124647 0.124647 0.124647
0.124956 0.124956 0.124956
0.125264 0.125264 0.125264
0.125573 0.125573 0.125573
0.125881 0.125881 0.125881
0.126189 0.126189 0.126189
0.126497 0.126497 0.126497
0.126806 0.126806 0.126806
0.127114 0.127114 0.127114
0.127422 0.127422 0.127422
0.127730 0.127730 0.127730
0.128039 0.128039 0.128039
0.128347 0.128347 0.128347
0.128655 0.128655 0.128655
0.128963 0.128963 0.128963
0.129271 0.129271 0.129271
0.129579 0.129579 0.129579
0.129887 0.129887 0.129887
0.130195 0.130195 0.130195
0.130503 0.130503 0.130503
0.130811 0.130811 0.130811
0.131118 0.131118 0.131118
0.131426 0.131426 0.131426
0.131734 0.131734 0.131734
0.132042 0.132042 0.132042
0.132350 0.132350 0.132350
0.132657 0.132657 0.132657
0.132965 0.132965 0.132965
0.133273 0.133273 0.133273
0.133580 0.133580 0.133580
0.133888 0.133888 0.133888
0.134196 0.134196 0.134196
0.134503 0.134503 0.134503
0.134811 0.134811 0.134811
0.135118 0.135118 0.135118
0.135426 0.135426 0.135426
0.135733 0.135733 0.135733
0.136041 0.136041 0.136041
0.136348 0.136348 0.136348
0.136655 0.136655 0.136655
0.136963 0.136963 0.136963
0.137270 0.137270 0.137270
0.137577 0.137577 0.137577
0.137885 0.137885 0.137885
0.138192 0.138192 0.138192
0.138499 0.138499 0.138499
0.138806 0.138806 0.138806
0.139114 0.139114 0.139114
0.139421 0.139421 0.139421
0.139728 0.139728 0.139728
0.140035 0.140035 0.140035
0.140342 0.140342 0.140342
0.140649 0.140649 0.140649
0.140956 0.140956 0.140956
0.141263 0.141263 0.141263
0.141570 0.141570 0.141570
0.141877 0.141877 0.141877
0.142184 0.142184 0.142184
0.142491 0.142491 0.142491
0.142798 0.142798 0.142798
0.143105 0.143105 0.143105
0.143411 0.143411 0.143411
0.143718 0.143718 0.143718
0.144025 0.144025 0.144025
0.144332 0.144332 0.144332
0.144638 0.144638 0.144638
0.144945 0.144945 0.144945
0.145252 0.145252 0.145252
0.145558 0.145558 0.145558
0.145865 0.145865 0.145865
0.146172 0.146172 0.146172
0.146478 0.146478 0.146478
0.146785 0.146785 0.146785
0.147091 0.147091 0.147091
0.147398 0.147398 0.147398
0.147704 0.147704 0.147704
0.148011 0.148011 0.148011
0.148317 0.148317 0.148317
0.148624 0.148624 0.148624
0.148930 0.148930 0.148930
0.149236 0.149236 0.149236
0.149543 0.149543 0.149543
0.149849 0.149849 0.149849
0.150155 0.150155 0.150155
0.150461 0.150461 0.150461
0.150768 0.150768 0.150768
0.151074 0.151074 0.151074
0.151380 0.151380 0.151380
0.151686 0.151686 0.151686
0.151992 0.151992 0.151992
0.152299 0.152299 0.152299
0.152605 0.152605 0.152605
0.152911 0.152911 0.152911
0.153217 0.153217 0.153217
0.153523 0.153523 0.153523
0.153829 0.153829 0.153829
0.154135 0.154135 0.154135
0.154441 0.154441 0.154441
0.154747 0.154747 0.154747
0.155053 0.155053 0.155053
0.155359 0.155359 0.155359
0.155664 0.155664 0.155664
0.155970 0.155970 0.155970
0.156276 0.156276 0.156276
0.156582 0.156582 0.156582
0.156888 0.156888 0.156888
0.157193 0.157193 0.157193
0.157499 0.157499 0.157499
0.157805 0.157805 0.157805
0.158111 0.158111 0.158111
0.158416 0.158416 0.158416
0.158722 0.158722 0.158722
0.159028 0.159028 0.159028
0.159333 0.159333 0.159333
0.159639 0.159639 0.159639
0.159944 0.159944 0.159944
0.160250 0.160250 0.160250
0.160555 0.160555 0.160555
0.160861 0.160861 0.160861
0.161166 0.161166 0.161166
0.161472 0.161472 0.161472
0.161777 0.161777 0.161777
0.162083 0.162083 0.162083
0.162388 0.162388 0.162388
0.162693 0.162693 0.162693
0.162999 0.162999 0.162999
0.163304 0.163304 0.163304
0.163609 0.163609 0.163609
0.163915 0.163915 0.163915
0.164220 0.164220 0.164220
0.164525 0.164525 0.164525
0.164830 0.164830 0.164830
0.165136 0.165136 0.165136
0.165441 0.165441 0.165441
0.165746 0.165746 0.165746
0.166051 0.166051 0.166051
0.166356 0.166356 0.166356
0.166661 0.166661 0.166661
0.166966 0.166966 0.166966
0.167271 0.167271 0.167271
0.167576 0.167576 0.167576
0.167881 0.167881 0.167881
0.168186 0.168186 0.168186
0.168491 0.168491 0.168491
0.168796 0.168796 0.168796
0.169101 0.169101 0.169101
0.169406 0.169406 0.169406
0.169711 0.169711 0.169711
0.170016 0.170016 0.170016
0.170321 0.170321 0.170321
0.170626 0.170626 0.170626
0.170930 0.170930 0.170930
0.171235 0.171235 0.171235
0.171540 0.171540 0.171540
0.171845 0.171845 0.171845
0.172149 0.172149 0.172149
0.172454 0.172454 0.172454
0.172759 0.172759 0.172759
0.173064 0.173064 0.173064
0.173368 0.173368 0.173368
0.173673 0.173673 0.173673
0.173977 0.173977 0.173977
0.174282 0.174282 0.174282
0.174587 0.174587 0.174587
0.174891 0.174891 0.174891
0.175196 0.175196 0.175196
0.175500 0.175500 0.175500
0.175805 0.175805 0.175805
0.176109 0.176109 0.176109
0.176414 0.176414 0.176414
0.176718 0.176718 0.176718
0.177022 0.177022 0.177022
0.177327 0.177327 0.177327
0.177631 0.177631 0.177631
0.177936 0.177936 0.177936
0.178240 0.178240 0.178240
0.178544 0.178544 0.178544
0.178849 0.178849 0.178849
0.179153 0.179153 0.179153
0.179457 0.179457 0.179457
0.179761 0.179761 0.179761
0.180066 0.180066 0.180066
0.180370 0.180370 0.180370
0.180674 0.180674 0.180674
0.180978 0.180978 0.180978
0.181282 0.181282 0.181282
0.181587 0.181587 0.181587
0.181891 0.181891 0.181891
0.182195 0.182195 0.182195
0.182499 0.182499 0.182499
0.182803 0.182803 0.182803
0.183107 0.183107 0.183107
0.183411 0.183411 0.183411
0.183715 0.183715 0.183715
0.184019 0.184019 0.184019
0.184323 0.184323 0.184323
0.184627 0.184627 0.184627
0.184931 0.184931 0.184931
0.185235 0.185235 0.185235
0.185539 0.185539 0.185539
0.185843 0.185843 0.185843
0.186147 0.186147 0.186147
0.186450 0.186450 0.186450
0.186754 0.186754 0.186754
0.187058 0.187058 0.187058
0.187362 0.187362 0.187362
0.187666 0.187666 0.187666
0.187969 0.187969 0.187969
0.188273 0.188273 0.188273
0.188577 0.188577 0.188577
0.188881 0.188881 0.188881
0.189184 0.189184 0.189184
0.189488 0.189488 0.189488
0.189792 0.189792 0.189792
0.190095 0.190095 0.190095
0.190399 0.190399 0.190399
0.190703 0.190703 0.190703
0.191006 0.191006 0.191006
0.191310 0.191310 0.191310
0.191613 0.191613 0.191613
0.191917 0.191917 0.191917
0.192220 0.192220 0.192220
0.192524 0.192524 0.192524
0.192827 0.192827 0.192827
0.193131 0.193131 0.193131
0.193434 0.193434 0.193434
0.193738 0.193738 0.193738
0.194041 0.194041 0.194041
0.194345 0.194345 0.194345
0.194648 0.194648 0.194648
0.194951 0.194951 0.194951
0.195255 0.195255 0.195255
0.195558 0.195558 0.195558
0.195861 0.195861 0.195861
0.196165 0.196165 0.196165
0.196468 0.196468 0.196468
0.196771 0.196771 0.196771
0.197075 0.197075 0.197075
0.197378 0.197378 0.197378
0.197681 0.197681 0.197681
0.197984 0.197984 0.197984
0.198287 0.198287 0.198287
0.198591 0.198591 0.198591
0.198894 0.198894 0.198894
0.199197 0.199197 0.199197
0.199500 0.199500 0.199500
0.199803 0.199803 0.199803
0.200106 0.200106 0.200106
0.200409 0.200409 0.200409
0.200713 0.200713 0.200713
0.201016 0.201016 0.201016
0.201319 0.201319 0.201319
0.201622 0.201622 0.201622
0.201925 0.201925 0.201925
0.202228 0.202228 0.202228
0.202531 0.202531 0.202531
0.202834 0.202834 0.202834
0.203137 0.203137 0.203137
0.203439 0.203439 0.203439
0.203742 0.203742 0.203742
0.204045 0.204045 0.204045
0.204348 0.204348 0.204348
0.204651 0.204651 0.204651
0.204954 0.204954 0.204954
0.205257 0.205257 0.205257
0.205560 0.205560 0.205560
0.205862 0.205862 0.205862
0.206165 0.206165 0.206165
0.206468 0.206468 0.206468
0.206771 0.206771 0.206771
0.207074 0.207074 0.207074
0.207376 0.207376 0.207376
0.207679 0.207679 0.207679
0.207982 0.207982 0.207982
0.208284 0.208284 0.208284
0.208587 0.208587 0.208587
0.208890 0.208890 0.208890
0.209192 0.209192 0.209192
0.209495 0.209495 0.209495
0.209798 0.209798 0.209798
0.210100 0.210100 0.210100
0.210403 0.210403 0.210403
0.210705 0.210705 0.210705
0.211008 0.211008 0.211008
0.211310 0.211310 0.211310
0.211613 0.211613 0.211613
0.211916 0.211916 0.211916
0.212218 0.212218 0.212218
0.212521 0.212521 0.212521
0.212823 0.212823 0.212823
0.213125 0.213125 0.213125
0.213428 0.213428 0.213428
0.213730 0.213730 0.213730
0.214033 0.214033 0.214033
0.214335 0.214335 0.214335
0.214638 0.214638 0.214638
0.214940 0.214940 0.214940
0.215242 0.215242 0.215242
0.215545 0.215545 0.215545
0.215847 0.215847 0.215847
0.216149 0.216149 0.216149
0.216452 0.216452 0.216452
0.216754 0.216754 0.216754
0.217056 0.217056 0.217056
0.217358 0.217358 0.217358
0.217661 0.217661 0.217661
0.217963 0.217963 0.217963
0.218265 0.218265 0.218265
0.218567 0.218567 0.218567
0.218870 0.218870 0.218870
0.219172 0.219172 0.219172
0.219474 0.219474 0.219474
0.219776 0.219776 0.219776
0.220078 0.220078 0.220078
0.220380 0.220380 0.220380
0.220683 0.220683 0.220683
0.220985 0.220985 0.220985
0.221287 0.221287 0.221287
0.221589 0.221589 0.221589
0.221891 0.221891 0.221891
0.222193 0.222193 0.222193
0.222495 0.222495 0.222495
0.222797 0.222797 0.222797
0.223099 0.223099 0.223099
0.223401 0.223401 0.223401
0.223703 0.223703 0.223703
0.224005 0.224005 0.224005
0.224307 0.224307 0.224307
0.224609 0.224609 0.224609
0.224911 0.224911 0.224911
0.225213 0.225213 0.225213
0.225515 0.225515 0.225515
0.225817 0.225817 0.225817
0.226118 0.226118 0.226118
0.226420 0.226420 0.226420
0.226722 0.226722 0.226722
0.227024 0.227024 0.227024
0.227326 0.227326 0.227326
0.227628 0.227628 0.227628
0.227929 0.227929 0.227929
0.228231 0.228231 0.228231
0.228533 0.228533 0.228533
0.228835 0.228835 0.228835
0.229137 0.229137 0.229137
0.229438 0.229438 0.229438
0.229740 0.229740 0.229740
0.230042 0.230042 0.230042
0.230343 0.230343 0.230343
0.230645 0.230645 0.230645
0.230947 0.230947 0.230947
0.231248 0.231248 0.231248
0.231550 0.231550 0.231550
0.231852 0.231852 0.231852
0.232153 0.232153 0.232153
0.232455 0.232455 0.232455
0.232757 0.232757 0.232757
0.233058 0.233058 0.233058
0.233360 0.233360 0.233360
0.233661 0.233661 0.233661
0.233963 0.233963 0.233963
0.234264 0.234264 0.234264
0.234566 0.234566 0.234566
0.234868 0.234868 0.234868
0.235169 0.235169 0.235169
0.235471 0.235471 0.235471
0.235772 0.235772 0.235772
0.236074 0.236074 0.236074
0.236375 0.236375 0.236375
0.236676 0.236676 0.236676
0.236978 0.236978 0.236978
0.237279 0.237279 0.237279
0.237581 0.237581 0.237581
0.237882 0.237882 0.237882
0.238184 0.238184 0.238184
0.238485 0.238485 0.238485
0.238786 0.238786 0.238786
0.239088 0.239088 0.239088
0.239389 0.239389 0.239389
0.239690 0.239690 0.239690
0.239992 0.239992 0.239992
0.240293 0.240293 0.240293
0.240594 0.240594 0.240594
0.240896 0.240896 0.240896
0.241197 0.241197 0.241197
0.241498 0.241498 0.241498
0.241799 0.241799 0.241799
0.242101 0.242101 0.242101
0.242402 0.242402 0.242402
0.242703 0.242703 0.242703
0.243004 0.243004 0.243004
0.243305 0.243305 0.243305
0.243607 0.243607 0.243607
0.243908 0.243908 0.243908
0.244209 0.244209 0.244209
0.244510 0.244510 0.244510
0.244811 0.244811 0.244811
0.245112 0.245112 0.245112
0.245414 0.245414 0.245414
0.245715 0.245715 0.245715
0.246016 0.246016 0.246016
