Luts Download/Canon Luts/1dlut/canonlog2-to-gamma-1dlut/full-to-full-range/CanonLog2_10-to-Cineon_FF_Ver.2.0.cube
# Gamma : Canon Log 2 to Cineon
# Range : Full in / Full out
# Version : 2.0 2016/10/27
# Copyright(c) 2016 Canon Inc. All Rights Reserved.

LUT_1D_SIZE 1024
0.000000 0.000000 0.000000
0.000000 0.000000 0.000000
0.000000 0.000000 0.000000
0.000000 0.000000 0.000000
0.000000 0.000000 0.000000
0.000000 0.000000 0.000000
0.000000 0.000000 0.000000
0.000000 0.000000 0.000000
0.000000 0.000000 0.000000
0.000000 0.000000 0.000000
0.000000 0.000000 0.000000
0.000000 0.000000 0.000000
0.000000 0.000000 0.000000
0.000000 0.000000 0.000000
0.000000 0.000000 0.000000
0.000000 0.000000 0.000000
0.000000 0.000000 0.000000
0.000000 0.000000 0.000000
0.000000 0.000000 0.000000
0.000000 0.000000 0.000000
0.000510 0.000510 0.000510
0.001728 0.001728 0.001728
0.002946 0.002946 0.002946
0.004164 0.004164 0.004164
0.005382 0.005382 0.005382
0.006601 0.006601 0.006601
0.007820 0.007820 0.007820
0.009040 0.009040 0.009040
0.010259 0.010259 0.010259
0.011479 0.011479 0.011479
0.012700 0.012700 0.012700
0.013920 0.013920 0.013920
0.015141 0.015141 0.015141
0.016363 0.016363 0.016363
0.017584 0.017584 0.017584
0.018806 0.018806 0.018806
0.020028 0.020028 0.020028
0.021251 0.021251 0.021251
0.022474 0.022474 0.022474
0.023697 0.023697 0.023697
0.024921 0.024921 0.024921
0.026145 0.026145 0.026145
0.027369 0.027369 0.027369
0.028594 0.028594 0.028594
0.029819 0.029819 0.029819
0.031044 0.031044 0.031044
0.032270 0.032270 0.032270
0.033496 0.033496 0.033496
0.034722 0.034722 0.034722
0.035949 0.035949 0.035949
0.037177 0.037177 0.037177
0.038404 0.038404 0.038404
0.039632 0.039632 0.039632
0.040861 0.040861 0.040861
0.042089 0.042089 0.042089
0.043319 0.043319 0.043319
0.044548 0.044548 0.044548
0.045778 0.045778 0.045778
0.047009 0.047009 0.047009
0.048239 0.048239 0.048239
0.049471 0.049471 0.049471
0.050702 0.050702 0.050702
0.051934 0.051934 0.051934
0.053167 0.053167 0.053167
0.054400 0.054400 0.054400
0.055633 0.055633 0.055633
0.056867 0.056867 0.056867
0.058101 0.058101 0.058101
0.059336 0.059336 0.059336
0.060571 0.060571 0.060571
0.061807 0.061807 0.061807
0.063043 0.063043 0.063043
0.064280 0.064280 0.064280
0.065517 0.065517 0.065517
0.066754 0.066754 0.066754
0.067993 0.067993 0.067993
0.069231 0.069231 0.069231
0.070470 0.070470 0.070470
0.071710 0.071710 0.071710
0.072950 0.072950 0.072950
0.074190 0.074190 0.074190
0.075431 0.075431 0.075431
0.076673 0.076673 0.076673
0.077915 0.077915 0.077915
0.079158 0.079158 0.079158
0.080401 0.080401 0.080401
0.081645 0.081645 0.081645
0.082889 0.082889 0.082889
0.084134 0.084134 0.084134
0.085379 0.085379 0.085379
0.086625 0.086625 0.086625
0.087872 0.087872 0.087872
0.089119 0.089119 0.089119
0.090367 0.090367 0.090367
0.091615 0.091615 0.091615
0.092864 0.092864 0.092864
0.094113 0.094113 0.094113
0.095361 0.095361 0.095361
0.096609 0.096609 0.096609
0.097856 0.097856 0.097856
0.099103 0.099103 0.099103
0.100349 0.100349 0.100349
0.101594 0.101594 0.101594
0.102839 0.102839 0.102839
0.104083 0.104083 0.104083
0.105327 0.105327 0.105327
0.106570 0.106570 0.106570
0.107813 0.107813 0.107813
0.109055 0.109055 0.109055
0.110297 0.110297 0.110297
0.111538 0.111538 0.111538
0.112778 0.112778 0.112778
0.114019 0.114019 0.114019
0.115258 0.115258 0.115258
0.116497 0.116497 0.116497
0.117736 0.117736 0.117736
0.118974 0.118974 0.118974
0.120211 0.120211 0.120211
0.121448 0.121448 0.121448
0.122685 0.122685 0.122685
0.123921 0.123921 0.123921
0.125157 0.125157 0.125157
0.126392 0.126392 0.126392
0.127627 0.127627 0.127627
0.128861 0.128861 0.128861
0.130095 0.130095 0.130095
0.131328 0.131328 0.131328
0.132561 0.132561 0.132561
0.133794 0.133794 0.133794
0.135026 0.135026 0.135026
0.136258 0.136258 0.136258
0.137489 0.137489 0.137489
0.138720 0.138720 0.138720
0.139950 0.139950 0.139950
0.141180 0.141180 0.141180
0.142410 0.142410 0.142410
0.143639 0.143639 0.143639
0.144868 0.144868 0.144868
0.146096 0.146096 0.146096
0.147324 0.147324 0.147324
0.148552 0.148552 0.148552
0.149779 0.149779 0.149779
0.151006 0.151006 0.151006
0.152232 0.152232 0.152232
0.153458 0.153458 0.153458
0.154684 0.154684 0.154684
0.155910 0.155910 0.155910
0.157135 0.157135 0.157135
0.158359 0.158359 0.158359
0.159584 0.159584 0.159584
0.160808 0.160808 0.160808
0.162031 0.162031 0.162031
0.163254 0.163254 0.163254
0.164477 0.164477 0.164477
0.165700 0.165700 0.165700
0.166922 0.166922 0.166922
0.168144 0.168144 0.168144
0.169366 0.169366 0.169366
0.170587 0.170587 0.170587
0.171808 0.171808 0.171808
0.173029 0.173029 0.173029
0.174249 0.174249 0.174249
0.175469 0.175469 0.175469
0.176689 0.176689 0.176689
0.177908 0.177908 0.177908
0.179127 0.179127 0.179127
0.180346 0.180346 0.180346
0.181564 0.181564 0.181564
0.182783 0.182783 0.182783
0.184001 0.184001 0.184001
0.185218 0.185218 0.185218
0.186435 0.186435 0.186435
0.187653 0.187653 0.187653
0.188869 0.188869 0.188869
0.190086 0.190086 0.190086
0.191302 0.191302 0.191302
0.192518 0.192518 0.192518
0.193734 0.193734 0.193734
0.194949 0.194949 0.194949
0.196164 0.196164 0.196164
0.197379 0.197379 0.197379
0.198594 0.198594 0.198594
0.199808 0.199808 0.199808
0.201022 0.201022 0.201022
0.202236 0.202236 0.202236
0.203450 0.203450 0.203450
0.204663 0.204663 0.204663
0.205876 0.205876 0.205876
0.207089 0.207089 0.207089
0.208302 0.208302 0.208302
0.209514 0.209514 0.209514
0.210727 0.210727 0.210727
0.211939 0.211939 0.211939
0.213150 0.213150 0.213150
0.214362 0.214362 0.214362
0.215573 0.215573 0.215573
0.216784 0.216784 0.216784
0.217995 0.217995 0.217995
0.219206 0.219206 0.219206
0.220416 0.220416 0.220416
0.221626 0.221626 0.221626
0.222836 0.222836 0.222836
0.224046 0.224046 0.224046
0.225256 0.225256 0.225256
0.226465 0.226465 0.226465
0.227674 0.227674 0.227674
0.228883 0.228883 0.228883
0.230092 0.230092 0.230092
0.231300 0.231300 0.231300
0.232509 0.232509 0.232509
0.233717 0.233717 0.233717
0.234925 0.234925 0.234925
0.236132 0.236132 0.236132
0.237340 0.237340 0.237340
0.238547 0.238547 0.238547
0.239755 0.239755 0.239755
0.240962 0.240962 0.240962
0.242168 0.242168 0.242168
0.243375 0.243375 0.243375
0.244582 0.244582 0.244582
0.245788 0.245788 0.245788
0.246994 0.246994 0.246994
0.248200 0.248200 0.248200
0.249406 0.249406 0.249406
0.250611 0.250611 0.250611
0.251817 0.251817 0.251817
0.253022 0.253022 0.253022
0.254227 0.254227 0.254227
0.255432 0.255432 0.255432
0.256637 0.256637 0.256637
0.257842 0.257842 0.257842
0.259046 0.259046 0.259046
0.260250 0.260250 0.260250
0.261454 0.261454 0.261454
0.262658 0.262658 0.262658
0.263862 0.263862 0.263862
0.265066 0.265066 0.265066
0.266269 0.266269 0.266269
0.267473 0.267473 0.267473
0.268676 0.268676 0.268676
0.269879 0.269879 0.269879
0.271082 0.271082 0.271082
0.272285 0.272285 0.272285
0.273488 0.273488 0.273488
0.274690 0.274690 0.274690
0.275892 0.275892 0.275892
0.277095 0.277095 0.277095
0.278297 0.278297 0.278297
0.279499 0.279499 0.279499
0.280701 0.280701 0.280701
0.281902 0.281902 0.281902
0.283104 0.283104 0.283104
0.284305 0.284305 0.284305
0.285507 0.285507 0.285507
0.286708 0.286708 0.286708
0.287909 0.287909 0.287909
0.289110 0.289110 0.289110
0.290311 0.290311 0.290311
0.291511 0.291511 0.291511
0.292712 0.292712 0.292712
0.293912 0.293912 0.293912
0.295113 0.295113 0.295113
0.296313 0.296313 0.296313
0.297513 0.297513 0.297513
0.298713 0.298713 0.298713
0.299913 0.299913 0.299913
0.301113 0.301113 0.301113
0.302312 0.302312 0.302312
0.303512 0.303512 0.303512
0.304711 0.304711 0.304711
0.305910 0.305910 0.305910
0.307110 0.307110 0.307110
0.308309 0.308309 0.308309
0.309508 0.309508 0.309508
0.310706 0.310706 0.310706
0.311905 0.311905 0.311905
0.313104 0.313104 0.313104
0.314302 0.314302 0.314302
0.315501 0.315501 0.315501
0.316699 0.316699 0.316699
0.317898 0.317898 0.317898
0.319096 0.319096 0.319096
0.320294 0.320294 0.320294
0.321492 0.321492 0.321492
0.322690 0.322690 0.322690
0.323887 0.323887 0.323887
0.325085 0.325085 0.325085
0.326283 0.326283 0.326283
0.327480 0.327480 0.327480
0.328677 0.328677 0.328677
0.329875 0.329875 0.329875
0.331072 0.331072 0.331072
0.332269 0.332269 0.332269
0.333466 0.333466 0.333466
0.334663 0.334663 0.334663
0.335860 0.335860 0.335860
0.337057 0.337057 0.337057
0.338253 0.338253 0.338253
0.339450 0.339450 0.339450
0.340647 0.340647 0.340647
0.341843 0.341843 0.341843
0.343039 0.343039 0.343039
0.344236 0.344236 0.344236
0.345432 0.345432 0.345432
0.346628 0.346628 0.346628
0.347824 0.347824 0.347824
0.349020 0.349020 0.349020
0.350216 0.350216 0.350216
0.351412 0.351412 0.351412
0.352607 0.352607 0.352607
0.353803 0.353803 0.353803
0.354999 0.354999 0.354999
0.356194 0.356194 0.356194
0.357390 0.357390 0.357390
0.358585 0.358585 0.358585
0.359780 0.359780 0.359780
0.360975 0.360975 0.360975
0.362171 0.362171 0.362171
0.363366 0.363366 0.363366
0.364561 0.364561 0.364561
0.365756 0.365756 0.365756
0.366951 0.366951 0.366951
0.368145 0.368145 0.368145
0.369340 0.369340 0.369340
0.370535 0.370535 0.370535
0.371729 0.371729 0.371729
0.372924 0.372924 0.372924
0.374118 0.374118 0.374118
0.375313 0.375313 0.375313
0.376507 0.376507 0.376507
0.377701 0.377701 0.377701
0.378896 0.378896 0.378896
0.380090 0.380090 0.380090
0.381284 0.381284 0.381284
0.382478 0.382478 0.382478
0.383672 0.383672 0.383672
0.384866 0.384866 0.384866
0.386060 0.386060 0.386060
0.387254 0.387254 0.387254
0.388447 0.388447 0.388447
0.389641 0.389641 0.389641
0.390835 0.390835 0.390835
0.392028 0.392028 0.392028
0.393222 0.393222 0.393222
0.394415 0.394415 0.394415
0.395609 0.395609 0.395609
0.396802 0.396802 0.396802
0.397996 0.397996 0.397996
0.399189 0.399189 0.399189
0.400382 0.400382 0.400382
0.401575 0.401575 0.401575
0.402768 0.402768 0.402768
0.403961 0.403961 0.403961
0.405154 0.405154 0.405154
0.406347 0.406347 0.406347
0.407540 0.407540 0.407540
0.408733 0.408733 0.408733
0.409926 0.409926 0.409926
0.411119 0.411119 0.411119
0.412311 0.412311 0.412311
0.413504 0.413504 0.413504
0.414697 0.414697 0.414697
0.415889 0.415889 0.415889
0.417082 0.417082 0.417082
0.418274 0.418274 0.418274
0.419467 0.419467 0.419467
0.420659 0.420659 0.420659
0.421852 0.421852 0.421852
0.423044 0.423044 0.423044
0.424236 0.424236 0.424236
0.425428 0.425428 0.425428
0.426621 0.426621 0.426621
0.427813 0.427813 0.427813
0.429005 0.429005 0.429005
0.430197 0.430197 0.430197
0.431389 0.431389 0.431389
0.432581 0.432581 0.432581
0.433773 0.433773 0.433773
0.434965 0.434965 0.434965
0.436157 0.436157 0.436157
0.437348 0.437348 0.437348
0.438540 0.438540 0.438540
0.439732 0.439732 0.439732
0.440924 0.440924 0.440924
0.442115 0.442115 0.442115
0.443307 0.443307 0.443307
0.444499 0.444499 0.444499
0.445690 0.445690 0.445690
0.446882 0.446882 0.446882
0.448073 0.448073 0.448073
0.449265 0.449265 0.449265
0.450456 0.450456 0.450456
0.451647 0.451647 0.451647
0.452839 0.452839 0.452839
0.454030 0.454030 0.454030
0.455221 0.455221 0.455221
0.456413 0.456413 0.456413
0.457604 0.457604 0.457604
0.458795 0.458795 0.458795
0.459986 0.459986 0.459986
0.461177 0.461177 0.461177
0.462368 0.462368 0.462368
0.463559 0.463559 0.463559
0.464750 0.464750 0.464750
0.465941 0.465941 0.465941
0.467132 0.467132 0.467132
0.468323 0.468323 0.468323
0.469514 0.469514 0.469514
0.470705 0.470705 0.470705
0.471896 0.471896 0.471896
0.473087 0.473087 0.473087
0.474278 0.474278 0.474278
0.475468 0.475468 0.475468
0.476659 0.476659 0.476659
0.477850 0.477850 0.477850
0.479040 0.479040 0.479040
0.480231 0.480231 0.480231
0.481422 0.481422 0.481422
0.482612 0.482612 0.482612
0.483803 0.483803 0.483803
0.484993 0.484993 0.484993
0.486184 0.486184 0.486184
0.487374 0.487374 0.487374
0.488565 0.488565 0.488565
0.489755 0.489755 0.489755
0.490946 0.490946 0.490946
0.492136 0.492136 0.492136
0.493326 0.493326 0.493326
0.494517 0.494517 0.494517
0.495707 0.495707 0.495707
0.496897 0.496897 0.496897
0.498088 0.498088 0.498088
0.499278 0.499278 0.499278
0.500468 0.500468 0.500468
0.501658 0.501658 0.501658
0.502848 0.502848 0.502848
0.504039 0.504039 0.504039
0.505229 0.505229 0.505229
0.506419 0.506419 0.506419
0.507609 0.507609 0.507609
0.508799 0.508799 0.508799
0.509989 0.509989 0.509989
0.511179 0.511179 0.511179
0.512369 0.512369 0.512369
0.513559 0.513559 0.513559
0.514749 0.514749 0.514749
0.515939 0.515939 0.515939
0.517129 0.517129 0.517129
0.518318 0.518318 0.518318
0.519508 0.519508 0.519508
0.520698 0.520698 0.520698
0.521888 0.521888 0.521888
0.523078 0.523078 0.523078
0.524268 0.524268 0.524268
0.525457 0.525457 0.525457
0.526647 0.526647 0.526647
0.527837 0.527837 0.527837
0.529027 0.529027 0.529027
0.530216 0.530216 0.530216
0.531406 0.531406 0.531406
0.532596 0.532596 0.532596
0.533785 0.533785 0.533785
0.534975 0.534975 0.534975
0.536164 0.536164 0.536164
0.537354 0.537354 0.537354
0.538543 0.538543 0.538543
0.539733 0.539733 0.539733
0.540923 0.540923 0.540923
0.542112 0.542112 0.542112
0.543302 0.543302 0.543302
0.544491 0.544491 0.544491
0.545680 0.545680 0.545680
0.546870 0.546870 0.546870
0.548059 0.548059 0.548059
0.549249 0.549249 0.549249
0.550438 0.550438 0.550438
0.551628 0.551628 0.551628
0.552817 0.552817 0.552817
0.554006 0.554006 0.554006
0.555196 0.555196 0.555196
0.556385 0.556385 0.556385
0.557574 0.557574 0.557574
0.558763 0.558763 0.558763
0.559953 0.559953 0.559953
0.561142 0.561142 0.561142
0.562331 0.562331 0.562331
0.563520 0.563520 0.563520
0.564710 0.564710 0.564710
0.565899 0.565899 0.565899
0.567088 0.567088 0.567088
0.568277 0.568277 0.568277
0.569466 0.569466 0.569466
0.570655 0.570655 0.570655
0.571845 0.571845 0.571845
0.573034 0.573034 0.573034
0.574223 0.574223 0.574223
0.575412 0.575412 0.575412
0.576601 0.576601 0.576601
0.577790 0.577790 0.577790
0.578979 0.578979 0.578979
0.580168 0.580168 0.580168
0.581357 0.581357 0.581357
0.582546 0.582546 0.582546
0.583735 0.583735 0.583735
0.584924 0.584924 0.584924
0.586113 0.586113 0.586113
0.587302 0.587302 0.587302
0.588491 0.588491 0.588491
0.589680 0.589680 0.589680
0.590869 0.590869 0.590869
0.592058 0.592058 0.592058
0.593247 0.593247 0.593247
0.594436 0.594436 0.594436
0.595625 0.595625 0.595625
0.596813 0.596813 0.596813
0.598002 0.598002 0.598002
0.599191 0.599191 0.599191
0.600380 0.600380 0.600380
0.601569 0.601569 0.601569
0.602758 0.602758 0.602758
0.603946 0.603946 0.603946
0.605135 0.605135 0.605135
0.606324 0.606324 0.606324
0.607513 0.607513 0.607513
0.608702 0.608702 0.608702
0.609890 0.609890 0.609890
0.611079 0.611079 0.611079
0.612268 0.612268 0.612268
0.613457 0.613457 0.613457
0.614645 0.614645 0.614645
0.615834 0.615834 0.615834
0.617023 0.617023 0.617023
0.618211 0.618211 0.618211
0.619400 0.619400 0.619400
0.620589 0.620589 0.620589
0.621777 0.621777 0.621777
0.622966 0.622966 0.622966
0.624155 0.624155 0.624155
0.625343 0.625343 0.625343
0.626532 0.626532 0.626532
0.627721 0.627721 0.627721
0.628909 0.628909 0.628909
0.630098 0.630098 0.630098
0.631286 0.631286 0.631286
0.632475 0.632475 0.632475
0.633663 0.633663 0.633663
0.634852 0.634852 0.634852
0.636041 0.636041 0.636041
0.637229 0.637229 0.637229
0.638418 0.638418 0.638418
0.639606 0.639606 0.639606
0.640795 0.640795 0.640795
0.641983 0.641983 0.641983
0.643172 0.643172 0.643172
0.644360 0.644360 0.644360
0.645549 0.645549 0.645549
0.646737 0.646737 0.646737
0.647926 0.647926 0.647926
0.649114 0.649114 0.649114
0.650303 0.650303 0.650303
0.651491 0.651491 0.651491
0.652680 0.652680 0.652680
0.653868 0.653868 0.653868
0.655057 0.655057 0.655057
0.656245 0.656245 0.656245
0.657433 0.657433 0.657433
0.658622 0.658622 0.658622
0.659810 0.659810 0.659810
0.660999 0.660999 0.660999
0.662187 0.662187 0.662187
0.663375 0.663375 0.663375
0.664564 0.664564 0.664564
0.665752 0.665752 0.665752
0.666941 0.666941 0.666941
0.668129 0.668129 0.668129
0.669317 0.669317 0.669317
0.670506 0.670506 0.670506
0.671694 0.671694 0.671694
0.672882 0.672882 0.672882
0.674071 0.674071 0.674071
0.675259 0.675259 0.675259
0.676447 0.676447 0.676447
0.677636 0.677636 0.677636
0.678824 0.678824 0.678824
0.680012 0.680012 0.680012
0.681201 0.681201 0.681201
0.682389 0.682389 0.682389
0.683577 0.683577 0.683577
0.684765 0.684765 0.684765
0.685954 0.685954 0.685954
0.687142 0.687142 0.687142
0.688330 0.688330 0.688330
0.689518 0.689518 0.689518
0.690707 0.690707 0.690707
0.691895 0.691895 0.691895
0.693083 0.693083 0.693083
0.694271 0.694271 0.694271
0.695460 0.695460 0.695460
0.696648 0.696648 0.696648
0.697836 0.697836 0.697836
0.699024 0.699024 0.699024
0.700213 0.700213 0.700213
0.701401 0.701401 0.701401
0.702589 0.702589 0.702589
0.703777 0.703777 0.703777
0.704965 0.704965 0.704965
0.706154 0.706154 0.706154
0.707342 0.707342 0.707342
0.708530 0.708530 0.708530
0.709718 0.709718 0.709718
0.710906 0.710906 0.710906
0.712094 0.712094 0.712094
0.713283 0.713283 0.713283
0.714471 0.714471 0.714471
0.715659 0.715659 0.715659
0.716847 0.716847 0.716847
0.718035 0.718035 0.718035
0.719223 0.719223 0.719223
0.720412 0.720412 0.720412
0.721600 0.721600 0.721600
0.722788 0.722788 0.722788
0.723976 0.723976 0.723976
0.725164 0.725164 0.725164
0.726352 0.726352 0.726352
0.727540 0.727540 0.727540
0.728728 0.728728 0.728728
0.729917 0.729917 0.729917
0.731105 0.731105 0.731105
0.732293 0.732293 0.732293
0.733481 0.733481 0.733481
0.734669 0.734669 0.734669
0.735857 0.735857 0.735857
0.737045 0.737045 0.737045
0.738233 0.738233 0.738233
0.739421 0.739421 0.739421
0.740609 0.740609 0.740609
0.741797 0.741797 0.741797
0.742985 0.742985 0.742985
0.744173 0.744173 0.744173
0.745362 0.745362 0.745362
0.746550 0.746550 0.746550
0.747738 0.747738 0.747738
0.748926 0.748926 0.748926
0.750114 0.750114 0.750114
0.751302 0.751302 0.751302
0.752490 0.752490 0.752490
0.753678 0.753678 0.753678
0.754866 0.754866 0.754866
0.756054 0.756054 0.756054
0.757242 0.757242 0.757242
0.758430 0.758430 0.758430
0.759618 0.759618 0.759618
0.760806 0.760806 0.760806
0.761994 0.761994 0.761994
0.763182 0.763182 0.763182
0.764370 0.764370 0.764370
0.765558 0.765558 0.765558
0.766746 0.766746 0.766746
0.767934 0.767934 0.767934
0.769122 0.769122 0.769122
0.770310 0.770310 0.770310
0.771498 0.771498 0.771498
0.772686 0.772686 0.772686
0.773874 0.773874 0.773874
0.775062 0.775062 0.775062
0.776250 0.776250 0.776250
0.777438 0.777438 0.777438
0.778626 0.778626 0.778626
0.779814 0.779814 0.779814
0.781002 0.781002 0.781002
0.782190 0.782190 0.782190
0.783378 0.783378 0.783378
0.784566 0.784566 0.784566
0.785754 0.785754 0.785754
0.786942 0.786942 0.786942
0.788130 0.788130 0.788130
0.789318 0.789318 0.789318
0.790506 0.790506 0.790506
0.791693 0.791693 0.791693
0.792881 0.792881 0.792881
0.794069 0.794069 0.794069
0.795257 0.795257 0.795257
0.796445 0.796445 0.796445
0.797633 0.797633 0.797633
0.798821 0.798821 0.798821
0.800009 0.800009 0.800009
0.801197 0.801197 0.801197
0.802385 0.802385 0.802385
0.803573 0.803573 0.803573
0.804761 0.804761 0.804761
0.805949 0.805949 0.805949
0.807137 0.807137 0.807137
0.808324 0.808324 0.808324
0.809512 0.809512 0.809512
0.810700 0.810700 0.810700
0.811888 0.811888 0.811888
0.813076 0.813076 0.813076
0.814264 0.814264 0.814264
0.815452 0.815452 0.815452
0.816640 0.816640 0.816640
0.817828 0.817828 0.817828
0.819016 0.819016 0.819016
0.820204 0.820204 0.820204
0.821391 0.821391 0.821391
0.822579 0.822579 0.822579
0.823767 0.823767 0.823767
0.824955 0.824955 0.824955
0.826143 0.826143 0.826143
0.827331 0.827331 0.827331
0.828519 0.828519 0.828519
0.829707 0.829707 0.829707
0.830894 0.830894 0.830894
0.832082 0.832082 0.832082
0.833270 0.833270 0.833270
0.834458 0.834458 0.834458
0.835646 0.835646 0.835646
0.836834 0.836834 0.836834
0.838022 0.838022 0.838022
0.839210 0.839210 0.839210
0.840397 0.840397 0.840397
0.841585 0.841585 0.841585
0.842773 0.842773 0.842773
0.843961 0.843961 0.843961
0.845149 0.845149 0.845149
0.846337 0.846337 0.846337
0.847525 0.847525 0.847525
0.848712 0.848712 0.848712
0.849900 0.849900 0.849900
0.851088 0.851088 0.851088
0.852276 0.852276 0.852276
0.853464 0.853464 0.853464
0.854652 0.854652 0.854652
0.855840 0.855840 0.855840
0.857027 0.857027 0.857027
0.858215 0.858215 0.858215
0.859403 0.859403 0.859403
0.860591 0.860591 0.860591
0.861779 0.861779 0.861779
0.862967 0.862967 0.862967
0.864154 0.864154 0.864154
0.865342 0.865342 0.865342
0.866530 0.866530 0.866530
0.867718 0.867718 0.867718
0.868906 0.868906 0.868906
0.870094 0.870094 0.870094
0.871281 0.871281 0.871281
0.872469 0.872469 0.872469
0.873657 0.873657 0.873657
0.874845 0.874845 0.874845
0.876033 0.876033 0.876033
0.877221 0.877221 0.877221
0.878408 0.878408 0.878408
0.879596 0.879596 0.879596
0.880784 0.880784 0.880784
0.881972 0.881972 0.881972
0.883160 0.883160 0.883160
0.884347 0.884347 0.884347
0.885535 0.885535 0.885535
0.886723 0.886723 0.886723
0.887911 0.887911 0.887911
0.889099 0.889099 0.889099
0.890286 0.890286 0.890286
0.891474 0.891474 0.891474
0.892662 0.892662 0.892662
0.893850 0.893850 0.893850
0.895038 0.895038 0.895038
0.896226 0.896226 0.896226
0.897413 0.897413 0.897413
0.898601 0.898601 0.898601
0.899789 0.899789 0.899789
0.900977 0.900977 0.900977
0.902165 0.902165 0.902165
0.903352 0.903352 0.903352
0.904540 0.904540 0.904540
0.905728 0.905728 0.905728
0.906916 0.906916 0.906916
0.908104 0.908104 0.908104
0.909291 0.909291 0.909291
0.910479 0.910479 0.910479
0.911667 0.911667 0.911667
0.912855 0.912855 0.912855
0.914042 0.914042 0.914042
0.915230 0.915230 0.915230
0.916418 0.916418 0.916418
0.917606 0.917606 0.917606
0.918794 0.918794 0.918794
0.919981 0.919981 0.919981
0.921169 0.921169 0.921169
0.922357 0.922357 0.922357
0.923545 0.923545 0.923545
0.924733 0.924733 0.924733
0.925920 0.925920 0.925920
0.927108 0.927108 0.927108
0.928296 0.928296 0.928296
0.929484 0.929484 0.929484
0.930671 0.930671 0.930671
0.931859 0.931859 0.931859
0.933047 0.933047 0.933047
0.934235 0.934235 0.934235
0.935422 0.935422 0.935422
0.936610 0.936610 0.936610
0.937798 0.937798 0.937798
0.938986 0.938986 0.938986
0.940174 0.940174 0.940174
0.941361 0.941361 0.941361
0.942549 0.942549 0.942549
0.943737 0.943737 0.943737
0.944925 0.944925 0.944925
0.946112 0.946112 0.946112
0.947300 0.947300 0.947300
0.948488 0.948488 0.948488
0.949676 0.949676 0.949676
0.950863 0.950863 0.950863
0.952051 0.952051 0.952051
0.953239 0.953239 0.953239
0.954427 0.954427 0.954427
0.955615 0.955615 0.955615
0.956802 0.956802 0.956802
0.957990 0.957990 0.957990
0.959178 0.959178 0.959178
0.960366 0.960366 0.960366
0.961553 0.961553 0.961553
0.962741 0.962741 0.962741
0.963929 0.963929 0.963929
0.965117 0.965117 0.965117
0.966304 0.966304 0.966304
0.967492 0.967492 0.967492
0.968680 0.968680 0.968680
0.969868 0.969868 0.969868
0.971055 0.971055 0.971055
0.972243 0.972243 0.972243
0.973431 0.973431 0.973431
0.974619 0.974619 0.974619
0.975806 0.975806 0.975806
0.976994 0.976994 0.976994
0.978182 0.978182 0.978182
0.979370 0.979370 0.979370
0.980557 0.980557 0.980557
0.981745 0.981745 0.981745
0.982933 0.982933 0.982933
0.984121 0.984121 0.984121
0.985308 0.985308 0.985308
0.986496 0.986496 0.986496
0.987684 0.987684 0.987684
0.988872 0.988872 0.988872
0.990059 0.990059 0.990059
0.991247 0.991247 0.991247
0.992435 0.992435 0.992435
0.993623 0.993623 0.993623
0.994810 0.994810 0.994810
0.995998 0.995998 0.995998
0.997186 0.997186 0.997186
0.998374 0.998374 0.998374
0.999561 0.999561 0.999561
1.000000 1.000000 1.000000
1.000000 1.000000 1.000000
1.000000 1.000000 1.000000
1.000000 1.000000 1.000000
1.000000 1.000000 1.000000
1.000000 1.000000 1.000000
1.000000 1.000000 1.000000
1.000000 1.000000 1.000000
1.000000 1.000000 1.000000
1.000000 1.000000 1.000000
1.000000 1.000000 1.000000
1.000000 1.000000 1.000000
1.000000 1.000000 1.000000
1.000000 1.000000 1.000000
1.000000 1.000000 1.000000
1.000000 1.000000 1.000000
1.000000 1.000000 1.000000
1.000000 1.000000 1.000000
1.000000 1.000000 1.000000
1.000000 1.000000 1.000000
1.000000 1.000000 1.000000
1.000000 1.000000 1.000000
1.000000 1.000000 1.000000
1.000000 1.000000 1.000000
1.000000 1.000000 1.000000
1.000000 1.000000 1.000000
1.000000 1.000000 1.000000
1.000000 1.000000 1.000000
1.000000 1.000000 1.000000
