Luts Download/Canon Luts/1dlut/canonlog2-to-gamma-1dlut/full-to-linear-range/CanonLog2_16-to-Linear_FL_Ver.2.0.cube
# Gamma : Canon Log 2 to Linear
# Range : Full in / Linear out
# Version : 2.0 2016/10/27
# Copyright(c) 2016 Canon Inc. All Rights Reserved.

LUT_1D_SIZE 65536
-0.016363 -0.016363 -0.016363
-0.016359 -0.016359 -0.016359
-0.016355 -0.016355 -0.016355
-0.016351 -0.016351 -0.016351
-0.016347 -0.016347 -0.016347
-0.016343 -0.016343 -0.016343
-0.016339 -0.016339 -0.016339
-0.016335 -0.016335 -0.016335
-0.016331 -0.016331 -0.016331
-0.016327 -0.016327 -0.016327
-0.016323 -0.016323 -0.016323
-0.016319 -0.016319 -0.016319
-0.016315 -0.016315 -0.016315
-0.016311 -0.016311 -0.016311
-0.016307 -0.016307 -0.016307
-0.016302 -0.016302 -0.016302
-0.016298 -0.016298 -0.016298
-0.016294 -0.016294 -0.016294
-0.016290 -0.016290 -0.016290
-0.016286 -0.016286 -0.016286
-0.016282 -0.016282 -0.016282
-0.016278 -0.016278 -0.016278
-0.016274 -0.016274 -0.016274
-0.016270 -0.016270 -0.016270
-0.016266 -0.016266 -0.016266
-0.016262 -0.016262 -0.016262
-0.016258 -0.016258 -0.016258
-0.016254 -0.016254 -0.016254
-0.016250 -0.016250 -0.016250
-0.016246 -0.016246 -0.016246
-0.016242 -0.016242 -0.016242
-0.016238 -0.016238 -0.016238
-0.016234 -0.016234 -0.016234
-0.016230 -0.016230 -0.016230
-0.016226 -0.016226 -0.016226
-0.016222 -0.016222 -0.016222
-0.016218 -0.016218 -0.016218
-0.016214 -0.016214 -0.016214
-0.016210 -0.016210 -0.016210
-0.016206 -0.016206 -0.016206
-0.016202 -0.016202 -0.016202
-0.016198 -0.016198 -0.016198
-0.016194 -0.016194 -0.016194
-0.016189 -0.016189 -0.016189
-0.016185 -0.016185 -0.016185
-0.016181 -0.016181 -0.016181
-0.016177 -0.016177 -0.016177
-0.016173 -0.016173 -0.016173
-0.016169 -0.016169 -0.016169
-0.016165 -0.016165 -0.016165
-0.016161 -0.016161 -0.016161
-0.016157 -0.016157 -0.016157
-0.016153 -0.016153 -0.016153
-0.016149 -0.016149 -0.016149
-0.016145 -0.016145 -0.016145
-0.016141 -0.016141 -0.016141
-0.016137 -0.016137 -0.016137
-0.016133 -0.016133 -0.016133
-0.016129 -0.016129 -0.016129
-0.016125 -0.016125 -0.016125
-0.016121 -0.016121 -0.016121
-0.016117 -0.016117 -0.016117
-0.016113 -0.016113 -0.016113
-0.016109 -0.016109 -0.016109
-0.016105 -0.016105 -0.016105
-0.016101 -0.016101 -0.016101
-0.016097 -0.016097 -0.016097
-0.016093 -0.016093 -0.016093
-0.016089 -0.016089 -0.016089
-0.016085 -0.016085 -0.016085
-0.016081 -0.016081 -0.016081
-0.016077 -0.016077 -0.016077
-0.016073 -0.016073 -0.016073
-0.016069 -0.016069 -0.016069
-0.016065 -0.016065 -0.016065
-0.016061 -0.016061 -0.016061
-0.016057 -0.016057 -0.016057
-0.016053 -0.016053 -0.016053
-0.016049 -0.016049 -0.016049
-0.016045 -0.016045 -0.016045
-0.016041 -0.016041 -0.016041
-0.016037 -0.016037 -0.016037
-0.016033 -0.016033 -0.016033
-0.016029 -0.016029 -0.016029
-0.016025 -0.016025 -0.016025
-0.016021 -0.016021 -0.016021
-0.016017 -0.016017 -0.016017
-0.016013 -0.016013 -0.016013
-0.016009 -0.016009 -0.016009
-0.016005 -0.016005 -0.016005
-0.016001 -0.016001 -0.016001
-0.015997 -0.015997 -0.015997
-0.015993 -0.015993 -0.015993
-0.015989 -0.015989 -0.015989
-0.015985 -0.015985 -0.015985
-0.015981 -0.015981 -0.015981
-0.015977 -0.015977 -0.015977
-0.015973 -0.015973 -0.015973
-0.015969 -0.015969 -0.015969
-0.015965 -0.015965 -0.015965
-0.015961 -0.015961 -0.015961
-0.015957 -0.015957 -0.015957
-0.015953 -0.015953 -0.015953
-0.015949 -0.015949 -0.015949
-0.015945 -0.015945 -0.015945
-0.015941 -0.015941 -0.015941
-0.015937 -0.015937 -0.015937
-0.015933 -0.015933 -0.015933
-0.015929 -0.015929 -0.015929
-0.015925 -0.015925 -0.015925
-0.015921 -0.015921 -0.015921
-0.015917 -0.015917 -0.015917
-0.015913 -0.015913 -0.015913
-0.015909 -0.015909 -0.015909
-0.015905 -0.015905 -0.015905
-0.015901 -0.015901 -0.015901
-0.015897 -0.015897 -0.015897
-0.015893 -0.015893 -0.015893
-0.015889 -0.015889 -0.015889
-0.015885 -0.015885 -0.015885
-0.015881 -0.015881 -0.015881
-0.015877 -0.015877 -0.015877
-0.015873 -0.015873 -0.015873
-0.015869 -0.015869 -0.015869
-0.015865 -0.015865 -0.015865
-0.015861 -0.015861 -0.015861
-0.015857 -0.015857 -0.015857
-0.015853 -0.015853 -0.015853
-0.015849 -0.015849 -0.015849
-0.015845 -0.015845 -0.015845
-0.015841 -0.015841 -0.015841
-0.015837 -0.015837 -0.015837
-0.015833 -0.015833 -0.015833
-0.015829 -0.015829 -0.015829
-0.015825 -0.015825 -0.015825
-0.015821 -0.015821 -0.015821
-0.015817 -0.015817 -0.015817
-0.015813 -0.015813 -0.015813
-0.015809 -0.015809 -0.015809
-0.015805 -0.015805 -0.015805
-0.015802 -0.015802 -0.015802
-0.015798 -0.015798 -0.015798
-0.015794 -0.015794 -0.015794
-0.015790 -0.015790 -0.015790
-0.015786 -0.015786 -0.015786
-0.015782 -0.015782 -0.015782
-0.015778 -0.015778 -0.015778
-0.015774 -0.015774 -0.015774
-0.015770 -0.015770 -0.015770
-0.015766 -0.015766 -0.015766
-0.015762 -0.015762 -0.015762
-0.015758 -0.015758 -0.015758
-0.015754 -0.015754 -0.015754
-0.015750 -0.015750 -0.015750
-0.015746 -0.015746 -0.015746
-0.015742 -0.015742 -0.015742
-0.015738 -0.015738 -0.015738
-0.015734 -0.015734 -0.015734
-0.015730 -0.015730 -0.015730
-0.015726 -0.015726 -0.015726
-0.015722 -0.015722 -0.015722
-0.015718 -0.015718 -0.015718
-0.015714 -0.015714 -0.015714
-0.015710 -0.015710 -0.015710
-0.015706 -0.015706 -0.015706
-0.015702 -0.015702 -0.015702
-0.015698 -0.015698 -0.015698
-0.015694 -0.015694 -0.015694
-0.015691 -0.015691 -0.015691
-0.015687 -0.015687 -0.015687
-0.015683 -0.015683 -0.015683
-0.015679 -0.015679 -0.015679
-0.015675 -0.015675 -0.015675
-0.015671 -0.015671 -0.015671
-0.015667 -0.015667 -0.015667
-0.015663 -0.015663 -0.015663
-0.015659 -0.015659 -0.015659
-0.015655 -0.015655 -0.015655
-0.015651 -0.015651 -0.015651
-0.015647 -0.015647 -0.015647
-0.015643 -0.015643 -0.015643
-0.015639 -0.015639 -0.015639
-0.015635 -0.015635 -0.015635
-0.015631 -0.015631 -0.015631
-0.015627 -0.015627 -0.015627
-0.015623 -0.015623 -0.015623
-0.015619 -0.015619 -0.015619
-0.015615 -0.015615 -0.015615
-0.015612 -0.015612 -0.015612
-0.015608 -0.015608 -0.015608
-0.015604 -0.015604 -0.015604
-0.015600 -0.015600 -0.015600
-0.015596 -0.015596 -0.015596
-0.015592 -0.015592 -0.015592
-0.015588 -0.015588 -0.015588
-0.015584 -0.015584 -0.015584
-0.015580 -0.015580 -0.015580
-0.015576 -0.015576 -0.015576
-0.015572 -0.015572 -0.015572
-0.015568 -0.015568 -0.015568
-0.015564 -0.015564 -0.015564
-0.015560 -0.015560 -0.015560
-0.015556 -0.015556 -0.015556
-0.015552 -0.015552 -0.015552
-0.015549 -0.015549 -0.015549
-0.015545 -0.015545 -0.015545
-0.015541 -0.015541 -0.015541
-0.015537 -0.015537 -0.015537
-0.015533 -0.015533 -0.015533
-0.015529 -0.015529 -0.015529
-0.015525 -0.015525 -0.015525
-0.015521 -0.015521 -0.015521
-0.015517 -0.015517 -0.015517
-0.015513 -0.015513 -0.015513
-0.015509 -0.015509 -0.015509
-0.015505 -0.015505 -0.015505
-0.015501 -0.015501 -0.015501
-0.015497 -0.015497 -0.015497
-0.015493 -0.015493 -0.015493
-0.015490 -0.015490 -0.015490
-0.015486 -0.015486 -0.015486
-0.015482 -0.015482 -0.015482
-0.015478 -0.015478 -0.015478
-0.015474 -0.015474 -0.015474
-0.015470 -0.015470 -0.015470
-0.015466 -0.015466 -0.015466
-0.015462 -0.015462 -0.015462
-0.015458 -0.015458 -0.015458
-0.015454 -0.015454 -0.015454
-0.015450 -0.015450 -0.015450
-0.015446 -0.015446 -0.015446
-0.015442 -0.015442 -0.015442
-0.015439 -0.015439 -0.015439
-0.015435 -0.015435 -0.015435
-0.015431 -0.015431 -0.015431
-0.015427 -0.015427 -0.015427
-0.015423 -0.015423 -0.015423
-0.015419 -0.015419 -0.015419
-0.015415 -0.015415 -0.015415
-0.015411 -0.015411 -0.015411
-0.015407 -0.015407 -0.015407
-0.015403 -0.015403 -0.015403
-0.015399 -0.015399 -0.015399
-0.015395 -0.015395 -0.015395
-0.015392 -0.015392 -0.015392
-0.015388 -0.015388 -0.015388
-0.015384 -0.015384 -0.015384
-0.015380 -0.015380 -0.015380
-0.015376 -0.015376 -0.015376
-0.015372 -0.015372 -0.015372
-0.015368 -0.015368 -0.015368
-0.015364 -0.015364 -0.015364
-0.015360 -0.015360 -0.015360
-0.015356 -0.015356 -0.015356
-0.015352 -0.015352 -0.015352
-0.015349 -0.015349 -0.015349
-0.015345 -0.015345 -0.015345
-0.015341 -0.015341 -0.015341
-0.015337 -0.015337 -0.015337
-0.015333 -0.015333 -0.015333
-0.015329 -0.015329 -0.015329
-0.015325 -0.015325 -0.015325
-0.015321 -0.015321 -0.015321
-0.015317 -0.015317 -0.015317
-0.015313 -0.015313 -0.015313
-0.015310 -0.015310 -0.015310
-0.015306 -0.015306 -0.015306
-0.015302 -0.015302 -0.015302
-0.015298 -0.015298 -0.015298
-0.015294 -0.015294 -0.015294
-0.015290 -0.015290 -0.015290
-0.015286 -0.015286 -0.015286
-0.015282 -0.015282 -0.015282
-0.015278 -0.015278 -0.015278
-0.015274 -0.015274 -0.015274
-0.015271 -0.015271 -0.015271
-0.015267 -0.015267 -0.015267
-0.015263 -0.015263 -0.015263
-0.015259 -0.015259 -0.015259
-0.015255 -0.015255 -0.015255
-0.015251 -0.015251 -0.015251
-0.015247 -0.015247 -0.015247
-0.015243 -0.015243 -0.015243
-0.015239 -0.015239 -0.015239
-0.015236 -0.015236 -0.015236
-0.015232 -0.015232 -0.015232
-0.015228 -0.015228 -0.015228
-0.015224 -0.015224 -0.015224
-0.015220 -0.015220 -0.015220
-0.015216 -0.015216 -0.015216
-0.015212 -0.015212 -0.015212
-0.015208 -0.015208 -0.015208
-0.015204 -0.015204 -0.015204
-0.015201 -0.015201 -0.015201
-0.015197 -0.015197 -0.015197
-0.015193 -0.015193 -0.015193
-0.015189 -0.015189 -0.015189
-0.015185 -0.015185 -0.015185
-0.015181 -0.015181 -0.015181
-0.015177 -0.015177 -0.015177
-0.015173 -0.015173 -0.015173
-0.015170 -0.015170 -0.015170
-0.015166 -0.015166 -0.015166
-0.015162 -0.015162 -0.015162
-0.015158 -0.015158 -0.015158
-0.015154 -0.015154 -0.015154
-0.015150 -0.015150 -0.015150
-0.015146 -0.015146 -0.015146
-0.015142 -0.015142 -0.015142
-0.015138 -0.015138 -0.015138
-0.015135 -0.015135 -0.015135
-0.015131 -0.015131 -0.015131
-0.015127 -0.015127 -0.015127
-0.015123 -0.015123 -0.015123
-0.015119 -0.015119 -0.015119
-0.015115 -0.015115 -0.015115
-0.015111 -0.015111 -0.015111
-0.015108 -0.015108 -0.015108
-0.015104 -0.015104 -0.015104
-0.015100 -0.015100 -0.015100
-0.015096 -0.015096 -0.015096
-0.015092 -0.015092 -0.015092
-0.015088 -0.015088 -0.015088
-0.015084 -0.015084 -0.015084
-0.015080 -0.015080 -0.015080
-0.015077 -0.015077 -0.015077
-0.015073 -0.015073 -0.015073
-0.015069 -0.015069 -0.015069
-0.015065 -0.015065 -0.015065
-0.015061 -0.015061 -0.015061
-0.015057 -0.015057 -0.015057
-0.015053 -0.015053 -0.015053
-0.015050 -0.015050 -0.015050
-0.015046 -0.015046 -0.015046
-0.015042 -0.015042 -0.015042
-0.015038 -0.015038 -0.015038
-0.015034 -0.015034 -0.015034
-0.015030 -0.015030 -0.015030
-0.015026 -0.015026 -0.015026
-0.015022 -0.015022 -0.015022
-0.015019 -0.015019 -0.015019
-0.015015 -0.015015 -0.015015
-0.015011 -0.015011 -0.015011
-0.015007 -0.015007 -0.015007
-0.015003 -0.015003 -0.015003
-0.014999 -0.014999 -0.014999
-0.014996 -0.014996 -0.014996
-0.014992 -0.014992 -0.014992
-0.014988 -0.014988 -0.014988
-0.014984 -0.014984 -0.014984
-0.014980 -0.014980 -0.014980
-0.014976 -0.014976 -0.014976
-0.014972 -0.014972 -0.014972
-0.014969 -0.014969 -0.014969
-0.014965 -0.014965 -0.014965
-0.014961 -0.014961 -0.014961
-0.014957 -0.014957 -0.014957
-0.014953 -0.014953 -0.014953
-0.014949 -0.014949 -0.014949
-0.014945 -0.014945 -0.014945
-0.014942 -0.014942 -0.014942
-0.014938 -0.014938 -0.014938
-0.014934 -0.014934 -0.014934
-0.014930 -0.014930 -0.014930
-0.014926 -0.014926 -0.014926
-0.014922 -0.014922 -0.014922
-0.014919 -0.014919 -0.014919
-0.014915 -0.014915 -0.014915
-0.014911 -0.014911 -0.014911
-0.014907 -0.014907 -0.014907
-0.014903 -0.014903 -0.014903
-0.014899 -0.014899 -0.014899
-0.014895 -0.014895 -0.014895
-0.014892 -0.014892 -0.014892
-0.014888 -0.014888 -0.014888
-0.014884 -0.014884 -0.014884
-0.014880 -0.014880 -0.014880
-0.014876 -0.014876 -0.014876
-0.014872 -0.014872 -0.014872
-0.014869 -0.014869 -0.014869
-0.014865 -0.014865 -0.014865
-0.014861 -0.014861 -0.014861
-0.014857 -0.014857 -0.014857
-0.014853 -0.014853 -0.014853
-0.014849 -0.014849 -0.014849
-0.014846 -0.014846 -0.014846
-0.014842 -0.014842 -0.014842
-0.014838 -0.014838 -0.014838
-0.014834 -0.014834 -0.014834
-0.014830 -0.014830 -0.014830
-0.014826 -0.014826 -0.014826
-0.014823 -0.014823 -0.014823
-0.014819 -0.014819 -0.014819
-0.014815 -0.014815 -0.014815
-0.014811 -0.014811 -0.014811
-0.014807 -0.014807 -0.014807
-0.014803 -0.014803 -0.014803
-0.014800 -0.014800 -0.014800
-0.014796 -0.014796 -0.014796
-0.014792 -0.014792 -0.014792
-0.014788 -0.014788 -0.014788
-0.014784 -0.014784 -0.014784
-0.014781 -0.014781 -0.014781
-0.014777 -0.014777 -0.014777
-0.014773 -0.014773 -0.014773
-0.014769 -0.014769 -0.014769
-0.014765 -0.014765 -0.014765
-0.014761 -0.014761 -0.014761
-0.014758 -0.014758 -0.014758
-0.014754 -0.014754 -0.014754
-0.014750 -0.014750 -0.014750
-0.014746 -0.014746 -0.014746
-0.014742 -0.014742 -0.014742
-0.014739 -0.014739 -0.014739
-0.014735 -0.014735 -0.014735
-0.014731 -0.014731 -0.014731
-0.014727 -0.014727 -0.014727
-0.014723 -0.014723 -0.014723
-0.014719 -0.014719 -0.014719
-0.014716 -0.014716 -0.014716
-0.014712 -0.014712 -0.014712
-0.014708 -0.014708 -0.014708
-0.014704 -0.014704 -0.014704
-0.014700 -0.014700 -0.014700
-0.014697 -0.014697 -0.014697
-0.014693 -0.014693 -0.014693
-0.014689 -0.014689 -0.014689
-0.014685 -0.014685 -0.014685
-0.014681 -0.014681 -0.014681
-0.014678 -0.014678 -0.014678
-0.014674 -0.014674 -0.014674
-0.014670 -0.014670 -0.014670
-0.014666 -0.014666 -0.014666
-0.014662 -0.014662 -0.014662
-0.014658 -0.014658 -0.014658
-0.014655 -0.014655 -0.014655
-0.014651 -0.014651 -0.014651
-0.014647 -0.014647 -0.014647
-0.014643 -0.014643 -0.014643
-0.014639 -0.014639 -0.014639
-0.014636 -0.014636 -0.014636
-0.014632 -0.014632 -0.014632
-0.014628 -0.014628 -0.014628
-0.014624 -0.014624 -0.014624
-0.014620 -0.014620 -0.014620
-0.014617 -0.014617 -0.014617
-0.014613 -0.014613 -0.014613
-0.014609 -0.014609 -0.014609
-0.014605 -0.014605 -0.014605
-0.014601 -0.014601 -0.014601
-0.014598 -0.014598 -0.014598
-0.014594 -0.014594 -0.014594
-0.014590 -0.014590 -0.014590
-0.014586 -0.014586 -0.014586
-0.014583 -0.014583 -0.014583
-0.014579 -0.014579 -0.014579
-0.014575 -0.014575 -0.014575
-0.014571 -0.014571 -0.014571
-0.014567 -0.014567 -0.014567
-0.014564 -0.014564 -0.014564
-0.014560 -0.014560 -0.014560
-0.014556 -0.014556 -0.014556
-0.014552 -0.014552 -0.014552
-0.014548 -0.014548 -0.014548
-0.014545 -0.014545 -0.014545
-0.014541 -0.014541 -0.014541
-0.014537 -0.014537 -0.014537
-0.014533 -0.014533 -0.014533
-0.014529 -0.014529 -0.014529
-0.014526 -0.014526 -0.014526
-0.014522 -0.014522 -0.014522
-0.014518 -0.014518 -0.014518
-0.014514 -0.014514 -0.014514
-0.014511 -0.014511 -0.014511
-0.014507 -0.014507 -0.014507
-0.014503 -0.014503 -0.014503
-0.014499 -0.014499 -0.014499
-0.014495 -0.014495 -0.014495
-0.014492 -0.014492 -0.014492
-0.014488 -0.014488 -0.014488
-0.014484 -0.014484 -0.014484
-0.014480 -0.014480 -0.014480
-0.014476 -0.014476 -0.014476
-0.014473 -0.014473 -0.014473
-0.014469 -0.014469 -0.014469
-0.014465 -0.014465 -0.014465
-0.014461 -0.014461 -0.014461
-0.014458 -0.014458 -0.014458
-0.014454 -0.014454 -0.014454
-0.014450 -0.014450 -0.014450
-0.014446 -0.014446 -0.014446
-0.014442 -0.014442 -0.014442
-0.014439 -0.014439 -0.014439
-0.014435 -0.014435 -0.014435
-0.014431 -0.014431 -0.014431
-0.014427 -0.014427 -0.014427
-0.014424 -0.014424 -0.014424
-0.014420 -0.014420 -0.014420
-0.014416 -0.014416 -0.014416
-0.014412 -0.014412 -0.014412
-0.014409 -0.014409 -0.014409
-0.014405 -0.014405 -0.014405
-0.014401 -0.014401 -0.014401
-0.014397 -0.014397 -0.014397
-0.014393 -0.014393 -0.014393
-0.014390 -0.014390 -0.014390
-0.014386 -0.014386 -0.014386
-0.014382 -0.014382 -0.014382
-0.014378 -0.014378 -0.014378
-0.014375 -0.014375 -0.014375
-0.014371 -0.014371 -0.014371
-0.014367 -0.014367 -0.014367
-0.014363 -0.014363 -0.014363
-0.014360 -0.014360 -0.014360
-0.014356 -0.014356 -0.014356
-0.014352 -0.014352 -0.014352
-0.014348 -0.014348 -0.014348
-0.014345 -0.014345 -0.014345
-0.014341 -0.014341 -0.014341
-0.014337 -0.014337 -0.014337
-0.014333 -0.014333 -0.014333
-0.014330 -0.014330 -0.014330
-0.014326 -0.014326 -0.014326
-0.014322 -0.014322 -0.014322
-0.014318 -0.014318 -0.014318
-0.014315 -0.014315 -0.014315
-0.014311 -0.014311 -0.014311
-0.014307 -0.014307 -0.014307
-0.014303 -0.014303 -0.014303
-0.014299 -0.014299 -0.014299
-0.014296 -0.014296 -0.014296
-0.014292 -0.014292 -0.014292
-0.014288 -0.014288 -0.014288
-0.014284 -0.014284 -0.014284
-0.014281 -0.014281 -0.014281
-0.014277 -0.014277 -0.014277
-0.014273 -0.014273 -0.014273
-0.014269 -0.014269 -0.014269
-0.014266 -0.014266 -0.014266
-0.014262 -0.014262 -0.014262
-0.014258 -0.014258 -0.014258
-0.014254 -0.014254 -0.014254
-0.014251 -0.014251 -0.014251
-0.014247 -0.014247 -0.014247
-0.014243 -0.014243 -0.014243
-0.014240 -0.014240 -0.014240
-0.014236 -0.014236 -0.014236
-0.014232 -0.014232 -0.014232
-0.014228 -0.014228 -0.014228
-0.014225 -0.014225 -0.014225
-0.014221 -0.014221 -0.014221
-0.014217 -0.014217 -0.014217
-0.014213 -0.014213 -0.014213
-0.014210 -0.014210 -0.014210
-0.014206 -0.014206 -0.014206
-0.014202 -0.014202 -0.014202
-0.014198 -0.014198 -0.014198
-0.014195 -0.014195 -0.014195
-0.014191 -0.014191 -0.014191
-0.014187 -0.014187 -0.014187
-0.014183 -0.014183 -0.014183
-0.014180 -0.014180 -0.014180
-0.014176 -0.014176 -0.014176
-0.014172 -0.014172 -0.014172
-0.014168 -0.014168 -0.014168
-0.014165 -0.014165 -0.014165
-0.014161 -0.014161 -0.014161
-0.014157 -0.014157 -0.014157
-0.014154 -0.014154 -0.014154
-0.014150 -0.014150 -0.014150
-0.014146 -0.014146 -0.014146
-0.014142 -0.014142 -0.014142
-0.014139 -0.014139 -0.014139
-0.014135 -0.014135 -0.014135
-0.014131 -0.014131 -0.014131
-0.014127 -0.014127 -0.014127
-0.014124 -0.014124 -0.014124
-0.014120 -0.014120 -0.014120
-0.014116 -0.014116 -0.014116
-0.014113 -0.014113 -0.014113
-0.014109 -0.014109 -0.014109
-0.014105 -0.014105 -0.014105
-0.014101 -0.014101 -0.014101
-0.014098 -0.014098 -0.014098
-0.014094 -0.014094 -0.014094
-0.014090 -0.014090 -0.014090
-0.014086 -0.014086 -0.014086
-0.014083 -0.014083 -0.014083
-0.014079 -0.014079 -0.014079
-0.014075 -0.014075 -0.014075
-0.014072 -0.014072 -0.014072
-0.014068 -0.014068 -0.014068
-0.014064 -0.014064 -0.014064
-0.014060 -0.014060 -0.014060
-0.014057 -0.014057 -0.014057
-0.014053 -0.014053 -0.014053
-0.014049 -0.014049 -0.014049
-0.014046 -0.014046 -0.014046
-0.014042 -0.014042 -0.014042
-0.014038 -0.014038 -0.014038
-0.014034 -0.014034 -0.014034
-0.014031 -0.014031 -0.014031
-0.014027 -0.014027 -0.014027
-0.014023 -0.014023 -0.014023
-0.014020 -0.014020 -0.014020
-0.014016 -0.014016 -0.014016
-0.014012 -0.014012 -0.014012
-0.014008 -0.014008 -0.014008
-0.014005 -0.014005 -0.014005
-0.014001 -0.014001 -0.014001
-0.013997 -0.013997 -0.013997
-0.013994 -0.013994 -0.013994
-0.013990 -0.013990 -0.013990
-0.013986 -0.013986 -0.013986
-0.013982 -0.013982 -0.013982
-0.013979 -0.013979 -0.013979
-0.013975 -0.013975 -0.013975
-0.013971 -0.013971 -0.013971
-0.013968 -0.013968 -0.013968
-0.013964 -0.013964 -0.013964
-0.013960 -0.013960 -0.013960
-0.013957 -0.013957 -0.013957
-0.013953 -0.013953 -0.013953
-0.013949 -0.013949 -0.013949
-0.013945 -0.013945 -0.013945
-0.013942 -0.013942 -0.013942
-0.013938 -0.013938 -0.013938
-0.013934 -0.013934 -0.013934
-0.013931 -0.013931 -0.013931
-0.013927 -0.013927 -0.013927
-0.013923 -0.013923 -0.013923
-0.013920 -0.013920 -0.013920
-0.013916 -0.013916 -0.013916
-0.013912 -0.013912 -0.013912
-0.013908 -0.013908 -0.013908
-0.013905 -0.013905 -0.013905
-0.013901 -0.013901 -0.013901
-0.013897 -0.013897 -0.013897
-0.013894 -0.013894 -0.013894
-0.013890 -0.013890 -0.013890
-0.013886 -0.013886 -0.013886
-0.013883 -0.013883 -0.013883
-0.013879 -0.013879 -0.013879
-0.013875 -0.013875 -0.013875
-0.013871 -0.013871 -0.013871
-0.013868 -0.013868 -0.013868
-0.013864 -0.013864 -0.013864
-0.013860 -0.013860 -0.013860
-0.013857 -0.013857 -0.013857
-0.013853 -0.013853 -0.013853
-0.013849 -0.013849 -0.013849
-0.013846 -0.013846 -0.013846
-0.013842 -0.013842 -0.013842
-0.013838 -0.013838 -0.013838
-0.013835 -0.013835 -0.013835
-0.013831 -0.013831 -0.013831
-0.013827 -0.013827 -0.013827
-0.013824 -0.013824 -0.013824
-0.013820 -0.013820 -0.013820
-0.013816 -0.013816 -0.013816
-0.013813 -0.013813 -0.013813
-0.013809 -0.013809 -0.013809
-0.013805 -0.013805 -0.013805
-0.013801 -0.013801 -0.013801
-0.013798 -0.013798 -0.013798
-0.013794 -0.013794 -0.013794
-0.013790 -0.013790 -0.013790
-0.013787 -0.013787 -0.013787
-0.013783 -0.013783 -0.013783
-0.013779 -0.013779 -0.013779
-0.013776 -0.013776 -0.013776
-0.013772 -0.013772 -0.013772
-0.013768 -0.013768 -0.013768
-0.013765 -0.013765 -0.013765
-0.013761 -0.013761 -0.013761
-0.013757 -0.013757 -0.013757
-0.013754 -0.013754 -0.013754
-0.013750 -0.013750 -0.013750
-0.013746 -0.013746 -0.013746
-0.013743 -0.013743 -0.013743
-0.013739 -0.013739 -0.013739
-0.013735 -0.013735 -0.013735
-0.013732 -0.013732 -0.013732
-0.013728 -0.013728 -0.013728
-0.013724 -0.013724 -0.013724
-0.013721 -0.013721 -0.013721
-0.013717 -0.013717 -0.013717
-0.013713 -0.013713 -0.013713
-0.013710 -0.013710 -0.013710
-0.013706 -0.013706 -0.013706
-0.013702 -0.013702 -0.013702
-0.013699 -0.013699 -0.013699
-0.013695 -0.013695 -0.013695
-0.013691 -0.013691 -0.013691
-0.013688 -0.013688 -0.013688
-0.013684 -0.013684 -0.013684
-0.013680 -0.013680 -0.013680
-0.013677 -0.013677 -0.013677
-0.013673 -0.013673 -0.013673
-0.013669 -0.013669 -0.013669
-0.013666 -0.013666 -0.013666
-0.013662 -0.013662 -0.013662
-0.013658 -0.013658 -0.013658
-0.013655 -0.013655 -0.013655
-0.013651 -0.013651 -0.013651
-0.013647 -0.013647 -0.013647
-0.013644 -0.013644 -0.013644
-0.013640 -0.013640 -0.013640
-0.013636 -0.013636 -0.013636
-0.013633 -0.013633 -0.013633
-0.013629 -0.013629 -0.013629
-0.013625 -0.013625 -0.013625
-0.013622 -0.013622 -0.013622
-0.013618 -0.013618 -0.013618
-0.013614 -0.013614 -0.013614
-0.013611 -0.013611 -0.013611
-0.013607 -0.013607 -0.013607
-0.013604 -0.013604 -0.013604
-0.013600 -0.013600 -0.013600
-0.013596 -0.013596 -0.013596
-0.013593 -0.013593 -0.013593
-0.013589 -0.013589 -0.013589
-0.013585 -0.013585 -0.013585
-0.013582 -0.013582 -0.013582
-0.013578 -0.013578 -0.013578
-0.013574 -0.013574 -0.013574
-0.013571 -0.013571 -0.013571
-0.013567 -0.013567 -0.013567
-0.013563 -0.013563 -0.013563
-0.013560 -0.013560 -0.013560
-0.013556 -0.013556 -0.013556
-0.013552 -0.013552 -0.013552
-0.013549 -0.013549 -0.013549
-0.013545 -0.013545 -0.013545
-0.013542 -0.013542 -0.013542
-0.013538 -0.013538 -0.013538
-0.013534 -0.013534 -0.013534
-0.013531 -0.013531 -0.013531
-0.013527 -0.013527 -0.013527
-0.013523 -0.013523 -0.013523
-0.013520 -0.013520 -0.013520
-0.013516 -0.013516 -0.013516
-0.013512 -0.013512 -0.013512
-0.013509 -0.013509 -0.013509
-0.013505 -0.013505 -0.013505
-0.013501 -0.013501 -0.013501
-0.013498 -0.013498 -0.013498
-0.013494 -0.013494 -0.013494
-0.013491 -0.013491 -0.013491
-0.013487 -0.013487 -0.013487
-0.013483 -0.013483 -0.013483
-0.013480 -0.013480 -0.013480
-0.013476 -0.013476 -0.013476
-0.013472 -0.013472 -0.013472
-0.013469 -0.013469 -0.013469
-0.013465 -0.013465 -0.013465
-0.013461 -0.013461 -0.013461
-0.013458 -0.013458 -0.013458
-0.013454 -0.013454 -0.013454
-0.013451 -0.013451 -0.013451
-0.013447 -0.013447 -0.013447
-0.013443 -0.013443 -0.013443
-0.013440 -0.013440 -0.013440
-0.013436 -0.013436 -0.013436
-0.013432 -0.013432 -0.013432
-0.013429 -0.013429 -0.013429
-0.013425 -0.013425 -0.013425
-0.013422 -0.013422 -0.013422
-0.013418 -0.013418 -0.013418
-0.013414 -0.013414 -0.013414
-0.013411 -0.013411 -0.013411
-0.013407 -0.013407 -0.013407
-0.013403 -0.013403 -0.013403
-0.013400 -0.013400 -0.013400
-0.013396 -0.013396 -0.013396
-0.013393 -0.013393 -0.013393
-0.013389 -0.013389 -0.013389
-0.013385 -0.013385 -0.013385
-0.013382 -0.013382 -0.013382
-0.013378 -0.013378 -0.013378
-0.013375 -0.013375 -0.013375
-0.013371 -0.013371 -0.013371
-0.013367 -0.013367 -0.013367
-0.013364 -0.013364 -0.013364
-0.013360 -0.013360 -0.013360
-0.013356 -0.013356 -0.013356
-0.013353 -0.013353 -0.013353
-0.013349 -0.013349 -0.013349
-0.013346 -0.013346 -0.013346
-0.013342 -0.013342 -0.013342
-0.013338 -0.013338 -0.013338
-0.013335 -0.013335 -0.013335
-0.013331 -0.013331 -0.013331
-0.013328 -0.013328 -0.013328
