Luts Download/Canon Luts/1dlut/canonlog2-to-gamma-1dlut/full-to-linear-range/CanonLog2_12-to-Linear_FL_Ver.2.0.cube
# Gamma : Canon Log 2 to Linear
# Range : Full in / Linear out
# Version : 2.0 2016/10/27
# Copyright(c) 2016 Canon Inc. All Rights Reserved.

LUT_1D_SIZE 4096
-0.016363 -0.016363 -0.016363
-0.016298 -0.016298 -0.016298
-0.016234 -0.016234 -0.016234
-0.016169 -0.016169 -0.016169
-0.016105 -0.016105 -0.016105
-0.016041 -0.016041 -0.016041
-0.015977 -0.015977 -0.015977
-0.015913 -0.015913 -0.015913
-0.015849 -0.015849 -0.015849
-0.015785 -0.015785 -0.015785
-0.015722 -0.015722 -0.015722
-0.015659 -0.015659 -0.015659
-0.015596 -0.015596 -0.015596
-0.015533 -0.015533 -0.015533
-0.015470 -0.015470 -0.015470
-0.015407 -0.015407 -0.015407
-0.015344 -0.015344 -0.015344
-0.015282 -0.015282 -0.015282
-0.015220 -0.015220 -0.015220
-0.015158 -0.015158 -0.015158
-0.015096 -0.015096 -0.015096
-0.015034 -0.015034 -0.015034
-0.014972 -0.014972 -0.014972
-0.014911 -0.014911 -0.014911
-0.014849 -0.014849 -0.014849
-0.014788 -0.014788 -0.014788
-0.014727 -0.014727 -0.014727
-0.014666 -0.014666 -0.014666
-0.014605 -0.014605 -0.014605
-0.014544 -0.014544 -0.014544
-0.014484 -0.014484 -0.014484
-0.014423 -0.014423 -0.014423
-0.014363 -0.014363 -0.014363
-0.014303 -0.014303 -0.014303
-0.014243 -0.014243 -0.014243
-0.014183 -0.014183 -0.014183
-0.014123 -0.014123 -0.014123
-0.014064 -0.014064 -0.014064
-0.014004 -0.014004 -0.014004
-0.013945 -0.013945 -0.013945
-0.013886 -0.013886 -0.013886
-0.013827 -0.013827 -0.013827
-0.013768 -0.013768 -0.013768
-0.013709 -0.013709 -0.013709
-0.013650 -0.013650 -0.013650
-0.013592 -0.013592 -0.013592
-0.013534 -0.013534 -0.013534
-0.013475 -0.013475 -0.013475
-0.013417 -0.013417 -0.013417
-0.013359 -0.013359 -0.013359
-0.013302 -0.013302 -0.013302
-0.013244 -0.013244 -0.013244
-0.013186 -0.013186 -0.013186
-0.013129 -0.013129 -0.013129
-0.013072 -0.013072 -0.013072
-0.013015 -0.013015 -0.013015
-0.012958 -0.012958 -0.012958
-0.012901 -0.012901 -0.012901
-0.012844 -0.012844 -0.012844
-0.012787 -0.012787 -0.012787
-0.012731 -0.012731 -0.012731
-0.012675 -0.012675 -0.012675
-0.012618 -0.012618 -0.012618
-0.012562 -0.012562 -0.012562
-0.012506 -0.012506 -0.012506
-0.012451 -0.012451 -0.012451
-0.012395 -0.012395 -0.012395
-0.012339 -0.012339 -0.012339
-0.012284 -0.012284 -0.012284
-0.012229 -0.012229 -0.012229
-0.012173 -0.012173 -0.012173
-0.012118 -0.012118 -0.012118
-0.012063 -0.012063 -0.012063
-0.012009 -0.012009 -0.012009
-0.011954 -0.011954 -0.011954
-0.011899 -0.011899 -0.011899
-0.011845 -0.011845 -0.011845
-0.011791 -0.011791 -0.011791
-0.011737 -0.011737 -0.011737
-0.011683 -0.011683 -0.011683
-0.011629 -0.011629 -0.011629
-0.011575 -0.011575 -0.011575
-0.011521 -0.011521 -0.011521
-0.011468 -0.011468 -0.011468
-0.011414 -0.011414 -0.011414
-0.011361 -0.011361 -0.011361
-0.011308 -0.011308 -0.011308
-0.011255 -0.011255 -0.011255
-0.011202 -0.011202 -0.011202
-0.011149 -0.011149 -0.011149
-0.011097 -0.011097 -0.011097
-0.011044 -0.011044 -0.011044
-0.010992 -0.010992 -0.010992
-0.010939 -0.010939 -0.010939
-0.010887 -0.010887 -0.010887
-0.010835 -0.010835 -0.010835
-0.010783 -0.010783 -0.010783
-0.010731 -0.010731 -0.010731
-0.010680 -0.010680 -0.010680
-0.010628 -0.010628 -0.010628
-0.010577 -0.010577 -0.010577
-0.010525 -0.010525 -0.010525
-0.010474 -0.010474 -0.010474
-0.010423 -0.010423 -0.010423
-0.010372 -0.010372 -0.010372
-0.010321 -0.010321 -0.010321
-0.010270 -0.010270 -0.010270
-0.010220 -0.010220 -0.010220
-0.010169 -0.010169 -0.010169
-0.010119 -0.010119 -0.010119
-0.010069 -0.010069 -0.010069
-0.010019 -0.010019 -0.010019
-0.009968 -0.009968 -0.009968
-0.009919 -0.009919 -0.009919
-0.009869 -0.009869 -0.009869
-0.009819 -0.009819 -0.009819
-0.009770 -0.009770 -0.009770
-0.009720 -0.009720 -0.009720
-0.009671 -0.009671 -0.009671
-0.009622 -0.009622 -0.009622
-0.009572 -0.009572 -0.009572
-0.009523 -0.009523 -0.009523
-0.009475 -0.009475 -0.009475
-0.009426 -0.009426 -0.009426
-0.009377 -0.009377 -0.009377
-0.009329 -0.009329 -0.009329
-0.009280 -0.009280 -0.009280
-0.009232 -0.009232 -0.009232
-0.009184 -0.009184 -0.009184
-0.009136 -0.009136 -0.009136
-0.009088 -0.009088 -0.009088
-0.009040 -0.009040 -0.009040
-0.008992 -0.008992 -0.008992
-0.008944 -0.008944 -0.008944
-0.008897 -0.008897 -0.008897
-0.008849 -0.008849 -0.008849
-0.008802 -0.008802 -0.008802
-0.008755 -0.008755 -0.008755
-0.008708 -0.008708 -0.008708
-0.008661 -0.008661 -0.008661
-0.008614 -0.008614 -0.008614
-0.008567 -0.008567 -0.008567
-0.008521 -0.008521 -0.008521
-0.008474 -0.008474 -0.008474
-0.008428 -0.008428 -0.008428
-0.008381 -0.008381 -0.008381
-0.008335 -0.008335 -0.008335
-0.008289 -0.008289 -0.008289
-0.008243 -0.008243 -0.008243
-0.008197 -0.008197 -0.008197
-0.008151 -0.008151 -0.008151
-0.008106 -0.008106 -0.008106
-0.008060 -0.008060 -0.008060
-0.008014 -0.008014 -0.008014
-0.007969 -0.007969 -0.007969
-0.007924 -0.007924 -0.007924
-0.007879 -0.007879 -0.007879
-0.007834 -0.007834 -0.007834
-0.007789 -0.007789 -0.007789
-0.007744 -0.007744 -0.007744
-0.007699 -0.007699 -0.007699
-0.007655 -0.007655 -0.007655
-0.007610 -0.007610 -0.007610
-0.007566 -0.007566 -0.007566
-0.007521 -0.007521 -0.007521
-0.007477 -0.007477 -0.007477
-0.007433 -0.007433 -0.007433
-0.007389 -0.007389 -0.007389
-0.007345 -0.007345 -0.007345
-0.007301 -0.007301 -0.007301
-0.007257 -0.007257 -0.007257
-0.007214 -0.007214 -0.007214
-0.007170 -0.007170 -0.007170
-0.007127 -0.007127 -0.007127
-0.007084 -0.007084 -0.007084
-0.007040 -0.007040 -0.007040
-0.006997 -0.006997 -0.006997
-0.006954 -0.006954 -0.006954
-0.006911 -0.006911 -0.006911
-0.006869 -0.006869 -0.006869
-0.006826 -0.006826 -0.006826
-0.006783 -0.006783 -0.006783
-0.006741 -0.006741 -0.006741
-0.006698 -0.006698 -0.006698
-0.006656 -0.006656 -0.006656
-0.006614 -0.006614 -0.006614
-0.006572 -0.006572 -0.006572
-0.006530 -0.006530 -0.006530
-0.006488 -0.006488 -0.006488
-0.006446 -0.006446 -0.006446
-0.006404 -0.006404 -0.006404
-0.006363 -0.006363 -0.006363
-0.006321 -0.006321 -0.006321
-0.006280 -0.006280 -0.006280
-0.006239 -0.006239 -0.006239
-0.006197 -0.006197 -0.006197
-0.006156 -0.006156 -0.006156
-0.006115 -0.006115 -0.006115
-0.006074 -0.006074 -0.006074
-0.006033 -0.006033 -0.006033
-0.005993 -0.005993 -0.005993
-0.005952 -0.005952 -0.005952
-0.005911 -0.005911 -0.005911
-0.005871 -0.005871 -0.005871
-0.005830 -0.005830 -0.005830
-0.005790 -0.005790 -0.005790
-0.005750 -0.005750 -0.005750
-0.005710 -0.005710 -0.005710
-0.005670 -0.005670 -0.005670
-0.005630 -0.005630 -0.005630
-0.005590 -0.005590 -0.005590
-0.005550 -0.005550 -0.005550
-0.005511 -0.005511 -0.005511
-0.005471 -0.005471 -0.005471
-0.005432 -0.005432 -0.005432
-0.005392 -0.005392 -0.005392
-0.005353 -0.005353 -0.005353
-0.005314 -0.005314 -0.005314
-0.005275 -0.005275 -0.005275
-0.005236 -0.005236 -0.005236
-0.005197 -0.005197 -0.005197
-0.005158 -0.005158 -0.005158
-0.005120 -0.005120 -0.005120
-0.005081 -0.005081 -0.005081
-0.005042 -0.005042 -0.005042
-0.005004 -0.005004 -0.005004
-0.004966 -0.004966 -0.004966
-0.004927 -0.004927 -0.004927
-0.004889 -0.004889 -0.004889
-0.004851 -0.004851 -0.004851
-0.004813 -0.004813 -0.004813
-0.004775 -0.004775 -0.004775
-0.004737 -0.004737 -0.004737
-0.004700 -0.004700 -0.004700
-0.004662 -0.004662 -0.004662
-0.004624 -0.004624 -0.004624
-0.004587 -0.004587 -0.004587
-0.004549 -0.004549 -0.004549
-0.004512 -0.004512 -0.004512
-0.004475 -0.004475 -0.004475
-0.004438 -0.004438 -0.004438
-0.004401 -0.004401 -0.004401
-0.004364 -0.004364 -0.004364
-0.004327 -0.004327 -0.004327
-0.004290 -0.004290 -0.004290
-0.004253 -0.004253 -0.004253
-0.004217 -0.004217 -0.004217
-0.004180 -0.004180 -0.004180
-0.004144 -0.004144 -0.004144
-0.004107 -0.004107 -0.004107
-0.004071 -0.004071 -0.004071
-0.004035 -0.004035 -0.004035
-0.003999 -0.003999 -0.003999
-0.003963 -0.003963 -0.003963
-0.003927 -0.003927 -0.003927
-0.003891 -0.003891 -0.003891
-0.003855 -0.003855 -0.003855
-0.003820 -0.003820 -0.003820
-0.003784 -0.003784 -0.003784
-0.003749 -0.003749 -0.003749
-0.003713 -0.003713 -0.003713
-0.003678 -0.003678 -0.003678
-0.003642 -0.003642 -0.003642
-0.003607 -0.003607 -0.003607
-0.003572 -0.003572 -0.003572
-0.003537 -0.003537 -0.003537
-0.003502 -0.003502 -0.003502
-0.003467 -0.003467 -0.003467
-0.003433 -0.003433 -0.003433
-0.003398 -0.003398 -0.003398
-0.003363 -0.003363 -0.003363
-0.003329 -0.003329 -0.003329
-0.003294 -0.003294 -0.003294
-0.003260 -0.003260 -0.003260
-0.003226 -0.003226 -0.003226
-0.003191 -0.003191 -0.003191
-0.003157 -0.003157 -0.003157
-0.003123 -0.003123 -0.003123
-0.003089 -0.003089 -0.003089
-0.003055 -0.003055 -0.003055
-0.003021 -0.003021 -0.003021
-0.002988 -0.002988 -0.002988
-0.002954 -0.002954 -0.002954
-0.002920 -0.002920 -0.002920
-0.002887 -0.002887 -0.002887
-0.002853 -0.002853 -0.002853
-0.002820 -0.002820 -0.002820
-0.002787 -0.002787 -0.002787
-0.002754 -0.002754 -0.002754
-0.002720 -0.002720 -0.002720
-0.002687 -0.002687 -0.002687
-0.002654 -0.002654 -0.002654
-0.002622 -0.002622 -0.002622
-0.002589 -0.002589 -0.002589
-0.002556 -0.002556 -0.002556
-0.002523 -0.002523 -0.002523
-0.002491 -0.002491 -0.002491
-0.002458 -0.002458 -0.002458
-0.002426 -0.002426 -0.002426
-0.002393 -0.002393 -0.002393
-0.002361 -0.002361 -0.002361
-0.002329 -0.002329 -0.002329
-0.002297 -0.002297 -0.002297
-0.002265 -0.002265 -0.002265
-0.002233 -0.002233 -0.002233
-0.002201 -0.002201 -0.002201
-0.002169 -0.002169 -0.002169
-0.002137 -0.002137 -0.002137
-0.002106 -0.002106 -0.002106
-0.002074 -0.002074 -0.002074
-0.002042 -0.002042 -0.002042
-0.002011 -0.002011 -0.002011
-0.001980 -0.001980 -0.001980
-0.001948 -0.001948 -0.001948
-0.001917 -0.001917 -0.001917
-0.001886 -0.001886 -0.001886
-0.001855 -0.001855 -0.001855
-0.001824 -0.001824 -0.001824
-0.001793 -0.001793 -0.001793
-0.001762 -0.001762 -0.001762
-0.001731 -0.001731 -0.001731
-0.001700 -0.001700 -0.001700
-0.001670 -0.001670 -0.001670
-0.001639 -0.001639 -0.001639
-0.001608 -0.001608 -0.001608
-0.001578 -0.001578 -0.001578
-0.001548 -0.001548 -0.001548
-0.001517 -0.001517 -0.001517
-0.001487 -0.001487 -0.001487
-0.001457 -0.001457 -0.001457
-0.001427 -0.001427 -0.001427
-0.001397 -0.001397 -0.001397
-0.001367 -0.001367 -0.001367
-0.001337 -0.001337 -0.001337
-0.001307 -0.001307 -0.001307
-0.001277 -0.001277 -0.001277
-0.001248 -0.001248 -0.001248
-0.001218 -0.001218 -0.001218
-0.001188 -0.001188 -0.001188
-0.001159 -0.001159 -0.001159
-0.001130 -0.001130 -0.001130
-0.001100 -0.001100 -0.001100
-0.001071 -0.001071 -0.001071
-0.001042 -0.001042 -0.001042
-0.001013 -0.001013 -0.001013
-0.000983 -0.000983 -0.000983
-0.000954 -0.000954 -0.000954
-0.000926 -0.000926 -0.000926
-0.000897 -0.000897 -0.000897
-0.000868 -0.000868 -0.000868
-0.000839 -0.000839 -0.000839
-0.000810 -0.000810 -0.000810
-0.000782 -0.000782 -0.000782
-0.000753 -0.000753 -0.000753
-0.000725 -0.000725 -0.000725
-0.000696 -0.000696 -0.000696
-0.000668 -0.000668 -0.000668
-0.000640 -0.000640 -0.000640
-0.000612 -0.000612 -0.000612
-0.000583 -0.000583 -0.000583
-0.000555 -0.000555 -0.000555
-0.000527 -0.000527 -0.000527
-0.000499 -0.000499 -0.000499
-0.000472 -0.000472 -0.000472
-0.000444 -0.000444 -0.000444
-0.000416 -0.000416 -0.000416
-0.000388 -0.000388 -0.000388
-0.000361 -0.000361 -0.000361
-0.000333 -0.000333 -0.000333
-0.000306 -0.000306 -0.000306
-0.000278 -0.000278 -0.000278
-0.000251 -0.000251 -0.000251
-0.000224 -0.000224 -0.000224
-0.000196 -0.000196 -0.000196
-0.000169 -0.000169 -0.000169
-0.000142 -0.000142 -0.000142
-0.000115 -0.000115 -0.000115
-0.000088 -0.000088 -0.000088
-0.000061 -0.000061 -0.000061
-0.000034 -0.000034 -0.000034
-0.000007 -0.000007 -0.000007
0.000019 0.000019 0.000019
0.000046 0.000046 0.000046
0.000073 0.000073 0.000073
0.000100 0.000100 0.000100
0.000127 0.000127 0.000127
0.000154 0.000154 0.000154
0.000181 0.000181 0.000181
0.000208 0.000208 0.000208
0.000236 0.000236 0.000236
0.000263 0.000263 0.000263
0.000290 0.000290 0.000290
0.000318 0.000318 0.000318
0.000345 0.000345 0.000345
0.000373 0.000373 0.000373
0.000401 0.000401 0.000401
0.000428 0.000428 0.000428
0.000456 0.000456 0.000456
0.000484 0.000484 0.000484
0.000512 0.000512 0.000512
0.000540 0.000540 0.000540
0.000568 0.000568 0.000568
0.000596 0.000596 0.000596
0.000624 0.000624 0.000624
0.000652 0.000652 0.000652
0.000681 0.000681 0.000681
0.000709 0.000709 0.000709
0.000737 0.000737 0.000737
0.000766 0.000766 0.000766
0.000795 0.000795 0.000795
0.000823 0.000823 0.000823
0.000852 0.000852 0.000852
0.000881 0.000881 0.000881
0.000909 0.000909 0.000909
0.000938 0.000938 0.000938
0.000967 0.000967 0.000967
0.000996 0.000996 0.000996
0.001025 0.001025 0.001025
0.001055 0.001055 0.001055
0.001084 0.001084 0.001084
0.001113 0.001113 0.001113
0.001143 0.001143 0.001143
0.001172 0.001172 0.001172
0.001201 0.001201 0.001201
0.001231 0.001231 0.001231
0.001261 0.001261 0.001261
0.001290 0.001290 0.001290
0.001320 0.001320 0.001320
0.001350 0.001350 0.001350
0.001380 0.001380 0.001380
0.001410 0.001410 0.001410
0.001440 0.001440 0.001440
0.001470 0.001470 0.001470
0.001500 0.001500 0.001500
0.001531 0.001531 0.001531
0.001561 0.001561 0.001561
0.001591 0.001591 0.001591
0.001622 0.001622 0.001622
0.001653 0.001653 0.001653
0.001683 0.001683 0.001683
0.001714 0.001714 0.001714
0.001745 0.001745 0.001745
0.001775 0.001775 0.001775
0.001806 0.001806 0.001806
0.001837 0.001837 0.001837
0.001868 0.001868 0.001868
0.001900 0.001900 0.001900
0.001931 0.001931 0.001931
0.001962 0.001962 0.001962
0.001993 0.001993 0.001993
0.002025 0.002025 0.002025
0.002056 0.002056 0.002056
0.002088 0.002088 0.002088
0.002120 0.002120 0.002120
0.002151 0.002151 0.002151
0.002183 0.002183 0.002183
0.002215 0.002215 0.002215
0.002247 0.002247 0.002247
0.002279 0.002279 0.002279
0.002311 0.002311 0.002311
0.002343 0.002343 0.002343
0.002375 0.002375 0.002375
0.002408 0.002408 0.002408
0.002440 0.002440 0.002440
0.002473 0.002473 0.002473
0.002505 0.002505 0.002505
0.002538 0.002538 0.002538
0.002570 0.002570 0.002570
0.002603 0.002603 0.002603
0.002636 0.002636 0.002636
0.002669 0.002669 0.002669
0.002702 0.002702 0.002702
0.002735 0.002735 0.002735
0.002768 0.002768 0.002768
0.002802 0.002802 0.002802
0.002835 0.002835 0.002835
0.002868 0.002868 0.002868
0.002902 0.002902 0.002902
0.002935 0.002935 0.002935
0.002969 0.002969 0.002969
0.003003 0.003003 0.003003
0.003036 0.003036 0.003036
0.003070 0.003070 0.003070
0.003104 0.003104 0.003104
0.003138 0.003138 0.003138
0.003172 0.003172 0.003172
0.003206 0.003206 0.003206
0.003241 0.003241 0.003241
0.003275 0.003275 0.003275
0.003309 0.003309 0.003309
0.003344 0.003344 0.003344
0.003379 0.003379 0.003379
0.003413 0.003413 0.003413
0.003448 0.003448 0.003448
0.003483 0.003483 0.003483
0.003518 0.003518 0.003518
0.003553 0.003553 0.003553
0.003588 0.003588 0.003588
0.003623 0.003623 0.003623
0.003658 0.003658 0.003658
0.003693 0.003693 0.003693
0.003729 0.003729 0.003729
0.003764 0.003764 0.003764
0.003800 0.003800 0.003800
0.003835 0.003835 0.003835
0.003871 0.003871 0.003871
0.003907 0.003907 0.003907
0.003943 0.003943 0.003943
0.003979 0.003979 0.003979
0.004015 0.004015 0.004015
0.004051 0.004051 0.004051
0.004087 0.004087 0.004087
0.004124 0.004124 0.004124
0.004160 0.004160 0.004160
0.004196 0.004196 0.004196
0.004233 0.004233 0.004233
0.004270 0.004270 0.004270
0.004306 0.004306 0.004306
0.004343 0.004343 0.004343
0.004380 0.004380 0.004380
0.004417 0.004417 0.004417
0.004454 0.004454 0.004454
0.004491 0.004491 0.004491
0.004529 0.004529 0.004529
0.004566 0.004566 0.004566
0.004603 0.004603 0.004603
0.004641 0.004641 0.004641
0.004679 0.004679 0.004679
0.004716 0.004716 0.004716
0.004754 0.004754 0.004754
0.004792 0.004792 0.004792
0.004830 0.004830 0.004830
0.004868 0.004868 0.004868
0.004906 0.004906 0.004906
0.004944 0.004944 0.004944
0.004983 0.004983 0.004983
0.005021 0.005021 0.005021
0.005059 0.005059 0.005059
0.005098 0.005098 0.005098
0.005137 0.005137 0.005137
0.005175 0.005175 0.005175
0.005214 0.005214 0.005214
0.005253 0.005253 0.005253
0.005292 0.005292 0.005292
0.005331 0.005331 0.005331
0.005371 0.005371 0.005371
0.005410 0.005410 0.005410
0.005449 0.005449 0.005449
0.005489 0.005489 0.005489
0.005528 0.005528 0.005528
0.005568 0.005568 0.005568
0.005608 0.005608 0.005608
0.005648 0.005648 0.005648
0.005688 0.005688 0.005688
0.005728 0.005728 0.005728
0.005768 0.005768 0.005768
0.005808 0.005808 0.005808
0.005848 0.005848 0.005848
0.005889 0.005889 0.005889
0.005929 0.005929 0.005929
0.005970 0.005970 0.005970
0.006011 0.006011 0.006011
0.006051 0.006051 0.006051
0.006092 0.006092 0.006092
0.006133 0.006133 0.006133
0.006174 0.006174 0.006174
0.006216 0.006216 0.006216
0.006257 0.006257 0.006257
0.006298 0.006298 0.006298
0.006340 0.006340 0.006340
0.006381 0.006381 0.006381
0.006423 0.006423 0.006423
0.006465 0.006465 0.006465
0.006506 0.006506 0.006506
0.006548 0.006548 0.006548
0.006590 0.006590 0.006590
0.006633 0.006633 0.006633
0.006675 0.006675 0.006675
0.006717 0.006717 0.006717
0.006760 0.006760 0.006760
0.006802 0.006802 0.006802
0.006845 0.006845 0.006845
0.006888 0.006888 0.006888
0.006930 0.006930 0.006930
0.006973 0.006973 0.006973
0.007016 0.007016 0.007016
0.007060 0.007060 0.007060
0.007103 0.007103 0.007103
0.007146 0.007146 0.007146
0.007190 0.007190 0.007190
0.007233 0.007233 0.007233
0.007277 0.007277 0.007277
0.007321 0.007321 0.007321
0.007364 0.007364 0.007364
0.007408 0.007408 0.007408
0.007452 0.007452 0.007452
0.007497 0.007497 0.007497
0.007541 0.007541 0.007541
0.007585 0.007585 0.007585
0.007630 0.007630 0.007630
0.007674 0.007674 0.007674
0.007719 0.007719 0.007719
0.007764 0.007764 0.007764
0.007809 0.007809 0.007809
0.007854 0.007854 0.007854
0.007899 0.007899 0.007899
0.007944 0.007944 0.007944
0.007989 0.007989 0.007989
0.008035 0.008035 0.008035
0.008080 0.008080 0.008080
0.008126 0.008126 0.008126
0.008171 0.008171 0.008171
0.008217 0.008217 0.008217
0.008263 0.008263 0.008263
0.008309 0.008309 0.008309
0.008355 0.008355 0.008355
0.008402 0.008402 0.008402
0.008448 0.008448 0.008448
0.008495 0.008495 0.008495
0.008541 0.008541 0.008541
0.008588 0.008588 0.008588
0.008635 0.008635 0.008635
0.008682 0.008682 0.008682
0.008729 0.008729 0.008729
0.008776 0.008776 0.008776
0.008823 0.008823 0.008823
0.008870 0.008870 0.008870
0.008918 0.008918 0.008918
0.008965 0.008965 0.008965
0.009013 0.009013 0.009013
0.009061 0.009061 0.009061
0.009109 0.009109 0.009109
0.009157 0.009157 0.009157
0.009205 0.009205 0.009205
0.009253 0.009253 0.009253
0.009302 0.009302 0.009302
0.009350 0.009350 0.009350
0.009399 0.009399 0.009399
0.009447 0.009447 0.009447
0.009496 0.009496 0.009496
0.009545 0.009545 0.009545
0.009594 0.009594 0.009594
0.009643 0.009643 0.009643
0.009693 0.009693 0.009693
0.009742 0.009742 0.009742
0.009791 0.009791 0.009791
0.009841 0.009841 0.009841
0.009891 0.009891 0.009891
0.009941 0.009941 0.009941
0.009991 0.009991 0.009991
0.010041 0.010041 0.010041
0.010091 0.010091 0.010091
0.010141 0.010141 0.010141
0.010192 0.010192 0.010192
0.010242 0.010242 0.010242
0.010293 0.010293 0.010293
0.010344 0.010344 0.010344
0.010395 0.010395 0.010395
0.010446 0.010446 0.010446
0.010497 0.010497 0.010497
0.010548 0.010548 0.010548
0.010599 0.010599 0.010599
0.010651 0.010651 0.010651
0.010702 0.010702 0.010702
0.010754 0.010754 0.010754
0.010806 0.010806 0.010806
0.010858 0.010858 0.010858
0.010910 0.010910 0.010910
0.010962 0.010962 0.010962
0.011015 0.011015 0.011015
0.011067 0.011067 0.011067
0.011120 0.011120 0.011120
0.011173 0.011173 0.011173
0.011225 0.011225 0.011225
0.011278 0.011278 0.011278
0.011331 0.011331 0.011331
0.011385 0.011385 0.011385
0.011438 0.011438 0.011438
0.011491 0.011491 0.011491
0.011545 0.011545 0.011545
0.011599 0.011599 0.011599
0.011653 0.011653 0.011653
0.011706 0.011706 0.011706
0.011761 0.011761 0.011761
0.011815 0.011815 0.011815
0.011869 0.011869 0.011869
0.011924 0.011924 0.011924
0.011978 0.011978 0.011978
0.012033 0.012033 0.012033
0.012088 0.012088 0.012088
0.012143 0.012143 0.012143
0.012198 0.012198 0.012198
0.012253 0.012253 0.012253
0.012308 0.012308 0.012308
0.012364 0.012364 0.012364
0.012419 0.012419 0.012419
0.012475 0.012475 0.012475
0.012531 0.012531 0.012531
0.012587 0.012587 0.012587
0.012643 0.012643 0.012643
0.012699 0.012699 0.012699
0.012756 0.012756 0.012756
0.012812 0.012812 0.012812
0.012869 0.012869 0.012869
0.012926 0.012926 0.012926
0.012983 0.012983 0.012983
0.013040 0.013040 0.013040
0.013097 0.013097 0.013097
0.013154 0.013154 0.013154
0.013212 0.013212 0.013212
0.013269 0.013269 0.013269
0.013327 0.013327 0.013327
0.013385 0.013385 0.013385
0.013443 0.013443 0.013443
0.013501 0.013501 0.013501
0.013559 0.013559 0.013559
0.013618 0.013618 0.013618
0.013676 0.013676 0.013676
0.013735 0.013735 0.013735
0.013794 0.013794 0.013794
0.013853 0.013853 0.013853
0.013912 0.013912 0.013912
0.013971 0.013971 0.013971
0.014030 0.014030 0.014030
0.014090 0.014090 0.014090
0.014150 0.014150 0.014150
0.014209 0.014209 0.014209
0.014269 0.014269 0.014269
0.014329 0.014329 0.014329
0.014390 0.014390 0.014390
0.014450 0.014450 0.014450
0.014510 0.014510 0.014510
0.014571 0.014571 0.014571
0.014632 0.014632 0.014632
0.014693 0.014693 0.014693
0.014754 0.014754 0.014754
0.014815 0.014815 0.014815
0.014876 0.014876 0.014876
0.014938 0.014938 0.014938
0.014999 0.014999 0.014999
0.015061 0.015061 0.015061
0.015123 0.015123 0.015123
0.015185 0.015185 0.015185
0.015247 0.015247 0.015247
0.015310 0.015310 0.015310
0.015372 0.015372 0.015372
0.015435 0.015435 0.015435
0.015498 0.015498 0.015498
0.015560 0.015560 0.015560
0.015624 0.015624 0.015624
0.015687 0.015687 0.015687
0.015750 0.015750 0.015750
0.015814 0.015814 0.015814
0.015877 0.015877 0.015877
0.015941 0.015941 0.015941
0.016005 0.016005 0.016005
0.016069 0.016069 0.016069
0.016133 0.016133 0.016133
0.016198 0.016198 0.016198
0.016262 0.016262 0.016262
0.016327 0.016327 0.016327
0.016392 0.016392 0.016392
0.016457 0.016457 0.016457
0.016522 0.016522 0.016522
0.016587 0.016587 0.016587
0.016653 0.016653 0.016653
0.016719 0.016719 0.016719
0.016784 0.016784 0.016784
0.016850 0.016850 0.016850
0.016916 0.016916 0.016916
0.016983 0.016983 0.016983
0.017049 0.017049 0.017049
0.017115 0.017115 0.017115
0.017182 0.017182 0.017182
0.017249 0.017249 0.017249
0.017316 0.017316 0.017316
0.017383 0.017383 0.017383
0.017451 0.017451 0.017451
0.017518 0.017518 0.017518
0.017586 0.017586 0.017586
0.017653 0.017653 0.017653
0.017721 0.017721 0.017721
0.017790 0.017790 0.017790
0.017858 0.017858 0.017858
0.017926 0.017926 0.017926
0.017995 0.017995 0.017995
0.018064 0.018064 0.018064
0.018132 0.018132 0.018132
0.018202 0.018202 0.018202
0.018271 0.018271 0.018271
0.018340 0.018340 0.018340
0.018410 0.018410 0.018410
0.018479 0.018479 0.018479
0.018549 0.018549 0.018549
0.018619 0.018619 0.018619
0.018690 0.018690 0.018690
0.018760 0.018760 0.018760
0.018830 0.018830 0.018830
0.018901 0.018901 0.018901
0.018972 0.018972 0.018972
0.019043 0.019043 0.019043
0.019114 0.019114 0.019114
0.019186 0.019186 0.019186
0.019257 0.019257 0.019257
0.019329 0.019329 0.019329
0.019401 0.019401 0.019401
0.019473 0.019473 0.019473
0.019545 0.019545 0.019545
0.019617 0.019617 0.019617
0.019690 0.019690 0.019690
0.019763 0.019763 0.019763
0.019835 0.019835 0.019835
0.019908 0.019908 0.019908
0.019982 0.019982 0.019982
0.020055 0.020055 0.020055
0.020129 0.020129 0.020129
0.020202 0.020202 0.020202
0.020276 0.020276 0.020276
0.020350 0.020350 0.020350
0.020425 0.020425 0.020425
0.020499 0.020499 0.020499
0.020574 0.020574 0.020574
0.020648 0.020648 0.020648
0.020723 0.020723 0.020723
0.020798 0.020798 0.020798
0.020874 0.020874 0.020874
0.020949 0.020949 0.020949
0.021025 0.021025 0.021025
0.021101 0.021101 0.021101
0.021177 0.021177 0.021177
0.021253 0.021253 0.021253
0.021329 0.021329 0.021329
0.021406 0.021406 0.021406
0.021482 0.021482 0.021482
0.021559 0.021559 0.021559
0.021636 0.021636 0.021636
0.021713 0.021713 0.021713
0.021791 0.021791 0.021791
0.021869 0.021869 0.021869
0.021946 0.021946 0.021946
