Luts Download/Canon Luts/1dlut/canonlog3-to-gamma-1dlut/full-to-linear-range/CanonLog3_16-to-Linear_FL_Ver.2.0.cube
# Gamma : Canon Log 3 to Linear
# Range : Full in / Linear out
# Version : 2.0 2016/10/27
# Copyright(c) 2016 Canon Inc. All Rights Reserved.

LUT_1D_SIZE 65536
-0.082015 -0.082015 -0.082015
-0.082001 -0.082001 -0.082001
-0.081986 -0.081986 -0.081986
-0.081972 -0.081972 -0.081972
-0.081958 -0.081958 -0.081958
-0.081944 -0.081944 -0.081944
-0.081929 -0.081929 -0.081929
-0.081915 -0.081915 -0.081915
-0.081901 -0.081901 -0.081901
-0.081887 -0.081887 -0.081887
-0.081873 -0.081873 -0.081873
-0.081858 -0.081858 -0.081858
-0.081844 -0.081844 -0.081844
-0.081830 -0.081830 -0.081830
-0.081816 -0.081816 -0.081816
-0.081802 -0.081802 -0.081802
-0.081787 -0.081787 -0.081787
-0.081773 -0.081773 -0.081773
-0.081759 -0.081759 -0.081759
-0.081745 -0.081745 -0.081745
-0.081730 -0.081730 -0.081730
-0.081716 -0.081716 -0.081716
-0.081702 -0.081702 -0.081702
-0.081688 -0.081688 -0.081688
-0.081674 -0.081674 -0.081674
-0.081659 -0.081659 -0.081659
-0.081645 -0.081645 -0.081645
-0.081631 -0.081631 -0.081631
-0.081617 -0.081617 -0.081617
-0.081603 -0.081603 -0.081603
-0.081589 -0.081589 -0.081589
-0.081574 -0.081574 -0.081574
-0.081560 -0.081560 -0.081560
-0.081546 -0.081546 -0.081546
-0.081532 -0.081532 -0.081532
-0.081518 -0.081518 -0.081518
-0.081503 -0.081503 -0.081503
-0.081489 -0.081489 -0.081489
-0.081475 -0.081475 -0.081475
-0.081461 -0.081461 -0.081461
-0.081447 -0.081447 -0.081447
-0.081432 -0.081432 -0.081432
-0.081418 -0.081418 -0.081418
-0.081404 -0.081404 -0.081404
-0.081390 -0.081390 -0.081390
-0.081376 -0.081376 -0.081376
-0.081362 -0.081362 -0.081362
-0.081347 -0.081347 -0.081347
-0.081333 -0.081333 -0.081333
-0.081319 -0.081319 -0.081319
-0.081305 -0.081305 -0.081305
-0.081291 -0.081291 -0.081291
-0.081277 -0.081277 -0.081277
-0.081262 -0.081262 -0.081262
-0.081248 -0.081248 -0.081248
-0.081234 -0.081234 -0.081234
-0.081220 -0.081220 -0.081220
-0.081206 -0.081206 -0.081206
-0.081192 -0.081192 -0.081192
-0.081178 -0.081178 -0.081178
-0.081163 -0.081163 -0.081163
-0.081149 -0.081149 -0.081149
-0.081135 -0.081135 -0.081135
-0.081121 -0.081121 -0.081121
-0.081107 -0.081107 -0.081107
-0.081093 -0.081093 -0.081093
-0.081079 -0.081079 -0.081079
-0.081064 -0.081064 -0.081064
-0.081050 -0.081050 -0.081050
-0.081036 -0.081036 -0.081036
-0.081022 -0.081022 -0.081022
-0.081008 -0.081008 -0.081008
-0.080994 -0.080994 -0.080994
-0.080980 -0.080980 -0.080980
-0.080965 -0.080965 -0.080965
-0.080951 -0.080951 -0.080951
-0.080937 -0.080937 -0.080937
-0.080923 -0.080923 -0.080923
-0.080909 -0.080909 -0.080909
-0.080895 -0.080895 -0.080895
-0.080881 -0.080881 -0.080881
-0.080867 -0.080867 -0.080867
-0.080852 -0.080852 -0.080852
-0.080838 -0.080838 -0.080838
-0.080824 -0.080824 -0.080824
-0.080810 -0.080810 -0.080810
-0.080796 -0.080796 -0.080796
-0.080782 -0.080782 -0.080782
-0.080768 -0.080768 -0.080768
-0.080754 -0.080754 -0.080754
-0.080740 -0.080740 -0.080740
-0.080725 -0.080725 -0.080725
-0.080711 -0.080711 -0.080711
-0.080697 -0.080697 -0.080697
-0.080683 -0.080683 -0.080683
-0.080669 -0.080669 -0.080669
-0.080655 -0.080655 -0.080655
-0.080641 -0.080641 -0.080641
-0.080627 -0.080627 -0.080627
-0.080613 -0.080613 -0.080613
-0.080599 -0.080599 -0.080599
-0.080584 -0.080584 -0.080584
-0.080570 -0.080570 -0.080570
-0.080556 -0.080556 -0.080556
-0.080542 -0.080542 -0.080542
-0.080528 -0.080528 -0.080528
-0.080514 -0.080514 -0.080514
-0.080500 -0.080500 -0.080500
-0.080486 -0.080486 -0.080486
-0.080472 -0.080472 -0.080472
-0.080458 -0.080458 -0.080458
-0.080444 -0.080444 -0.080444
-0.080429 -0.080429 -0.080429
-0.080415 -0.080415 -0.080415
-0.080401 -0.080401 -0.080401
-0.080387 -0.080387 -0.080387
-0.080373 -0.080373 -0.080373
-0.080359 -0.080359 -0.080359
-0.080345 -0.080345 -0.080345
-0.080331 -0.080331 -0.080331
-0.080317 -0.080317 -0.080317
-0.080303 -0.080303 -0.080303
-0.080289 -0.080289 -0.080289
-0.080275 -0.080275 -0.080275
-0.080261 -0.080261 -0.080261
-0.080247 -0.080247 -0.080247
-0.080232 -0.080232 -0.080232
-0.080218 -0.080218 -0.080218
-0.080204 -0.080204 -0.080204
-0.080190 -0.080190 -0.080190
-0.080176 -0.080176 -0.080176
-0.080162 -0.080162 -0.080162
-0.080148 -0.080148 -0.080148
-0.080134 -0.080134 -0.080134
-0.080120 -0.080120 -0.080120
-0.080106 -0.080106 -0.080106
-0.080092 -0.080092 -0.080092
-0.080078 -0.080078 -0.080078
-0.080064 -0.080064 -0.080064
-0.080050 -0.080050 -0.080050
-0.080036 -0.080036 -0.080036
-0.080022 -0.080022 -0.080022
-0.080008 -0.080008 -0.080008
-0.079994 -0.079994 -0.079994
-0.079980 -0.079980 -0.079980
-0.079966 -0.079966 -0.079966
-0.079952 -0.079952 -0.079952
-0.079938 -0.079938 -0.079938
-0.079923 -0.079923 -0.079923
-0.079909 -0.079909 -0.079909
-0.079895 -0.079895 -0.079895
-0.079881 -0.079881 -0.079881
-0.079867 -0.079867 -0.079867
-0.079853 -0.079853 -0.079853
-0.079839 -0.079839 -0.079839
-0.079825 -0.079825 -0.079825
-0.079811 -0.079811 -0.079811
-0.079797 -0.079797 -0.079797
-0.079783 -0.079783 -0.079783
-0.079769 -0.079769 -0.079769
-0.079755 -0.079755 -0.079755
-0.079741 -0.079741 -0.079741
-0.079727 -0.079727 -0.079727
-0.079713 -0.079713 -0.079713
-0.079699 -0.079699 -0.079699
-0.079685 -0.079685 -0.079685
-0.079671 -0.079671 -0.079671
-0.079657 -0.079657 -0.079657
-0.079643 -0.079643 -0.079643
-0.079629 -0.079629 -0.079629
-0.079615 -0.079615 -0.079615
-0.079601 -0.079601 -0.079601
-0.079587 -0.079587 -0.079587
-0.079573 -0.079573 -0.079573
-0.079559 -0.079559 -0.079559
-0.079545 -0.079545 -0.079545
-0.079531 -0.079531 -0.079531
-0.079517 -0.079517 -0.079517
-0.079503 -0.079503 -0.079503
-0.079489 -0.079489 -0.079489
-0.079475 -0.079475 -0.079475
-0.079461 -0.079461 -0.079461
-0.079447 -0.079447 -0.079447
-0.079433 -0.079433 -0.079433
-0.079419 -0.079419 -0.079419
-0.079405 -0.079405 -0.079405
-0.079391 -0.079391 -0.079391
-0.079377 -0.079377 -0.079377
-0.079363 -0.079363 -0.079363
-0.079349 -0.079349 -0.079349
-0.079335 -0.079335 -0.079335
-0.079321 -0.079321 -0.079321
-0.079307 -0.079307 -0.079307
-0.079293 -0.079293 -0.079293
-0.079279 -0.079279 -0.079279
-0.079266 -0.079266 -0.079266
-0.079252 -0.079252 -0.079252
-0.079238 -0.079238 -0.079238
-0.079224 -0.079224 -0.079224
-0.079210 -0.079210 -0.079210
-0.079196 -0.079196 -0.079196
-0.079182 -0.079182 -0.079182
-0.079168 -0.079168 -0.079168
-0.079154 -0.079154 -0.079154
-0.079140 -0.079140 -0.079140
-0.079126 -0.079126 -0.079126
-0.079112 -0.079112 -0.079112
-0.079098 -0.079098 -0.079098
-0.079084 -0.079084 -0.079084
-0.079070 -0.079070 -0.079070
-0.079056 -0.079056 -0.079056
-0.079042 -0.079042 -0.079042
-0.079028 -0.079028 -0.079028
-0.079014 -0.079014 -0.079014
-0.079000 -0.079000 -0.079000
-0.078986 -0.078986 -0.078986
-0.078972 -0.078972 -0.078972
-0.078959 -0.078959 -0.078959
-0.078945 -0.078945 -0.078945
-0.078931 -0.078931 -0.078931
-0.078917 -0.078917 -0.078917
-0.078903 -0.078903 -0.078903
-0.078889 -0.078889 -0.078889
-0.078875 -0.078875 -0.078875
-0.078861 -0.078861 -0.078861
-0.078847 -0.078847 -0.078847
-0.078833 -0.078833 -0.078833
-0.078819 -0.078819 -0.078819
-0.078805 -0.078805 -0.078805
-0.078791 -0.078791 -0.078791
-0.078777 -0.078777 -0.078777
-0.078764 -0.078764 -0.078764
-0.078750 -0.078750 -0.078750
-0.078736 -0.078736 -0.078736
-0.078722 -0.078722 -0.078722
-0.078708 -0.078708 -0.078708
-0.078694 -0.078694 -0.078694
-0.078680 -0.078680 -0.078680
-0.078666 -0.078666 -0.078666
-0.078652 -0.078652 -0.078652
-0.078638 -0.078638 -0.078638
-0.078624 -0.078624 -0.078624
-0.078610 -0.078610 -0.078610
-0.078597 -0.078597 -0.078597
-0.078583 -0.078583 -0.078583
-0.078569 -0.078569 -0.078569
-0.078555 -0.078555 -0.078555
-0.078541 -0.078541 -0.078541
-0.078527 -0.078527 -0.078527
-0.078513 -0.078513 -0.078513
-0.078499 -0.078499 -0.078499
-0.078485 -0.078485 -0.078485
-0.078472 -0.078472 -0.078472
-0.078458 -0.078458 -0.078458
-0.078444 -0.078444 -0.078444
-0.078430 -0.078430 -0.078430
-0.078416 -0.078416 -0.078416
-0.078402 -0.078402 -0.078402
-0.078388 -0.078388 -0.078388
-0.078374 -0.078374 -0.078374
-0.078360 -0.078360 -0.078360
-0.078347 -0.078347 -0.078347
-0.078333 -0.078333 -0.078333
-0.078319 -0.078319 -0.078319
-0.078305 -0.078305 -0.078305
-0.078291 -0.078291 -0.078291
-0.078277 -0.078277 -0.078277
-0.078263 -0.078263 -0.078263
-0.078249 -0.078249 -0.078249
-0.078236 -0.078236 -0.078236
-0.078222 -0.078222 -0.078222
-0.078208 -0.078208 -0.078208
-0.078194 -0.078194 -0.078194
-0.078180 -0.078180 -0.078180
-0.078166 -0.078166 -0.078166
-0.078152 -0.078152 -0.078152
-0.078138 -0.078138 -0.078138
-0.078125 -0.078125 -0.078125
-0.078111 -0.078111 -0.078111
-0.078097 -0.078097 -0.078097
-0.078083 -0.078083 -0.078083
-0.078069 -0.078069 -0.078069
-0.078055 -0.078055 -0.078055
-0.078041 -0.078041 -0.078041
-0.078028 -0.078028 -0.078028
-0.078014 -0.078014 -0.078014
-0.078000 -0.078000 -0.078000
-0.077986 -0.077986 -0.077986
-0.077972 -0.077972 -0.077972
-0.077958 -0.077958 -0.077958
-0.077945 -0.077945 -0.077945
-0.077931 -0.077931 -0.077931
-0.077917 -0.077917 -0.077917
-0.077903 -0.077903 -0.077903
-0.077889 -0.077889 -0.077889
-0.077875 -0.077875 -0.077875
-0.077862 -0.077862 -0.077862
-0.077848 -0.077848 -0.077848
-0.077834 -0.077834 -0.077834
-0.077820 -0.077820 -0.077820
-0.077806 -0.077806 -0.077806
-0.077792 -0.077792 -0.077792
-0.077779 -0.077779 -0.077779
-0.077765 -0.077765 -0.077765
-0.077751 -0.077751 -0.077751
-0.077737 -0.077737 -0.077737
-0.077723 -0.077723 -0.077723
-0.077709 -0.077709 -0.077709
-0.077696 -0.077696 -0.077696
-0.077682 -0.077682 -0.077682
-0.077668 -0.077668 -0.077668
-0.077654 -0.077654 -0.077654
-0.077640 -0.077640 -0.077640
-0.077627 -0.077627 -0.077627
-0.077613 -0.077613 -0.077613
-0.077599 -0.077599 -0.077599
-0.077585 -0.077585 -0.077585
-0.077571 -0.077571 -0.077571
-0.077558 -0.077558 -0.077558
-0.077544 -0.077544 -0.077544
-0.077530 -0.077530 -0.077530
-0.077516 -0.077516 -0.077516
-0.077502 -0.077502 -0.077502
-0.077489 -0.077489 -0.077489
-0.077475 -0.077475 -0.077475
-0.077461 -0.077461 -0.077461
-0.077447 -0.077447 -0.077447
-0.077433 -0.077433 -0.077433
-0.077420 -0.077420 -0.077420
-0.077406 -0.077406 -0.077406
-0.077392 -0.077392 -0.077392
-0.077378 -0.077378 -0.077378
-0.077364 -0.077364 -0.077364
-0.077351 -0.077351 -0.077351
-0.077337 -0.077337 -0.077337
-0.077323 -0.077323 -0.077323
-0.077309 -0.077309 -0.077309
-0.077295 -0.077295 -0.077295
-0.077282 -0.077282 -0.077282
-0.077268 -0.077268 -0.077268
-0.077254 -0.077254 -0.077254
-0.077240 -0.077240 -0.077240
-0.077227 -0.077227 -0.077227
-0.077213 -0.077213 -0.077213
-0.077199 -0.077199 -0.077199
-0.077185 -0.077185 -0.077185
-0.077172 -0.077172 -0.077172
-0.077158 -0.077158 -0.077158
-0.077144 -0.077144 -0.077144
-0.077130 -0.077130 -0.077130
-0.077116 -0.077116 -0.077116
-0.077103 -0.077103 -0.077103
-0.077089 -0.077089 -0.077089
-0.077075 -0.077075 -0.077075
-0.077061 -0.077061 -0.077061
-0.077048 -0.077048 -0.077048
-0.077034 -0.077034 -0.077034
-0.077020 -0.077020 -0.077020
-0.077006 -0.077006 -0.077006
-0.076993 -0.076993 -0.076993
-0.076979 -0.076979 -0.076979
-0.076965 -0.076965 -0.076965
-0.076951 -0.076951 -0.076951
-0.076938 -0.076938 -0.076938
-0.076924 -0.076924 -0.076924
-0.076910 -0.076910 -0.076910
-0.076896 -0.076896 -0.076896
-0.076883 -0.076883 -0.076883
-0.076869 -0.076869 -0.076869
-0.076855 -0.076855 -0.076855
-0.076841 -0.076841 -0.076841
-0.076828 -0.076828 -0.076828
-0.076814 -0.076814 -0.076814
-0.076800 -0.076800 -0.076800
-0.076787 -0.076787 -0.076787
-0.076773 -0.076773 -0.076773
-0.076759 -0.076759 -0.076759
-0.076745 -0.076745 -0.076745
-0.076732 -0.076732 -0.076732
-0.076718 -0.076718 -0.076718
-0.076704 -0.076704 -0.076704
-0.076690 -0.076690 -0.076690
-0.076677 -0.076677 -0.076677
-0.076663 -0.076663 -0.076663
-0.076649 -0.076649 -0.076649
-0.076636 -0.076636 -0.076636
-0.076622 -0.076622 -0.076622
-0.076608 -0.076608 -0.076608
-0.076594 -0.076594 -0.076594
-0.076581 -0.076581 -0.076581
-0.076567 -0.076567 -0.076567
-0.076553 -0.076553 -0.076553
-0.076540 -0.076540 -0.076540
-0.076526 -0.076526 -0.076526
-0.076512 -0.076512 -0.076512
-0.076498 -0.076498 -0.076498
-0.076485 -0.076485 -0.076485
-0.076471 -0.076471 -0.076471
-0.076457 -0.076457 -0.076457
-0.076444 -0.076444 -0.076444
-0.076430 -0.076430 -0.076430
-0.076416 -0.076416 -0.076416
-0.076403 -0.076403 -0.076403
-0.076389 -0.076389 -0.076389
-0.076375 -0.076375 -0.076375
-0.076362 -0.076362 -0.076362
-0.076348 -0.076348 -0.076348
-0.076334 -0.076334 -0.076334
-0.076320 -0.076320 -0.076320
-0.076307 -0.076307 -0.076307
-0.076293 -0.076293 -0.076293
-0.076279 -0.076279 -0.076279
-0.076266 -0.076266 -0.076266
-0.076252 -0.076252 -0.076252
-0.076238 -0.076238 -0.076238
-0.076225 -0.076225 -0.076225
-0.076211 -0.076211 -0.076211
-0.076197 -0.076197 -0.076197
-0.076184 -0.076184 -0.076184
-0.076170 -0.076170 -0.076170
-0.076156 -0.076156 -0.076156
-0.076143 -0.076143 -0.076143
-0.076129 -0.076129 -0.076129
-0.076115 -0.076115 -0.076115
-0.076102 -0.076102 -0.076102
-0.076088 -0.076088 -0.076088
-0.076074 -0.076074 -0.076074
-0.076061 -0.076061 -0.076061
-0.076047 -0.076047 -0.076047
-0.076033 -0.076033 -0.076033
-0.076020 -0.076020 -0.076020
-0.076006 -0.076006 -0.076006
-0.075992 -0.075992 -0.075992
-0.075979 -0.075979 -0.075979
-0.075965 -0.075965 -0.075965
-0.075951 -0.075951 -0.075951
-0.075938 -0.075938 -0.075938
-0.075924 -0.075924 -0.075924
-0.075910 -0.075910 -0.075910
-0.075897 -0.075897 -0.075897
-0.075883 -0.075883 -0.075883
-0.075870 -0.075870 -0.075870
-0.075856 -0.075856 -0.075856
-0.075842 -0.075842 -0.075842
-0.075829 -0.075829 -0.075829
-0.075815 -0.075815 -0.075815
-0.075801 -0.075801 -0.075801
-0.075788 -0.075788 -0.075788
-0.075774 -0.075774 -0.075774
-0.075760 -0.075760 -0.075760
-0.075747 -0.075747 -0.075747
-0.075733 -0.075733 -0.075733
-0.075720 -0.075720 -0.075720
-0.075706 -0.075706 -0.075706
-0.075692 -0.075692 -0.075692
-0.075679 -0.075679 -0.075679
-0.075665 -0.075665 -0.075665
-0.075651 -0.075651 -0.075651
-0.075638 -0.075638 -0.075638
-0.075624 -0.075624 -0.075624
-0.075611 -0.075611 -0.075611
-0.075597 -0.075597 -0.075597
-0.075583 -0.075583 -0.075583
-0.075570 -0.075570 -0.075570
-0.075556 -0.075556 -0.075556
-0.075542 -0.075542 -0.075542
-0.075529 -0.075529 -0.075529
-0.075515 -0.075515 -0.075515
-0.075502 -0.075502 -0.075502
-0.075488 -0.075488 -0.075488
-0.075474 -0.075474 -0.075474
-0.075461 -0.075461 -0.075461
-0.075447 -0.075447 -0.075447
-0.075434 -0.075434 -0.075434
-0.075420 -0.075420 -0.075420
-0.075406 -0.075406 -0.075406
-0.075393 -0.075393 -0.075393
-0.075379 -0.075379 -0.075379
-0.075366 -0.075366 -0.075366
-0.075352 -0.075352 -0.075352
-0.075338 -0.075338 -0.075338
-0.075325 -0.075325 -0.075325
-0.075311 -0.075311 -0.075311
-0.075298 -0.075298 -0.075298
-0.075284 -0.075284 -0.075284
-0.075270 -0.075270 -0.075270
-0.075257 -0.075257 -0.075257
-0.075243 -0.075243 -0.075243
-0.075230 -0.075230 -0.075230
-0.075216 -0.075216 -0.075216
-0.075203 -0.075203 -0.075203
-0.075189 -0.075189 -0.075189
-0.075175 -0.075175 -0.075175
-0.075162 -0.075162 -0.075162
-0.075148 -0.075148 -0.075148
-0.075135 -0.075135 -0.075135
-0.075121 -0.075121 -0.075121
-0.075108 -0.075108 -0.075108
-0.075094 -0.075094 -0.075094
-0.075080 -0.075080 -0.075080
-0.075067 -0.075067 -0.075067
-0.075053 -0.075053 -0.075053
-0.075040 -0.075040 -0.075040
-0.075026 -0.075026 -0.075026
-0.075013 -0.075013 -0.075013
-0.074999 -0.074999 -0.074999
-0.074985 -0.074985 -0.074985
-0.074972 -0.074972 -0.074972
-0.074958 -0.074958 -0.074958
-0.074945 -0.074945 -0.074945
-0.074931 -0.074931 -0.074931
-0.074918 -0.074918 -0.074918
-0.074904 -0.074904 -0.074904
-0.074891 -0.074891 -0.074891
-0.074877 -0.074877 -0.074877
-0.074864 -0.074864 -0.074864
-0.074850 -0.074850 -0.074850
-0.074836 -0.074836 -0.074836
-0.074823 -0.074823 -0.074823
-0.074809 -0.074809 -0.074809
-0.074796 -0.074796 -0.074796
-0.074782 -0.074782 -0.074782
-0.074769 -0.074769 -0.074769
-0.074755 -0.074755 -0.074755
-0.074742 -0.074742 -0.074742
-0.074728 -0.074728 -0.074728
-0.074715 -0.074715 -0.074715
-0.074701 -0.074701 -0.074701
-0.074688 -0.074688 -0.074688
-0.074674 -0.074674 -0.074674
-0.074660 -0.074660 -0.074660
-0.074647 -0.074647 -0.074647
-0.074633 -0.074633 -0.074633
-0.074620 -0.074620 -0.074620
-0.074606 -0.074606 -0.074606
-0.074593 -0.074593 -0.074593
-0.074579 -0.074579 -0.074579
-0.074566 -0.074566 -0.074566
-0.074552 -0.074552 -0.074552
-0.074539 -0.074539 -0.074539
-0.074525 -0.074525 -0.074525
-0.074512 -0.074512 -0.074512
-0.074498 -0.074498 -0.074498
-0.074485 -0.074485 -0.074485
-0.074471 -0.074471 -0.074471
-0.074458 -0.074458 -0.074458
-0.074444 -0.074444 -0.074444
-0.074431 -0.074431 -0.074431
-0.074417 -0.074417 -0.074417
-0.074404 -0.074404 -0.074404
-0.074390 -0.074390 -0.074390
-0.074377 -0.074377 -0.074377
-0.074363 -0.074363 -0.074363
-0.074350 -0.074350 -0.074350
-0.074336 -0.074336 -0.074336
-0.074323 -0.074323 -0.074323
-0.074309 -0.074309 -0.074309
-0.074296 -0.074296 -0.074296
-0.074282 -0.074282 -0.074282
-0.074269 -0.074269 -0.074269
-0.074255 -0.074255 -0.074255
-0.074242 -0.074242 -0.074242
-0.074228 -0.074228 -0.074228
-0.074215 -0.074215 -0.074215
-0.074201 -0.074201 -0.074201
-0.074188 -0.074188 -0.074188
-0.074174 -0.074174 -0.074174
-0.074161 -0.074161 -0.074161
-0.074147 -0.074147 -0.074147
-0.074134 -0.074134 -0.074134
-0.074120 -0.074120 -0.074120
-0.074107 -0.074107 -0.074107
-0.074093 -0.074093 -0.074093
-0.074080 -0.074080 -0.074080
-0.074066 -0.074066 -0.074066
-0.074053 -0.074053 -0.074053
-0.074040 -0.074040 -0.074040
-0.074026 -0.074026 -0.074026
-0.074013 -0.074013 -0.074013
-0.073999 -0.073999 -0.073999
-0.073986 -0.073986 -0.073986
-0.073972 -0.073972 -0.073972
-0.073959 -0.073959 -0.073959
-0.073945 -0.073945 -0.073945
-0.073932 -0.073932 -0.073932
-0.073918 -0.073918 -0.073918
-0.073905 -0.073905 -0.073905
-0.073891 -0.073891 -0.073891
-0.073878 -0.073878 -0.073878
-0.073865 -0.073865 -0.073865
-0.073851 -0.073851 -0.073851
-0.073838 -0.073838 -0.073838
-0.073824 -0.073824 -0.073824
-0.073811 -0.073811 -0.073811
-0.073797 -0.073797 -0.073797
-0.073784 -0.073784 -0.073784
-0.073770 -0.073770 -0.073770
-0.073757 -0.073757 -0.073757
-0.073744 -0.073744 -0.073744
-0.073730 -0.073730 -0.073730
-0.073717 -0.073717 -0.073717
-0.073703 -0.073703 -0.073703
-0.073690 -0.073690 -0.073690
-0.073676 -0.073676 -0.073676
-0.073663 -0.073663 -0.073663
-0.073650 -0.073650 -0.073650
-0.073636 -0.073636 -0.073636
-0.073623 -0.073623 -0.073623
-0.073609 -0.073609 -0.073609
-0.073596 -0.073596 -0.073596
-0.073582 -0.073582 -0.073582
-0.073569 -0.073569 -0.073569
-0.073556 -0.073556 -0.073556
-0.073542 -0.073542 -0.073542
-0.073529 -0.073529 -0.073529
-0.073515 -0.073515 -0.073515
-0.073502 -0.073502 -0.073502
-0.073488 -0.073488 -0.073488
-0.073475 -0.073475 -0.073475
-0.073462 -0.073462 -0.073462
-0.073448 -0.073448 -0.073448
-0.073435 -0.073435 -0.073435
-0.073421 -0.073421 -0.073421
-0.073408 -0.073408 -0.073408
-0.073395 -0.073395 -0.073395
-0.073381 -0.073381 -0.073381
-0.073368 -0.073368 -0.073368
-0.073354 -0.073354 -0.073354
-0.073341 -0.073341 -0.073341
-0.073328 -0.073328 -0.073328
-0.073314 -0.073314 -0.073314
-0.073301 -0.073301 -0.073301
-0.073287 -0.073287 -0.073287
-0.073274 -0.073274 -0.073274
-0.073261 -0.073261 -0.073261
-0.073247 -0.073247 -0.073247
-0.073234 -0.073234 -0.073234
-0.073220 -0.073220 -0.073220
-0.073207 -0.073207 -0.073207
-0.073194 -0.073194 -0.073194
-0.073180 -0.073180 -0.073180
-0.073167 -0.073167 -0.073167
-0.073153 -0.073153 -0.073153
-0.073140 -0.073140 -0.073140
-0.073127 -0.073127 -0.073127
-0.073113 -0.073113 -0.073113
-0.073100 -0.073100 -0.073100
-0.073087 -0.073087 -0.073087
-0.073073 -0.073073 -0.073073
-0.073060 -0.073060 -0.073060
-0.073046 -0.073046 -0.073046
-0.073033 -0.073033 -0.073033
-0.073020 -0.073020 -0.073020
-0.073006 -0.073006 -0.073006
-0.072993 -0.072993 -0.072993
-0.072980 -0.072980 -0.072980
-0.072966 -0.072966 -0.072966
-0.072953 -0.072953 -0.072953
-0.072940 -0.072940 -0.072940
-0.072926 -0.072926 -0.072926
-0.072913 -0.072913 -0.072913
-0.072899 -0.072899 -0.072899
-0.072886 -0.072886 -0.072886
-0.072873 -0.072873 -0.072873
-0.072859 -0.072859 -0.072859
-0.072846 -0.072846 -0.072846
-0.072833 -0.072833 -0.072833
-0.072819 -0.072819 -0.072819
-0.072806 -0.072806 -0.072806
-0.072793 -0.072793 -0.072793
-0.072779 -0.072779 -0.072779
-0.072766 -0.072766 -0.072766
-0.072753 -0.072753 -0.072753
-0.072739 -0.072739 -0.072739
-0.072726 -0.072726 -0.072726
-0.072713 -0.072713 -0.072713
-0.072699 -0.072699 -0.072699
-0.072686 -0.072686 -0.072686
-0.072673 -0.072673 -0.072673
-0.072659 -0.072659 -0.072659
-0.072646 -0.072646 -0.072646
-0.072632 -0.072632 -0.072632
-0.072619 -0.072619 -0.072619
-0.072606 -0.072606 -0.072606
-0.072593 -0.072593 -0.072593
-0.072579 -0.072579 -0.072579
-0.072566 -0.072566 -0.072566
-0.072553 -0.072553 -0.072553
-0.072539 -0.072539 -0.072539
-0.072526 -0.072526 -0.072526
-0.072513 -0.072513 -0.072513
-0.072499 -0.072499 -0.072499
-0.072486 -0.072486 -0.072486
-0.072473 -0.072473 -0.072473
-0.072459 -0.072459 -0.072459
-0.072446 -0.072446 -0.072446
-0.072433 -0.072433 -0.072433
-0.072419 -0.072419 -0.072419
-0.072406 -0.072406 -0.072406
-0.072393 -0.072393 -0.072393
-0.072379 -0.072379 -0.072379
-0.072366 -0.072366 -0.072366
-0.072353 -0.072353 -0.072353
-0.072339 -0.072339 -0.072339
-0.072326 -0.072326 -0.072326
-0.072313 -0.072313 -0.072313
-0.072300 -0.072300 -0.072300
-0.072286 -0.072286 -0.072286
-0.072273 -0.072273 -0.072273
-0.072260 -0.072260 -0.072260
-0.072246 -0.072246 -0.072246
-0.072233 -0.072233 -0.072233
-0.072220 -0.072220 -0.072220
-0.072206 -0.072206 -0.072206
-0.072193 -0.072193 -0.072193
-0.072180 -0.072180 -0.072180
-0.072167 -0.072167 -0.072167
-0.072153 -0.072153 -0.072153
-0.072140 -0.072140 -0.072140
-0.072127 -0.072127 -0.072127
-0.072113 -0.072113 -0.072113
-0.072100 -0.072100 -0.072100
-0.072087 -0.072087 -0.072087
-0.072074 -0.072074 -0.072074
-0.072060 -0.072060 -0.072060
-0.072047 -0.072047 -0.072047
-0.072034 -0.072034 -0.072034
-0.072021 -0.072021 -0.072021
-0.072007 -0.072007 -0.072007
-0.071994 -0.071994 -0.071994
-0.071981 -0.071981 -0.071981
-0.071967 -0.071967 -0.071967
-0.071954 -0.071954 -0.071954
-0.071941 -0.071941 -0.071941
-0.071928 -0.071928 -0.071928
-0.071914 -0.071914 -0.071914
-0.071901 -0.071901 -0.071901
-0.071888 -0.071888 -0.071888
-0.071875 -0.071875 -0.071875
-0.071861 -0.071861 -0.071861
-0.071848 -0.071848 -0.071848
-0.071835 -0.071835 -0.071835
-0.071822 -0.071822 -0.071822
-0.071808 -0.071808 -0.071808
-0.071795 -0.071795 -0.071795
-0.071782 -0.071782 -0.071782
-0.071769 -0.071769 -0.071769
-0.071755 -0.071755 -0.071755
-0.071742 -0.071742 -0.071742
-0.071729 -0.071729 -0.071729
-0.071716 -0.071716 -0.071716
-0.071702 -0.071702 -0.071702
-0.071689 -0.071689 -0.071689
-0.071676 -0.071676 -0.071676
-0.071663 -0.071663 -0.071663
-0.071649 -0.071649 -0.071649
-0.071636 -0.071636 -0.071636
-0.071623 -0.071623 -0.071623
-0.071610 -0.071610 -0.071610
-0.071596 -0.071596 -0.071596
-0.071583 -0.071583 -0.071583
-0.071570 -0.071570 -0.071570
-0.071557 -0.071557 -0.071557
-0.071543 -0.071543 -0.071543
-0.071530 -0.071530 -0.071530
-0.071517 -0.071517 -0.071517
-0.071504 -0.071504 -0.071504
-0.071491 -0.071491 -0.071491
-0.071477 -0.071477 -0.071477
-0.071464 -0.071464 -0.071464
-0.071451 -0.071451 -0.071451
-0.071438 -0.071438 -0.071438
-0.071424 -0.071424 -0.071424
-0.071411 -0.071411 -0.071411
-0.071398 -0.071398 -0.071398
-0.071385 -0.071385 -0.071385
-0.071372 -0.071372 -0.071372
-0.071358 -0.071358 -0.071358
-0.071345 -0.071345 -0.071345
-0.071332 -0.071332 -0.071332
-0.071319 -0.071319 -0.071319
-0.071306 -0.071306 -0.071306
-0.071292 -0.071292 -0.071292
-0.071279 -0.071279 -0.071279
-0.071266 -0.071266 -0.071266
-0.071253 -0.071253 -0.071253
-0.071240 -0.071240 -0.071240
-0.071226 -0.071226 -0.071226
-0.071213 -0.071213 -0.071213
-0.071200 -0.071200 -0.071200
-0.071187 -0.071187 -0.071187
-0.071174 -0.071174 -0.071174
-0.071160 -0.071160 -0.071160
-0.071147 -0.071147 -0.071147
