Luts Download/Canon Luts/1dlut/canonlog3-to-gamma-1dlut/full-to-linear-range/CanonLog3_12-to-Linear_FL_Ver.2.0.cube
# Gamma : Canon Log 3 to Linear
# Range : Full in / Linear out
# Version : 2.0 2016/10/27
# Copyright(c) 2016 Canon Inc. All Rights Reserved.

LUT_1D_SIZE 4096
-0.082015 -0.082015 -0.082015
-0.081787 -0.081787 -0.081787
-0.081560 -0.081560 -0.081560
-0.081333 -0.081333 -0.081333
-0.081107 -0.081107 -0.081107
-0.080880 -0.080880 -0.080880
-0.080655 -0.080655 -0.080655
-0.080429 -0.080429 -0.080429
-0.080204 -0.080204 -0.080204
-0.079979 -0.079979 -0.079979
-0.079755 -0.079755 -0.079755
-0.079531 -0.079531 -0.079531
-0.079307 -0.079307 -0.079307
-0.079083 -0.079083 -0.079083
-0.078860 -0.078860 -0.078860
-0.078638 -0.078638 -0.078638
-0.078415 -0.078415 -0.078415
-0.078193 -0.078193 -0.078193
-0.077971 -0.077971 -0.077971
-0.077750 -0.077750 -0.077750
-0.077529 -0.077529 -0.077529
-0.077308 -0.077308 -0.077308
-0.077088 -0.077088 -0.077088
-0.076868 -0.076868 -0.076868
-0.076648 -0.076648 -0.076648
-0.076429 -0.076429 -0.076429
-0.076210 -0.076210 -0.076210
-0.075991 -0.075991 -0.075991
-0.075773 -0.075773 -0.075773
-0.075555 -0.075555 -0.075555
-0.075337 -0.075337 -0.075337
-0.075120 -0.075120 -0.075120
-0.074903 -0.074903 -0.074903
-0.074686 -0.074686 -0.074686
-0.074470 -0.074470 -0.074470
-0.074253 -0.074253 -0.074253
-0.074038 -0.074038 -0.074038
-0.073822 -0.073822 -0.073822
-0.073607 -0.073607 -0.073607
-0.073393 -0.073393 -0.073393
-0.073178 -0.073178 -0.073178
-0.072964 -0.072964 -0.072964
-0.072750 -0.072750 -0.072750
-0.072537 -0.072537 -0.072537
-0.072324 -0.072324 -0.072324
-0.072111 -0.072111 -0.072111
-0.071899 -0.071899 -0.071899
-0.071687 -0.071687 -0.071687
-0.071475 -0.071475 -0.071475
-0.071264 -0.071264 -0.071264
-0.071052 -0.071052 -0.071052
-0.070842 -0.070842 -0.070842
-0.070631 -0.070631 -0.070631
-0.070421 -0.070421 -0.070421
-0.070211 -0.070211 -0.070211
-0.070002 -0.070002 -0.070002
-0.069792 -0.069792 -0.069792
-0.069584 -0.069584 -0.069584
-0.069375 -0.069375 -0.069375
-0.069167 -0.069167 -0.069167
-0.068959 -0.068959 -0.068959
-0.068751 -0.068751 -0.068751
-0.068544 -0.068544 -0.068544
-0.068337 -0.068337 -0.068337
-0.068130 -0.068130 -0.068130
-0.067924 -0.067924 -0.067924
-0.067718 -0.067718 -0.067718
-0.067512 -0.067512 -0.067512
-0.067307 -0.067307 -0.067307
-0.067102 -0.067102 -0.067102
-0.066897 -0.066897 -0.066897
-0.066693 -0.066693 -0.066693
-0.066489 -0.066489 -0.066489
-0.066285 -0.066285 -0.066285
-0.066081 -0.066081 -0.066081
-0.065878 -0.065878 -0.065878
-0.065675 -0.065675 -0.065675
-0.065473 -0.065473 -0.065473
-0.065270 -0.065270 -0.065270
-0.065068 -0.065068 -0.065068
-0.064867 -0.064867 -0.064867
-0.064665 -0.064665 -0.064665
-0.064464 -0.064464 -0.064464
-0.064264 -0.064264 -0.064264
-0.064063 -0.064063 -0.064063
-0.063863 -0.063863 -0.063863
-0.063663 -0.063663 -0.063663
-0.063464 -0.063464 -0.063464
-0.063265 -0.063265 -0.063265
-0.063066 -0.063066 -0.063066
-0.062867 -0.062867 -0.062867
-0.062669 -0.062669 -0.062669
-0.062471 -0.062471 -0.062471
-0.062273 -0.062273 -0.062273
-0.062076 -0.062076 -0.062076
-0.061879 -0.061879 -0.061879
-0.061682 -0.061682 -0.061682
-0.061485 -0.061485 -0.061485
-0.061289 -0.061289 -0.061289
-0.061093 -0.061093 -0.061093
-0.060898 -0.060898 -0.060898
-0.060703 -0.060703 -0.060703
-0.060508 -0.060508 -0.060508
-0.060313 -0.060313 -0.060313
-0.060119 -0.060119 -0.060119
-0.059925 -0.059925 -0.059925
-0.059731 -0.059731 -0.059731
-0.059537 -0.059537 -0.059537
-0.059344 -0.059344 -0.059344
-0.059151 -0.059151 -0.059151
-0.058959 -0.058959 -0.058959
-0.058766 -0.058766 -0.058766
-0.058574 -0.058574 -0.058574
-0.058383 -0.058383 -0.058383
-0.058191 -0.058191 -0.058191
-0.058000 -0.058000 -0.058000
-0.057809 -0.057809 -0.057809
-0.057619 -0.057619 -0.057619
-0.057428 -0.057428 -0.057428
-0.057238 -0.057238 -0.057238
-0.057049 -0.057049 -0.057049
-0.056859 -0.056859 -0.056859
-0.056670 -0.056670 -0.056670
-0.056481 -0.056481 -0.056481
-0.056293 -0.056293 -0.056293
-0.056105 -0.056105 -0.056105
-0.055917 -0.055917 -0.055917
-0.055729 -0.055729 -0.055729
-0.055542 -0.055542 -0.055542
-0.055355 -0.055355 -0.055355
-0.055168 -0.055168 -0.055168
-0.054981 -0.054981 -0.054981
-0.054795 -0.054795 -0.054795
-0.054609 -0.054609 -0.054609
-0.054424 -0.054424 -0.054424
-0.054238 -0.054238 -0.054238
-0.054053 -0.054053 -0.054053
-0.053868 -0.053868 -0.053868
-0.053684 -0.053684 -0.053684
-0.053500 -0.053500 -0.053500
-0.053316 -0.053316 -0.053316
-0.053132 -0.053132 -0.053132
-0.052949 -0.052949 -0.052949
-0.052766 -0.052766 -0.052766
-0.052583 -0.052583 -0.052583
-0.052400 -0.052400 -0.052400
-0.052218 -0.052218 -0.052218
-0.052036 -0.052036 -0.052036
-0.051854 -0.051854 -0.051854
-0.051673 -0.051673 -0.051673
-0.051492 -0.051492 -0.051492
-0.051311 -0.051311 -0.051311
-0.051130 -0.051130 -0.051130
-0.050950 -0.050950 -0.050950
-0.050770 -0.050770 -0.050770
-0.050590 -0.050590 -0.050590
-0.050411 -0.050411 -0.050411
-0.050231 -0.050231 -0.050231
-0.050052 -0.050052 -0.050052
-0.049874 -0.049874 -0.049874
-0.049695 -0.049695 -0.049695
-0.049517 -0.049517 -0.049517
-0.049339 -0.049339 -0.049339
-0.049162 -0.049162 -0.049162
-0.048984 -0.048984 -0.048984
-0.048807 -0.048807 -0.048807
-0.048631 -0.048631 -0.048631
-0.048454 -0.048454 -0.048454
-0.048278 -0.048278 -0.048278
-0.048102 -0.048102 -0.048102
-0.047926 -0.047926 -0.047926
-0.047751 -0.047751 -0.047751
-0.047576 -0.047576 -0.047576
-0.047401 -0.047401 -0.047401
-0.047226 -0.047226 -0.047226
-0.047052 -0.047052 -0.047052
-0.046878 -0.046878 -0.046878
-0.046704 -0.046704 -0.046704
-0.046530 -0.046530 -0.046530
-0.046357 -0.046357 -0.046357
-0.046184 -0.046184 -0.046184
-0.046011 -0.046011 -0.046011
-0.045839 -0.045839 -0.045839
-0.045667 -0.045667 -0.045667
-0.045495 -0.045495 -0.045495
-0.045323 -0.045323 -0.045323
-0.045151 -0.045151 -0.045151
-0.044980 -0.044980 -0.044980
-0.044809 -0.044809 -0.044809
-0.044639 -0.044639 -0.044639
-0.044468 -0.044468 -0.044468
-0.044298 -0.044298 -0.044298
-0.044128 -0.044128 -0.044128
-0.043959 -0.043959 -0.043959
-0.043789 -0.043789 -0.043789
-0.043620 -0.043620 -0.043620
-0.043451 -0.043451 -0.043451
-0.043283 -0.043283 -0.043283
-0.043114 -0.043114 -0.043114
-0.042946 -0.042946 -0.042946
-0.042779 -0.042779 -0.042779
-0.042611 -0.042611 -0.042611
-0.042444 -0.042444 -0.042444
-0.042277 -0.042277 -0.042277
-0.042110 -0.042110 -0.042110
-0.041943 -0.041943 -0.041943
-0.041777 -0.041777 -0.041777
-0.041611 -0.041611 -0.041611
-0.041445 -0.041445 -0.041445
-0.041280 -0.041280 -0.041280
-0.041115 -0.041115 -0.041115
-0.040950 -0.040950 -0.040950
-0.040785 -0.040785 -0.040785
-0.040620 -0.040620 -0.040620
-0.040456 -0.040456 -0.040456
-0.040292 -0.040292 -0.040292
-0.040128 -0.040128 -0.040128
-0.039965 -0.039965 -0.039965
-0.039802 -0.039802 -0.039802
-0.039639 -0.039639 -0.039639
-0.039476 -0.039476 -0.039476
-0.039313 -0.039313 -0.039313
-0.039151 -0.039151 -0.039151
-0.038989 -0.038989 -0.038989
-0.038827 -0.038827 -0.038827
-0.038666 -0.038666 -0.038666
-0.038505 -0.038505 -0.038505
-0.038344 -0.038344 -0.038344
-0.038183 -0.038183 -0.038183
-0.038022 -0.038022 -0.038022
-0.037862 -0.037862 -0.037862
-0.037702 -0.037702 -0.037702
-0.037542 -0.037542 -0.037542
-0.037383 -0.037383 -0.037383
-0.037223 -0.037223 -0.037223
-0.037064 -0.037064 -0.037064
-0.036906 -0.036906 -0.036906
-0.036747 -0.036747 -0.036747
-0.036589 -0.036589 -0.036589
-0.036431 -0.036431 -0.036431
-0.036273 -0.036273 -0.036273
-0.036115 -0.036115 -0.036115
-0.035958 -0.035958 -0.035958
-0.035801 -0.035801 -0.035801
-0.035644 -0.035644 -0.035644
-0.035487 -0.035487 -0.035487
-0.035331 -0.035331 -0.035331
-0.035175 -0.035175 -0.035175
-0.035019 -0.035019 -0.035019
-0.034863 -0.034863 -0.034863
-0.034708 -0.034708 -0.034708
-0.034552 -0.034552 -0.034552
-0.034398 -0.034398 -0.034398
-0.034243 -0.034243 -0.034243
-0.034088 -0.034088 -0.034088
-0.033934 -0.033934 -0.033934
-0.033780 -0.033780 -0.033780
-0.033626 -0.033626 -0.033626
-0.033473 -0.033473 -0.033473
-0.033319 -0.033319 -0.033319
-0.033166 -0.033166 -0.033166
-0.033013 -0.033013 -0.033013
-0.032861 -0.032861 -0.032861
-0.032708 -0.032708 -0.032708
-0.032556 -0.032556 -0.032556
-0.032404 -0.032404 -0.032404
-0.032253 -0.032253 -0.032253
-0.032101 -0.032101 -0.032101
-0.031950 -0.031950 -0.031950
-0.031799 -0.031799 -0.031799
-0.031648 -0.031648 -0.031648
-0.031498 -0.031498 -0.031498
-0.031348 -0.031348 -0.031348
-0.031197 -0.031197 -0.031197
-0.031048 -0.031048 -0.031048
-0.030898 -0.030898 -0.030898
-0.030749 -0.030749 -0.030749
-0.030600 -0.030600 -0.030600
-0.030451 -0.030451 -0.030451
-0.030302 -0.030302 -0.030302
-0.030153 -0.030153 -0.030153
-0.030005 -0.030005 -0.030005
-0.029857 -0.029857 -0.029857
-0.029709 -0.029709 -0.029709
-0.029562 -0.029562 -0.029562
-0.029415 -0.029415 -0.029415
-0.029267 -0.029267 -0.029267
-0.029121 -0.029121 -0.029121
-0.028974 -0.028974 -0.028974
-0.028828 -0.028828 -0.028828
-0.028681 -0.028681 -0.028681
-0.028535 -0.028535 -0.028535
-0.028390 -0.028390 -0.028390
-0.028244 -0.028244 -0.028244
-0.028099 -0.028099 -0.028099
-0.027954 -0.027954 -0.027954
-0.027809 -0.027809 -0.027809
-0.027664 -0.027664 -0.027664
-0.027520 -0.027520 -0.027520
-0.027375 -0.027375 -0.027375
-0.027232 -0.027232 -0.027232
-0.027088 -0.027088 -0.027088
-0.026944 -0.026944 -0.026944
-0.026801 -0.026801 -0.026801
-0.026658 -0.026658 -0.026658
-0.026515 -0.026515 -0.026515
-0.026372 -0.026372 -0.026372
-0.026230 -0.026230 -0.026230
-0.026088 -0.026088 -0.026088
-0.025946 -0.025946 -0.025946
-0.025804 -0.025804 -0.025804
-0.025662 -0.025662 -0.025662
-0.025521 -0.025521 -0.025521
-0.025380 -0.025380 -0.025380
-0.025239 -0.025239 -0.025239
-0.025098 -0.025098 -0.025098
-0.024958 -0.024958 -0.024958
-0.024817 -0.024817 -0.024817
-0.024677 -0.024677 -0.024677
-0.024537 -0.024537 -0.024537
-0.024398 -0.024398 -0.024398
-0.024258 -0.024258 -0.024258
-0.024119 -0.024119 -0.024119
-0.023980 -0.023980 -0.023980
-0.023841 -0.023841 -0.023841
-0.023703 -0.023703 -0.023703
-0.023564 -0.023564 -0.023564
-0.023426 -0.023426 -0.023426
-0.023288 -0.023288 -0.023288
-0.023150 -0.023150 -0.023150
-0.023013 -0.023013 -0.023013
-0.022876 -0.022876 -0.022876
-0.022739 -0.022739 -0.022739
-0.022602 -0.022602 -0.022602
-0.022465 -0.022465 -0.022465
-0.022328 -0.022328 -0.022328
-0.022192 -0.022192 -0.022192
-0.022056 -0.022056 -0.022056
-0.021920 -0.021920 -0.021920
-0.021785 -0.021785 -0.021785
-0.021649 -0.021649 -0.021649
-0.021514 -0.021514 -0.021514
-0.021379 -0.021379 -0.021379
-0.021244 -0.021244 -0.021244
-0.021110 -0.021110 -0.021110
-0.020975 -0.020975 -0.020975
-0.020841 -0.020841 -0.020841
-0.020707 -0.020707 -0.020707
-0.020573 -0.020573 -0.020573
-0.020440 -0.020440 -0.020440
-0.020306 -0.020306 -0.020306
-0.020173 -0.020173 -0.020173
-0.020040 -0.020040 -0.020040
-0.019907 -0.019907 -0.019907
-0.019775 -0.019775 -0.019775
-0.019642 -0.019642 -0.019642
-0.019510 -0.019510 -0.019510
-0.019378 -0.019378 -0.019378
-0.019247 -0.019247 -0.019247
-0.019115 -0.019115 -0.019115
-0.018984 -0.018984 -0.018984
-0.018853 -0.018853 -0.018853
-0.018722 -0.018722 -0.018722
-0.018591 -0.018591 -0.018591
-0.018460 -0.018460 -0.018460
-0.018330 -0.018330 -0.018330
-0.018200 -0.018200 -0.018200
-0.018070 -0.018070 -0.018070
-0.017940 -0.017940 -0.017940
-0.017811 -0.017811 -0.017811
-0.017681 -0.017681 -0.017681
-0.017552 -0.017552 -0.017552
-0.017423 -0.017423 -0.017423
-0.017294 -0.017294 -0.017294
-0.017166 -0.017166 -0.017166
-0.017037 -0.017037 -0.017037
-0.016909 -0.016909 -0.016909
-0.016781 -0.016781 -0.016781
-0.016654 -0.016654 -0.016654
-0.016526 -0.016526 -0.016526
-0.016399 -0.016399 -0.016399
-0.016271 -0.016271 -0.016271
-0.016144 -0.016144 -0.016144
-0.016018 -0.016018 -0.016018
-0.015891 -0.015891 -0.015891
-0.015765 -0.015765 -0.015765
-0.015638 -0.015638 -0.015638
-0.015512 -0.015512 -0.015512
-0.015387 -0.015387 -0.015387
-0.015261 -0.015261 -0.015261
-0.015135 -0.015135 -0.015135
-0.015010 -0.015010 -0.015010
-0.014885 -0.014885 -0.014885
-0.014760 -0.014760 -0.014760
-0.014636 -0.014636 -0.014636
-0.014511 -0.014511 -0.014511
-0.014387 -0.014387 -0.014387
-0.014263 -0.014263 -0.014263
-0.014139 -0.014139 -0.014139
-0.014015 -0.014015 -0.014015
-0.013891 -0.013891 -0.013891
-0.013768 -0.013768 -0.013768
-0.013644 -0.013644 -0.013644
-0.013521 -0.013521 -0.013521
-0.013397 -0.013397 -0.013397
-0.013273 -0.013273 -0.013273
-0.013150 -0.013150 -0.013150
-0.013026 -0.013026 -0.013026
-0.012902 -0.012902 -0.012902
-0.012779 -0.012779 -0.012779
-0.012655 -0.012655 -0.012655
-0.012532 -0.012532 -0.012532
-0.012408 -0.012408 -0.012408
-0.012284 -0.012284 -0.012284
-0.012161 -0.012161 -0.012161
-0.012037 -0.012037 -0.012037
-0.011914 -0.011914 -0.011914
-0.011790 -0.011790 -0.011790
-0.011666 -0.011666 -0.011666
-0.011543 -0.011543 -0.011543
-0.011419 -0.011419 -0.011419
-0.011295 -0.011295 -0.011295
-0.011172 -0.011172 -0.011172
-0.011048 -0.011048 -0.011048
-0.010925 -0.010925 -0.010925
-0.010801 -0.010801 -0.010801
-0.010677 -0.010677 -0.010677
-0.010554 -0.010554 -0.010554
-0.010430 -0.010430 -0.010430
-0.010307 -0.010307 -0.010307
-0.010183 -0.010183 -0.010183
-0.010059 -0.010059 -0.010059
-0.009936 -0.009936 -0.009936
-0.009812 -0.009812 -0.009812
-0.009688 -0.009688 -0.009688
-0.009565 -0.009565 -0.009565
-0.009441 -0.009441 -0.009441
-0.009318 -0.009318 -0.009318
-0.009194 -0.009194 -0.009194
-0.009070 -0.009070 -0.009070
-0.008947 -0.008947 -0.008947
-0.008823 -0.008823 -0.008823
-0.008699 -0.008699 -0.008699
-0.008576 -0.008576 -0.008576
-0.008452 -0.008452 -0.008452
-0.008329 -0.008329 -0.008329
-0.008205 -0.008205 -0.008205
-0.008081 -0.008081 -0.008081
-0.007958 -0.007958 -0.007958
-0.007834 -0.007834 -0.007834
-0.007711 -0.007711 -0.007711
-0.007587 -0.007587 -0.007587
-0.007463 -0.007463 -0.007463
-0.007340 -0.007340 -0.007340
-0.007216 -0.007216 -0.007216
-0.007092 -0.007092 -0.007092
-0.006969 -0.006969 -0.006969
-0.006845 -0.006845 -0.006845
-0.006722 -0.006722 -0.006722
-0.006598 -0.006598 -0.006598
-0.006474 -0.006474 -0.006474
-0.006351 -0.006351 -0.006351
-0.006227 -0.006227 -0.006227
-0.006104 -0.006104 -0.006104
-0.005980 -0.005980 -0.005980
-0.005856 -0.005856 -0.005856
-0.005733 -0.005733 -0.005733
-0.005609 -0.005609 -0.005609
-0.005485 -0.005485 -0.005485
-0.005362 -0.005362 -0.005362
-0.005238 -0.005238 -0.005238
-0.005115 -0.005115 -0.005115
-0.004991 -0.004991 -0.004991
-0.004867 -0.004867 -0.004867
-0.004744 -0.004744 -0.004744
-0.004620 -0.004620 -0.004620
-0.004497 -0.004497 -0.004497
-0.004373 -0.004373 -0.004373
-0.004249 -0.004249 -0.004249
-0.004126 -0.004126 -0.004126
-0.004002 -0.004002 -0.004002
-0.003878 -0.003878 -0.003878
-0.003755 -0.003755 -0.003755
-0.003631 -0.003631 -0.003631
-0.003508 -0.003508 -0.003508
-0.003384 -0.003384 -0.003384
-0.003260 -0.003260 -0.003260
-0.003137 -0.003137 -0.003137
-0.003013 -0.003013 -0.003013
-0.002890 -0.002890 -0.002890
-0.002766 -0.002766 -0.002766
-0.002642 -0.002642 -0.002642
-0.002519 -0.002519 -0.002519
-0.002395 -0.002395 -0.002395
-0.002271 -0.002271 -0.002271
-0.002148 -0.002148 -0.002148
-0.002024 -0.002024 -0.002024
-0.001901 -0.001901 -0.001901
-0.001777 -0.001777 -0.001777
-0.001653 -0.001653 -0.001653
-0.001530 -0.001530 -0.001530
-0.001406 -0.001406 -0.001406
-0.001283 -0.001283 -0.001283
-0.001159 -0.001159 -0.001159
-0.001035 -0.001035 -0.001035
-0.000912 -0.000912 -0.000912
-0.000788 -0.000788 -0.000788
-0.000664 -0.000664 -0.000664
-0.000541 -0.000541 -0.000541
-0.000417 -0.000417 -0.000417
-0.000294 -0.000294 -0.000294
-0.000170 -0.000170 -0.000170
-0.000046 -0.000046 -0.000046
0.000077 0.000077 0.000077
0.000201 0.000201 0.000201
0.000324 0.000324 0.000324
0.000448 0.000448 0.000448
0.000572 0.000572 0.000572
0.000695 0.000695 0.000695
0.000819 0.000819 0.000819
0.000943 0.000943 0.000943
0.001066 0.001066 0.001066
0.001190 0.001190 0.001190
0.001313 0.001313 0.001313
0.001437 0.001437 0.001437
0.001561 0.001561 0.001561
0.001684 0.001684 0.001684
0.001808 0.001808 0.001808
0.001931 0.001931 0.001931
0.002055 0.002055 0.002055
0.002179 0.002179 0.002179
0.002302 0.002302 0.002302
0.002426 0.002426 0.002426
0.002550 0.002550 0.002550
0.002673 0.002673 0.002673
0.002797 0.002797 0.002797
0.002920 0.002920 0.002920
0.003044 0.003044 0.003044
0.003168 0.003168 0.003168
0.003291 0.003291 0.003291
0.003415 0.003415 0.003415
0.003538 0.003538 0.003538
0.003662 0.003662 0.003662
0.003786 0.003786 0.003786
0.003909 0.003909 0.003909
0.004033 0.004033 0.004033
0.004157 0.004157 0.004157
0.004280 0.004280 0.004280
0.004404 0.004404 0.004404
0.004527 0.004527 0.004527
0.004651 0.004651 0.004651
0.004775 0.004775 0.004775
0.004898 0.004898 0.004898
0.005022 0.005022 0.005022
0.005145 0.005145 0.005145
0.005269 0.005269 0.005269
0.005393 0.005393 0.005393
0.005516 0.005516 0.005516
0.005640 0.005640 0.005640
0.005764 0.005764 0.005764
0.005887 0.005887 0.005887
0.006011 0.006011 0.006011
0.006134 0.006134 0.006134
0.006258 0.006258 0.006258
0.006382 0.006382 0.006382
0.006505 0.006505 0.006505
0.006629 0.006629 0.006629
0.006752 0.006752 0.006752
0.006876 0.006876 0.006876
0.007000 0.007000 0.007000
0.007123 0.007123 0.007123
0.007247 0.007247 0.007247
0.007371 0.007371 0.007371
0.007494 0.007494 0.007494
0.007618 0.007618 0.007618
0.007741 0.007741 0.007741
0.007865 0.007865 0.007865
0.007989 0.007989 0.007989
0.008112 0.008112 0.008112
0.008236 0.008236 0.008236
0.008359 0.008359 0.008359
0.008483 0.008483 0.008483
0.008607 0.008607 0.008607
0.008730 0.008730 0.008730
0.008854 0.008854 0.008854
0.008978 0.008978 0.008978
0.009101 0.009101 0.009101
0.009225 0.009225 0.009225
0.009348 0.009348 0.009348
0.009472 0.009472 0.009472
0.009596 0.009596 0.009596
0.009719 0.009719 0.009719
0.009843 0.009843 0.009843
0.009966 0.009966 0.009966
0.010090 0.010090 0.010090
0.010214 0.010214 0.010214
0.010337 0.010337 0.010337
0.010461 0.010461 0.010461
0.010585 0.010585 0.010585
0.010708 0.010708 0.010708
0.010832 0.010832 0.010832
0.010955 0.010955 0.010955
0.011079 0.011079 0.011079
0.011203 0.011203 0.011203
0.011326 0.011326 0.011326
0.011450 0.011450 0.011450
0.011573 0.011573 0.011573
0.011697 0.011697 0.011697
0.011821 0.011821 0.011821
0.011944 0.011944 0.011944
0.012068 0.012068 0.012068
0.012192 0.012192 0.012192
0.012315 0.012315 0.012315
0.012439 0.012439 0.012439
0.012562 0.012562 0.012562
0.012686 0.012686 0.012686
0.012810 0.012810 0.012810
0.012933 0.012933 0.012933
0.013057 0.013057 0.013057
0.013180 0.013180 0.013180
0.013304 0.013304 0.013304
0.013428 0.013428 0.013428
0.013551 0.013551 0.013551
0.013675 0.013675 0.013675
0.013799 0.013799 0.013799
0.013922 0.013922 0.013922
0.014046 0.014046 0.014046
0.014170 0.014170 0.014170
0.014294 0.014294 0.014294
0.014418 0.014418 0.014418
0.014542 0.014542 0.014542
0.014667 0.014667 0.014667
0.014791 0.014791 0.014791
0.014916 0.014916 0.014916
0.015041 0.015041 0.015041
0.015167 0.015167 0.015167
0.015292 0.015292 0.015292
0.015418 0.015418 0.015418
0.015544 0.015544 0.015544
0.015670 0.015670 0.015670
0.015796 0.015796 0.015796
0.015923 0.015923 0.015923
0.016049 0.016049 0.016049
0.016176 0.016176 0.016176
0.016303 0.016303 0.016303
0.016430 0.016430 0.016430
0.016558 0.016558 0.016558
0.016685 0.016685 0.016685
0.016813 0.016813 0.016813
0.016941 0.016941 0.016941
0.017069 0.017069 0.017069
0.017198 0.017198 0.017198
0.017326 0.017326 0.017326
0.017455 0.017455 0.017455
0.017584 0.017584 0.017584
0.017714 0.017714 0.017714
0.017843 0.017843 0.017843
0.017972 0.017972 0.017972
0.018102 0.018102 0.018102
0.018232 0.018232 0.018232
0.018362 0.018362 0.018362
0.018493 0.018493 0.018493
0.018623 0.018623 0.018623
0.018754 0.018754 0.018754
0.018885 0.018885 0.018885
0.019016 0.019016 0.019016
0.019148 0.019148 0.019148
0.019279 0.019279 0.019279
0.019411 0.019411 0.019411
0.019543 0.019543 0.019543
0.019675 0.019675 0.019675
0.019808 0.019808 0.019808
0.019940 0.019940 0.019940
0.020073 0.020073 0.020073
0.020206 0.020206 0.020206
0.020340 0.020340 0.020340
0.020473 0.020473 0.020473
0.020607 0.020607 0.020607
0.020740 0.020740 0.020740
0.020874 0.020874 0.020874
0.021009 0.021009 0.021009
0.021143 0.021143 0.021143
0.021278 0.021278 0.021278
0.021413 0.021413 0.021413
0.021548 0.021548 0.021548
0.021683 0.021683 0.021683
0.021818 0.021818 0.021818
0.021954 0.021954 0.021954
0.022090 0.022090 0.022090
0.022226 0.022226 0.022226
0.022362 0.022362 0.022362
0.022499 0.022499 0.022499
0.022636 0.022636 0.022636
0.022773 0.022773 0.022773
0.022910 0.022910 0.022910
0.023047 0.023047 0.023047
0.023185 0.023185 0.023185
0.023323 0.023323 0.023323
0.023461 0.023461 0.023461
0.023599 0.023599 0.023599
0.023737 0.023737 0.023737
0.023876 0.023876 0.023876
0.024015 0.024015 0.024015
0.024154 0.024154 0.024154
0.024293 0.024293 0.024293
0.024432 0.024432 0.024432
0.024572 0.024572 0.024572
0.024712 0.024712 0.024712
0.024852 0.024852 0.024852
0.024993 0.024993 0.024993
0.025133 0.025133 0.025133
0.025274 0.025274 0.025274
0.025415 0.025415 0.025415
0.025556 0.025556 0.025556
0.025697 0.025697 0.025697
0.025839 0.025839 0.025839
0.025981 0.025981 0.025981
0.026123 0.026123 0.026123
0.026265 0.026265 0.026265
0.026408 0.026408 0.026408
0.026550 0.026550 0.026550
0.026693 0.026693 0.026693
0.026837 0.026837 0.026837
0.026980 0.026980 0.026980
0.027124 0.027124 0.027124
0.027267 0.027267 0.027267
0.027411 0.027411 0.027411
0.027556 0.027556 0.027556
0.027700 0.027700 0.027700
0.027845 0.027845 0.027845
0.027990 0.027990 0.027990
0.028135 0.028135 0.028135
0.028280 0.028280 0.028280
0.028426 0.028426 0.028426
0.028572 0.028572 0.028572
0.028718 0.028718 0.028718
0.028864 0.028864 0.028864
0.029010 0.029010 0.029010
0.029157 0.029157 0.029157
0.029304 0.029304 0.029304
0.029451 0.029451 0.029451
0.029599 0.029599 0.029599
0.029746 0.029746 0.029746
0.029894 0.029894 0.029894
0.030042 0.030042 0.030042
0.030190 0.030190 0.030190
0.030339 0.030339 0.030339
0.030488 0.030488 0.030488
0.030637 0.030637 0.030637
0.030786 0.030786 0.030786
0.030935 0.030935 0.030935
0.031085 0.031085 0.031085
0.031235 0.031235 0.031235
0.031385 0.031385 0.031385
0.031535 0.031535 0.031535
0.031686 0.031686 0.031686
0.031837 0.031837 0.031837
0.031988 0.031988 0.031988
0.032139 0.032139 0.032139
0.032291 0.032291 0.032291
0.032442 0.032442 0.032442
0.032594 0.032594 0.032594
0.032746 0.032746 0.032746
0.032899 0.032899 0.032899
0.033052 0.033052 0.033052
0.033204 0.033204 0.033204
0.033358 0.033358 0.033358
0.033511 0.033511 0.033511
0.033665 0.033665 0.033665
0.033818 0.033818 0.033818
0.033972 0.033972 0.033972
0.034127 0.034127 0.034127
0.034281 0.034281 0.034281
0.034436 0.034436 0.034436
0.034591 0.034591 0.034591
0.034746 0.034746 0.034746
0.034902 0.034902 0.034902
0.035058 0.035058 0.035058
0.035214 0.035214 0.035214
0.035370 0.035370 0.035370
0.035526 0.035526 0.035526
0.035683 0.035683 0.035683
0.035840 0.035840 0.035840
0.035997 0.035997 0.035997
0.036154 0.036154 0.036154
0.036312 0.036312 0.036312
0.036470 0.036470 0.036470
0.036628 0.036628 0.036628
0.036787 0.036787 0.036787
0.036945 0.036945 0.036945
0.037104 0.037104 0.037104
0.037263 0.037263 0.037263
0.037423 0.037423 0.037423
0.037582 0.037582 0.037582
0.037742 0.037742 0.037742
0.037902 0.037902 0.037902
0.038062 0.038062 0.038062
0.038223 0.038223 0.038223
0.038384 0.038384 0.038384
0.038545 0.038545 0.038545
0.038706 0.038706 0.038706
0.038868 0.038868 0.038868
0.039030 0.039030 0.039030
0.039192 0.039192 0.039192
0.039354 0.039354 0.039354
0.039516 0.039516 0.039516
0.039679 0.039679 0.039679
0.039842 0.039842 0.039842
0.040006 0.040006 0.040006
0.040169 0.040169 0.040169
0.040333 0.040333 0.040333
0.040497 0.040497 0.040497
0.040661 0.040661 0.040661
0.040826 0.040826 0.040826
0.040991 0.040991 0.040991
0.041156 0.041156 0.041156
0.041321 0.041321 0.041321
0.041487 0.041487 0.041487
0.041653 0.041653 0.041653
0.041819 0.041819 0.041819
0.041985 0.041985 0.041985
0.042152 0.042152 0.042152
0.042318 0.042318 0.042318
0.042485 0.042485 0.042485
0.042653 0.042653 0.042653
