Luts Download/O & T/teal and orange (1).3DL
#Created by: Adobe Photoshop Export Color Lookup Plugin
#Description: TEAL AND ORANGE
0 341 682 1023
7 14 38
7 14 38
7 14 38
7 14 38
0 1263 1363
0 1263 1363
0 1263 1363
0 1263 1363
0 2854 2965
0 2854 2965
0 2854 2965
0 2854 2965
0 4095 4095
0 4095 4095
0 4095 4095
0 4095 4095
1245 7 21
1245 7 21
1245 7 21
1245 7 21
1244 1261 1278
1244 1261 1278
1244 1261 1278
1244 1261 1278
1030 3049 3125
1030 3049 3125
1030 3049 3125
1030 3049 3125
1241 4095 4095
1241 4095 4095
1241 4095 4095
1241 4095 4095
2859 0 0
2859 0 0
2859 0 0
2859 0 0
3094 1006 931
3094 1006 931
3094 1006 931
3094 1006 931
2859 2851 2848
2859 2851 2848
2859 2851 2848
2859 2851 2848
2859 4095 4095
2859 4095 4095
2859 4095 4095
2859 4095 4095
4095 0 0
4095 0 0
4095 0 0
4095 0 0
4095 1255 1139
4095 1255 1139
4095 1255 1139
4095 1255 1139
4095 2851 2757
4095 2851 2757
4095 2851 2757
4095 2851 2757
4095 4095 4095
4095 4095 4095
4095 4095 4095
4095 4095 4095
