Luts Download/O & T/teal and orange (2).cube
#Generated with IWLTBAP LUT Generator
#Website: http://luts.iwltbap.com
TITLE "LUT generator-1"
#LUT size
LUT_3D_SIZE 5
#LUT data points
0.149020 0.149020 0.149020
0.219608 0.145098 0.152941
0.419608 0.145098 0.145098
0.760784 0.125490 0.145098
1.000000 0.003922 0.145098
0.337255 0.188235 0.149020
0.211765 0.215686 0.152941
0.403922 0.211765 0.152941
0.752941 0.235294 0.145098
0.992157 0.203922 0.141176
0.415686 0.431373 0.192157
0.203922 0.450980 0.176471
0.478431 0.443137 0.219608
0.709804 0.400000 0.137255
1.000000 0.415686 0.207843
0.431373 0.772549 0.321569
0.047059 0.784314 0.270588
0.525490 0.780392 0.380392
0.803922 0.752941 0.447059
0.996078 0.619608 0.282353
0.682353 0.917647 0.713725
0.619608 0.925490 0.698039
0.733333 0.917647 0.752941
0.835294 0.909804 0.792157
0.909804 0.898039 0.839216
0.121569 0.160784 0.207843
0.200000 0.152941 0.207843
0.411765 0.109804 0.243137
0.792157 0.000000 0.223529
0.996078 0.000000 0.211765
0.337255 0.184314 0.211765
0.164706 0.219608 0.219608
0.411765 0.215686 0.227451
0.764706 0.207843 0.231373
1.000000 0.196078 0.247059
0.384314 0.423529 0.286275
0.000000 0.450980 0.219608
0.447059 0.450980 0.294118
0.721569 0.403922 0.219608
1.000000 0.427451 0.298039
0.380392 0.772549 0.380392
0.000000 0.784314 0.329412
0.505882 0.780392 0.435294
0.796078 0.764706 0.521569
0.996078 0.619608 0.321569
0.658824 0.917647 0.737255
0.627451 0.917647 0.717647
0.729412 0.917647 0.760784
0.835294 0.913725 0.800000
0.901961 0.905882 0.850980
0.000000 0.223529 0.349020
0.007843 0.172549 0.360784
0.372549 0.129412 0.392157
0.705882 0.000000 0.482353
0.996078 0.000000 0.435294
0.239216 0.184314 0.392157
0.007843 0.294118 0.360784
0.352941 0.200000 0.407843
0.709804 0.121569 0.474510
1.000000 0.000000 0.415686
0.000000 0.450980 0.447059
0.000000 0.474510 0.439216
0.223529 0.447059 0.474510
0.749020 0.454902 0.482353
1.000000 0.537255 0.552941
0.000000 0.772549 0.431373
0.003922 0.768627 0.439216
0.003922 0.788235 0.482353
0.756863 0.772549 0.635294
0.984314 0.670588 0.525490
0.482353 0.929412 0.678431
0.360784 0.933333 0.647059
0.694118 0.921569 0.772549
0.827451 0.913725 0.831373
0.901961 0.901961 0.854902
0.000000 0.368627 0.639216
0.007843 0.349020 0.650980
0.000000 0.129412 0.709804
0.686275 0.000000 0.733333
1.000000 0.003922 0.725490
0.000000 0.360784 0.662745
0.000000 0.439216 0.635294
0.000000 0.239216 0.698039
0.678431 0.133333 0.733333
1.000000 0.003922 0.705882
0.000000 0.568627 0.690196
0.000000 0.588235 0.682353
0.000000 0.537255 0.709804
0.662745 0.458824 0.752941
1.000000 0.466667 0.717647
0.000000 0.792157 0.729412
0.000000 0.803922 0.721569
0.000000 0.807843 0.737255
0.572549 0.768627 0.756863
0.905882 0.807843 0.792157
0.003922 0.952941 0.643137
0.000000 0.952941 0.631373
0.000000 0.945098 0.698039
0.788235 0.909804 0.847059
0.898039 0.909804 0.882353
0.003922 0.490196 0.898039
0.007843 0.494118 0.901961
0.000000 0.352941 0.909804
0.403922 0.000000 0.925490
0.960784 0.000000 0.929412
0.003922 0.509804 0.905882
0.003922 0.549020 0.905882
0.000000 0.462745 0.909804
0.278431 0.086275 0.929412
0.945098 0.003922 0.933333
0.003922 0.658824 0.905882
0.003922 0.658824 0.901961
0.000000 0.619608 0.905882
0.000000 0.341176 0.933333
0.917647 0.466667 0.933333
0.003922 0.819608 0.905882
0.000000 0.819608 0.905882
0.000000 0.803922 0.901961
0.003922 0.725490 0.905882
0.882353 0.784314 0.905882
0.000000 0.984314 0.854902
0.000000 0.984314 0.854902
0.003922 0.980392 0.843137
0.309804 0.952941 0.878431
0.882353 0.917647 0.913725
