Luts Download/O & T/teal and orange (2).cube
#Generated with IWLTBAP LUT Generator
#Website: http://luts.iwltbap.com
TITLE "LUT generator-1"
#LUT size
LUT_3D_SIZE 25
#LUT data points
0.149020 0.149020 0.149020
0.145098 0.152941 0.149020
0.156863 0.152941 0.145098
0.164706 0.149020 0.145098
0.188235 0.149020 0.152941
0.200000 0.141176 0.152941
0.219608 0.145098 0.152941
0.231373 0.145098 0.152941
0.258824 0.149020 0.145098
0.294118 0.145098 0.145098
0.333333 0.145098 0.145098
0.376471 0.149020 0.145098
0.419608 0.145098 0.145098
0.470588 0.149020 0.156863
0.529412 0.141176 0.152941
0.576471 0.141176 0.137255
0.643137 0.133333 0.133333
0.698039 0.133333 0.141176
0.760784 0.125490 0.145098
0.815686 0.117647 0.133333
0.874510 0.109804 0.133333
0.917647 0.105882 0.137255
0.960784 0.105882 0.133333
0.996078 0.101961 0.129412
1.000000 0.003922 0.145098
0.313725 0.137255 0.149020
0.137255 0.152941 0.149020
0.152941 0.152941 0.145098
0.168627 0.152941 0.149020
0.192157 0.152941 0.149020
0.196078 0.156863 0.152941
0.211765 0.149020 0.152941
0.235294 0.152941 0.141176
0.262745 0.152941 0.149020
0.294118 0.156863 0.149020
0.333333 0.152941 0.152941
0.376471 0.149020 0.137255
0.419608 0.152941 0.149020
0.466667 0.149020 0.145098
0.521569 0.145098 0.152941
0.584314 0.145098 0.152941
0.635294 0.141176 0.145098
0.694118 0.141176 0.133333
0.764706 0.137255 0.137255
0.823529 0.133333 0.141176
0.874510 0.121569 0.133333
0.917647 0.117647 0.125490
0.960784 0.113725 0.133333
0.996078 0.109804 0.125490
1.000000 0.023529 0.149020
0.294118 0.141176 0.152941
0.137255 0.172549 0.152941
0.145098 0.164706 0.149020
0.176471 0.152941 0.152941
0.180392 0.160784 0.145098
0.196078 0.152941 0.137255
0.211765 0.156863 0.152941
0.239216 0.160784 0.156863
0.262745 0.160784 0.156863
0.301961 0.164706 0.156863
0.333333 0.152941 0.152941
0.368627 0.156863 0.149020
0.419608 0.164706 0.149020
0.470588 0.160784 0.145098
0.529412 0.156863 0.149020
0.588235 0.160784 0.149020
0.643137 0.152941 0.137255
0.701961 0.149020 0.141176
0.772549 0.145098 0.145098
0.827451 0.141176 0.137255
0.878431 0.133333 0.133333
0.921569 0.133333 0.133333
0.968627 0.121569 0.133333
1.000000 0.125490 0.137255
0.996078 0.066667 0.145098
0.266667 0.156863 0.145098
0.129412 0.180392 0.152941
0.156863 0.164706 0.145098
0.168627 0.172549 0.152941
0.192157 0.160784 0.160784
0.192157 0.172549 0.156863
0.227451 0.168627 0.156863
0.239216 0.168627 0.152941
0.262745 0.172549 0.152941
0.301961 0.164706 0.149020
0.341176 0.168627 0.156863
0.384314 0.168627 0.152941
0.431373 0.164706 0.152941
0.478431 0.168627 0.141176
0.525490 0.168627 0.156863
0.592157 0.168627 0.156863
0.650980 0.168627 0.141176
0.709804 0.164706 0.145098
0.772549 0.160784 0.141176
0.835294 0.156863 0.125490
0.878431 0.156863 0.133333
0.929412 0.149020 0.129412
0.972549 0.145098 0.133333
0.996078 0.152941 0.141176
0.996078 0.105882 0.152941
0.223529 0.168627 0.164706
0.149020 0.188235 0.156863
0.164706 0.188235 0.149020
0.168627 0.188235 0.164706
0.180392 0.180392 0.149020
0.200000 0.180392 0.164706
0.223529 0.172549 0.149020
0.247059 0.180392 0.149020
0.270588 0.180392 0.156863
0.294118 0.172549 0.152941
0.333333 0.180392 0.152941
0.372549 0.180392 0.156863
0.435294 0.180392 0.156863
0.482353 0.180392 0.149020
0.529412 0.180392 0.156863
0.588235 0.188235 0.149020
0.650980 0.184314 0.137255
0.713725 0.184314 0.137255
0.772549 0.184314 0.149020
0.827451 0.188235 0.137255
0.878431 0.180392 0.133333
0.929412 0.176471 0.133333
0.976471 0.168627 0.137255
0.996078 0.172549 0.145098
1.000000 0.168627 0.145098
0.149020 0.196078 0.149020
0.133333 0.203922 0.156863
0.156863 0.200000 0.168627
0.168627 0.196078 0.164706
0.180392 0.192157 0.156863
0.192157 0.200000 0.156863
0.207843 0.196078 0.160784
0.239216 0.188235 0.156863
0.258824 0.192157 0.164706
0.298039 0.192157 0.156863
0.329412 0.196078 0.160784
0.360784 0.192157 0.156863
0.411765 0.200000 0.152941
0.462745 0.203922 0.149020
0.513725 0.203922 0.152941
0.572549 0.203922 0.156863
0.635294 0.207843 0.141176
0.690196 0.207843 0.145098
0.749020 0.211765 0.141176
0.800000 0.219608 0.133333
0.854902 0.211765 0.133333
0.917647 0.207843 0.133333
0.952941 0.203922 0.129412
0.984314 0.207843 0.133333
0.996078 0.168627 0.156863
0.337255 0.188235 0.149020
0.105882 0.227451 0.156863
0.152941 0.219608 0.156863
0.164706 0.219608 0.152941
0.168627 0.207843 0.164706
0.203922 0.211765 0.168627
0.211765 0.215686 0.152941
0.243137 0.200000 0.176471
0.270588 0.207843 0.156863
0.294118 0.207843 0.164706
0.317647 0.207843 0.152941
0.360784 0.211765 0.168627
0.403922 0.211765 0.152941
0.462745 0.223529 0.152941
0.509804 0.223529 0.156863
0.572549 0.227451 0.149020
0.627451 0.231373 0.152941
0.690196 0.235294 0.145098
0.752941 0.235294 0.145098
0.803922 0.235294 0.129412
0.862745 0.239216 0.125490
0.909804 0.239216 0.129412
0.952941 0.235294 0.133333
1.000000 0.231373 0.137255
0.992157 0.203922 0.141176
0.321569 0.211765 0.160784
0.101961 0.239216 0.152941
0.156863 0.250980 0.164706
0.156863 0.243137 0.152941
0.188235 0.239216 0.172549
0.196078 0.239216 0.176471
0.223529 0.235294 0.160784
0.247059 0.235294 0.168627
0.270588 0.235294 0.168627
0.301961 0.235294 0.164706
0.333333 0.227451 0.152941
0.368627 0.231373 0.152941
0.411765 0.235294 0.152941
0.454902 0.239216 0.160784
0.509804 0.243137 0.160784
0.568627 0.247059 0.160784
0.631373 0.254902 0.156863
0.682353 0.262745 0.152941
0.741176 0.270588 0.145098
0.803922 0.270588 0.137255
0.858824 0.270588 0.133333
0.909804 0.266667 0.137255
0.952941 0.270588 0.137255
0.996078 0.274510 0.133333
1.000000 0.239216 0.168627
0.313725 0.247059 0.180392
0.082353 0.274510 0.160784
0.152941 0.282353 0.160784
0.145098 0.274510 0.160784
0.180392 0.282353 0.168627
0.207843 0.266667 0.176471
0.235294 0.274510 0.180392
0.262745 0.270588 0.188235
0.286275 0.266667 0.184314
0.321569 0.262745 0.188235
0.345098 0.258824 0.176471
0.380392 0.254902 0.164706
0.411765 0.254902 0.156863
0.458824 0.262745 0.156863
0.509804 0.270588 0.160784
0.568627 0.278431 0.141176
0.631373 0.286275 0.149020
0.690196 0.290196 0.141176
0.741176 0.290196 0.137255
0.807843 0.294118 0.145098
0.858824 0.298039 0.133333
0.913725 0.298039 0.129412
0.952941 0.298039 0.141176
0.992157 0.294118 0.145098
1.000000 0.266667 0.160784
0.278431 0.290196 0.176471
0.078431 0.313725 0.172549
0.121569 0.317647 0.172549
0.156863 0.313725 0.172549
0.172549 0.313725 0.172549
0.196078 0.317647 0.184314
0.239216 0.313725 0.188235
0.270588 0.305882 0.192157
0.294118 0.305882 0.184314
0.325490 0.313725 0.184314
0.360784 0.301961 0.180392
0.407843 0.294118 0.160784
0.431373 0.298039 0.160784
0.462745 0.286275 0.156863
0.501961 0.290196 0.156863
0.556863 0.298039 0.160784
0.615686 0.305882 0.145098
0.678431 0.317647 0.133333
0.741176 0.317647 0.133333
0.807843 0.329412 0.145098
0.854902 0.333333 0.141176
0.909804 0.333333 0.133333
0.952941 0.329412 0.133333
0.988235 0.329412 0.145098
1.000000 0.329412 0.156863
0.019608 0.356863 0.172549
0.047059 0.345098 0.164706
0.078431 0.349020 0.168627
0.109804 0.352941 0.168627
0.137255 0.356863 0.172549
0.184314 0.352941 0.176471
0.211765 0.341176 0.172549
0.254902 0.352941 0.188235
0.290196 0.349020 0.188235
0.321569 0.349020 0.184314
0.356863 0.349020 0.196078
0.392157 0.337255 0.192157
0.450980 0.345098 0.184314
0.478431 0.333333 0.160784
0.501961 0.325490 0.160784
0.529412 0.321569 0.156863
0.592157 0.333333 0.145098
0.654902 0.341176 0.149020
0.721569 0.345098 0.145098
0.784314 0.349020 0.133333
0.843137 0.352941 0.141176
0.890196 0.360784 0.141176
0.929412 0.360784 0.145098
0.972549 0.364706 0.152941
1.000000 0.349020 0.168627
0.411765 0.352941 0.192157
0.000000 0.407843 0.149020
0.000000 0.392157 0.172549
0.054902 0.400000 0.172549
0.113725 0.411765 0.168627
0.160784 0.400000 0.164706
0.211765 0.403922 0.176471
0.239216 0.400000 0.180392
0.290196 0.396078 0.180392
0.333333 0.396078 0.203922
0.364706 0.396078 0.196078
0.415686 0.400000 0.211765
0.454902 0.380392 0.215686
0.509804 0.388235 0.176471
0.541176 0.380392 0.168627
0.568627 0.376471 0.149020
0.600000 0.364706 0.137255
0.647059 0.364706 0.137255
0.705882 0.376471 0.141176
0.772549 0.388235 0.141176
0.823529 0.388235 0.137255
0.882353 0.392157 0.133333
0.929412 0.392157 0.141176
0.960784 0.396078 0.152941
1.000000 0.372549 0.192157
0.415686 0.431373 0.192157
0.000000 0.458824 0.152941
0.000000 0.454902 0.160784
0.007843 0.450980 0.176471
0.078431 0.450980 0.184314
0.145098 0.458824 0.180392
0.203922 0.450980 0.176471
0.254902 0.450980 0.196078
0.298039 0.450980 0.196078
0.337255 0.450980 0.200000
0.380392 0.454902 0.203922
0.435294 0.450980 0.211765
0.478431 0.443137 0.219608
0.509804 0.427451 0.219608
0.580392 0.431373 0.184314
0.611765 0.423529 0.172549
0.635294 0.419608 0.164706
0.658824 0.403922 0.145098
0.709804 0.400000 0.137255
0.772549 0.411765 0.133333
0.827451 0.419608 0.133333
0.874510 0.427451 0.145098
0.933333 0.427451 0.160784
0.960784 0.427451 0.160784
1.000000 0.415686 0.207843
0.388235 0.490196 0.211765
0.015686 0.509804 0.152941
0.000000 0.505882 0.168627
0.000000 0.513725 0.164706
0.003922 0.509804 0.176471
0.133333 0.517647 0.176471
0.188235 0.509804 0.180392
0.258824 0.509804 0.200000
0.305882 0.501961 0.211765
0.360784 0.509804 0.223529
0.392157 0.509804 0.219608
0.447059 0.509804 0.223529
0.498039 0.505882 0.219608
0.533333 0.498039 0.235294
0.584314 0.482353 0.243137
0.643137 0.486275 0.203922
0.678431 0.474510 0.176471
0.701961 0.458824 0.172549
0.733333 0.454902 0.149020
0.768627 0.443137 0.137255
0.823529 0.450980 0.129412
0.878431 0.454902 0.133333
0.925490 0.458824 0.160784
0.972549 0.454902 0.160784
1.000000 0.454902 0.192157
0.321569 0.556863 0.215686
0.000000 0.568627 0.152941
0.003922 0.568627 0.164706
0.000000 0.568627 0.180392
0.011765 0.572549 0.180392
0.070588 0.568627 0.180392
0.172549 0.568627 0.192157
0.239216 0.568627 0.196078
0.298039 0.568627 0.203922
0.352941 0.564706 0.219608
0.411765 0.564706 0.239216
0.470588 0.568627 0.250980
0.517647 0.568627 0.247059
0.564706 0.572549 0.243137
0.603922 0.552941 0.254902
0.654902 0.541176 0.274510
0.713725 0.537255 0.227451
0.741176 0.521569 0.196078
0.780392 0.513725 0.180392
0.792157 0.494118 0.156863
0.835294 0.482353 0.137255
0.870588 0.490196 0.149020
0.913725 0.494118 0.156863
0.956863 0.494118 0.180392
0.996078 0.486275 0.203922
0.003922 0.615686 0.164706
0.007843 0.619608 0.168627
0.000000 0.623529 0.168627
0.000000 0.619608 0.168627
0.000000 0.615686 0.172549
0.003922 0.623529 0.180392
0.027451 0.623529 0.180392
0.168627 0.623529 0.203922
0.274510 0.619608 0.219608
0.321569 0.619608 0.223529
0.384314 0.623529 0.247059
0.435294 0.619608 0.250980
0.494118 0.627451 0.254902
0.549020 0.627451 0.254902
0.607843 0.627451 0.274510
0.650980 0.623529 0.270588
0.686275 0.600000 0.305882
0.749020 0.588235 0.266667
0.792157 0.576471 0.223529
0.815686 0.560784 0.207843
0.835294 0.541176 0.176471
0.866667 0.529412 0.149020
0.909804 0.517647 0.133333
0.945098 0.513725 0.149020
0.996078 0.513725 0.211765
0.501961 0.658824 0.270588
0.000000 0.682353 0.137255
0.023529 0.678431 0.192157
0.003922 0.674510 0.188235
0.003922 0.678431 0.184314
0.000000 0.686275 0.200000
0.000000 0.682353 0.207843
0.141176 0.678431 0.215686
0.231373 0.682353 0.215686
0.321569 0.682353 0.247059
0.384314 0.682353 0.247059
0.447059 0.686275 0.278431
0.498039 0.678431 0.282353
0.576471 0.686275 0.286275
0.623529 0.678431 0.298039
0.670588 0.686275 0.313725
0.713725 0.666667 0.329412
0.749020 0.643137 0.333333
0.800000 0.635294 0.313725
0.831373 0.615686 0.262745
0.862745 0.603922 0.227451
0.886275 0.580392 0.196078
0.913725 0.564706 0.196078
0.941176 0.549020 0.164706
1.000000 0.549020 0.223529
0.478431 0.705882 0.305882
0.003922 0.737255 0.184314
0.000000 0.741176 0.215686
0.000000 0.733333 0.219608
0.003922 0.737255 0.207843
0.000000 0.741176 0.215686
0.011765 0.737255 0.231373
0.133333 0.737255 0.243137
0.254902 0.729412 0.247059
0.329412 0.733333 0.270588
0.392157 0.737255 0.294118
0.454902 0.733333 0.317647
0.517647 0.733333 0.325490
0.568627 0.733333 0.333333
0.627451 0.737255 0.345098
0.678431 0.733333 0.349020
0.733333 0.729412 0.364706
0.768627 0.709804 0.384314
0.800000 0.694118 0.384314
0.843137 0.682353 0.372549
0.878431 0.658824 0.333333
0.905882 0.631373 0.286275
0.917647 0.619608 0.250980
0.952941 0.603922 0.235294
1.000000 0.580392 0.227451
0.431373 0.772549 0.321569
0.003922 0.780392 0.235294
0.000000 0.788235 0.254902
0.007843 0.780392 0.258824
0.000000 0.780392 0.250980
0.000000 0.780392 0.270588
0.047059 0.784314 0.270588
0.180392 0.784314 0.290196
0.274510 0.784314 0.298039
0.352941 0.788235 0.317647
0.427451 0.772549 0.333333
0.478431 0.772549 0.360784
0.525490 0.780392 0.380392
0.576471 0.772549 0.392157
0.635294 0.776471 0.400000
0.690196 0.772549 0.407843
0.745098 0.776471 0.439216
0.780392 0.772549 0.431373
0.803922 0.752941 0.447059
0.843137 0.729412 0.474510
0.878431 0.713725 0.415686
0.913725 0.690196 0.372549
0.941176 0.670588 0.364706
0.945098 0.654902 0.313725
0.996078 0.619608 0.282353
0.356863 0.815686 0.368627
0.007843 0.823529 0.305882
0.000000 0.819608 0.305882
0.007843 0.815686 0.309804
0.000000 0.815686 0.313725
0.007843 0.823529 0.313725
0.129412 0.827451 0.329412
0.235294 0.823529 0.341176
0.301961 0.823529 0.356863
0.384314 0.811765 0.376471
0.439216 0.815686 0.392157
0.490196 0.815686 0.400000
0.541176 0.811765 0.447059
0.592157 0.815686 0.447059
0.643137 0.811765 0.458824
0.694118 0.807843 0.478431
0.737255 0.811765 0.490196
0.780392 0.815686 0.505882
0.815686 0.807843 0.517647
0.839216 0.784314 0.537255
0.862745 0.764706 0.545098
0.901961 0.752941 0.509804
0.929412 0.733333 0.462745
0.956863 0.713725 0.427451
0.980392 0.698039 0.407843
0.007843 0.850980 0.384314
0.003922 0.843137 0.388235
0.015686 0.843137 0.372549
0.094118 0.839216 0.376471
0.149020 0.850980 0.388235
0.207843 0.854902 0.392157
0.254902 0.843137 0.392157
0.309804 0.843137 0.411765
0.364706 0.843137 0.407843
0.419608 0.847059 0.427451
0.470588 0.847059 0.454902
0.525490 0.843137 0.474510
0.572549 0.839216 0.498039
0.619608 0.835294 0.517647
0.658824 0.831373 0.537255
0.694118 0.839216 0.537255
0.729412 0.839216 0.549020
0.768627 0.835294 0.560784
0.811765 0.839216 0.576471
0.839216 0.835294 0.584314
0.854902 0.819608 0.603922
0.866667 0.800000 0.619608
0.898039 0.776471 0.592157
0.941176 0.764706 0.541176
0.992157 0.725490 0.478431
0.619608 0.854902 0.564706
0.145098 0.886275 0.462745
0.254902 0.870588 0.458824
0.278431 0.874510 0.447059
0.305882 0.870588 0.458824
0.337255 0.862745 0.482353
0.360784 0.874510 0.466667
0.388235 0.874510 0.486275
0.427451 0.874510 0.490196
0.478431 0.874510 0.505882
0.521569 0.870588 0.517647
0.560784 0.862745 0.541176
0.600000 0.866667 0.564706
0.631373 0.866667 0.592157
0.670588 0.862745 0.607843
0.705882 0.862745 0.615686
0.745098 0.862745 0.627451
0.780392 0.862745 0.631373
0.803922 0.854902 0.635294
0.835294 0.862745 0.650980
0.854902 0.850980 0.662745
0.874510 0.839216 0.678431
0.898039 0.827451 0.686275
0.909804 0.811765 0.662745
0.968627 0.784314 0.572549
0.623529 0.878431 0.603922
0.345098 0.894118 0.537255
0.376471 0.898039 0.533333
0.396078 0.890196 0.533333
0.407843 0.890196 0.537255
0.435294 0.890196 0.545098
0.431373 0.898039 0.537255
0.482353 0.894118 0.560784
0.505882 0.886275 0.564706
0.533333 0.890196 0.576471
0.572549 0.890196 0.588235
0.611765 0.886275 0.600000
0.647059 0.886275 0.623529
0.674510 0.886275 0.650980
0.694118 0.882353 0.654902
0.733333 0.886275 0.670588
0.764706 0.882353 0.686275
0.784314 0.878431 0.690196
0.811765 0.878431 0.701961
0.847059 0.882353 0.705882
0.870588 0.878431 0.721569
0.886275 0.870588 0.725490
0.894118 0.858824 0.737255
0.894118 0.854902 0.749020
0.941176 0.823529 0.674510
0.662745 0.894118 0.666667
0.474510 0.905882 0.611765
0.494118 0.909804 0.627451
0.513725 0.913725 0.627451
0.513725 0.905882 0.619608
0.517647 0.909804 0.623529
0.533333 0.898039 0.619608
0.556863 0.909804 0.635294
0.572549 0.905882 0.643137
0.607843 0.905882 0.662745
0.631373 0.905882 0.670588
0.662745 0.901961 0.678431
0.690196 0.898039 0.678431
0.709804 0.898039 0.701961
0.741176 0.905882 0.725490
0.752941 0.898039 0.725490
0.776471 0.905882 0.737255
0.800000 0.901961 0.749020
0.815686 0.894118 0.756863
0.843137 0.898039 0.768627
0.862745 0.890196 0.760784
0.878431 0.901961 0.768627
0.886275 0.886275 0.784314
0.898039 0.882353 0.784314
0.917647 0.870588 0.776471
0.682353 0.917647 0.713725
0.592157 0.917647 0.690196
0.592157 0.929412 0.690196
0.607843 0.917647 0.694118
0.603922 0.921569 0.694118
0.611765 0.921569 0.705882
0.619608 0.925490 0.698039
0.631373 0.925490 0.701961
0.650980 0.913725 0.705882
0.678431 0.909804 0.721569
0.690196 0.921569 0.733333
0.709804 0.917647 0.737255
0.733333 0.917647 0.752941
0.752941 0.909804 0.764706
0.776471 0.917647 0.776471
0.788235 0.913725 0.768627
0.807843 0.905882 0.792157
0.819608 0.909804 0.792157
0.835294 0.909804 0.792157
0.854902 0.905882 0.796078
0.862745 0.909804 0.815686
0.886275 0.905882 0.811765
0.894118 0.909804 0.815686
0.898039 0.905882 0.823529
0.909804 0.898039 0.839216
0.145098 0.152941 0.149020
0.156863 0.156863 0.164706
0.156863 0.149020 0.160784
0.168627 0.149020 0.164706
0.188235 0.145098 0.160784
0.207843 0.145098 0.156863
0.211765 0.149020 0.152941
0.266667 0.141176 0.160784
0.274510 0.149020 0.168627
0.313725 0.137255 0.164706
0.352941 0.129412 0.156863
0.392157 0.137255 0.160784
0.431373 0.129412 0.152941
0.486275 0.125490 0.168627
0.549020 0.117647 0.168627
0.607843 0.113725 0.156863
0.670588 0.109804 0.149020
0.729412 0.094118 0.156863
0.788235 0.082353 0.164706
0.843137 0.078431 0.164706
0.890196 0.070588 0.152941
0.937255 0.062745 0.145098
0.972549 0.058824 0.145098
1.000000 0.062745 0.152941
1.000000 0.000000 0.164706
0.333333 0.129412 0.149020
0.133333 0.156863 0.156863
0.160784 0.160784 0.168627
0.168627 0.152941 0.156863
0.188235 0.156863 0.156863
0.211765 0.145098 0.168627
0.227451 0.152941 0.160784
0.247059 0.152941 0.152941
0.282353 0.145098 0.168627
0.321569 0.145098 0.164706
0.349020 0.141176 0.172549
0.388235 0.145098 0.156863
0.423529 0.145098 0.168627
0.478431 0.141176 0.160784
0.552941 0.141176 0.168627
0.600000 0.133333 0.156863
0.650980 0.129412 0.164706
0.713725 0.113725 0.152941
0.784314 0.109804 0.156863
0.835294 0.094118 0.149020
0.890196 0.090196 0.156863
0.933333 0.086275 0.149020
0.972549 0.082353 0.160784
1.000000 0.078431 0.149020
0.996078 0.000000 0.164706
0.294118 0.133333 0.164706
0.141176 0.156863 0.168627
0.160784 0.160784 0.160784
0.172549 0.164706 0.168627
0.180392 0.164706 0.160784
0.200000 0.168627 0.168627
0.227451 0.152941 0.160784
0.247059 0.160784 0.168627
0.274510 0.160784 0.168627
0.309804 0.156863 0.168627
0.349020 0.156863 0.172549
0.388235 0.156863 0.172549
0.435294 0.160784 0.172549
0.490196 0.152941 0.164706
0.541176 0.145098 0.168627
0.600000 0.145098 0.164706
0.662745 0.133333 0.156863
0.721569 0.129412 0.156863
0.780392 0.125490 0.164706
0.831373 0.113725 0.160784
0.890196 0.109804 0.152941
0.937255 0.109804 0.152941
0.972549 0.101961 0.152941
0.992157 0.105882 0.152941
0.996078 0.027451 0.164706
0.278431 0.149020 0.176471
0.133333 0.168627 0.149020
0.156863 0.172549 0.168627
0.168627 0.168627 0.168627
0.192157 0.168627 0.168627
0.196078 0.172549 0.180392
0.203922 0.172549 0.164706
0.247059 0.168627 0.164706
0.266667 0.164706 0.160784
0.294118 0.172549 0.160784
0.337255 0.164706 0.160784
0.384314 0.168627 0.160784
0.419608 0.160784 0.160784
0.482353 0.164706 0.160784
0.537255 0.164706 0.156863
0.607843 0.160784 0.168627
0.662745 0.152941 0.168627
0.721569 0.149020 0.160784
0.776471 0.149020 0.149020
0.839216 0.145098 0.145098
0.890196 0.137255 0.156863
0.937255 0.133333 0.152941
0.976471 0.129412 0.141176
0.996078 0.133333 0.149020
0.992157 0.090196 0.160784
0.227451 0.168627 0.180392
0.141176 0.180392 0.176471
0.152941 0.188235 0.168627
0.160784 0.184314 0.168627
0.176471 0.176471 0.176471
0.203922 0.184314 0.172549
0.219608 0.180392 0.172549
0.250980 0.172549 0.168627
0.274510 0.176471 0.160784
0.290196 0.180392 0.164706
0.337255 0.176471 0.168627
0.388235 0.180392 0.160784
0.435294 0.180392 0.164706
0.486275 0.180392 0.164706
0.545098 0.176471 0.168627
0.603922 0.184314 0.160784
0.662745 0.176471 0.168627
0.721569 0.176471 0.156863
0.784314 0.176471 0.168627
0.831373 0.168627 0.149020
0.890196 0.164706 0.156863
0.933333 0.160784 0.156863
0.972549 0.160784 0.152941
0.992157 0.164706 0.152941
0.992157 0.164706 0.160784
0.129412 0.196078 0.156863
0.141176 0.203922 0.164706
0.149020 0.200000 0.160784
0.156863 0.203922 0.156863
0.180392 0.200000 0.172549
0.188235 0.196078 0.176471
0.207843 0.188235 0.172549
0.239216 0.184314 0.172549
0.250980 0.192157 0.164706
0.286275 0.192157 0.160784
0.321569 0.192157 0.164706
0.360784 0.192157 0.156863
0.407843 0.196078 0.149020
0.462745 0.203922 0.156863
0.513725 0.203922 0.152941
0.560784 0.211765 0.149020
0.635294 0.207843 0.156863
0.686275 0.211765 0.149020
0.749020 0.211765 0.141176
0.807843 0.207843 0.145098
0.862745 0.200000 0.141176
0.913725 0.203922 0.145098
0.960784 0.203922 0.137255
0.996078 0.207843 0.145098
0.996078 0.168627 0.156863
0.337255 0.192157 0.152941
0.101961 0.223529 0.160784
0.149020 0.219608 0.164706
0.160784 0.227451 0.164706
0.168627 0.215686 0.168627
0.192157 0.215686 0.176471
0.215686 0.215686 0.168627
0.235294 0.207843 0.184314
0.262745 0.207843 0.164706
0.282353 0.203922 0.160784
0.317647 0.207843 0.156863
0.356863 0.215686 0.168627
0.403922 0.219608 0.156863
0.462745 0.223529 0.152941
0.517647 0.219608 0.164706
0.572549 0.223529 0.160784
0.627451 0.231373 0.152941
0.694118 0.239216 0.149020
0.749020 0.239216 0.145098
0.807843 0.235294 0.145098
0.862745 0.235294 0.149020
0.909804 0.239216 0.141176
0.952941 0.235294 0.133333
0.992157 0.235294 0.137255
0.996078 0.203922 0.156863
0.305882 0.215686 0.156863
0.082353 0.247059 0.152941
0.141176 0.250980 0.164706
0.160784 0.243137 0.168627
0.176471 0.243137 0.172549
0.192157 0.243137 0.176471
0.223529 0.231373 0.176471
0.247059 0.239216 0.180392
0.270588 0.235294 0.168627
0.305882 0.239216 0.172549
0.337255 0.227451 0.172549
0.360784 0.231373 0.156863
0.403922 0.239216 0.152941
0.458824 0.243137 0.160784
0.517647 0.243137 0.152941
0.568627 0.247059 0.152941
0.627451 0.254902 0.145098
0.686275 0.258824 0.141176
0.752941 0.262745 0.145098
0.811765 0.262745 0.141176
0.866667 0.262745 0.129412
0.909804 0.266667 0.129412
0.964706 0.262745 0.145098
1.000000 0.262745 0.133333
0.992157 0.239216 0.156863
0.313725 0.243137 0.164706
0.062745 0.274510 0.164706
0.129412 0.282353 0.168627
0.156863 0.274510 0.172549
0.176471 0.278431 0.172549
0.200000 0.270588 0.168627
0.235294 0.266667 0.176471
0.254902 0.274510 0.180392
0.278431 0.270588 0.180392
0.321569 0.262745 0.180392
0.345098 0.266667 0.172549
0.376471 0.258824 0.164706
0.403922 0.254902 0.164706
0.462745 0.262745 0.156863
0.505882 0.266667 0.152941
0.560784 0.274510 0.145098
0.631373 0.282353 0.156863
0.694118 0.286275 0.149020
0.752941 0.286275 0.137255
0.819608 0.294118 0.156863
0.866667 0.298039 0.145098
0.913725 0.298039 0.141176
0.952941 0.294118 0.149020
0.996078 0.290196 0.160784
1.000000 0.274510 0.184314
0.278431 0.294118 0.188235
0.070588 0.313725 0.160784
0.113725 0.309804 0.172549
0.152941 0.317647 0.168627
0.176471 0.325490 0.180392
0.203922 0.309804 0.172549
0.227451 0.309804 0.180392
0.254902 0.305882 0.188235
0.298039 0.309804 0.188235
0.325490 0.305882 0.188235
0.356863 0.298039 0.176471
0.411765 0.298039 0.172549
0.431373 0.294118 0.168627
0.458824 0.282353 0.152941
0.505882 0.294118 0.160784
0.556863 0.301961 0.152941
0.623529 0.313725 0.156863
0.686275 0.317647 0.145098
0.745098 0.321569 0.141176
0.807843 0.333333 0.156863
0.870588 0.329412 0.149020
0.913725 0.325490 0.149020
0.960784 0.325490 0.145098
0.988235 0.329412 0.156863
1.000000 0.325490 0.168627
0.003922 0.356863 0.156863
0.000000 0.349020 0.160784
0.054902 0.352941 0.172549
0.094118 0.352941 0.172549
0.137255 0.356863 0.172549
0.172549 0.356863 0.176471
0.211765 0.349020 0.180392
0.247059 0.352941 0.184314
