Luts Download/O & T/teal and orange (2).cube
#Generated with IWLTBAP LUT Generator
#Website: http://luts.iwltbap.com
TITLE "LUT generator-1"
#LUT size
LUT_3D_SIZE 9
#LUT data points
0.149020 0.149020 0.149020
0.164706 0.149020 0.145098
0.219608 0.145098 0.152941
0.294118 0.145098 0.145098
0.419608 0.145098 0.145098
0.576471 0.141176 0.137255
0.760784 0.125490 0.145098
0.917647 0.105882 0.137255
1.000000 0.003922 0.145098
0.266667 0.156863 0.145098
0.168627 0.172549 0.152941
0.227451 0.168627 0.156863
0.301961 0.164706 0.149020
0.431373 0.164706 0.152941
0.592157 0.168627 0.156863
0.772549 0.160784 0.141176
0.929412 0.149020 0.129412
0.996078 0.105882 0.152941
0.337255 0.188235 0.149020
0.164706 0.219608 0.152941
0.211765 0.215686 0.152941
0.294118 0.207843 0.164706
0.403922 0.211765 0.152941
0.572549 0.227451 0.149020
0.752941 0.235294 0.145098
0.909804 0.239216 0.129412
0.992157 0.203922 0.141176
0.278431 0.290196 0.176471
0.156863 0.313725 0.172549
0.239216 0.313725 0.188235
0.325490 0.313725 0.184314
0.431373 0.298039 0.160784
0.556863 0.298039 0.160784
0.741176 0.317647 0.133333
0.909804 0.333333 0.133333
1.000000 0.329412 0.156863
0.415686 0.431373 0.192157
0.007843 0.450980 0.176471
0.203922 0.450980 0.176471
0.337255 0.450980 0.200000
0.478431 0.443137 0.219608
0.611765 0.423529 0.172549
0.709804 0.400000 0.137255
0.874510 0.427451 0.145098
1.000000 0.415686 0.207843
0.003922 0.615686 0.164706
0.000000 0.619608 0.168627
0.027451 0.623529 0.180392
0.321569 0.619608 0.223529
0.494118 0.627451 0.254902
0.650980 0.623529 0.270588
0.792157 0.576471 0.223529
0.866667 0.529412 0.149020
0.996078 0.513725 0.211765
0.431373 0.772549 0.321569
0.007843 0.780392 0.258824
0.047059 0.784314 0.270588
0.352941 0.788235 0.317647
0.525490 0.780392 0.380392
0.690196 0.772549 0.407843
0.803922 0.752941 0.447059
0.913725 0.690196 0.372549
0.996078 0.619608 0.282353
0.619608 0.854902 0.564706
0.278431 0.874510 0.447059
0.360784 0.874510 0.466667
0.478431 0.874510 0.505882
0.600000 0.866667 0.564706
0.705882 0.862745 0.615686
0.803922 0.854902 0.635294
0.874510 0.839216 0.678431
0.968627 0.784314 0.572549
0.682353 0.917647 0.713725
0.607843 0.917647 0.694118
0.619608 0.925490 0.698039
0.678431 0.909804 0.721569
0.733333 0.917647 0.752941
0.788235 0.913725 0.768627
0.835294 0.909804 0.792157
0.886275 0.905882 0.811765
0.909804 0.898039 0.839216
0.141176 0.152941 0.172549
0.156863 0.152941 0.172549
0.203922 0.152941 0.180392
0.301961 0.137255 0.184314
0.439216 0.098039 0.180392
0.603922 0.054902 0.168627
0.796078 0.011765 0.172549
0.945098 0.019608 0.176471
1.000000 0.000000 0.188235
0.274510 0.145098 0.180392
0.172549 0.172549 0.180392
0.192157 0.176471 0.172549
0.298039 0.160784 0.176471
0.439216 0.156863 0.180392
0.607843 0.149020 0.180392
0.780392 0.129412 0.176471
0.952941 0.113725 0.184314
1.000000 0.082353 0.196078
0.329412 0.192157 0.184314
0.141176 0.227451 0.180392
0.203922 0.215686 0.180392
0.278431 0.203922 0.176471
0.411765 0.219608 0.164706
0.564706 0.219608 0.172549
0.752941 0.223529 0.168627
0.921569 0.227451 0.168627
0.992157 0.203922 0.196078
0.262745 0.301961 0.200000
0.098039 0.317647 0.180392
0.211765 0.313725 0.200000
0.325490 0.301961 0.215686
0.431373 0.294118 0.184314
0.572549 0.301961 0.180392
0.760784 0.321569 0.164706
0.921569 0.333333 0.168627
1.000000 0.325490 0.200000
0.411765 0.431373 0.219608
0.000000 0.450980 0.188235
0.160784 0.454902 0.192157
0.337255 0.458824 0.227451
0.478431 0.450980 0.239216
0.603922 0.423529 0.188235
0.721569 0.407843 0.160784
0.890196 0.431373 0.168627
0.996078 0.419608 0.219608
0.000000 0.619608 0.156863
0.007843 0.615686 0.184314
0.007843 0.631373 0.207843
0.294118 0.631373 0.243137
0.474510 0.627451 0.278431
0.647059 0.623529 0.294118
0.780392 0.584314 0.250980
0.858824 0.529412 0.176471
0.996078 0.513725 0.250980
0.427451 0.768627 0.349020
0.007843 0.784314 0.270588
0.003922 0.788235 0.298039
0.325490 0.792157 0.337255
0.513725 0.776471 0.396078
0.686275 0.780392 0.435294
0.800000 0.764706 0.470588
0.917647 0.694118 0.392157
1.000000 0.615686 0.290196
0.627451 0.854902 0.564706
0.266667 0.878431 0.478431
0.352941 0.870588 0.482353
0.470588 0.874510 0.517647
0.592157 0.866667 0.580392
0.709804 0.862745 0.615686
0.807843 0.858824 0.647059
0.870588 0.839216 0.694118
0.984314 0.780392 0.588235
0.658824 0.921569 0.713725
0.596078 0.921569 0.694118
0.635294 0.921569 0.705882
0.678431 0.921569 0.737255
0.725490 0.913725 0.756863
0.796078 0.909804 0.784314
0.835294 0.913725 0.800000
0.886275 0.909804 0.807843
0.898039 0.901961 0.839216
0.121569 0.160784 0.207843
0.141176 0.149020 0.207843
0.200000 0.152941 0.207843
0.278431 0.149020 0.215686
0.411765 0.109804 0.243137
0.588235 0.000000 0.247059
0.792157 0.000000 0.223529
0.952941 0.003922 0.211765
0.996078 0.000000 0.211765
0.262745 0.149020 0.219608
0.129412 0.180392 0.203922
0.200000 0.168627 0.211765
0.274510 0.164706 0.223529
0.407843 0.141176 0.239216
0.596078 0.031373 0.231373
0.784314 0.000000 0.211765
0.952941 0.000000 0.219608
1.000000 0.000000 0.243137
0.337255 0.184314 0.211765
0.101961 0.227451 0.215686
0.164706 0.219608 0.219608
0.262745 0.215686 0.223529
0.411765 0.215686 0.227451
0.588235 0.215686 0.231373
0.764706 0.207843 0.231373
0.925490 0.211765 0.231373
1.000000 0.196078 0.247059
0.231373 0.298039 0.235294
0.000000 0.301961 0.223529
0.121569 0.313725 0.227451
0.290196 0.305882 0.247059
0.411765 0.286275 0.227451
0.580392 0.301961 0.231373
0.768627 0.313725 0.231373
0.921569 0.325490 0.243137
1.000000 0.329412 0.258824
0.384314 0.423529 0.286275
0.011765 0.447059 0.219608
0.000000 0.450980 0.219608
0.274510 0.454902 0.270588
0.447059 0.450980 0.294118
0.580392 0.419608 0.247059
0.721569 0.403922 0.219608
0.894118 0.423529 0.235294
1.000000 0.427451 0.298039
0.000000 0.619608 0.215686
0.000000 0.627451 0.192157
0.003922 0.619608 0.231373
0.188235 0.635294 0.294118
0.454902 0.619608 0.329412
0.631373 0.623529 0.333333
0.760784 0.576471 0.309804
0.862745 0.517647 0.227451
1.000000 0.525490 0.321569
0.380392 0.772549 0.380392
0.003922 0.784314 0.254902
0.000000 0.784314 0.329412
0.266667 0.788235 0.376471
0.505882 0.780392 0.435294
0.662745 0.772549 0.474510
0.796078 0.764706 0.521569
0.901961 0.701961 0.447059
0.996078 0.619608 0.321569
0.615686 0.862745 0.584314
0.141176 0.878431 0.478431
0.313725 0.870588 0.509804
0.439216 0.878431 0.549020
0.584314 0.870588 0.584314
0.701961 0.862745 0.643137
0.803922 0.858824 0.666667
0.866667 0.850980 0.705882
0.956863 0.780392 0.615686
0.658824 0.917647 0.737255
0.596078 0.917647 0.717647
0.627451 0.917647 0.717647
0.658824 0.925490 0.725490
0.729412 0.917647 0.760784
0.780392 0.917647 0.792157
0.835294 0.913725 0.800000
0.878431 0.909804 0.811765
0.901961 0.905882 0.850980
0.047059 0.184314 0.270588
0.070588 0.172549 0.262745
0.149020 0.152941 0.274510
0.254902 0.149020 0.286275
0.372549 0.133333 0.305882
0.541176 0.047059 0.337255
0.749020 0.003922 0.356863
0.945098 0.000000 0.349020
0.992157 0.000000 0.286275
0.231373 0.152941 0.290196
0.031373 0.211765 0.274510
0.125490 0.168627 0.278431
0.258824 0.168627 0.286275
0.376471 0.149020 0.313725
0.549020 0.082353 0.341176
0.752941 0.000000 0.356863
0.949020 0.003922 0.345098
1.000000 0.000000 0.282353
0.317647 0.184314 0.290196
0.000000 0.258824 0.270588
0.062745 0.247059 0.278431
0.243137 0.211765 0.294118
0.372549 0.203922 0.309804
0.556863 0.172549 0.341176
0.760784 0.050980 0.321569
0.933333 0.000000 0.298039
0.996078 0.007843 0.309804
0.098039 0.317647 0.313725
0.003922 0.325490 0.305882
0.000000 0.341176 0.309804
0.196078 0.317647 0.325490
0.392157 0.305882 0.325490
0.580392 0.301961 0.325490
0.772549 0.321569 0.352941
0.925490 0.345098 0.368627
1.000000 0.368627 0.388235
0.207843 0.427451 0.321569
0.000000 0.435294 0.309804
0.003922 0.439216 0.313725
0.000000 0.447059 0.305882
0.396078 0.443137 0.364706
0.541176 0.400000 0.313725
0.733333 0.419608 0.321569
0.898039 0.443137 0.352941
1.000000 0.454902 0.403922
0.007843 0.600000 0.329412
0.000000 0.611765 0.325490
0.000000 0.615686 0.317647
0.003922 0.615686 0.317647
0.368627 0.627451 0.384314
0.596078 0.627451 0.427451
0.741176 0.572549 0.376471
0.854902 0.529412 0.317647
1.000000 0.541176 0.403922
0.000000 0.772549 0.407843
0.003922 0.784314 0.325490
0.000000 0.784314 0.313725
0.000000 0.788235 0.388235
0.439216 0.780392 0.470588
0.635294 0.776471 0.533333
0.776471 0.760784 0.576471
0.886275 0.701961 0.498039
0.988235 0.635294 0.400000
0.541176 0.862745 0.603922
0.007843 0.878431 0.443137
0.000000 0.874510 0.486275
0.403922 0.878431 0.576471
0.552941 0.866667 0.611765
0.682353 0.862745 0.670588
0.788235 0.858824 0.701961
0.862745 0.850980 0.729412
0.960784 0.796078 0.654902
0.647059 0.917647 0.737255
0.490196 0.929412 0.678431
0.572549 0.925490 0.713725
0.654902 0.921569 0.760784
0.717647 0.913725 0.768627
0.776471 0.905882 0.784314
0.823529 0.909804 0.819608
0.878431 0.913725 0.831373
0.894118 0.901961 0.847059
0.000000 0.223529 0.349020
0.003922 0.215686 0.349020
0.007843 0.172549 0.360784
0.207843 0.149020 0.380392
0.372549 0.129412 0.392157
0.505882 0.074510 0.423529
0.705882 0.000000 0.482353
0.901961 0.000000 0.494118
0.996078 0.000000 0.435294
0.007843 0.160784 0.384314
0.000000 0.250980 0.356863
0.000000 0.207843 0.364706
0.188235 0.164706 0.407843
0.380392 0.145098 0.419608
0.525490 0.094118 0.435294
0.709804 0.000000 0.482353
0.917647 0.000000 0.501961
0.996078 0.007843 0.450980
0.239216 0.184314 0.392157
0.000000 0.294118 0.356863
0.007843 0.294118 0.360784
0.043137 0.227451 0.392157
0.352941 0.200000 0.407843
0.513725 0.184314 0.419608
0.709804 0.121569 0.474510
0.917647 0.000000 0.470588
1.000000 0.000000 0.415686
0.007843 0.352941 0.392157
0.003922 0.372549 0.403922
0.000000 0.364706 0.396078
0.000000 0.345098 0.407843
0.345098 0.298039 0.439216
0.541176 0.294118 0.466667
0.756863 0.278431 0.478431
0.929412 0.235294 0.470588
1.000000 0.219608 0.435294
0.000000 0.450980 0.447059
0.011765 0.470588 0.435294
0.000000 0.474510 0.439216
0.000000 0.478431 0.447059
0.223529 0.447059 0.474510
0.521569 0.447059 0.470588
0.749020 0.454902 0.482353
0.901961 0.501961 0.525490
1.000000 0.537255 0.552941
0.000000 0.600000 0.427451
0.000000 0.588235 0.431373
0.000000 0.600000 0.427451
0.003922 0.603922 0.431373
0.000000 0.615686 0.431373
0.525490 0.611765 0.513725
0.698039 0.560784 0.450980
0.862745 0.572549 0.478431
1.000000 0.603922 0.549020
0.000000 0.772549 0.431373
0.000000 0.768627 0.447059
0.003922 0.768627 0.439216
0.007843 0.772549 0.435294
0.003922 0.788235 0.482353
0.580392 0.772549 0.588235
0.756863 0.772549 0.635294
0.850980 0.713725 0.556863
0.984314 0.670588 0.525490
0.439216 0.866667 0.600000
0.000000 0.878431 0.458824
0.003922 0.882353 0.466667
0.007843 0.878431 0.505882
0.478431 0.870588 0.627451
0.666667 0.866667 0.698039
0.780392 0.862745 0.733333
0.850980 0.850980 0.756863
0.952941 0.800000 0.670588
0.482353 0.929412 0.678431
0.176471 0.937255 0.619608
0.360784 0.933333 0.647059
0.556863 0.929412 0.709804
0.694118 0.921569 0.772549
0.768627 0.909804 0.800000
0.827451 0.913725 0.831373
0.874510 0.909804 0.843137
0.901961 0.901961 0.854902
0.003922 0.286275 0.474510
0.003922 0.286275 0.474510
0.000000 0.250980 0.490196
0.003922 0.160784 0.505882
0.321569 0.109804 0.549020
0.517647 0.043137 0.564706
0.686275 0.000000 0.576471
0.866667 0.007843 0.623529
1.000000 0.003922 0.603922
0.000000 0.254902 0.521569
0.000000 0.325490 0.474510
0.000000 0.282353 0.501961
0.000000 0.192157 0.525490
0.301961 0.129412 0.564706
0.533333 0.082353 0.588235
0.701961 0.003922 0.592157
0.894118 0.003922 0.619608
1.000000 0.003922 0.603922
0.003922 0.239216 0.521569
0.000000 0.364706 0.462745
0.011765 0.345098 0.494118
0.003922 0.298039 0.505882
0.203922 0.203922 0.556863
0.505882 0.188235 0.560784
0.678431 0.129412 0.588235
0.882353 0.000000 0.619608
1.000000 0.003922 0.584314
0.000000 0.431373 0.509804
0.011765 0.435294 0.513725
0.000000 0.431373 0.509804
0.003922 0.407843 0.537255
0.000000 0.298039 0.580392
0.521569 0.298039 0.607843
0.713725 0.274510 0.615686
0.894118 0.270588 0.631373
1.000000 0.254902 0.596078
0.003922 0.501961 0.560784
0.000000 0.529412 0.545098
0.003922 0.529412 0.556863
0.000000 0.517647 0.568627
0.000000 0.498039 0.580392
0.443137 0.431373 0.607843
0.709804 0.443137 0.635294
0.882353 0.454902 0.639216
1.000000 0.439216 0.588235
0.000000 0.639216 0.564706
0.000000 0.635294 0.572549
0.000000 0.643137 0.576471
0.003922 0.647059 0.584314
0.011765 0.647059 0.623529
0.305882 0.619608 0.623529
0.694118 0.619608 0.643137
0.850980 0.647059 0.662745
0.960784 0.690196 0.701961
0.000000 0.764706 0.576471
0.000000 0.760784 0.592157
0.000000 0.768627 0.568627
0.000000 0.764706 0.568627
0.000000 0.772549 0.584314
0.345098 0.776471 0.623529
0.709804 0.764706 0.705882
0.843137 0.705882 0.619608
0.941176 0.733333 0.670588
0.000000 0.874510 0.580392
0.000000 0.882353 0.545098
0.000000 0.882353 0.537255
0.003922 0.878431 0.552941
0.003922 0.870588 0.588235
0.556863 0.866667 0.690196
0.756863 0.858824 0.752941
0.831373 0.858824 0.788235
0.941176 0.800000 0.705882
0.000000 0.952941 0.607843
0.000000 0.949020 0.576471
0.007843 0.949020 0.584314
0.141176 0.949020 0.654902
0.537255 0.929412 0.725490
0.749020 0.917647 0.807843
0.811765 0.921569 0.835294
0.874510 0.905882 0.847059
0.901961 0.909804 0.866667
0.000000 0.368627 0.639216
0.000000 0.380392 0.627451
0.007843 0.349020 0.650980
0.000000 0.262745 0.670588
0.000000 0.129412 0.709804
0.474510 0.003922 0.729412
0.686275 0.000000 0.733333
0.862745 0.000000 0.737255
1.000000 0.003922 0.725490
0.003922 0.352941 0.658824
0.000000 0.415686 0.650980
0.000000 0.388235 0.662745
0.003922 0.309804 0.686275
0.000000 0.149020 0.709804
0.454902 0.047059 0.733333
0.694118 0.003922 0.741176
0.866667 0.003922 0.749020
1.000000 0.000000 0.733333
0.000000 0.360784 0.662745
0.000000 0.458824 0.627451
0.000000 0.439216 0.635294
0.000000 0.392157 0.666667
0.000000 0.239216 0.698039
0.388235 0.156863 0.721569
0.678431 0.133333 0.733333
0.854902 0.000000 0.737255
1.000000 0.003922 0.705882
0.011765 0.501961 0.658824
0.003922 0.517647 0.658824
0.000000 0.505882 0.658824
0.000000 0.478431 0.670588
0.003922 0.380392 0.717647
0.349020 0.266667 0.741176
0.686275 0.294118 0.772549
0.870588 0.258824 0.756863
1.000000 0.282353 0.745098
0.000000 0.568627 0.690196
0.007843 0.600000 0.674510
0.000000 0.588235 0.682353
0.000000 0.572549 0.694118
0.000000 0.537255 0.709804
0.082353 0.411765 0.749020
0.662745 0.458824 0.752941
0.854902 0.447059 0.756863
1.000000 0.466667 0.717647
0.000000 0.705882 0.709804
0.007843 0.701961 0.701961
0.003922 0.698039 0.705882
0.003922 0.686275 0.717647
0.007843 0.670588 0.721569
0.000000 0.639216 0.717647
0.600000 0.603922 0.776471
0.827451 0.631373 0.768627
0.968627 0.639216 0.741176
0.000000 0.792157 0.729412
0.003922 0.800000 0.721569
0.000000 0.803922 0.721569
0.003922 0.803922 0.729412
0.000000 0.807843 0.737255
0.000000 0.807843 0.760784
0.572549 0.768627 0.756863
0.807843 0.772549 0.784314
0.905882 0.807843 0.792157
0.000000 0.870588 0.678431
0.000000 0.882353 0.670588
0.000000 0.886275 0.666667
0.000000 0.882353 0.670588
0.003922 0.874510 0.682353
0.003922 0.878431 0.694118
0.647059 0.866667 0.760784
0.827451 0.866667 0.831373
0.921569 0.835294 0.784314
0.003922 0.952941 0.643137
0.003922 0.956863 0.635294
0.000000 0.952941 0.631373
0.003922 0.952941 0.650980
0.000000 0.945098 0.698039
0.564706 0.921569 0.752941
0.788235 0.909804 0.847059
0.862745 0.909804 0.862745
0.898039 0.909804 0.882353
0.007843 0.450980 0.796078
0.007843 0.450980 0.796078
0.007843 0.450980 0.803922
0.000000 0.380392 0.800000
0.000000 0.200000 0.835294
0.235294 0.043137 0.850980
0.623529 0.000000 0.850980
0.827451 0.000000 0.854902
1.000000 0.000000 0.843137
0.000000 0.466667 0.811765
0.000000 0.490196 0.800000
0.000000 0.478431 0.803922
0.003922 0.415686 0.815686
0.000000 0.254902 0.827451
0.180392 0.098039 0.847059
0.611765 0.000000 0.862745
0.831373 0.003922 0.870588
1.000000 0.000000 0.854902
0.003922 0.443137 0.811765
0.000000 0.529412 0.788235
0.000000 0.529412 0.788235
0.000000 0.486275 0.800000
0.000000 0.368627 0.815686
0.000000 0.184314 0.850980
0.552941 0.121569 0.854902
0.807843 0.109804 0.854902
0.992157 0.000000 0.819608
0.000000 0.592157 0.784314
0.007843 0.592157 0.788235
0.003922 0.588235 0.788235
0.003922 0.549020 0.811765
0.000000 0.466667 0.823529
0.000000 0.270588 0.847059
0.533333 0.262745 0.870588
0.807843 0.313725 0.854902
0.984314 0.262745 0.850980
0.003922 0.615686 0.803922
0.000000 0.658824 0.803922
0.000000 0.654902 0.800000
0.000000 0.631373 0.811765
0.000000 0.584314 0.823529
0.000000 0.474510 0.831373
0.474510 0.403922 0.866667
0.788235 0.486275 0.862745
0.980392 0.454902 0.843137
0.003922 0.741176 0.815686
0.003922 0.741176 0.815686
0.003922 0.733333 0.815686
0.000000 0.721569 0.811765
0.000000 0.690196 0.823529
0.000000 0.650980 0.823529
0.364706 0.576471 0.858824
0.772549 0.654902 0.858824
0.933333 0.647059 0.854902
0.000000 0.819608 0.835294
0.007843 0.827451 0.835294
0.000000 0.831373 0.815686
0.000000 0.819608 0.835294
0.003922 0.811765 0.835294
0.000000 0.780392 0.839216
0.325490 0.756863 0.847059
0.768627 0.776471 0.862745
0.905882 0.784314 0.843137
0.000000 0.909804 0.823529
0.007843 0.913725 0.811765
0.003922 0.905882 0.823529
0.007843 0.913725 0.811765
0.007843 0.909804 0.831373
0.000000 0.898039 0.827451
0.427451 0.878431 0.847059
0.756863 0.850980 0.858824
0.905882 0.874510 0.874510
0.007843 0.960784 0.764706
0.011765 0.960784 0.752941
0.003922 0.964706 0.760784
0.000000 0.960784 0.756863
0.007843 0.956863 0.760784
0.000000 0.960784 0.784314
0.600000 0.921569 0.823529
0.835294 0.913725 0.878431
0.890196 0.913725 0.898039
0.003922 0.490196 0.898039
0.003922 0.490196 0.898039
0.007843 0.494118 0.901961
0.000000 0.466667 0.905882
0.000000 0.352941 0.909804
0.007843 0.117647 0.933333
0.403922 0.000000 0.925490
0.717647 0.000000 0.917647
0.960784 0.000000 0.929412
0.003922 0.501961 0.913725
0.003922 0.509804 0.905882
0.000000 0.513725 0.909804
0.000000 0.498039 0.901961
0.000000 0.376471 0.917647
0.007843 0.137255 0.933333
0.392157 0.000000 0.933333
0.705882 0.000000 0.929412
0.933333 0.000000 0.925490
0.003922 0.509804 0.905882
0.003922 0.552941 0.894118
0.003922 0.549020 0.905882
0.000000 0.541176 0.898039
0.000000 0.462745 0.909804
0.003922 0.247059 0.925490
0.278431 0.086275 0.929412
0.678431 0.078431 0.921569
0.945098 0.003922 0.933333
0.000000 0.592157 0.901961
0.003922 0.596078 0.901961
0.000000 0.600000 0.901961
0.003922 0.596078 0.905882
0.000000 0.525490 0.913725
0.000000 0.364706 0.917647
0.196078 0.211765 0.929412
0.674510 0.258824 0.933333
0.890196 0.321569 0.921569
0.003922 0.658824 0.905882
0.000000 0.666667 0.898039
0.003922 0.658824 0.901961
0.003922 0.658824 0.901961
0.000000 0.619608 0.905882
0.007843 0.521569 0.913725
0.000000 0.341176 0.933333
0.647059 0.400000 0.921569
0.917647 0.466667 0.933333
0.000000 0.741176 0.898039
0.000000 0.741176 0.898039
0.003922 0.737255 0.905882
0.000000 0.729412 0.909804
0.000000 0.713725 0.898039
0.003922 0.658824 0.905882
0.007843 0.564706 0.917647
0.607843 0.572549 0.929412
0.909804 0.647059 0.917647
0.003922 0.819608 0.905882
0.003922 0.831373 0.905882
0.000000 0.819608 0.905882
0.000000 0.811765 0.905882
0.000000 0.803922 0.901961
0.003922 0.760784 0.913725
0.003922 0.725490 0.905882
0.647059 0.733333 0.929412
0.882353 0.784314 0.905882
0.000000 0.917647 0.901961
0.000000 0.933333 0.909804
0.003922 0.933333 0.901961
0.003922 0.933333 0.901961
0.007843 0.925490 0.913725
0.003922 0.909804 0.909804
0.003922 0.874510 0.909804
0.627451 0.862745 0.905882
0.882353 0.870588 0.913725
0.000000 0.984314 0.854902
0.000000 0.984314 0.843137
0.000000 0.984314 0.854902
0.000000 0.984314 0.847059
0.003922 0.980392 0.843137
0.000000 0.972549 0.858824
0.309804 0.952941 0.878431
0.760784 0.925490 0.909804
0.882353 0.917647 0.913725
