Luts Download/O & T/teal and orange (1).3DL
#Created by: Adobe Photoshop Export Color Lookup Plugin
#Description: TEAL AND ORANGE
0 26 52 79 105 131 157 184 210 236 262 289 315 341 367 393 420 446 472 498 525 551 577 603 630 656 682 708 734 761 787 813 839 866 892 918 944 971 997 1023
7 14 38
7 14 38
7 14 38
7 14 38
7 14 38
7 14 38
7 14 38
7 14 38
7 14 38
7 14 38
7 14 38
7 14 38
7 14 38
7 14 38
7 14 38
7 14 38
7 14 38
7 14 38
7 14 38
7 14 38
7 14 38
7 14 38
7 14 38
7 14 38
7 14 38
7 14 38
7 14 38
7 14 38
7 14 38
7 14 38
7 14 38
7 14 38
7 14 38
7 14 38
7 14 38
7 14 38
7 14 38
7 14 38
7 14 38
7 14 38
7 95 120
7 95 120
7 95 120
7 95 120
7 95 120
7 95 120
7 95 120
7 95 120
7 95 120
7 95 120
7 95 120
7 95 120
7 95 120
7 95 120
7 95 120
7 95 120
7 95 120
7 95 120
7 95 120
7 95 120
7 95 120
7 95 120
7 95 120
7 95 120
7 95 120
7 95 120
7 95 120
7 95 120
7 95 120
7 95 120
7 95 120
7 95 120
7 95 120
7 95 120
7 95 120
7 95 120
7 95 120
7 95 120
7 95 120
7 95 120
6 178 203
6 178 203
6 178 203
6 178 203
6 178 203
6 178 203
6 178 203
6 178 203
6 178 203
6 178 203
6 178 203
6 178 203
6 178 203
6 178 203
6 178 203
6 178 203
6 178 203
6 178 203
6 178 203
6 178 203
6 178 203
6 178 203
6 178 203
6 178 203
6 178 203
6 178 203
6 178 203
6 178 203
6 178 203
6 178 203
6 178 203
6 178 203
6 178 203
6 178 203
6 178 203
6 178 203
6 178 203
6 178 203
6 178 203
6 178 203
6 261 289
6 261 289
6 261 289
6 261 289
6 261 289
6 261 289
6 261 289
6 261 289
6 261 289
6 261 289
6 261 289
6 261 289
6 261 289
6 261 289
6 261 289
6 261 289
6 261 289
6 261 289
6 261 289
6 261 289
6 261 289
6 261 289
6 261 289
6 261 289
6 261 289
6 261 289
6 261 289
6 261 289
6 261 289
6 261 289
6 261 289
6 261 289
6 261 289
6 261 289
6 261 289
6 261 289
6 261 289
6 261 289
6 261 289
6 261 289
6 347 376
6 347 376
6 347 376
6 347 376
6 347 376
6 347 376
6 347 376
6 347 376
6 347 376
6 347 376
6 347 376
6 347 376
6 347 376
6 347 376
6 347 376
6 347 376
6 347 376
6 347 376
6 347 376
6 347 376
6 347 376
6 347 376
6 347 376
6 347 376
6 347 376
6 347 376
6 347 376
6 347 376
6 347 376
6 347 376
6 347 376
6 347 376
6 347 376
6 347 376
6 347 376
6 347 376
6 347 376
6 347 376
6 347 376
6 347 376
5 434 467
5 434 467
5 434 467
5 434 467
5 434 467
5 434 467
5 434 467
5 434 467
5 434 467
5 434 467
5 434 467
5 434 467
5 434 467
5 434 467
5 434 467
5 434 467
5 434 467
5 434 467
5 434 467
5 434 467
5 434 467
5 434 467
5 434 467
5 434 467
5 434 467
5 434 467
5 434 467
5 434 467
5 434 467
5 434 467
5 434 467
5 434 467
5 434 467
5 434 467
5 434 467
5 434 467
5 434 467
5 434 467
5 434 467
5 434 467
5 524 561
5 524 561
5 524 561
5 524 561
5 524 561
5 524 561
5 524 561
5 524 561
5 524 561
5 524 561
5 524 561
5 524 561
5 524 561
5 524 561
5 524 561
5 524 561
5 524 561
5 524 561
5 524 561
5 524 561
5 524 561
5 524 561
5 524 561
5 524 561
5 524 561
5 524 561
5 524 561
5 524 561
5 524 561
5 524 561
5 524 561
5 524 561
5 524 561
5 524 561
5 524 561
5 524 561
5 524 561
5 524 561
5 524 561
5 524 561
4 618 661
4 618 661
4 618 661
4 618 661
4 618 661
4 618 661
4 618 661
4 618 661
4 618 661
4 618 661
4 618 661
4 618 661
4 618 661
4 618 661
4 618 661
4 618 661
4 618 661
4 618 661
4 618 661
4 618 661
4 618 661
4 618 661
4 618 661
4 618 661
4 618 661
4 618 661
4 618 661
4 618 661
4 618 661
4 618 661
4 618 661
4 618 661
4 618 661
4 618 661
4 618 661
4 618 661
4 618 661
4 618 661
4 618 661
4 618 661
4 716 766
4 716 766
4 716 766
4 716 766
4 716 766
4 716 766
4 716 766
4 716 766
4 716 766
4 716 766
4 716 766
4 716 766
4 716 766
4 716 766
4 716 766
4 716 766
4 716 766
4 716 766
4 716 766
4 716 766
4 716 766
4 716 766
4 716 766
4 716 766
4 716 766
4 716 766
4 716 766
4 716 766
4 716 766
4 716 766
4 716 766
4 716 766
4 716 766
4 716 766
4 716 766
4 716 766
4 716 766
4 716 766
4 716 766
4 716 766
3 818 877
3 818 877
3 818 877
3 818 877
3 818 877
3 818 877
3 818 877
3 818 877
3 818 877
3 818 877
3 818 877
3 818 877
3 818 877
3 818 877
3 818 877
3 818 877
3 818 877
3 818 877
3 818 877
3 818 877
3 818 877
3 818 877
3 818 877
3 818 877
3 818 877
3 818 877
3 818 877
3 818 877
3 818 877
3 818 877
3 818 877
3 818 877
3 818 877
3 818 877
3 818 877
3 818 877
3 818 877
3 818 877
3 818 877
3 818 877
2 923 992
2 923 992
2 923 992
2 923 992
2 923 992
2 923 992
2 923 992
2 923 992
2 923 992
2 923 992
2 923 992
2 923 992
2 923 992
2 923 992
2 923 992
2 923 992
2 923 992
2 923 992
2 923 992
2 923 992
2 923 992
2 923 992
2 923 992
2 923 992
2 923 992
2 923 992
2 923 992
2 923 992
2 923 992
2 923 992
2 923 992
2 923 992
2 923 992
2 923 992
2 923 992
2 923 992
2 923 992
2 923 992
2 923 992
2 923 992
2 1033 1112
2 1033 1112
2 1033 1112
2 1033 1112
2 1033 1112
2 1033 1112
2 1033 1112
2 1033 1112
2 1033 1112
2 1033 1112
2 1033 1112
2 1033 1112
2 1033 1112
2 1033 1112
2 1033 1112
2 1033 1112
2 1033 1112
2 1033 1112
2 1033 1112
2 1033 1112
2 1033 1112
2 1033 1112
2 1033 1112
2 1033 1112
2 1033 1112
2 1033 1112
2 1033 1112
2 1033 1112
2 1033 1112
2 1033 1112
2 1033 1112
2 1033 1112
2 1033 1112
2 1033 1112
2 1033 1112
2 1033 1112
2 1033 1112
2 1033 1112
2 1033 1112
2 1033 1112
1 1146 1236
1 1146 1236
1 1146 1236
1 1146 1236
1 1146 1236
1 1146 1236
1 1146 1236
1 1146 1236
1 1146 1236
1 1146 1236
1 1146 1236
1 1146 1236
1 1146 1236
1 1146 1236
1 1146 1236
1 1146 1236
1 1146 1236
1 1146 1236
1 1146 1236
1 1146 1236
1 1146 1236
1 1146 1236
1 1146 1236
1 1146 1236
1 1146 1236
1 1146 1236
1 1146 1236
1 1146 1236
1 1146 1236
1 1146 1236
1 1146 1236
1 1146 1236
1 1146 1236
1 1146 1236
1 1146 1236
1 1146 1236
1 1146 1236
1 1146 1236
1 1146 1236
1 1146 1236
0 1263 1363
0 1263 1363
0 1263 1363
0 1263 1363
0 1263 1363
0 1263 1363
0 1263 1363
0 1263 1363
0 1263 1363
0 1263 1363
0 1263 1363
0 1263 1363
0 1263 1363
0 1263 1363
0 1263 1363
0 1263 1363
0 1263 1363
0 1263 1363
0 1263 1363
0 1263 1363
0 1263 1363
0 1263 1363
0 1263 1363
0 1263 1363
0 1263 1363
0 1263 1363
0 1263 1363
0 1263 1363
0 1263 1363
0 1263 1363
0 1263 1363
0 1263 1363
0 1263 1363
0 1263 1363
0 1263 1363
0 1263 1363
0 1263 1363
0 1263 1363
0 1263 1363
0 1263 1363
0 1383 1495
0 1383 1495
0 1383 1495
0 1383 1495
0 1383 1495
0 1383 1495
0 1383 1495
0 1383 1495
0 1383 1495
0 1383 1495
0 1383 1495
0 1383 1495
0 1383 1495
0 1383 1495
0 1383 1495
0 1383 1495
0 1383 1495
0 1383 1495
0 1383 1495
0 1383 1495
0 1383 1495
0 1383 1495
0 1383 1495
0 1383 1495
0 1383 1495
0 1383 1495
0 1383 1495
0 1383 1495
0 1383 1495
0 1383 1495
0 1383 1495
0 1383 1495
0 1383 1495
0 1383 1495
0 1383 1495
0 1383 1495
0 1383 1495
0 1383 1495
0 1383 1495
0 1383 1495
0 1506 1628
0 1506 1628
0 1506 1628
0 1506 1628
0 1506 1628
0 1506 1628
0 1506 1628
0 1506 1628
0 1506 1628
0 1506 1628
0 1506 1628
0 1506 1628
0 1506 1628
0 1506 1628
0 1506 1628
0 1506 1628
0 1506 1628
0 1506 1628
0 1506 1628
0 1506 1628
0 1506 1628
0 1506 1628
0 1506 1628
0 1506 1628
0 1506 1628
0 1506 1628
0 1506 1628
0 1506 1628
0 1506 1628
0 1506 1628
0 1506 1628
0 1506 1628
0 1506 1628
0 1506 1628
0 1506 1628
0 1506 1628
0 1506 1628
0 1506 1628
0 1506 1628
0 1506 1628
0 1630 1762
0 1630 1762
0 1630 1762
0 1630 1762
0 1630 1762
0 1630 1762
0 1630 1762
0 1630 1762
0 1630 1762
0 1630 1762
0 1630 1762
0 1630 1762
0 1630 1762
0 1630 1762
0 1630 1762
0 1630 1762
0 1630 1762
0 1630 1762
0 1630 1762
0 1630 1762
0 1630 1762
0 1630 1762
0 1630 1762
0 1630 1762
0 1630 1762
0 1630 1762
0 1630 1762
0 1630 1762
0 1630 1762
0 1630 1762
0 1630 1762
0 1630 1762
0 1630 1762
0 1630 1762
0 1630 1762
0 1630 1762
0 1630 1762
0 1630 1762
0 1630 1762
0 1630 1762
0 1755 1895
0 1755 1895
0 1755 1895
0 1755 1895
0 1755 1895
0 1755 1895
0 1755 1895
0 1755 1895
0 1755 1895
0 1755 1895
0 1755 1895
0 1755 1895
0 1755 1895
0 1755 1895
0 1755 1895
0 1755 1895
0 1755 1895
0 1755 1895
0 1755 1895
0 1755 1895
0 1755 1895
0 1755 1895
0 1755 1895
0 1755 1895
0 1755 1895
0 1755 1895
0 1755 1895
0 1755 1895
0 1755 1895
0 1755 1895
0 1755 1895
0 1755 1895
0 1755 1895
0 1755 1895
0 1755 1895
0 1755 1895
0 1755 1895
0 1755 1895
0 1755 1895
0 1755 1895
0 1881 2026
0 1881 2026
0 1881 2026
0 1881 2026
0 1881 2026
0 1881 2026
0 1881 2026
0 1881 2026
0 1881 2026
0 1881 2026
0 1881 2026
0 1881 2026
0 1881 2026
0 1881 2026
0 1881 2026
0 1881 2026
0 1881 2026
0 1881 2026
0 1881 2026
0 1881 2026
0 1881 2026
0 1881 2026
0 1881 2026
0 1881 2026
0 1881 2026
0 1881 2026
0 1881 2026
0 1881 2026
0 1881 2026
0 1881 2026
0 1881 2026
0 1881 2026
0 1881 2026
0 1881 2026
0 1881 2026
0 1881 2026
0 1881 2026
0 1881 2026
0 1881 2026
0 1881 2026
0 2007 2154
0 2007 2154
0 2007 2154
0 2007 2154
0 2007 2154
0 2007 2154
0 2007 2154
0 2007 2154
0 2007 2154
0 2007 2154
0 2007 2154
0 2007 2154
0 2007 2154
0 2007 2154
0 2007 2154
0 2007 2154
0 2007 2154
0 2007 2154
0 2007 2154
0 2007 2154
0 2007 2154
0 2007 2154
0 2007 2154
0 2007 2154
0 2007 2154
0 2007 2154
0 2007 2154
0 2007 2154
0 2007 2154
0 2007 2154
0 2007 2154
0 2007 2154
0 2007 2154
0 2007 2154
0 2007 2154
0 2007 2154
0 2007 2154
0 2007 2154
0 2007 2154
0 2007 2154
0 2133 2279
0 2133 2279
0 2133 2279
0 2133 2279
0 2133 2279
0 2133 2279
0 2133 2279
0 2133 2279
0 2133 2279
0 2133 2279
0 2133 2279
0 2133 2279
0 2133 2279
0 2133 2279
0 2133 2279
0 2133 2279
0 2133 2279
0 2133 2279
0 2133 2279
0 2133 2279
0 2133 2279
0 2133 2279
0 2133 2279
0 2133 2279
0 2133 2279
0 2133 2279
0 2133 2279
0 2133 2279
0 2133 2279
0 2133 2279
0 2133 2279
0 2133 2279
0 2133 2279
0 2133 2279
0 2133 2279
0 2133 2279
0 2133 2279
0 2133 2279
0 2133 2279
0 2133 2279
0 2258 2402
0 2258 2402
0 2258 2402
0 2258 2402
0 2258 2402
0 2258 2402
0 2258 2402
0 2258 2402
0 2258 2402
0 2258 2402
0 2258 2402
0 2258 2402
0 2258 2402
0 2258 2402
0 2258 2402
0 2258 2402
0 2258 2402
0 2258 2402
0 2258 2402
0 2258 2402
0 2258 2402
0 2258 2402
0 2258 2402
0 2258 2402
0 2258 2402
0 2258 2402
0 2258 2402
0 2258 2402
0 2258 2402
0 2258 2402
0 2258 2402
0 2258 2402
0 2258 2402
0 2258 2402
0 2258 2402
0 2258 2402
0 2258 2402
0 2258 2402
0 2258 2402
0 2258 2402
0 2382 2521
0 2382 2521
0 2382 2521
0 2382 2521
0 2382 2521
0 2382 2521
0 2382 2521
0 2382 2521
0 2382 2521
0 2382 2521
0 2382 2521
0 2382 2521
0 2382 2521
0 2382 2521
0 2382 2521
0 2382 2521
0 2382 2521
0 2382 2521
0 2382 2521
0 2382 2521
