Luts Download/Canon Luts/3dlut/33grid-3dlut/full-to-full-range/BT2020_CanonLog2-to-BT709_WideDR_33_FF_Ver.2.0.cube
# Gamut : BT.2020 to BT.709
# Gamma : Canon Log 2 to Wide DR
# Range : Full in / Full out
# Version : 2.0 2019/10/24
# Copyright(c) 2019 Canon Inc. All Rights Reserved.
LUT_3D_SIZE 5
# LUT_3D_INPUT_RANGE 0.0 1.0
0.00000000 0.00000000 0.00000000
0.17468044 0.00000000 0.00895197
0.69897493 0.00000000 0.03981391
1.00000000 0.16759989 0.08933383
1.00000000 0.70229445 0.60714768
0.00000000 0.13857118 0.02959625
0.15014323 0.14634882 0.00000000
0.73773273 0.06629135 0.00303806
1.00000000 0.24153951 0.14301481
1.00000000 0.72401234 0.63382202
0.00000000 0.60511825 0.18969497
0.00000000 0.61768521 0.13670890
0.62811425 0.62823554 0.00867045
1.00000000 0.59284639 0.43766559
1.00000000 0.89413304 0.84728330
0.01064862 0.92765520 0.27601832
0.01605640 0.93587068 0.27296040
0.28142293 0.99423883 0.30392504
0.94759725 0.97384234 0.44688500
1.00000000 1.00000000 1.00000000
1.00000000 1.00000000 1.00000000
1.00000000 1.00000000 1.00000000
1.00000000 1.00000000 1.00000000
1.00000000 1.00000000 1.00000000
1.00000000 1.00000000 1.00000000
0.00000000 0.01017636 0.08943502
0.17326349 0.00271700 0.13195436
0.69243831 0.00672024 0.17197134
0.99686079 0.18359966 0.14293570
1.00000000 0.71367421 0.62272244
0.00000000 0.13862623 0.13114012
0.14520997 0.14520997 0.14520997
0.74488836 0.04959040 0.14314413
0.99683782 0.25409825 0.18880746
1.00000000 0.73548744 0.64937268
0.00000000 0.59728375 0.26318191
0.00000000 0.61093362 0.22853844
0.63036536 0.62306690 0.06971779
1.00000000 0.59995677 0.46582597
1.00000000 0.90887898 0.86634220
0.01684138 0.92789642 0.29374207
0.01679822 0.93598711 0.29083939
0.29729292 0.99370613 0.33108698
0.94856338 0.97394838 0.46720952
1.00000000 1.00000000 1.00000000
1.00000000 1.00000000 1.00000000
1.00000000 1.00000000 1.00000000
1.00000000 1.00000000 1.00000000
1.00000000 1.00000000 1.00000000
1.00000000 1.00000000 1.00000000
0.00000000 0.14599749 0.34142763
0.07113847 0.06298511 0.56508367
0.70582657 0.00873089 0.57492687
1.00000000 0.24306625 0.38364443
1.00000000 0.75660447 0.69473957
0.00000000 0.20965829 0.39685948
0.03319770 0.17634844 0.58054071
0.73608425 0.05599944 0.61112499
1.00000000 0.29876228 0.41013953
1.00000000 0.77965055 0.72161117
0.00000000 0.59746821 0.57398560
0.00000000 0.60928182 0.58601576
0.61787795 0.61787795 0.61787795
0.99501324 0.64066446 0.63046457
1.00000000 0.96822583 0.94598565
0.12597152 0.93393203 0.46042928
0.15579556 0.94034108 0.46613890
0.48707362 0.97696958 0.57288837
0.96775215 0.98287498 0.56411800
1.00000000 1.00000000 1.00000000
1.00000000 1.00000000 1.00000000
1.00000000 1.00000000 1.00000000
1.00000000 1.00000000 1.00000000
1.00000000 1.00000000 1.00000000
1.00000000 1.00000000 1.00000000
0.00000000 0.27419437 0.46882119
0.00000000 0.28946252 0.51766022
0.28684157 0.30979345 0.98501531
0.99468781 0.26902685 0.81318009
1.00000000 0.78768415 0.81025695
0.00000000 0.31117692 0.52719213
0.00000000 0.32507909 0.57934560
0.30375125 0.35765331 0.98015125
0.99513056 0.32252046 0.81824713
1.00000000 0.81076367 0.83055744
0.06003317 0.58416927 0.89216786
0.09092524 0.59234973 0.91611010
0.49017401 0.65047611 0.95802923
1.00000000 0.65090233 0.88532422
1.00000000 1.00000000 1.00000000
0.00000000 0.93560823 0.90004885
0.00000000 0.94182768 0.90641050
0.46944444 0.97492959 0.94737929
0.97244176 0.97244176 0.97244176
1.00000000 1.00000000 1.00000000
1.00000000 1.00000000 1.00000000
1.00000000 1.00000000 1.00000000
1.00000000 1.00000000 1.00000000
1.00000000 1.00000000 1.00000000
1.00000000 1.00000000 1.00000000
0.00047677 0.50171204 0.78110436
0.00000000 0.51210732 0.80105635
0.00000000 0.60746918 0.99073353
0.57196374 0.66488058 1.00000000
1.00000000 0.90405640 1.00000000
0.00000000 0.52227564 0.81608934
0.00000000 0.53419952 0.83950479
0.00275093 0.62678386 1.00000000
0.59204681 0.68374529 1.00000000
1.00000000 0.92400995 1.00000000
0.18124155 0.70905147 1.00000000
0.20918273 0.71744201 1.00000000
0.45090753 0.78630786 1.00000000
0.77734631 0.84336772 1.00000000
1.00000000 1.00000000 1.00000000
0.70991125 0.90452400 1.00000000
0.72628573 0.91019170 1.00000000
0.86690771 0.96120610 1.00000000
1.00000000 1.00000000 1.00000000
1.00000000 1.00000000 1.00000000
1.00000000 1.00000000 1.00000000
1.00000000 1.00000000 1.00000000
1.00000000 1.00000000 1.00000000
1.00000000 1.00000000 1.00000000
1.00000000 1.00000000 1.00000000
