Luts Download/Canon Luts/3dlut/33grid-3dlut/full-to-full-range/BT2020_CanonLog3-to-BT2020_709WideDR_33_FF_Ver.2.0.cube
# Gamut : BT.2020 to BT.2020
# Gamma : Canon Log 3 to Wide DR
# Range : Full in / Full out
# Version : 2.0 2019/10/24
# Copyright(c) 2019 Canon Inc. All Rights Reserved.
LUT_3D_SIZE 33
# LUT_3D_INPUT_RANGE 0.0 1.0
0.00000000 0.00000000 0.00000000
0.00000000 0.00000000 0.00000000
0.00000000 0.00000000 0.00000000
0.00000000 0.00000000 0.00000000
0.00000000 0.00000000 0.00000000
0.06715463 0.00026731 0.00025122
0.12737075 0.00028479 0.00013330
0.16615604 0.01137460 0.01050016
0.22180183 0.01228011 0.01068423
0.27656665 0.01345629 0.01083477
0.33123964 0.01539577 0.01129749
0.38626620 0.01859783 0.01233120
0.44201544 0.02341246 0.01396761
0.49483339 0.02970724 0.01532693
0.54236071 0.03744814 0.01561310
0.58584512 0.04736717 0.01517802
0.62593451 0.05968834 0.01403185
0.66253921 0.07537634 0.01285278
0.69578125 0.09396143 0.01173963
0.72593084 0.11299197 0.01039478
0.75285864 0.13230410 0.00922482
0.77667111 0.15144172 0.00825568
0.79753222 0.17002165 0.00748138
0.81566965 0.18775426 0.00688452
0.83141696 0.20440079 0.00638201
0.84519846 0.21982517 0.00588963
0.85754196 0.23399635 0.00533960
0.86912734 0.24694834 0.00462794
0.88084789 0.25873731 0.00353629
0.89391528 0.26935456 0.00155957
0.90985903 0.27877512 0.00000000
0.93019434 0.28738623 0.00000000
0.95626115 0.29621013 0.00000000
0.00000000 0.00000000 0.00000000
0.00000000 0.00000000 0.00000000
0.00000000 0.00000000 0.00000000
0.00000000 0.00000000 0.00000000
0.00000000 0.00000000 0.00000000
0.06715463 0.00026731 0.00025122
0.12737075 0.00028479 0.00013330
0.16615604 0.01137460 0.01050016
0.22180183 0.01228011 0.01068423
0.27656665 0.01345629 0.01083477
0.33123964 0.01539577 0.01129749
0.38626620 0.01859783 0.01233120
0.44201544 0.02341246 0.01396761
0.49483339 0.02970724 0.01532693
0.54236071 0.03744814 0.01561310
0.58584512 0.04736717 0.01517802
0.62593451 0.05968834 0.01403185
0.66253921 0.07537634 0.01285278
0.69578125 0.09396143 0.01173963
0.72593084 0.11299197 0.01039478
0.75285864 0.13230410 0.00922482
0.77667111 0.15144172 0.00825568
0.79753222 0.17002165 0.00748138
0.81566965 0.18775426 0.00688452
0.83141696 0.20440079 0.00638201
0.84519846 0.21982517 0.00588963
0.85754196 0.23399635 0.00533960
0.86912734 0.24694834 0.00462794
0.88084789 0.25873731 0.00353629
0.89391528 0.26935456 0.00155957
0.90985903 0.27877512 0.00000000
0.93019434 0.28738623 0.00000000
0.95626115 0.29621013 0.00000000
0.00000000 0.00000000 0.00000000
0.00000000 0.00000000 0.00000000
0.00000000 0.00000000 0.00000000
0.00000000 0.00000000 0.00000000
0.00000000 0.00000000 0.00000000
0.06715463 0.00026731 0.00025122
0.12737075 0.00028479 0.00013330
0.16615604 0.01137460 0.01050016
0.22180183 0.01228011 0.01068423
0.27656665 0.01345629 0.01083477
0.33123964 0.01539577 0.01129749
0.38626620 0.01859783 0.01233120
0.44201544 0.02341246 0.01396761
0.49483339 0.02970724 0.01532693
0.54236071 0.03744814 0.01561310
0.58584512 0.04736717 0.01517802
0.62593451 0.05968834 0.01403185
0.66253921 0.07537634 0.01285278
0.69578125 0.09396143 0.01173963
0.72593084 0.11299197 0.01039478
0.75285864 0.13230410 0.00922482
0.77667111 0.15144172 0.00825568
0.79753222 0.17002165 0.00748138
0.81566965 0.18775426 0.00688452
0.83141696 0.20440079 0.00638201
0.84519846 0.21982517 0.00588963
0.85754196 0.23399635 0.00533960
0.86912734 0.24694834 0.00462794
0.88084789 0.25873731 0.00353629
0.89391528 0.26935456 0.00155957
0.90985903 0.27877512 0.00000000
0.93019434 0.28738623 0.00000000
0.95626115 0.29621013 0.00000000
0.00000000 0.00000000 0.00000000
0.00000000 0.00000000 0.00000000
0.00000000 0.00000000 0.00000000
0.00000000 0.00000000 0.00000000
0.00000000 0.00000000 0.00000000
0.06715463 0.00026731 0.00025122
0.12737075 0.00028479 0.00013330
0.16615604 0.01137460 0.01050016
0.22180183 0.01228011 0.01068423
0.27656665 0.01345629 0.01083477
0.33123964 0.01539577 0.01129749
0.38626620 0.01859783 0.01233120
0.44201544 0.02341246 0.01396761
0.49483339 0.02970724 0.01532693
0.54236071 0.03744814 0.01561310
0.58584512 0.04736717 0.01517802
0.62593451 0.05968834 0.01403185
0.66253921 0.07537634 0.01285278
0.69578125 0.09396143 0.01173963
0.72593084 0.11299197 0.01039478
0.75285864 0.13230410 0.00922482
0.77667111 0.15144172 0.00825568
0.79753222 0.17002165 0.00748138
0.81566965 0.18775426 0.00688452
0.83141696 0.20440079 0.00638201
0.84519846 0.21982517 0.00588963
0.85754196 0.23399635 0.00533960
0.86912734 0.24694834 0.00462794
0.88084789 0.25873731 0.00353629
0.89391528 0.26935456 0.00155957
0.90985903 0.27877512 0.00000000
0.93019434 0.28738623 0.00000000
0.95626115 0.29621013 0.00000000
0.00000000 0.00000000 0.00000000
0.00000000 0.00000000 0.00000000
0.00000000 0.00000000 0.00000000
0.00000000 0.00000000 0.00000000
0.00565013 0.00826772 0.00000000
0.06715463 0.00026731 0.00025122
0.12737075 0.00028479 0.00013330
0.16615604 0.01137460 0.01050016
0.22180183 0.01228011 0.01068423
0.27656665 0.01345629 0.01083477
0.33123964 0.01539577 0.01129749
0.38626620 0.01859783 0.01233120
0.44201544 0.02341246 0.01396761
0.49483339 0.02970724 0.01532693
0.54236071 0.03744814 0.01561310
0.58584512 0.04736717 0.01517802
0.62593451 0.05968834 0.01403185
0.66253921 0.07537634 0.01285278
0.69578125 0.09396143 0.01173963
0.72593084 0.11299197 0.01039478
0.75285864 0.13230410 0.00922482
0.77667111 0.15144172 0.00825568
0.79753222 0.17002165 0.00748138
0.81566965 0.18775426 0.00688452
0.83141696 0.20440079 0.00638201
0.84519846 0.21982517 0.00588963
0.85754196 0.23399635 0.00533960
0.86912734 0.24694834 0.00462794
0.88084789 0.25873731 0.00353629
0.89391528 0.26935456 0.00155957
0.90985903 0.27877512 0.00000000
0.93019434 0.28738623 0.00000000
0.95626115 0.29621013 0.00000000
0.01773073 0.05678118 0.01733532
0.01773073 0.05678118 0.01733532
0.01773073 0.05678118 0.01733532
0.01773073 0.05678118 0.01733532
0.01773073 0.05678118 0.01733532
0.06641409 0.06659219 0.01459583
0.12362884 0.06867493 0.01305212
0.17715517 0.07046422 0.01284074
0.23019423 0.07187288 0.01205117
0.28364652 0.07304007 0.01119105
0.33775605 0.07442985 0.01072932
0.39278315 0.07640971 0.01076708
0.44882532 0.07945715 0.01142617
0.50192329 0.08382248 0.01275712
0.54955338 0.08969765 0.01427257
0.59298723 0.09764958 0.01581373
0.63296579 0.10747080 0.01698914
0.66950638 0.11945180 0.01816516
0.70285073 0.13301630 0.01909794
0.73320414 0.14748296 0.01950404
0.76061702 0.16243273 0.01938749
0.78511443 0.17754962 0.01887044
0.80674718 0.19258543 0.01813806
0.82566459 0.20729051 0.01732077
0.84215106 0.22140834 0.01643967
0.85660345 0.23475062 0.01548015
0.86955032 0.24720228 0.01438827
0.88169382 0.25869862 0.01302449
0.89401083 0.26913542 0.01099028
0.90777026 0.27839194 0.00764812
0.92426129 0.28668851 0.00282345
0.94505174 0.29429271 0.00000000
0.97162371 0.30207012 0.00000000
0.02365998 0.11688170 0.02214539
0.02365998 0.11688170 0.02214539
0.02365998 0.11688170 0.02214539
0.02365998 0.11688170 0.02214539
0.02365998 0.11688170 0.02214539
0.07153217 0.12503997 0.01697758
0.12689899 0.12730665 0.01149744
0.18052818 0.12833515 0.00910025
0.23315510 0.12923877 0.00786454
0.28623214 0.13000927 0.00675310
0.34022551 0.13077427 0.00609057
0.39544955 0.13165947 0.00583993
0.45199690 0.13287269 0.00602681
0.50595934 0.13438495 0.00723377
0.55453799 0.13674190 0.00944843
0.59878803 0.14085499 0.01231957
0.63929325 0.14701728 0.01546044
0.67606110 0.15566150 0.01916794
0.70981421 0.16570379 0.02216969
0.74034489 0.17724124 0.02492575
0.76819831 0.18916793 0.02640997
0.79336976 0.20124711 0.02675689
0.81577539 0.21343431 0.02640454
0.83548415 0.22558114 0.02564455
0.85272710 0.23747667 0.02461544
0.86788427 0.24891449 0.02335080
0.88149055 0.25972670 0.02179757
0.89429231 0.26975042 0.01973028
0.90732619 0.27877161 0.01662157
0.92157585 0.28697267 0.01249251
0.93836193 0.29448200 0.00711281
0.95925957 0.30151380 0.00027715
0.98591109 0.30875117 0.00000000
0.02675369 0.17356823 0.02349258
0.02675369 0.17356823 0.02349258
0.02675369 0.17356823 0.02349258
0.02675369 0.17356823 0.02349258
0.02675369 0.17356823 0.02349258
0.07545758 0.17956660 0.01729214
0.12923985 0.18148985 0.01166503
0.18191356 0.18251755 0.00865708
0.23408483 0.18332814 0.00699997
0.28684271 0.18403398 0.00574643
0.34084986 0.18456580 0.00472904
0.39640915 0.18490128 0.00392818
0.45362058 0.18509506 0.00333860
0.51080511 0.18278364 0.00000000
0.55853550 0.18484101 0.00699468
0.60413971 0.18591031 0.01083146
0.64599380 0.18854162 0.01508269
0.68410309 0.19325369 0.01987757
0.71837828 0.20035087 0.02544303
0.74887073 0.20969900 0.03171889
0.77701208 0.21920000 0.03573245
0.80284327 0.22858114 0.03748270
0.82608239 0.23805882 0.03782107
0.84665341 0.24767838 0.03735251
0.86472936 0.25730125 0.03634846
0.88068460 0.26671466 0.03486533
0.89508382 0.27569170 0.03279445
0.90867292 0.28404345 0.02992125
0.92220936 0.29185284 0.02637266
0.93667844 0.29924485 0.02218950
0.95328616 0.30643359 0.01741660
0.97345338 0.31376988 0.01220835
0.99870268 0.32206167 0.00746174
0.02904682 0.22830698 0.02348748
0.02904682 0.22830698 0.02348748
0.02904682 0.22830698 0.02348748
0.02904682 0.22830698 0.02348748
0.02904682 0.22830698 0.02348748
0.07853917 0.23297387 0.01675797
0.13159577 0.23444090 0.01139281
0.18359937 0.23529634 0.00873732
0.23522676 0.23604034 0.00749503
0.28746892 0.23675126 0.00665595
0.34114225 0.23731800 0.00579561
0.39664019 0.23760474 0.00493258
0.45410323 0.23754228 0.00406176
0.51141136 0.23542009 0.00134200
0.56239278 0.23393472 0.00554836
0.60971669 0.23257864 0.01012058
0.65394995 0.23160603 0.01387644
0.69539291 0.23110454 0.01609271
0.72846938 0.23769579 0.02905421
0.75898442 0.24505448 0.03975223
0.78747806 0.25234187 0.04698851
0.81407387 0.25920242 0.05056720
0.83822634 0.26612901 0.05197137
0.85972383 0.27332364 0.05213502
0.87869762 0.28070645 0.05143509
0.89556927 0.28801461 0.04982582
0.91077056 0.29516962 0.04751937
0.92485469 0.30218218 0.04477162
0.93851295 0.30916758 0.04189497
0.95260804 0.31634322 0.03924218
0.96799118 0.32426648 0.03772099
0.98554752 0.33387901 0.03892221
1.00000000 0.34706228 0.04656998
0.03106621 0.28275828 0.02267546
0.03106621 0.28275828 0.02267546
0.03106621 0.28275828 0.02267546
0.03106621 0.28275828 0.02267546
0.03106621 0.28275828 0.02267546
0.08125644 0.28652344 0.01591213
0.13386776 0.28761658 0.01106825
0.18542823 0.28828052 0.00892378
0.23665928 0.28890665 0.00817340
0.28850748 0.28956264 0.00789627
0.34178636 0.29013117 0.00752230
0.39704236 0.29044507 0.00692064
0.45448540 0.29035770 0.00616903
0.51121021 0.28884220 0.00674352
0.56488340 0.28542399 0.00777354
0.61331769 0.28293881 0.01503678
0.65838218 0.28086110 0.02239595
0.70040698 0.27932434 0.02871195
0.73957181 0.27835797 0.03329487
0.77592996 0.27796694 0.03582853
0.80037723 0.28783389 0.05798522
0.82772579 0.29246717 0.06429848
0.85267515 0.29722087 0.06779117
0.87509919 0.30219040 0.06923968
0.89495659 0.30749297 0.06945302
0.91252383 0.31304086 0.06874141
0.92809557 0.31889773 0.06767566
0.94207432 0.32521514 0.06691191
0.95494623 0.33229031 0.06730527
0.96740493 0.34046399 0.06967400
0.97910601 0.35147462 0.07810565
0.99175869 0.36517223 0.09190843
1.00000000 0.37986446 0.10549820
0.03368024 0.33768018 0.02177360
0.03368024 0.33768018 0.02177360
0.03368024 0.33768018 0.02177360
0.03368024 0.33768018 0.02177360
0.03368024 0.33768018 0.02177360
0.08430924 0.34082978 0.01530110
0.13633586 0.34167026 0.01111670
0.18735941 0.34220710 0.00944236
0.23817002 0.34274739 0.00914678
0.28964402 0.34335394 0.00930359
0.34258217 0.34392146 0.00940945
0.39755146 0.34425924 0.00918750
0.45487126 0.34419992 0.00871513
0.51229151 0.34241708 0.00884770
0.56680802 0.33870878 0.01180282
0.61849690 0.33392088 0.01568063
0.66506255 0.33037699 0.02626167
0.70815919 0.32748609 0.03692645
0.74804738 0.32530821 0.04644942
0.78489626 0.32381729 0.05407322
0.81879468 0.32296013 0.05942055
0.84978995 0.32267827 0.06239630
0.86999924 0.33084487 0.08320318
0.89311827 0.33399645 0.08731730
0.91342258 0.33780160 0.09021408
0.93107151 0.34230038 0.09253390
0.94604604 0.34786382 0.09559882
0.95852335 0.35483653 0.10052500
0.96818177 0.36425174 0.10977429
0.97677347 0.37530136 0.12137806
0.98525606 0.38823067 0.13556163
0.99528531 0.40295760 0.15161879
1.00000000 0.41785507 0.16555771
0.03751107 0.39354668 0.02112193
0.03751107 0.39354668 0.02112193
0.03751107 0.39354668 0.02112193
0.03751107 0.39354668 0.02112193
0.03751107 0.39354668 0.02112193
0.08830154 0.39626379 0.01520412
0.13927352 0.39696596 0.01162641
0.18949428 0.39744950 0.01035912
0.23973185 0.39796209 0.01048393
0.29072388 0.39855802 0.01104480
0.34325098 0.39915402 0.01158237
0.39789202 0.39957078 0.01180564
0.45499897 0.39958888 0.01164613
0.51293211 0.39774570 0.01111382
0.56918312 0.39340295 0.01241161
0.62266507 0.38777200 0.01734565
0.67339076 0.38135679 0.02300974
0.71851040 0.37658947 0.03719791
0.75984418 0.37271522 0.05169651
0.79766438 0.36974907 0.06509312
0.83219208 0.36761814 0.07648412
0.86358890 0.36622491 0.08534886
0.89198793 0.36547337 0.09136491
0.91753556 0.36527678 0.09485167
0.94043269 0.36555887 0.09617815
0.95085119 0.37595100 0.11866295
0.96275342 0.38345245 0.13074503
0.97113082 0.39323455 0.14536207
0.97777214 0.40423346 0.16047179
0.98372093 0.41634107 0.17603518
0.98992704 0.42980606 0.19250446
0.99794824 0.44466086 0.20965404
1.00000000 0.45938260 0.22403281
0.04295099 0.45067190 0.02075387
0.04295099 0.45067190 0.02075387
0.04295099 0.45067190 0.02075387
0.04295099 0.45067190 0.02075387
0.04295099 0.45067190 0.02075387
0.09357628 0.45307875 0.01560635
0.14302081 0.45370907 0.01266491
0.19205064 0.45420437 0.01173760
0.24141796 0.45475093 0.01214633
0.29172289 0.45539527 0.01298511
0.34368637 0.45605756 0.01384454
0.39788215 0.45658687 0.01447250
0.45468817 0.45676913 0.01480848
0.51282356 0.45507138 0.01385751
0.57043571 0.45053146 0.01319870
0.62643410 0.44398330 0.01547808
0.67957541 0.43642503 0.02199280
0.73011867 0.42804321 0.02811308
0.77416087 0.42181059 0.04601756
0.81397010 0.41671354 0.06469592
0.84986898 0.41274831 0.08248389
0.88217070 0.40980630 0.09740774
0.91114876 0.40774873 0.10885805
0.93705787 0.40644196 0.11729395
0.96017351 0.40577056 0.12314687
0.98078662 0.40568141 0.12688854
0.97969362 0.42346451 0.16752504
0.98418315 0.43525608 0.18986142
0.98768712 0.44749151 0.21018759
0.99095541 0.46033367 0.22938848
0.99485079 0.47409687 0.24824267
1.00000000 0.48882549 0.26668062
1.00000000 0.50324573 0.28181203
0.05042077 0.50514553 0.01974370
0.05042077 0.50514553 0.01974370
0.05042077 0.50514553 0.01974370
0.05042077 0.50514553 0.01974370
0.05042077 0.50514553 0.01974370
0.10014382 0.50736757 0.01592647
0.14720942 0.50803829 0.01392246
0.19434479 0.50866691 0.01368049
0.24213283 0.50940473 0.01457844
0.29111143 0.51029386 0.01587312
0.34193041 0.51125214 0.01719689
0.39513944 0.51213965 0.01830716
0.45115625 0.51276290 0.01914746
0.50895499 0.51164045 0.01813825
0.56715738 0.50753622 0.01575996
0.62500870 0.50089839 0.01487203
0.68123769 0.49239878 0.01745635
0.73452879 0.48293238 0.02457617
0.78562966 0.47229806 0.02898806
0.82908143 0.46435061 0.04985794
0.86780192 0.45775006 0.07222152
0.90216557 0.45251128 0.09366035
0.93259282 0.44851391 0.11126925
0.95949326 0.44559129 0.12522008
0.98323492 0.44360742 0.13605487
0.98615818 0.45724924 0.18008444
0.99183036 0.46742580 0.20771165
0.99443376 0.47917595 0.23393035
0.99586562 0.49150058 0.25772049
0.99716210 0.50432231 0.27964535
0.99929533 0.51785362 0.30041716
1.00000000 0.53221857 0.32020441
1.00000000 0.54623418 0.33626304
0.06051294 0.55449945 0.01748806
0.06051294 0.55449945 0.01748806
0.06051294 0.55449945 0.01748806
0.06051294 0.55449945 0.01748806
0.06051294 0.55449945 0.01748806
0.10832270 0.55663418 0.01556026
0.15231484 0.55741045 0.01504174
0.19670935 0.55827704 0.01584383
0.24205765 0.55934955 0.01748943
0.28892962 0.56065427 0.01956949
0.33784714 0.56211915 0.02168145
0.38933168 0.56361673 0.02361465
0.44381110 0.56496325 0.02530169
0.50042013 0.56477014 0.02477414
0.55817994 0.56174040 0.02169106
0.61664881 0.55591234 0.01838420
0.67484923 0.54761398 0.01699728
0.73144044 0.53742818 0.01923232
0.78505190 0.52619341 0.02615681
0.83445141 0.51490816 0.03843230
0.88050153 0.50336950 0.04913392
0.91857375 0.49506505 0.07414988
0.95186265 0.48832813 0.09842144
0.98089070 0.48305700 0.11853747
0.98818596 0.49279368 0.17482242
0.99555189 0.50125793 0.21256907
0.99887425 0.51167206 0.24658150
1.00000000 0.52281624 0.27622346
1.00000000 0.53433359 0.30227197
1.00000000 0.54634220 0.32586961
1.00000000 0.55914259 0.34802102
1.00000000 0.57280996 0.36886044
1.00000000 0.58634914 0.38595541
0.07368593 0.60026482 0.01443969
0.07368593 0.60026482 0.01443969
0.07368593 0.60026482 0.01443969
0.07368593 0.60026482 0.01443969
0.07368593 0.60026482 0.01443969
0.11852940 0.60235011 0.01467062
0.15901071 0.60325439 0.01580431
0.20010648 0.60438870 0.01772403
0.24245474 0.60583605 0.02020160
0.28668300 0.60759154 0.02318370
0.33317084 0.60961536 0.02622953
0.38240793 0.61178699 0.02920813
0.43480402 0.61394149 0.03203008
0.48956540 0.61477098 0.03253854
0.54596418 0.61301146 0.02979367
0.60392303 0.60854609 0.02555434
0.66270608 0.60130076 0.02156284
0.72124260 0.59155130 0.01965946
0.77815733 0.57983176 0.02143773
0.83202473 0.56696062 0.02812133
0.88146746 0.55399294 0.04088012
0.92893438 0.53973221 0.04581613
0.96665534 0.52961601 0.07265496
0.98485711 0.53133980 0.14121354
0.99645235 0.53647754 0.19479481
1.00000000 0.54504895 0.24221482
1.00000000 0.55487933 0.28193348
1.00000000 0.56509774 0.31512769
1.00000000 0.57557253 0.34351498
1.00000000 0.58654984 0.36876057
1.00000000 0.59837686 0.39212572
1.00000000 0.61118651 0.41394571
1.00000000 0.62415907 0.43208959
0.09046073 0.64306495 0.01132516
0.09046073 0.64306495 0.01132516
0.09046073 0.64306495 0.01132516
0.09046073 0.64306495 0.01132516
0.09046073 0.64306495 0.01132516
0.13078374 0.64515339 0.01350467
0.16750116 0.64619642 0.01622502
0.20498154 0.64759651 0.01922759
0.24398906 0.64940852 0.02256778
0.28516710 0.65161097 0.02640705
0.32884380 0.65418336 0.03043627
0.37542943 0.65702276 0.03450490
0.42532810 0.65997976 0.03859675
0.47776887 0.66182697 0.04046559
0.53214669 0.66134751 0.03874382
0.58863942 0.65836719 0.03473736
0.64686648 0.65268002 0.02973234
0.70594169 0.64415831 0.02520180
0.76474085 0.63306241 0.02291504
0.82184472 0.61991674 0.02454850
0.87567849 0.60560185 0.03200592
0.92440437 0.59145233 0.04833219
0.96507744 0.57979820 0.08143281
0.99029208 0.57612044 0.14416556
1.00000000 0.58028340 0.21095942
1.00000000 0.58783673 0.26714921
1.00000000 0.59655987 0.31272613
1.00000000 0.60564423 0.34993161
1.00000000 0.61500556 0.38112132
1.00000000 0.62490242 0.40833010
1.00000000 0.63570217 0.43309054
1.00000000 0.64760062 0.45599682
1.00000000 0.65994418 0.47523381
0.10920543 0.68318109 0.00849305
0.10920543 0.68318109 0.00849305
0.10920543 0.68318109 0.00849305
0.10920543 0.68318109 0.00849305
0.10920543 0.68318109 0.00849305
0.14480763 0.68531470 0.01227174
0.17761273 0.68651352 0.01629123
0.21149870 0.68814627 0.02044694
0.24699194 0.69029560 0.02462569
0.28483373 0.69292397 0.02920660
0.32541314 0.69601369 0.03415678
0.36904930 0.69948230 0.03930042
0.41612666 0.70320023 0.04466534
0.46588251 0.70601280 0.04800377
0.51777795 0.70676036 0.04772273
0.57212840 0.70524160 0.04470859
0.62881013 0.70119552 0.03982975
0.68729497 0.69438165 0.03422973
0.74659556 0.68464724 0.02933515
0.80552764 0.67227114 0.02708594
0.86252977 0.65784285 0.02985415
0.91555273 0.64251291 0.04178272
0.96115260 0.62860039 0.07297631
0.99104455 0.62171848 0.14230735
1.00000000 0.62360815 0.22090642
1.00000000 0.62940241 0.28618380
1.00000000 0.63666206 0.33839136
1.00000000 0.64445608 0.38036022
1.00000000 0.65263957 0.41495333
1.00000000 0.66143891 0.44458777
1.00000000 0.67123767 0.47115046
1.00000000 0.68222774 0.49538909
1.00000000 0.69383608 0.51564447
0.12908220 0.72070883 0.00617917
0.12908220 0.72070883 0.00617917
0.12908220 0.72070883 0.00617917
0.12908220 0.72070883 0.00617917
0.12908220 0.72070883 0.00617917
0.16013789 0.72292676 0.01110275
0.18917051 0.72427944 0.01621236
0.21959100 0.72611530 0.02149478
0.25155595 0.72856805 0.02646484
0.28589594 0.73159871 0.03162871
0.32317751 0.73516488 0.03735352
0.36365203 0.73921405 0.04347388
0.40767582 0.74363419 0.05005699
0.45448324 0.74733672 0.05490133
0.50356647 0.74922061 0.05630745
0.55530028 0.74909183 0.05472967
0.60973361 0.74665364 0.05072309
0.66660572 0.74160560 0.04511601
0.72529315 0.73370140 0.03909968
0.78470930 0.72278798 0.03426385
0.84354672 0.70921294 0.03323459
0.89985747 0.69377346 0.04047284
0.95032975 0.67833432 0.06638959
0.98746338 0.66752680 0.13223080
1.00000000 0.66626871 0.22249459
1.00000000 0.66975819 0.29810589
1.00000000 0.67525548 0.35823567
1.00000000 0.68160992 0.40603777
1.00000000 0.68855791 0.44487734
1.00000000 0.69627132 0.47763763
1.00000000 0.70503475 0.50635131
1.00000000 0.71504961 0.53203416
1.00000000 0.72586284 0.55333794
0.14940695 0.75566304 0.00443659
0.14940695 0.75566304 0.00443659
0.14940695 0.75566304 0.00443659
0.14940695 0.75566304 0.00443659
0.14940695 0.75566304 0.00443659
0.17628316 0.75799091 0.01009644
0.20182652 0.75949020 0.01610077
0.22896680 0.76150889 0.02237427
0.25758356 0.76422086 0.02815625
0.28845643 0.76760949 0.03387389
0.32230218 0.77161963 0.04013571
0.35948378 0.77619876 0.04708712
0.40031207 0.78125478 0.05481688
0.44274741 0.78612727 0.05631281
0.48913069 0.78897391 0.05987567
0.53884520 0.78982428 0.06467694
0.59050944 0.78892492 0.06189426
0.64502597 0.78561459 0.05691419
0.70204024 0.77958180 0.05067916
0.76084169 0.77059807 0.04458381
0.82020885 0.75854011 0.04076516
0.87857276 0.74390303 0.04348120
0.93317470 0.72791238 0.06176665
0.97839971 0.71366773 0.11464500
1.00000000 0.70842573 0.21407604
1.00000000 0.70904492 0.30144702
1.00000000 0.71245663 0.37123410
1.00000000 0.71720734 0.42636264
1.00000000 0.72285683 0.47064272
1.00000000 0.72939029 0.50715786
1.00000000 0.73705529 0.53841883
1.00000000 0.74605368 0.56578637
1.00000000 0.75602115 0.58821593
0.16959643 0.78802395 0.00322908
0.16959643 0.78802395 0.00322908
0.16959643 0.78802395 0.00322908
0.16959643 0.78802395 0.00322908
0.16959643 0.78802395 0.00322908
0.19276415 0.79047508 0.00929591
0.21509332 0.79212278 0.01591080
0.23915229 0.79431619 0.02292402
0.26482439 0.79722564 0.02970431
0.29235978 0.80093180 0.03589476
0.32280572 0.80534062 0.04258777
0.35664853 0.81040042 0.05019687
0.39425942 0.81601679 0.05906801
0.43370735 0.82152785 0.06332231
0.47719191 0.82520661 0.07016950
0.52271264 0.82756771 0.07128844
0.57089735 0.82825170 0.06658476
0.62344153 0.82625421 0.06929611
0.67799561 0.82207727 0.06333962
0.73507684 0.81505303 0.05673363
0.79387205 0.80499607 0.05128683
0.85294942 0.79185196 0.05034316
0.91021690 0.77638900 0.06171684
0.96123726 0.76065819 0.10325127
0.99484483 0.75036879 0.19435825
1.00000000 0.74747092 0.29419725
1.00000000 0.74841236 0.37582870
1.00000000 0.75135614 0.44034274
1.00000000 0.75553923 0.49140883
1.00000000 0.76079858 0.53262517
1.00000000 0.76730735 0.56704496
1.00000000 0.77524976 0.59646087
1.00000000 0.78432196 0.62014741
0.18915955 0.81777791 0.00243003
0.18915955 0.81777791 0.00243003
0.18915955 0.81777791 0.00243003
0.18915955 0.81777791 0.00243003
0.18915955 0.81777791 0.00243003
0.20913421 0.82035430 0.00867144
0.22860707 0.82214370 0.01569707
0.24994398 0.82448603 0.02337820
0.27299975 0.82755379 0.03115520
0.29753156 0.83151705 0.03795381
0.32468275 0.83628421 0.04494668
0.35519956 0.84178208 0.05299413
0.38960255 0.84789777 0.06284363
0.42590053 0.85401324 0.06897871
0.46654243 0.85839945 0.07895602
0.50900041 0.86170767 0.08357736
0.55389599 0.86363085 0.08252750
0.60172454 0.86375763 0.07560848
0.65411746 0.86101705 0.07726646
0.70863487 0.85595717 0.07054192
0.76567447 0.84793257 0.06406691
0.82430024 0.83682416 0.06047001
0.88274550 0.82269403 0.06550066
0.93800808 0.80674987 0.09312260
0.98294506 0.79225665 0.16115869
1.00000000 0.78534135 0.27378238
1.00000000 0.78335831 0.36994042
