Luts Download/Canon Luts/3dlut/33grid-3dlut/full-to-full-range/BT2020_CanonLog3-to-BT709_WideDR_33_FF_Ver.2.0.cube
# Gamut : BT.2020 to BT.709
# Gamma : Canon Log 3 to Wide DR
# Range : Full in / Full out
# Version : 2.0 2019/10/24
# Copyright(c) 2019 Canon Inc. All Rights Reserved.
LUT_3D_SIZE 33
# LUT_3D_INPUT_RANGE 0.0 1.0
0.00000000 0.00000000 0.00000000
0.00000000 0.00000000 0.00000000
0.00000000 0.00000000 0.00000000
0.00000000 0.00000000 0.00000000
0.00000000 0.00000000 0.00000000
0.06302540 0.00656688 0.00982377
0.13739608 0.00636233 0.01433104
0.20587259 0.00396529 0.01803065
0.27123619 0.00038206 0.02178835
0.33499193 0.00000000 0.02622440
0.39818729 0.00000000 0.03163272
0.46135357 0.00000000 0.03824644
0.52466530 0.00000000 0.04631482
0.58449492 0.00000000 0.05399583
0.63867296 0.00000000 0.05946627
0.68887217 0.00000000 0.06264057
0.73578369 0.00000000 0.06343933
0.77963235 0.00000000 0.06189620
0.82061406 0.00000000 0.05790568
0.85883999 0.00000000 0.05142343
0.89404693 0.00364420 0.04298426
0.92580485 0.01050114 0.03351070
0.95332503 0.02124979 0.02465362
0.97496816 0.04032082 0.01963404
0.98912616 0.07244479 0.02202650
0.99684492 0.11249285 0.03154234
1.00000000 0.14809864 0.04459649
1.00000000 0.17950683 0.06017900
1.00000000 0.20830608 0.07889394
1.00000000 0.23608897 0.10102298
1.00000000 0.26341873 0.12476449
1.00000000 0.29024105 0.14920639
1.00000000 0.31436355 0.17041030
0.00000000 0.00000000 0.00000000
0.00000000 0.00000000 0.00000000
0.00000000 0.00000000 0.00000000
0.00000000 0.00000000 0.00000000
0.00000000 0.00000000 0.00000000
0.06302540 0.00656688 0.00982377
0.13739608 0.00636233 0.01433104
0.20587259 0.00396529 0.01803065
0.27123619 0.00038206 0.02178835
0.33499193 0.00000000 0.02622440
0.39818729 0.00000000 0.03163272
0.46135357 0.00000000 0.03824644
0.52466530 0.00000000 0.04631482
0.58449492 0.00000000 0.05399583
0.63867296 0.00000000 0.05946627
0.68887217 0.00000000 0.06264057
0.73578369 0.00000000 0.06343933
0.77963235 0.00000000 0.06189620
0.82061406 0.00000000 0.05790568
0.85883999 0.00000000 0.05142343
0.89404693 0.00364420 0.04298426
0.92580485 0.01050114 0.03351070
0.95332503 0.02124979 0.02465362
0.97496816 0.04032082 0.01963404
0.98912616 0.07244479 0.02202650
0.99684492 0.11249285 0.03154234
1.00000000 0.14809864 0.04459649
1.00000000 0.17950683 0.06017900
1.00000000 0.20830608 0.07889394
1.00000000 0.23608897 0.10102298
1.00000000 0.26341873 0.12476449
1.00000000 0.29024105 0.14920639
1.00000000 0.31436355 0.17041030
0.00000000 0.00000000 0.00000000
0.00000000 0.00000000 0.00000000
0.00000000 0.00000000 0.00000000
0.00000000 0.00000000 0.00000000
0.00000000 0.00000000 0.00000000
0.06302540 0.00656688 0.00982377
0.13739608 0.00636233 0.01433104
0.20587259 0.00396529 0.01803065
0.27123619 0.00038206 0.02178835
0.33499193 0.00000000 0.02622440
0.39818729 0.00000000 0.03163272
0.46135357 0.00000000 0.03824644
0.52466530 0.00000000 0.04631482
0.58449492 0.00000000 0.05399583
0.63867296 0.00000000 0.05946627
0.68887217 0.00000000 0.06264057
0.73578369 0.00000000 0.06343933
0.77963235 0.00000000 0.06189620
0.82061406 0.00000000 0.05790568
0.85883999 0.00000000 0.05142343
0.89404693 0.00364420 0.04298426
0.92580485 0.01050114 0.03351070
0.95332503 0.02124979 0.02465362
0.97496816 0.04032082 0.01963404
0.98912616 0.07244479 0.02202650
0.99684492 0.11249285 0.03154234
1.00000000 0.14809864 0.04459649
1.00000000 0.17950683 0.06017900
1.00000000 0.20830608 0.07889394
1.00000000 0.23608897 0.10102298
1.00000000 0.26341873 0.12476449
1.00000000 0.29024105 0.14920639
1.00000000 0.31436355 0.17041030
0.00000000 0.00000000 0.00000000
0.00000000 0.00000000 0.00000000
0.00000000 0.00000000 0.00000000
0.00000000 0.00000000 0.00000000
0.00000000 0.00000000 0.00000000
0.06302540 0.00656688 0.00982377
0.13739608 0.00636233 0.01433104
0.20587259 0.00396529 0.01803065
0.27123619 0.00038206 0.02178835
0.33499193 0.00000000 0.02622440
0.39818729 0.00000000 0.03163272
0.46135357 0.00000000 0.03824644
0.52466530 0.00000000 0.04631482
0.58449492 0.00000000 0.05399583
0.63867296 0.00000000 0.05946627
0.68887217 0.00000000 0.06264057
0.73578369 0.00000000 0.06343933
0.77963235 0.00000000 0.06189620
0.82061406 0.00000000 0.05790568
0.85883999 0.00000000 0.05142343
0.89404693 0.00364420 0.04298426
0.92580485 0.01050114 0.03351070
0.95332503 0.02124979 0.02465362
0.97496816 0.04032082 0.01963404
0.98912616 0.07244479 0.02202650
0.99684492 0.11249285 0.03154234
1.00000000 0.14809864 0.04459649
1.00000000 0.17950683 0.06017900
1.00000000 0.20830608 0.07889394
1.00000000 0.23608897 0.10102298
1.00000000 0.26341873 0.12476449
1.00000000 0.29024105 0.14920639
1.00000000 0.31436355 0.17041030
0.00000000 0.00000000 0.00000000
0.00000000 0.00000000 0.00000000
0.00000000 0.00000000 0.00000000
0.00000000 0.00000000 0.00000000
0.00577543 0.00829994 0.00000000
0.06302540 0.00656688 0.00982377
0.13739608 0.00636233 0.01433104
0.20587259 0.00396529 0.01803065
0.27123619 0.00038206 0.02178835
0.33499193 0.00000000 0.02622440
0.39818729 0.00000000 0.03163272
0.46135357 0.00000000 0.03824644
0.52466530 0.00000000 0.04631482
0.58449492 0.00000000 0.05399583
0.63867296 0.00000000 0.05946627
0.68887217 0.00000000 0.06264057
0.73578369 0.00000000 0.06343933
0.77963235 0.00000000 0.06189620
0.82061406 0.00000000 0.05790568
0.85883999 0.00000000 0.05142343
0.89404693 0.00364420 0.04298426
0.92580485 0.01050114 0.03351070
0.95332503 0.02124979 0.02465362
0.97496816 0.04032082 0.01963404
0.98912616 0.07244479 0.02202650
0.99684492 0.11249285 0.03154234
1.00000000 0.14809864 0.04459649
1.00000000 0.17950683 0.06017900
1.00000000 0.20830608 0.07889394
1.00000000 0.23608897 0.10102298
1.00000000 0.26341873 0.12476449
1.00000000 0.29024105 0.14920639
1.00000000 0.31436355 0.17041030
0.00996065 0.05572943 0.02247029
0.00996065 0.05572943 0.02247029
0.00996065 0.05572943 0.02247029
0.00996065 0.05572943 0.02247029
0.00996065 0.05572943 0.02247029
0.06868275 0.06627397 0.01746380
0.14684693 0.06431923 0.01504107
0.21646114 0.06001422 0.01485536
0.28353192 0.05369403 0.01476193
0.34950297 0.04587077 0.01536839
0.41496411 0.03723204 0.01717011
0.48045793 0.02827622 0.02021833
0.54513505 0.02114662 0.02582243
0.60558445 0.01595303 0.03259335
0.65993604 0.01229134 0.03857132
0.71004035 0.01004049 0.04306063
0.75657625 0.00941864 0.04582445
0.79967987 0.01089435 0.04693603
0.83977165 0.01389382 0.04592215
0.87697062 0.01813405 0.04266644
0.91102170 0.02405686 0.03765515
0.94119836 0.03330920 0.03223941
0.96633685 0.04887037 0.02868621
0.98378016 0.07783134 0.03198996
0.99367790 0.11624551 0.04316698
0.99939524 0.15153966 0.05800475
1.00000000 0.18265704 0.07465459
1.00000000 0.21053033 0.09256853
1.00000000 0.23673022 0.11133411
1.00000000 0.26218605 0.13144606
1.00000000 0.28742459 0.15304897
1.00000000 0.31241149 0.17547091
1.00000000 0.33514763 0.19515441
0.00500856 0.11477495 0.03519500
0.00500856 0.11477495 0.03519500
0.00500856 0.11477495 0.03519500
0.00500856 0.11477495 0.03519500
0.00500856 0.11477495 0.03519500
0.05141267 0.12702765 0.02101448
0.13156890 0.12729529 0.01169146
0.20691450 0.12362060 0.00757750
0.27732150 0.11798319 0.00570647
0.34602142 0.11041436 0.00466986
0.41423613 0.10090281 0.00461915
0.48265661 0.08943658 0.00559212
0.55112815 0.07662977 0.00810032
0.61560129 0.06378206 0.01198066
0.67331039 0.05239157 0.01643003
0.72585426 0.04330156 0.02065625
0.77379705 0.03744777 0.02448182
0.81690873 0.03652714 0.02852947
0.85659549 0.03824798 0.03093355
0.89275587 0.04294995 0.03191283
0.92548182 0.05039420 0.03145938
0.95338568 0.06390318 0.03199636
0.97514108 0.08688211 0.03618179
0.98825802 0.12092704 0.04902277
0.99595316 0.15517434 0.06647886
1.00000000 0.18615737 0.08556945
1.00000000 0.21377493 0.10383216
1.00000000 0.23897404 0.12127985
1.00000000 0.26306613 0.13928950
1.00000000 0.28656162 0.15823101
1.00000000 0.31003379 0.17849023
1.00000000 0.33345399 0.19954206
1.00000000 0.35502025 0.21817528
0.00000000 0.17021759 0.04857523
0.00000000 0.17021759 0.04857523
0.00000000 0.17021759 0.04857523
0.00000000 0.17021759 0.04857523
0.00000000 0.17021759 0.04857523
0.03029667 0.18242233 0.02617075
0.10769160 0.18462583 0.01194900
0.18824835 0.18284108 0.00496929
0.26237796 0.17901548 0.00145098
0.33381703 0.17361876 0.00000000
0.40455898 0.16653844 0.00000000
0.47544958 0.15767659 0.00000000
0.54702835 0.14682040 0.00000000
0.61507114 0.13401587 0.00058787
0.67644430 0.12027751 0.00406373
0.73234634 0.10686430 0.00800293
0.78316459 0.09535839 0.01220064
0.82888693 0.08773169 0.01684266
0.86949492 0.08565794 0.02207408
0.90504533 0.08988042 0.02796072
0.93657848 0.09801879 0.03306525
0.96262534 0.11253711 0.04008100
0.98048812 0.13710322 0.05414581
0.99092273 0.16746643 0.07513470
0.99732582 0.19690442 0.09746737
1.00000000 0.22378393 0.11748233
1.00000000 0.24825586 0.13560472
1.00000000 0.27097495 0.15275769
1.00000000 0.29276126 0.16995900
1.00000000 0.31422350 0.18787829
1.00000000 0.33585943 0.20694252
1.00000000 0.35765347 0.22675397
1.00000000 0.37800071 0.24441855
0.00000000 0.22343022 0.06512008
0.00000000 0.22343022 0.06512008
0.00000000 0.22343022 0.06512008
0.00000000 0.22343022 0.06512008
0.00000000 0.22343022 0.06512008
0.01219833 0.23487901 0.03805726
0.07644671 0.23935747 0.01496982
0.16413889 0.23911097 0.00446841
0.24291454 0.23669774 0.00000000
0.31728812 0.23287342 0.00000000
0.39025746 0.22769465 0.00000000
0.46331519 0.22092632 0.00000000
0.53722740 0.21228288 0.00000000
0.60830542 0.20112940 0.00000000
0.67322428 0.18804791 0.00000000
0.73285720 0.17419521 0.00191442
0.78752465 0.16077568 0.00578707
0.83697275 0.14933138 0.01026770
0.88054377 0.14214508 0.01634101
0.91606821 0.14404284 0.02769975
0.94663277 0.15062565 0.03943641
0.97028647 0.16464260 0.05530062
0.98437008 0.18876974 0.08081559
0.99296487 0.21521864 0.10762411
0.99836154 0.24063312 0.13109648
1.00000000 0.26424254 0.15167244
1.00000000 0.28594209 0.16994096
1.00000000 0.30620062 0.18683410
1.00000000 0.32577755 0.20346157
1.00000000 0.34525774 0.22058973
1.00000000 0.36507659 0.23866751
1.00000000 0.38535822 0.25753253
1.00000000 0.40436701 0.27423050
0.00000000 0.27628735 0.08525402
0.00000000 0.27628735 0.08525402
0.00000000 0.27628735 0.08525402
0.00000000 0.27628735 0.08525402
0.00000000 0.27628735 0.08525402
0.00000000 0.28689816 0.05466763
0.04230097 0.29312281 0.02266460
0.13380045 0.29441001 0.00690849
0.21886634 0.29320096 0.00000000
0.29731830 0.29058089 0.00000000
0.37299530 0.28671902 0.00000000
0.44821358 0.28152024 0.00000000
0.52413864 0.27467361 0.00000000
0.59795553 0.26504990 0.00000000
0.66636572 0.25281446 0.00000000
0.72975047 0.23912617 0.00000000
0.78824576 0.22493224 0.00349668
0.84160468 0.21140499 0.00806783
0.88901551 0.20045350 0.01433465
0.92885097 0.19541000 0.02515548
0.95737982 0.20225548 0.04729697
0.97711859 0.21766107 0.07683698
0.98825561 0.24017042 0.11146486
0.99504463 0.26367470 0.14121644
0.99918615 0.28618694 0.16639162
1.00000000 0.30700301 0.18777056
1.00000000 0.32619356 0.20636019
1.00000000 0.34424244 0.22327655
1.00000000 0.36184709 0.23968370
1.00000000 0.37947088 0.25628443
1.00000000 0.39763151 0.27369092
1.00000000 0.41636924 0.29171345
1.00000000 0.43407225 0.30760125
0.00000000 0.32964209 0.10732448
0.00000000 0.32964209 0.10732448
0.00000000 0.32964209 0.10732448
0.00000000 0.32964209 0.10732448
0.00000000 0.32964209 0.10732448
0.00000000 0.33936133 0.07660337
0.01391460 0.34637101 0.03892952
0.09555296 0.34966950 0.01333195
0.18913764 0.34969265 0.00225079
0.27301463 0.34811359 0.00000000
0.35238938 0.34536506 0.00000000
0.43019937 0.34133844 0.00000000
0.50825552 0.33588656 0.00000000
0.58478463 0.32755699 0.00000000
0.65679505 0.31607651 0.00000000
0.72403491 0.30263982 0.00000000
0.78642659 0.28815362 0.00246216
0.84373246 0.27356067 0.00794407
0.89514545 0.26037617 0.01519627
0.93887954 0.25140019 0.02723228
0.97130616 0.25178558 0.05086352
0.98724244 0.26775009 0.09607743
0.99321134 0.29110270 0.14135084
0.99784273 0.31258379 0.17498257
1.00000000 0.33290081 0.20252680
1.00000000 0.35149597 0.22526027
1.00000000 0.36860050 0.24460879
1.00000000 0.38479705 0.26197752
1.00000000 0.40068327 0.27850664
1.00000000 0.41669277 0.29492396
1.00000000 0.43326499 0.31183672
1.00000000 0.45045384 0.32912278
1.00000000 0.46692127 0.34438040
0.00000000 0.38398493 0.13002360
0.00000000 0.38398493 0.13002360
0.00000000 0.38398493 0.13002360
0.00000000 0.38398493 0.13002360
0.00000000 0.38398493 0.13002360
0.00000000 0.39284060 0.10224384
0.00000000 0.39998708 0.06283485
0.05028622 0.40524461 0.02555557
0.15215004 0.40673558 0.00761501
0.24320977 0.40618713 0.00000000
0.32737388 0.40442080 0.00000000
0.40860465 0.40151009 0.00000000
0.48913749 0.39719059 0.00000000
0.56844144 0.39003399 0.00000000
0.64423801 0.37930575 0.00000000
0.71572692 0.36609220 0.00000000
0.78239923 0.35135021 0.00023973
0.84384361 0.33601512 0.00709244
0.89917438 0.32146454 0.01656721
0.94620054 0.31045777 0.03254619
0.97924365 0.30939045 0.06654757
0.99377407 0.32328014 0.12270719
0.99970962 0.34256132 0.17062798
1.00000000 0.36222616 0.20870481
1.00000000 0.38080583 0.23935207
1.00000000 0.39777186 0.26425963
1.00000000 0.41312458 0.28478762
1.00000000 0.42774801 0.30297063
1.00000000 0.44203896 0.31979421
1.00000000 0.45645974 0.33611999
1.00000000 0.47149347 0.35266872
1.00000000 0.48724629 0.36942758
1.00000000 0.50258001 0.38425591
0.00000000 0.43961130 0.15285475
0.00000000 0.43961130 0.15285475
0.00000000 0.43961130 0.15285475
0.00000000 0.43961130 0.15285475
0.00000000 0.43961130 0.15285475
0.00000000 0.44768743 0.12793769
0.00000000 0.45463940 0.09241432
0.01355762 0.46093650 0.04832658
0.10536105 0.46450632 0.01743679
0.20638336 0.46516513 0.00405626
0.29683602 0.46432976 0.00000000
0.38242140 0.46240771 0.00000000
0.46621748 0.45926072 0.00000000
0.54838983 0.45322800 0.00000000
0.62789308 0.44343029 0.00000000
0.70391266 0.43060399 0.00000000
0.77545720 0.41565175 0.00000000
0.84165794 0.39959848 0.00359231
0.90135101 0.38386005 0.01566875
0.95180775 0.37129599 0.03728909
0.98529362 0.36916877 0.08563327
0.99928709 0.38056338 0.15007337
1.00000000 0.39684897 0.20253571
1.00000000 0.41393352 0.24409308
1.00000000 0.43024575 0.27724281
1.00000000 0.44530490 0.30405053
1.00000000 0.45918829 0.32624377
1.00000000 0.47230722 0.34538156
1.00000000 0.48512358 0.36269062
1.00000000 0.49811910 0.37916303
1.00000000 0.51175462 0.39555933
1.00000000 0.52621501 0.41202250
1.00000000 0.54053416 0.42663282
0.00000000 0.49266398 0.17346784
0.00000000 0.49266398 0.17346784
0.00000000 0.49266398 0.17346784
0.00000000 0.49266398 0.17346784
0.00000000 0.49266398 0.17346784
0.00000000 0.50008082 0.15139310
0.00000000 0.50670235 0.12077083
0.00000000 0.51342868 0.07880756
0.04930063 0.51908350 0.03417910
0.16012780 0.52137186 0.01254157
0.25818439 0.52176467 0.00277988
0.34865377 0.52096481 0.00000000
0.43590856 0.51910888 0.00000000
0.52107014 0.51468421 0.00000000
0.60376465 0.50627012 0.00000000
0.68393703 0.49444947 0.00000000
0.76052748 0.47982360 0.00000000
0.83221035 0.46333644 0.00000000
0.89729638 0.44644965 0.01018112
0.95251498 0.43203445 0.03614867
0.98896276 0.42735528 0.09610245
1.00000000 0.43570887 0.17023995
1.00000000 0.44915076 0.22926872
1.00000000 0.46381364 0.27551921
1.00000000 0.47805649 0.31201902
1.00000000 0.49138094 0.34131044
1.00000000 0.50378774 0.36535975
1.00000000 0.51556363 0.38579678
1.00000000 0.52708659 0.40390315
1.00000000 0.53882291 0.42077978
1.00000000 0.55125563 0.43731582
1.00000000 0.56458867 0.45372987
1.00000000 0.57805791 0.46838704
0.00000000 0.54075835 0.19048026
0.00000000 0.54075835 0.19048026
0.00000000 0.54075835 0.19048026
0.00000000 0.54075835 0.19048026
0.00000000 0.54075835 0.19048026
0.00000000 0.54762063 0.17122401
0.00000000 0.55386349 0.14514371
0.00000000 0.56064692 0.10991688
0.01099774 0.56730313 0.06348491
0.10453358 0.57203468 0.02702850
0.21120125 0.57405959 0.01094516
0.30697146 0.57465512 0.00412507
0.39759581 0.57421667 0.00150423
0.48524527 0.57155827 0.00000000
0.57058209 0.56528741 0.00000000
0.65380466 0.55521191 0.00000000
0.73455554 0.54186290 0.00000000
0.81147955 0.52584895 0.00000000
0.88255483 0.50840333 0.00350059
0.94421518 0.49207784 0.02946361
0.98780633 0.48312180 0.09271451
1.00000000 0.48759380 0.17937559
1.00000000 0.49798404 0.24738191
1.00000000 0.51024273 0.30000004
1.00000000 0.52256783 0.34109885
1.00000000 0.53430148 0.37371261
1.00000000 0.54534440 0.40016582
1.00000000 0.55587089 0.42225938
1.00000000 0.56621793 0.44145761
1.00000000 0.57684621 0.45902938
1.00000000 0.58822234 0.47595536
1.00000000 0.60056548 0.49253811
1.00000000 0.61330065 0.50743512
0.00000000 0.58542220 0.20458812
0.00000000 0.58542220 0.20458812
0.00000000 0.58542220 0.20458812
0.00000000 0.58542220 0.20458812
0.00000000 0.58542220 0.20458812
0.00000000 0.59182172 0.18787276
0.00000000 0.59768003 0.16574368
0.00000000 0.60431535 0.13631572
0.00000000 0.61144050 0.09643598
0.04588747 0.61811163 0.04932248
0.15668160 0.62217229 0.02272304
0.25880990 0.62432691 0.01159135
0.35332436 0.62536566 0.00754118
0.44338888 0.62436052 0.00484008
0.53071294 0.62016596 0.00098292
0.61638665 0.61253621 0.00000000
0.70006024 0.60112723 0.00000000
0.78112905 0.58652577 0.00000000
0.85773292 0.56950370 0.00000000
0.92651470 0.55194878 0.02117711
0.98046600 0.53833275 0.07656457
1.00000000 0.53792692 0.17746122
1.00000000 0.54472423 0.25675133
1.00000000 0.55440298 0.31770203
1.00000000 0.56479337 0.36485002
1.00000000 0.57497967 0.40179667
1.00000000 0.58468306 0.43126530
1.00000000 0.59400127 0.45542669
1.00000000 0.60324567 0.47604446
1.00000000 0.61284679 0.49456644
1.00000000 0.62324894 0.51208601
1.00000000 0.63469010 0.52901776
1.00000000 0.64674424 0.54427231
0.00000000 0.62730993 0.21621521
0.00000000 0.62730993 0.21621521
0.00000000 0.62730993 0.21621521
0.00000000 0.62730993 0.21621521
0.00000000 0.62730993 0.21621521
0.00000000 0.63331309 0.20178044
0.00000000 0.63880651 0.18304739
0.00000000 0.64519416 0.15849475
0.00000000 0.65242197 0.12545187
0.00819213 0.65997958 0.08154567
0.09457897 0.66643111 0.03988943
0.20446343 0.67035739 0.02143002
0.30379229 0.67292044 0.01454508
0.39669998 0.67351951 0.01121097
0.48582565 0.67118194 0.00751035
0.57316997 0.66580682 0.00335899
0.65920608 0.65704313 0.00000000
0.74317936 0.64446467 0.00000000
0.82414168 0.62881138 0.00000000
0.89930452 0.61123752 0.01534916
0.96273981 0.59488126 0.06146856
0.99969792 0.58796447 0.16393122
1.00000000 0.59038413 0.25645604
1.00000000 0.59707744 0.32797854
1.00000000 0.60537725 0.38301478
1.00000000 0.61392550 0.42548349
1.00000000 0.62225528 0.45875227
1.00000000 0.63037377 0.48552176
1.00000000 0.63854456 0.50793689
1.00000000 0.64715309 0.52766955
1.00000000 0.65661855 0.54596642
1.00000000 0.66720513 0.56340101
1.00000000 0.67859573 0.57909360
0.00000000 0.66668095 0.22571145
0.00000000 0.66668095 0.22571145
0.00000000 0.66668095 0.22571145
0.00000000 0.66668095 0.22571145
0.00000000 0.66668095 0.22571145
0.00000000 0.67234732 0.21329014
0.00000000 0.67751000 0.19746014
0.00000000 0.68360843 0.17702499
0.00000000 0.69073236 0.14974996
0.00000000 0.69863424 0.11323800
0.03829576 0.70664299 0.06735313
0.14373936 0.71283025 0.03519111
0.24905129 0.71703188 0.02301162
0.34555393 0.71920405 0.01792015
0.43677847 0.71861551 0.01407487
0.52550996 0.71522972 0.01029327
0.61299628 0.70883489 0.00636278
0.69934426 0.69904041 0.00315889
0.78338324 0.68538720 0.00308952
0.86358513 0.66888788 0.01298760
0.93547135 0.65140794 0.04752919
0.98805824 0.63832577 0.13616270
1.00000000 0.63569972 0.24452990
1.00000000 0.63888357 0.32954814
1.00000000 0.64473697 0.39465944
1.00000000 0.65146288 0.44422810
1.00000000 0.65833583 0.48237897
1.00000000 0.66522656 0.51248609
1.00000000 0.67231177 0.53716204
1.00000000 0.67992839 0.55840715
1.00000000 0.68846944 0.57768787
1.00000000 0.69821325 0.59575878
1.00000000 0.70893116 0.61194451
0.00000000 0.70361841 0.23332506
0.00000000 0.70361841 0.23332506
0.00000000 0.70361841 0.23332506
0.00000000 0.70361841 0.23332506
0.00000000 0.70361841 0.23332506
0.00000000 0.70899647 0.22268072
0.00000000 0.71386285 0.20935312
0.00000000 0.71966732 0.19240126
0.00000000 0.72657710 0.17000049
0.00000000 0.73453491 0.14001644
0.00363353 0.74325400 0.10048555
0.07666839 0.75162107 0.05549049
0.18889982 0.75767826 0.03434516
0.28997106 0.76145658 0.02556144
0.38385559 0.76253635 0.02068196
0.47414428 0.76100940 0.01705498
0.56269331 0.75670569 0.01351764
0.65034436 0.74935576 0.01024425
0.73689756 0.73857356 0.00895926
0.82066624 0.72391753 0.01385717
0.89921884 0.70680777 0.03651015
0.96560135 0.69010859 0.10207993
1.00000000 0.68139804 0.21880801
1.00000000 0.68027979 0.31998858
1.00000000 0.68318514 0.39803542
1.00000000 0.68781350 0.45691372
1.00000000 0.69309412 0.50150355
1.00000000 0.69868351 0.53595672
1.00000000 0.70464241 0.56353014
1.00000000 0.71124457 0.58668604
1.00000000 0.71885295 0.60720745
1.00000000 0.72774526 0.62606243
1.00000000 0.73776293 0.64278673
0.00000000 0.73811387 0.23928462
0.00000000 0.73811387 0.23928462
0.00000000 0.73811387 0.23928462
0.00000000 0.73811387 0.23928462
0.00000000 0.73811387 0.23928462
0.00000000 0.74324243 0.23021496
0.00000000 0.74784669 0.21905150
0.00000000 0.75337188 0.20505393
0.00000000 0.76002187 0.18675733
0.00000000 0.76785721 0.16236699
0.00000000 0.77678712 0.12997880
0.02882180 0.78621876 0.08866218
0.12377533 0.79467061 0.05128647
0.22977394 0.80022366 0.03532450
0.32704798 0.80295307 0.02776211
0.41932046 0.80317622 0.02357122
0.50900132 0.80082328 0.02034445
0.59746691 0.79564589 0.01732904
0.68525430 0.78735184 0.01537232
0.77185000 0.77559752 0.01754920
0.85488338 0.76001523 0.03123367
0.93043922 0.74262787 0.07667745
0.98688507 0.72797562 0.17614210
1.00000000 0.72176405 0.29578800
1.00000000 0.72107027 0.39050929
1.00000000 0.72320267 0.46178477
1.00000000 0.72666365 0.51500358
1.00000000 0.73082805 0.55525685
1.00000000 0.73559036 0.58664595
1.00000000 0.74113716 0.61228283
1.00000000 0.74778622 0.63439008
1.00000000 0.75580435 0.65422183
1.00000000 0.76508203 0.67153870
0.00000000 0.77012810 0.24378910
0.00000000 0.77012810 0.24378910
0.00000000 0.77012810 0.24378910
0.00000000 0.77012810 0.24378910
0.00000000 0.77012810 0.24378910
0.00000000 0.77503992 0.23611259
0.00000000 0.77941320 0.22682913
0.00000000 0.78468410 0.21533568
0.00000000 0.79106380 0.20050196
0.00000000 0.79868482 0.18081969
0.00000000 0.80755951 0.15467214
0.00068276 0.81747863 0.12054862
0.06162840 0.82757392 0.07929594
0.16505866 0.83535460 0.04937529
0.26616845 0.83982071 0.03630550
0.36105994 0.84173331 0.03023806
0.45219142 0.84120533 0.02676491
0.54144305 0.83806067 0.02405936
0.62986274 0.83200596 0.02196610
0.71771593 0.82275210 0.02227844
0.80413621 0.81003240 0.03015892
0.88585480 0.79361238 0.05790575
0.95695762 0.77626358 0.13031729
1.00000000 0.76403841 0.25348676
1.00000000 0.75887190 0.36843459
1.00000000 0.75792097 0.45619694
1.00000000 0.75921285 0.52115612
1.00000000 0.76175584 0.56932495
1.00000000 0.76521406 0.60589034
1.00000000 0.76964055 0.63483974
1.00000000 0.77528518 0.65902086
1.00000000 0.78239679 0.68010861
1.00000000 0.79088758 0.69810415
0.00000000 0.79962650 0.24702370
0.00000000 0.79962650 0.24702370
0.00000000 0.79962650 0.24702370
0.00000000 0.79962650 0.24702370
0.00000000 0.79962650 0.24702370
0.00000000 0.80435058 0.24057156
0.00000000 0.80852006 0.23292938
0.00000000 0.81356142 0.22357902
0.00000000 0.81968347 0.21165284
0.00000000 0.82705257 0.19592259
0.00000000 0.83573456 0.17505936
0.00000000 0.84576812 0.14760126
0.02234200 0.85663585 0.11251815
0.09775908 0.86660321 0.07113797
0.20109996 0.87304225 0.04808716
0.29924792 0.87666139 0.03797498
0.39241148 0.87786075 0.03333919
0.48269253 0.87660442 0.03074477
0.57160298 0.87265520 0.02890568
0.65993806 0.86569924 0.02835937
0.74771881 0.85546770 0.03221497
0.83367535 0.84180069 0.04863736
0.91342197 0.82464499 0.09607366
0.97860581 0.80760284 0.18775254
1.00000000 0.79724808 0.32698644
1.00000000 0.79242331 0.43645343
1.00000000 0.79100931 0.51742154
