Luts Download/Canon Luts/3dlut/33grid-3dlut/full-to-full-range/BT2020_CanonLog-to-BT2020_709WideDR_33_FF_Ver.2.0.cube
# Gamut : BT.2020 to BT.2020
# Gamma : Canon Log to Wide DR
# Range : Full in / Full out
# Version : 2.0 2019/10/24
# Copyright(c) 2019 Canon Inc. All Rights Reserved.
LUT_3D_SIZE 33
# LUT_3D_INPUT_RANGE 0.0 1.0
0.00000000 0.00000000 0.00000000
0.00000000 0.00000000 0.00000000
0.00000000 0.00000000 0.00000000
0.00000000 0.00000000 0.00000000
0.00000000 0.00000000 0.00000000
0.05125794 0.00853782 0.00843534
0.11580329 0.01120188 0.01076966
0.17541337 0.01251327 0.01154121
0.23086892 0.01335314 0.01162991
0.28385262 0.01440278 0.01166169
0.33531641 0.01616200 0.01201859
0.38588751 0.01899811 0.01289282
0.43605244 0.02311657 0.01427765
0.48366251 0.02849211 0.01567396
0.52623613 0.03490916 0.01628669
0.56512888 0.04264150 0.01620276
0.60104885 0.05186442 0.01546558
0.63432258 0.06279573 0.01419906
0.66481369 0.07629098 0.01306490
0.69279578 0.09169941 0.01188997
0.71844537 0.10748529 0.01057029
0.74175155 0.12349327 0.00931267
0.76279516 0.13947589 0.00815678
0.78165077 0.15525478 0.00717338
0.79846784 0.17059105 0.00631817
0.81344643 0.18525868 0.00548588
0.82686940 0.19900950 0.00445155
0.83911557 0.21157247 0.00284927
0.85063186 0.22270662 0.00024313
0.86185660 0.23230666 0.00000000
0.87304475 0.24062580 0.00000000
0.88458150 0.24784379 0.00000000
0.89685679 0.25430801 0.00000000
0.00000000 0.00000000 0.00000000
0.00000000 0.00000000 0.00000000
0.00000000 0.00000000 0.00000000
0.00000000 0.00000000 0.00000000
0.00000000 0.00000000 0.00000000
0.05125794 0.00853782 0.00843534
0.11580329 0.01120188 0.01076966
0.17541337 0.01251327 0.01154121
0.23086892 0.01335314 0.01162991
0.28385262 0.01440278 0.01166169
0.33531641 0.01616200 0.01201859
0.38588751 0.01899811 0.01289282
0.43605244 0.02311657 0.01427765
0.48366251 0.02849211 0.01567396
0.52623613 0.03490916 0.01628669
0.56512888 0.04264150 0.01620276
0.60104885 0.05186442 0.01546558
0.63432258 0.06279573 0.01419906
0.66481369 0.07629098 0.01306490
0.69279578 0.09169941 0.01188997
0.71844537 0.10748529 0.01057029
0.74175155 0.12349327 0.00931267
0.76279516 0.13947589 0.00815678
0.78165077 0.15525478 0.00717338
0.79846784 0.17059105 0.00631817
0.81344643 0.18525868 0.00548588
0.82686940 0.19900950 0.00445155
0.83911557 0.21157247 0.00284927
0.85063186 0.22270662 0.00024313
0.86185660 0.23230666 0.00000000
0.87304475 0.24062580 0.00000000
0.88458150 0.24784379 0.00000000
0.89685679 0.25430801 0.00000000
0.00000000 0.00000000 0.00000000
0.00000000 0.00000000 0.00000000
0.00000000 0.00000000 0.00000000
0.00000000 0.00000000 0.00000000
0.00000000 0.00000000 0.00000000
0.05125794 0.00853782 0.00843534
0.11580329 0.01120188 0.01076966
0.17541337 0.01251327 0.01154121
0.23086892 0.01335314 0.01162991
0.28385262 0.01440278 0.01166169
0.33531641 0.01616200 0.01201859
0.38588751 0.01899811 0.01289282
0.43605244 0.02311657 0.01427765
0.48366251 0.02849211 0.01567396
0.52623613 0.03490916 0.01628669
0.56512888 0.04264150 0.01620276
0.60104885 0.05186442 0.01546558
0.63432258 0.06279573 0.01419906
0.66481369 0.07629098 0.01306490
0.69279578 0.09169941 0.01188997
0.71844537 0.10748529 0.01057029
0.74175155 0.12349327 0.00931267
0.76279516 0.13947589 0.00815678
0.78165077 0.15525478 0.00717338
0.79846784 0.17059105 0.00631817
0.81344643 0.18525868 0.00548588
0.82686940 0.19900950 0.00445155
0.83911557 0.21157247 0.00284927
0.85063186 0.22270662 0.00024313
0.86185660 0.23230666 0.00000000
0.87304475 0.24062580 0.00000000
0.88458150 0.24784379 0.00000000
0.89685679 0.25430801 0.00000000
0.00000000 0.00000000 0.00000000
0.00000000 0.00000000 0.00000000
0.00000000 0.00000000 0.00000000
0.00000000 0.00000000 0.00000000
0.00000000 0.00000000 0.00000000
0.05125794 0.00853782 0.00843534
0.11580329 0.01120188 0.01076966
0.17541337 0.01251327 0.01154121
0.23086892 0.01335314 0.01162991
0.28385262 0.01440278 0.01166169
0.33531641 0.01616200 0.01201859
0.38588751 0.01899811 0.01289282
0.43605244 0.02311657 0.01427765
0.48366251 0.02849211 0.01567396
0.52623613 0.03490916 0.01628669
0.56512888 0.04264150 0.01620276
0.60104885 0.05186442 0.01546558
0.63432258 0.06279573 0.01419906
0.66481369 0.07629098 0.01306490
0.69279578 0.09169941 0.01188997
0.71844537 0.10748529 0.01057029
0.74175155 0.12349327 0.00931267
0.76279516 0.13947589 0.00815678
0.78165077 0.15525478 0.00717338
0.79846784 0.17059105 0.00631817
0.81344643 0.18525868 0.00548588
0.82686940 0.19900950 0.00445155
0.83911557 0.21157247 0.00284927
0.85063186 0.22270662 0.00024313
0.86185660 0.23230666 0.00000000
0.87304475 0.24062580 0.00000000
0.88458150 0.24784379 0.00000000
0.89685679 0.25430801 0.00000000
0.00000000 0.00000000 0.00000000
0.00000000 0.00000000 0.00000000
0.00000000 0.00000000 0.00000000
0.00000000 0.00000000 0.00000000
0.00585022 0.00855015 0.00000000
0.05125794 0.00853782 0.00843534
0.11580329 0.01120188 0.01076966
0.17541337 0.01251327 0.01154121
0.23086892 0.01335314 0.01162991
0.28385262 0.01440278 0.01166169
0.33531641 0.01616200 0.01201859
0.38588751 0.01899811 0.01289282
0.43605244 0.02311657 0.01427765
0.48366251 0.02849211 0.01567396
0.52623613 0.03490916 0.01628669
0.56512888 0.04264150 0.01620276
0.60104885 0.05186442 0.01546558
0.63432258 0.06279573 0.01419906
0.66481369 0.07629098 0.01306490
0.69279578 0.09169941 0.01188997
0.71844537 0.10748529 0.01057029
0.74175155 0.12349327 0.00931267
0.76279516 0.13947589 0.00815678
0.78165077 0.15525478 0.00717338
0.79846784 0.17059105 0.00631817
0.81344643 0.18525868 0.00548588
0.82686940 0.19900950 0.00445155
0.83911557 0.21157247 0.00284927
0.85063186 0.22270662 0.00024313
0.86185660 0.23230666 0.00000000
0.87304475 0.24062580 0.00000000
0.88458150 0.24784379 0.00000000
0.89685679 0.25430801 0.00000000
0.01852811 0.06057848 0.01810363
0.01852811 0.06057848 0.01810363
0.01852811 0.06057848 0.01810363
0.01852811 0.06057848 0.01810363
0.01852811 0.06057848 0.01810363
0.07055315 0.07074774 0.01579943
0.13171772 0.07324480 0.01428639
0.18676677 0.07522097 0.01379274
0.23960193 0.07660775 0.01274874
0.29127565 0.07767439 0.01172436
0.34219969 0.07888506 0.01112681
0.39272003 0.08061341 0.01107674
0.44309969 0.08316304 0.01158799
0.49102180 0.08662274 0.01269113
0.53379454 0.09110650 0.01411911
0.57272210 0.09695736 0.01559109
0.60858582 0.10411272 0.01681503
0.64166419 0.11271439 0.01788288
0.67208438 0.12278220 0.01892970
0.70009575 0.13388925 0.01973261
0.72593537 0.14553816 0.02000615
0.74963369 0.15756940 0.01983396
0.77122648 0.16981576 0.01930426
0.79075866 0.18212445 0.01852080
0.80833062 0.19430701 0.01752057
0.82414080 0.20610187 0.01618936
0.83851763 0.21715739 0.01419453
0.85185272 0.22714963 0.01113338
0.86450696 0.23591310 0.00675839
0.87668372 0.24359914 0.00128986
0.88871453 0.25028927 0.00000000
0.90098468 0.25611419 0.00000000
0.91391632 0.26143229 0.00000000
0.02529957 0.12534916 0.02361326
0.02529957 0.12534916 0.02361326
0.02529957 0.12534916 0.02361326
0.02529957 0.12534916 0.02361326
0.02529957 0.12534916 0.02361326
0.07662587 0.13338723 0.01875430
0.13547880 0.13592312 0.01287600
0.19032622 0.13714406 0.01004858
0.24264666 0.13806901 0.00840113
0.29393294 0.13876244 0.00703483
0.34475767 0.13937100 0.00616883
0.39549123 0.14003472 0.00577006
0.44634789 0.14092439 0.00582122
0.49500922 0.14201791 0.00676072
0.53870744 0.14347298 0.00868053
0.57857780 0.14584582 0.01103340
0.61507634 0.14967878 0.01385444
0.64855571 0.15512120 0.01699371
0.67912057 0.16233340 0.02057612
0.70750858 0.17031448 0.02334598
0.73346206 0.17940362 0.02596648
0.75751848 0.18872037 0.02747039
0.77964919 0.19821561 0.02804790
0.79989813 0.20775352 0.02778217
0.81828738 0.21726692 0.02686059
0.83506420 0.22643286 0.02505007
0.85053653 0.23492990 0.02205030
0.86499657 0.24255098 0.01767792
0.87863134 0.24932140 0.01209017
0.89170106 0.25526725 0.00540928
0.90455441 0.26040995 0.00000000
0.91760464 0.26485078 0.00000000
0.93118049 0.26897041 0.00000000
0.02903936 0.18338128 0.02544257
0.02903936 0.18338128 0.02544257
0.02903936 0.18338128 0.02544257
0.02903936 0.18338128 0.02544257
0.02903936 0.18338128 0.02544257
0.08093593 0.18942926 0.01887686
0.13816636 0.19149478 0.01280930
0.19200702 0.19264844 0.00955329
0.24374141 0.19350887 0.00766299
0.29463208 0.19418669 0.00622352
0.34539323 0.19464903 0.00508499
0.39638991 0.19490203 0.00420542
0.44782558 0.19498427 0.00351313
0.49935997 0.19295243 0.00000000
0.54429803 0.19226111 0.00182800
0.58343783 0.19426130 0.00917087
0.62117519 0.19531663 0.01294545
0.65590876 0.19760510 0.01703242
0.68774884 0.20135093 0.02144428
0.71670188 0.20672673 0.02634322
0.74265112 0.21392838 0.03213954
0.76673249 0.22145453 0.03651919
0.78931820 0.22874432 0.03878809
0.81032626 0.23583528 0.03928302
0.82963445 0.24284888 0.03850384
0.84748868 0.24948583 0.03620471
0.86404446 0.25562400 0.03242532
0.87948527 0.26117912 0.02724175
0.89404593 0.26608684 0.02072683
0.90800158 0.27032788 0.01299009
0.92169477 0.27392051 0.00415627
0.93556159 0.27693809 0.00000000
0.94975637 0.27979001 0.00000000
0.03126460 0.23779674 0.02528542
0.03126460 0.23779674 0.02528542
0.03126460 0.23779674 0.02528542
0.03126460 0.23779674 0.02528542
0.03126460 0.23779674 0.02528542
0.08394131 0.24255633 0.01800764
0.14052331 0.24411066 0.01222899
0.19377103 0.24504521 0.00943084
0.24497768 0.24582127 0.00807001
0.29535840 0.24650367 0.00712521
0.34577769 0.24701034 0.00622065
0.39667589 0.24724769 0.00534087
0.44826674 0.24717219 0.00446044
0.49989349 0.24534178 0.00096721
0.54555458 0.24396039 0.00464826
0.58774422 0.24256293 0.00915040
0.62707462 0.24139445 0.01346184
0.66394028 0.24054912 0.01693659
0.69856979 0.24007117 0.01921240
0.72695030 0.24460474 0.02959714
0.75452213 0.24839595 0.03564067
0.77802093 0.25506550 0.04501479
0.80082394 0.26073503 0.05006863
0.82262935 0.26566142 0.05165776
0.84280870 0.27052450 0.05148628
0.86155904 0.27510148 0.04941582
0.87899779 0.27931300 0.04558738
0.89528560 0.28309404 0.04014689
0.91066033 0.28636562 0.03317711
0.92540396 0.28911452 0.02484159
0.93987596 0.29129468 0.01519691
0.95435192 0.29306750 0.00465121
0.96905586 0.29480925 0.00000000
0.03312689 0.29035125 0.02432695
0.03312689 0.29035125 0.02432695
0.03312689 0.29035125 0.02432695
0.03312689 0.29035125 0.02432695
0.03312689 0.29035125 0.02432695
0.08641304 0.29424662 0.01693505
0.14261580 0.29541903 0.01167847
0.19549412 0.29614602 0.00946016
0.24634167 0.29680226 0.00864043
0.29636026 0.29743497 0.00829413
0.34642174 0.29794668 0.00789584
0.39708080 0.29822038 0.00734530
0.44860244 0.29815617 0.00665720
0.49937696 0.29705594 0.00667413
0.54764566 0.29397111 0.00587486
0.59091322 0.29162592 0.01214200
0.63111041 0.28950331 0.01910275
0.66862142 0.28775620 0.02579991
0.70372498 0.28642962 0.03158184
0.73660150 0.28552510 0.03604912
0.76735759 0.28502853 0.03899111
0.79604032 0.28493284 0.04036130
0.81464554 0.29374287 0.05988648
0.83721275 0.29679747 0.06321765
0.85795416 0.30007111 0.06490582
0.87721404 0.30320750 0.06445469
0.89525575 0.30597044 0.06166421
0.91212649 0.30841319 0.05697502
0.92803282 0.31048613 0.05055738
0.94319099 0.31221093 0.04269436
0.95789836 0.31361450 0.03362378
0.97232522 0.31497966 0.02405760
0.98689586 0.31643043 0.01427386
0.03537144 0.34199040 0.02321057
0.03537144 0.34199040 0.02321057
0.03537144 0.34199040 0.02321057
0.03537144 0.34199040 0.02321057
0.03537144 0.34199040 0.02321057
0.08908981 0.34527690 0.01615528
0.14478061 0.34619408 0.01156092
0.19720303 0.34679331 0.00985091
0.24767794 0.34736690 0.00950232
0.29736737 0.34795728 0.00962542
0.34713066 0.34847439 0.00967142
0.39754161 0.34877275 0.00948411
0.44892907 0.34874586 0.00912106
0.50006883 0.34753601 0.00896641
0.54854869 0.34457809 0.01067512
0.59501131 0.34021076 0.01138764
0.63665982 0.33687833 0.02020484
0.67530621 0.33396083 0.02983324
0.71124136 0.33156191 0.03925921
0.74470485 0.32969254 0.04775997
0.77586832 0.32832552 0.05487655
0.80484618 0.32742177 0.06035833
0.83171503 0.32694099 0.06411081
0.85653394 0.32684478 0.06615332
0.87936269 0.32709676 0.06658564
0.89471717 0.33333197 0.07990786
0.91291797 0.33519842 0.07985146
0.92976794 0.33700358 0.07793006
0.94544667 0.33872925 0.07440023
0.96008112 0.34048856 0.06977511
0.97366756 0.34262684 0.06507950
0.98568220 0.34614988 0.06282672
0.99767227 0.34997718 0.06043822
0.03873968 0.39325945 0.02243418
0.03873968 0.39325945 0.02243418
0.03873968 0.39325945 0.02243418
0.03873968 0.39325945 0.02243418
0.03873968 0.39325945 0.02243418
0.09253471 0.39612557 0.01591900
0.14730735 0.39689873 0.01196713
0.19901510 0.39744757 0.01063971
0.24898535 0.39799712 0.01066703
0.29826713 0.39857936 0.01116300
0.34768992 0.39912346 0.01162372
0.39783154 0.39948867 0.01183337
0.44903146 0.39952799 0.01182464
0.50040644 0.39832753 0.01141114
0.55000625 0.39504027 0.01188556
0.59726490 0.39050661 0.01475798
0.64287213 0.38474515 0.01588700
0.68341256 0.38033197 0.02721321
0.72084281 0.37649805 0.03966215
0.75541326 0.37332775 0.05211036
0.78736220 0.37081142 0.06371640
0.81688208 0.36889837 0.07392095
0.84411902 0.36752583 0.08239784
0.86918686 0.36663196 0.08883057
0.89218554 0.36616042 0.09327929
0.91321924 0.36606115 0.09598541
0.93241279 0.36628988 0.09716736
0.94992623 0.36680776 0.09701898
0.96595025 0.36759793 0.09574026
0.97390239 0.37536047 0.10976933
0.98411918 0.38028694 0.11525961
0.99336289 0.38592665 0.12109459
1.00000000 0.39123848 0.12502576
0.04361925 0.44454708 0.02210701
0.04361925 0.44454708 0.02210701
0.04361925 0.44454708 0.02210701
0.04361925 0.44454708 0.02210701
0.04361925 0.44454708 0.02210701
0.09716859 0.44710851 0.01632508
0.15046243 0.44782248 0.01291616
0.20109883 0.44838593 0.01183920
0.25033660 0.44896803 0.01211566
0.29905414 0.44959284 0.01284003
0.34802852 0.45019208 0.01358917
0.39782366 0.45064833 0.01415562
0.44879128 0.45081169 0.01456704
0.50021300 0.44973249 0.01414752
0.55061821 0.44639970 0.01341104
0.59948220 0.44140211 0.01438549
0.64615021 0.43539150 0.01808713
0.69001790 0.42903909 0.02498356
0.73144648 0.42242892 0.03199458
0.76796810 0.41752113 0.04726353
0.80140336 0.41342286 0.06287494
0.83200608 0.41011756 0.07784176
0.86000679 0.40753818 0.09115382
0.88560054 0.40560106 0.10191074
0.90895467 0.40422332 0.11035826
0.93022466 0.40333018 0.11677278
0.94957192 0.40285718 0.12140917
0.96716402 0.40276481 0.12452776
0.98324230 0.40299346 0.12629623
0.98539493 0.41497759 0.15304131
0.99223478 0.42214998 0.16607199
0.99882136 0.42933724 0.17733621
1.00000000 0.43542646 0.18484648
0.05001863 0.49359310 0.02143177
0.05001863 0.49359310 0.02143177
0.05001863 0.49359310 0.02143177
0.05001863 0.49359310 0.02143177
0.05001863 0.49359310 0.02143177
0.10272310 0.49595976 0.01677858
0.15392276 0.49670033 0.01414555
0.20296956 0.49737243 0.01353198
0.25099112 0.49810202 0.01416950
0.29871406 0.49890835 0.01517328
0.34686892 0.49971572 0.01621838
0.39598701 0.50041220 0.01711905
0.44643728 0.50086351 0.01789536
0.49762752 0.50014682 0.01759261
0.54836591 0.49712245 0.01598318
0.59834683 0.49215793 0.01502812
0.64692961 0.48570494 0.01614570
0.69340600 0.47831220 0.02015674
0.73711086 0.47059441 0.02756686
0.77884522 0.46230137 0.03311279
0.81482472 0.45615839 0.05070101
0.84745376 0.45095403 0.06912368
0.87700132 0.44668311 0.08714040
0.90374083 0.44327480 0.10269712
0.92792533 0.44063216 0.11553379
0.94978695 0.43865532 0.12594929
0.96954866 0.43725296 0.13422865
0.98740696 0.43637417 0.14069568
0.98888599 0.44832774 0.17504806
0.99431319 0.45620440 0.19503126
0.99842211 0.46463909 0.21330742
1.00000000 0.47257821 0.22827620
1.00000000 0.47886894 0.23808371
0.05832341 0.53772768 0.01974277
0.05832341 0.53772768 0.01974277
0.05832341 0.53772768 0.01974277
0.05832341 0.53772768 0.01974277
0.05832341 0.53772768 0.01974277
0.10932941 0.53999737 0.01673637
0.15779295 0.54083793 0.01538538
0.20456539 0.54172312 0.01562464
0.25066581 0.54273850 0.01685405
0.29677565 0.54388746 0.01843191
0.34351989 0.54509578 0.02001740
0.39140150 0.54625382 0.02146173
0.44078731 0.54722763 0.02277747
0.49117728 0.54714757 0.02279816
0.54161504 0.54485461 0.02077440
0.59194024 0.54047542 0.01838530
0.64168766 0.53428019 0.01702032
0.69016188 0.52663609 0.01783215
0.73662547 0.51802813 0.02157133
0.78039895 0.50901671 0.02867044
0.82089059 0.50020017 0.03942802
0.85866540 0.49147063 0.04988850
0.89083810 0.48503052 0.07031078
0.91968024 0.47964431 0.09062380
0.94550160 0.47525397 0.10824338
0.96861256 0.47176184 0.12302381
0.98928015 0.46908509 0.13533082
0.99096228 0.48035733 0.18101936
0.99643305 0.48783931 0.20838745
0.99967186 0.49635188 0.23341133
1.00000000 0.50497549 0.25508868
1.00000000 0.51293875 0.27262347
1.00000000 0.51910222 0.28424748
0.06869433 0.57840729 0.01726731
0.06869433 0.57840729 0.01726731
0.06869433 0.57840729 0.01726731
0.06869433 0.57840729 0.01726731
0.06869433 0.57840729 0.01726731
0.11727184 0.58061958 0.01619168
0.16266762 0.58157765 0.01638962
0.20670525 0.58270822 0.01761302
0.25041276 0.58405329 0.01951671
0.29448580 0.58559372 0.02179523
0.33940946 0.58726296 0.02406054
0.38565150 0.58895531 0.02620754
0.43356906 0.59053967 0.02827042
0.48269458 0.59118725 0.02894417
0.53223330 0.58977642 0.02709089
0.58221605 0.58633120 0.02412574
0.63227386 0.58089202 0.02118599
0.68186905 0.57367279 0.01941415
0.73028656 0.56498818 0.01980328
0.77677895 0.55527787 0.02306450
0.82065113 0.54506814 0.02964163
0.86123716 0.53496918 0.04009838
0.89994412 0.52432481 0.04672787
0.93188888 0.51658329 0.06849976
0.96028296 0.50999475 0.09067069
0.98543642 0.50454648 0.11024482
0.99106701 0.51240557 0.16772684
0.99761153 0.51878826 0.20558201
1.00000000 0.52669821 0.23930454
1.00000000 0.53504780 0.26819400
1.00000000 0.54326438 0.29247787
1.00000000 0.55082561 0.31205027
1.00000000 0.55670137 0.32537403
0.08147053 0.61636697 0.01438950
0.08147053 0.61636697 0.01438950
0.08147053 0.61636697 0.01438950
0.08147053 0.61636697 0.01438950
0.08147053 0.61636697 0.01438950
0.12665990 0.61854728 0.01530939
0.16877388 0.61962940 0.01710075
0.20978546 0.62100829 0.01932314
0.25078313 0.62268613 0.02191437
0.29251332 0.62462107 0.02492446
0.33532603 0.62675339 0.02795700
0.37962820 0.62898787 0.03090191
0.42576414 0.63119839 0.03381702
0.47328484 0.63259369 0.03537309
0.52146950 0.63208968 0.03411394
0.57050347 0.62966982 0.03122654
0.62019205 0.62529178 0.02765522
0.67005906 0.61894283 0.02430338
0.71953471 0.61080840 0.02216911
0.76789828 0.60116959 0.02214419
0.81439597 0.59043741 0.02494972
0.85829284 0.57913311 0.03120759
0.89885311 0.56789103 0.04173507
0.93517577 0.55755103 0.05829577
0.97082609 0.54607741 0.06477786
0.98636701 0.54686897 0.12972968
0.99683428 0.55030145 0.18119882
1.00000000 0.55672375 0.22748374
1.00000000 0.56426842 0.26655479
1.00000000 0.57204320 0.29905048
1.00000000 0.57962312 0.32592173
1.00000000 0.58660353 0.34748964
1.00000000 0.59207744 0.36249604
0.09632067 0.65197786 0.01155926
0.09632067 0.65197786 0.01155926
0.09632067 0.65197786 0.01155926
0.09632067 0.65197786 0.01155926
0.09632067 0.65197786 0.01155926
0.13743193 0.65416201 0.01426866
0.17615193 0.65537184 0.01756316
0.21399164 0.65698810 0.02075316
0.25211021 0.65898308 0.02406275
0.29125709 0.66129559 0.02775137
0.33173476 0.66387241 0.03155349
0.37386415 0.66662972 0.03531610
0.41797331 0.66944819 0.03912459
0.46362162 0.67157149 0.04166179
0.51012659 0.67195778 0.04129153
0.55775679 0.67056039 0.03893590
0.60646535 0.66730251 0.03537688
0.65594522 0.66210449 0.03137134
0.70565896 0.65492290 0.02767383
0.75502131 0.64593047 0.02522577
0.80330298 0.63539185 0.02490921
0.84972166 0.62371502 0.02759881
0.89343299 0.61146963 0.03444063
0.93333481 0.59950804 0.04784054
0.96728153 0.58947379 0.07472176
0.98961393 0.58541532 0.12902434
0.99999181 0.58803750 0.19138917
1.00000000 0.59367629 0.24524843
1.00000000 0.60041537 0.28962803
1.00000000 0.60739235 0.32596089
1.00000000 0.61421265 0.35566658
1.00000000 0.62052486 0.37940092
1.00000000 0.62551742 0.39616434
0.11234665 0.68544942 0.00902814
0.11234665 0.68544942 0.00902814
0.11234665 0.68544942 0.00902814
0.11234665 0.68544942 0.00902814
0.11234665 0.68544942 0.00902814
0.14937428 0.68767358 0.01319387
0.18457743 0.68902998 0.01768046
0.21938271 0.69084382 0.02198528
0.25454438 0.69313017 0.02600512
0.29093110 0.69580259 0.03026376
0.32890308 0.69879810 0.03477107
0.36869166 0.70204515 0.03934403
0.41058524 0.70543764 0.04404151
0.45415034 0.70825074 0.04758478
0.49872777 0.70948285 0.04826480
0.54463020 0.70907663 0.04677251
0.59189948 0.70692542 0.04366642
0.64037608 0.70291715 0.03959605
0.68969013 0.69695624 0.03523387
0.73926212 0.68898071 0.03125006
0.78849304 0.67916370 0.02862034
0.83662452 0.66777453 0.02837878
0.88277227 0.65526790 0.03196426
0.92573140 0.64241478 0.04229579
0.96322223 0.63077614 0.06714828
0.98931040 0.62429986 0.12444274
1.00000000 0.62521025 0.19635168
1.00000000 0.62953563 0.25793070
1.00000000 0.63518981 0.30814859
1.00000000 0.64121771 0.34883876
1.00000000 0.64719235 0.38179619
1.00000000 0.65277385 0.40798092
1.00000000 0.65721569 0.42663326
0.12912180 0.71690157 0.00690304
0.12912180 0.71690157 0.00690304
0.12912180 0.71690157 0.00690304
0.12912180 0.71690157 0.00690304
0.12912180 0.71690157 0.00690304
0.16217828 0.71919828 0.01214385
0.19402859 0.72069276 0.01770395
0.22590998 0.72267976 0.02310929
0.25811808 0.72523093 0.02780197
0.29163702 0.72824292 0.03250156
0.32697839 0.73163067 0.03759657
0.36431101 0.73533011 0.04293493
0.40385513 0.73925484 0.04849572
0.44517907 0.74271023 0.05303739
0.48765411 0.74472694 0.05491566
0.53158305 0.74525707 0.05449294
0.57707653 0.74417938 0.05214449
0.62408146 0.74134602 0.04840891
0.67237167 0.73663051 0.04389316
0.72153516 0.72993375 0.03921951
0.77095524 0.72118442 0.03507173
0.82000682 0.71057113 0.03259024
0.86784746 0.69840272 0.03333073
0.91330987 0.68528297 0.04031838
0.95428319 0.67248979 0.06107657
0.98570957 0.66316702 0.11369683
1.00000000 0.66172365 0.19446751
1.00000000 0.66433923 0.26457394
1.00000000 0.66868629 0.32157002
1.00000000 0.67364160 0.36741072
1.00000000 0.67869789 0.40421773
1.00000000 0.68349644 0.43326173
1.00000000 0.68730947 0.45396095
0.14626103 0.74639760 0.00524122
0.14626103 0.74639760 0.00524122
0.14626103 0.74639760 0.00524122
0.14626103 0.74639760 0.00524122
0.14626103 0.74639760 0.00524122
0.17561566 0.74878571 0.01125040
0.20430885 0.75041323 0.01772007
0.23341819 0.75255347 0.02416005
0.26277750 0.75533895 0.02951564
0.29345131 0.75865751 0.03464048
0.32605764 0.76241691 0.04013230
0.36083706 0.76653775 0.04609323
0.39795142 0.77094944 0.05248304
0.43588570 0.77529871 0.05395620
0.47651129 0.77794464 0.05794642
0.51819376 0.77939955 0.05726270
0.56243987 0.77906017 0.06071715
0.60761339 0.77737458 0.05753547
0.65439927 0.77389339 0.05319532
0.70251911 0.76848923 0.04825923
0.75152741 0.76106821 0.04336182
0.80076390 0.75155939 0.03931957
0.84954405 0.74018853 0.03771341
0.89682988 0.72736305 0.04135306
0.94084582 0.71400454 0.05675282
0.97773732 0.70232462 0.09977624
0.99798341 0.69773410 0.18467036
1.00000000 0.69821403 0.26407188
1.00000000 0.70102681 0.32911363
1.00000000 0.70478511 0.38119512
1.00000000 0.70885736 0.42269872
1.00000000 0.71284068 0.45522994
1.00000000 0.71591331 0.47808438
0.16341589 0.77397351 0.00404025
0.16341589 0.77397351 0.00404025
0.16341589 0.77397351 0.00404025
0.16341589 0.77397351 0.00404025
0.16341589 0.77397351 0.00404025
0.18938632 0.77646673 0.01053637
0.21509709 0.77823147 0.01766310
0.24149092 0.78053027 0.02483469
0.26839191 0.78348482 0.03117395
0.29629251 0.78708125 0.03666669
0.32615410 0.79118430 0.04244108
0.35832632 0.79569697 0.04886816
0.39300717 0.80054299 0.05612521
0.42872729 0.80536185 0.05961631
0.46728018 0.80858754 0.06600245
0.50678690 0.81078946 0.06784801
0.54773188 0.81179438 0.06526743
0.59142321 0.81097106 0.06702329
0.63631825 0.80870657 0.06296783
0.68290083 0.80459039 0.05801360
0.73084780 0.79850260 0.05270792
0.77968040 0.79036272 0.04778254
0.82867577 0.78011244 0.04440028
0.87702488 0.76804783 0.04509396
0.92328423 0.75477455 0.05537646
0.96440907 0.74184384 0.08936624
0.99248327 0.73343497 0.16579454
