Luts Download/Canon Luts/3dlut/33grid-3dlut/full-to-full-range/BT2020_CanonLog3-to-BT709_WideDR_33_FF_Ver.2.0.cube
# Gamut : BT.2020 to BT.709
# Gamma : Canon Log 3 to Wide DR
# Range : Full in / Full out
# Version : 2.0 2019/10/24
# Copyright(c) 2019 Canon Inc. All Rights Reserved.
LUT_3D_SIZE 9
# LUT_3D_INPUT_RANGE 0.0 1.0
0.00000000 0.00000000 0.00000000
0.00000000 0.00000000 0.00000000
0.27123619 0.00038206 0.02178835
0.52466530 0.00000000 0.04631482
0.73578369 0.00000000 0.06343933
0.89404693 0.00364420 0.04298426
0.98912616 0.07244479 0.02202650
1.00000000 0.20830608 0.07889394
1.00000000 0.31436355 0.17041030
0.00000000 0.00000000 0.00000000
0.00577543 0.00829994 0.00000000
0.27123619 0.00038206 0.02178835
0.52466530 0.00000000 0.04631482
0.73578369 0.00000000 0.06343933
0.89404693 0.00364420 0.04298426
0.98912616 0.07244479 0.02202650
1.00000000 0.20830608 0.07889394
1.00000000 0.31436355 0.17041030
0.00000000 0.22343022 0.06512008
0.00000000 0.22343022 0.06512008
0.24291454 0.23669774 0.00000000
0.53722740 0.21228288 0.00000000
0.78752465 0.16077568 0.00578707
0.94663277 0.15062565 0.03943641
0.99836154 0.24063312 0.13109648
1.00000000 0.32577755 0.20346157
1.00000000 0.40436701 0.27423050
0.00000000 0.43961130 0.15285475
0.00000000 0.43961130 0.15285475
0.10536105 0.46450632 0.01743679
0.46621748 0.45926072 0.00000000
0.77545720 0.41565175 0.00000000
0.98529362 0.36916877 0.08563327
1.00000000 0.43024575 0.27724281
1.00000000 0.48512358 0.36269062
1.00000000 0.54053416 0.42663282
0.00000000 0.62730993 0.21621521
0.00000000 0.62730993 0.21621521
0.00000000 0.65242197 0.12545187
0.30379229 0.67292044 0.01454508
0.65920608 0.65704313 0.00000000
0.96273981 0.59488126 0.06146856
1.00000000 0.60537725 0.38301478
1.00000000 0.63854456 0.50793689
1.00000000 0.67859573 0.57909360
0.00000000 0.77012810 0.24378910
0.00000000 0.77012810 0.24378910
0.00000000 0.79106380 0.20050196
0.06162840 0.82757392 0.07929594
0.45219142 0.84120533 0.02676491
0.80413621 0.81003240 0.03015892
1.00000000 0.75887190 0.36843459
1.00000000 0.76521406 0.60589034
1.00000000 0.79088758 0.69810415
0.00000000 0.87333223 0.25086656
0.00000000 0.87333223 0.25086656
0.00000000 0.89129851 0.23315820
0.00000000 0.92619864 0.18693846
0.20970462 0.96456881 0.08232142
0.56838487 0.96498379 0.09006080
0.90515424 0.92085545 0.15951179
1.00000000 0.87372185 0.61872268
1.00000000 0.88033318 0.78149818
0.00000000 0.94560804 0.25149006
0.00000000 0.94560804 0.25149006
0.00000000 0.96110958 0.25110665
0.11884968 0.98767963 0.26934780
0.40416172 1.00000000 0.38299260
0.61609549 1.00000000 0.49637444
0.77499239 1.00000000 0.53632350
0.96076764 0.98912572 0.50653344
1.00000000 0.95743060 0.84393621
0.22354380 1.00000000 0.33805917
0.22354380 1.00000000 0.33805917
0.34383912 1.00000000 0.39840043
0.50989439 1.00000000 0.50933018
0.67273628 1.00000000 0.64108993
0.80217549 1.00000000 0.75786859
0.89903370 1.00000000 0.85024729
0.97248531 1.00000000 0.92978318
1.00000000 1.00000000 1.00000000
0.00000000 0.00000000 0.00000000
0.00000000 0.00000000 0.00000000
0.27123619 0.00038206 0.02178835
0.52466530 0.00000000 0.04631482
0.73578369 0.00000000 0.06343933
0.89404693 0.00364420 0.04298426
0.98912616 0.07244479 0.02202650
1.00000000 0.20830608 0.07889394
1.00000000 0.31436355 0.17041030
0.00000000 0.00000000 0.00000000
0.00000000 0.00000000 0.00000000
0.27123619 0.00038206 0.02178835
0.52466530 0.00000000 0.04631482
0.73578369 0.00000000 0.06343933
0.89404693 0.00364420 0.04298426
0.98912616 0.07244479 0.02202650
1.00000000 0.20830608 0.07889394
1.00000000 0.31436355 0.17041030
0.00000000 0.22343022 0.06512008
0.00000000 0.22343022 0.06512008
0.24291454 0.23669774 0.00000000
0.53722740 0.21228288 0.00000000
0.78752465 0.16077568 0.00578707
0.94663277 0.15062565 0.03943641
0.99836154 0.24063312 0.13109648
1.00000000 0.32577755 0.20346157
1.00000000 0.40436701 0.27423050
0.00000000 0.43961130 0.15285475
0.00000000 0.43961130 0.15285475
0.10536105 0.46450632 0.01743679
0.46621748 0.45926072 0.00000000
0.77545720 0.41565175 0.00000000
0.98529362 0.36916877 0.08563327
1.00000000 0.43024575 0.27724281
1.00000000 0.48512358 0.36269062
1.00000000 0.54053416 0.42663282
0.00000000 0.62730993 0.21621521
0.00000000 0.62730993 0.21621521
0.00000000 0.65242197 0.12545187
0.30379229 0.67292044 0.01454508
0.65920608 0.65704313 0.00000000
0.96273981 0.59488126 0.06146856
1.00000000 0.60537725 0.38301478
1.00000000 0.63854456 0.50793689
1.00000000 0.67859573 0.57909360
0.00000000 0.77012810 0.24378910
0.00000000 0.77012810 0.24378910
0.00000000 0.79106380 0.20050196
0.06162840 0.82757392 0.07929594
0.45219142 0.84120533 0.02676491
0.80413621 0.81003240 0.03015892
1.00000000 0.75887190 0.36843459
1.00000000 0.76521406 0.60589034
1.00000000 0.79088758 0.69810415
0.00000000 0.87333223 0.25086656
0.00000000 0.87333223 0.25086656
0.00000000 0.89129851 0.23315820
0.00000000 0.92619864 0.18693846
0.20970462 0.96456881 0.08232142
0.56838487 0.96498379 0.09006080
0.90515424 0.92085545 0.15951179
1.00000000 0.87372185 0.61872268
1.00000000 0.88033318 0.78149818
0.00000000 0.94560804 0.25149006
0.00000000 0.94560804 0.25149006
0.00000000 0.96110958 0.25110665
0.11884968 0.98767963 0.26934780
0.40416172 1.00000000 0.38299260
0.61609549 1.00000000 0.49637444
0.77499239 1.00000000 0.53632350
0.96076764 0.98912572 0.50653344
1.00000000 0.95743060 0.84393621
0.22354380 1.00000000 0.33805917
0.22354380 1.00000000 0.33805917
0.34383912 1.00000000 0.39840043
0.50989439 1.00000000 0.50933018
0.67273628 1.00000000 0.64108993
0.80217549 1.00000000 0.75786859
0.89903370 1.00000000 0.85024729
0.97248531 1.00000000 0.92978318
1.00000000 1.00000000 1.00000000
0.00069161 0.01794441 0.15792741
0.00069161 0.01794441 0.15792741
0.27091294 0.00635139 0.21641903
0.51459807 0.00524888 0.24022043
0.72798127 0.01090409 0.24105667
0.89141149 0.02315274 0.20870779
0.98628229 0.09995864 0.16708430
0.99822544 0.23121710 0.17654129
1.00000000 0.33380484 0.22583177
0.00069161 0.01794441 0.15792741
0.00069161 0.01794441 0.15792741
0.27091294 0.00635139 0.21641903
0.51459807 0.00524888 0.24022043
0.72798127 0.01090409 0.24105667
0.89141149 0.02315274 0.20870779
0.98628229 0.09995864 0.16708430
0.99822544 0.23121710 0.17654129
1.00000000 0.33380484 0.22583177
0.00000000 0.22659995 0.21656545
0.00000000 0.22659995 0.21656545
0.23600832 0.23600832 0.23600832
0.55633662 0.19404658 0.22949802
0.81399935 0.12093446 0.21071839
0.94956728 0.15165063 0.21323247
0.99172263 0.25720865 0.24001721
0.99754110 0.34175445 0.26940112
1.00000000 0.41919108 0.31582101
0.00000000 0.43487879 0.28269430
0.00000000 0.43487879 0.28269430
0.06897950 0.46498054 0.23686289
0.46745575 0.45788713 0.19622741
0.78998261 0.40579625 0.21141918
0.95876252 0.38969575 0.27741393
0.99152018 0.44542037 0.36135286
0.99632054 0.49779416 0.41124822
1.00000000 0.55288890 0.45888322
0.00000000 0.62214414 0.32300941
0.00000000 0.62214414 0.32300941
0.00801225 0.64720768 0.28104288
0.23740382 0.68174395 0.15824387
0.66354911 0.65505517 0.15661380
0.96720387 0.59223747 0.23344987
1.00000000 0.61192407 0.44940614
1.00000000 0.64877771 0.54654743
1.00000000 0.69101592 0.60704991
0.00377765 0.76661832 0.32828537
0.00377765 0.76661832 0.32828537
0.00982878 0.78692952 0.30360194
0.11417932 0.82366199 0.24344364
0.43835978 0.84386703 0.17051446
0.80799596 0.80894189 0.15917573
1.00000000 0.76051381 0.43216513
1.00000000 0.77340219 0.63923084
1.00000000 0.80367646 0.72432155
0.00680912 0.87197346 0.31326693
0.00680912 0.87197346 0.31326693
0.01620729 0.88943725 0.30260480
0.08055667 0.92283714 0.28107791
0.24498323 0.96250471 0.21770094
0.57402373 0.96516789 0.20758624
0.90761676 0.92099765 0.24335761
1.00000000 0.87862738 0.65346473
1.00000000 0.89191955 0.80783243
0.01667804 0.94605109 0.29547714
0.01667804 0.94605109 0.29547714
0.04618592 0.96103439 0.29790553
0.18431328 0.98594941 0.32514080
0.43669539 0.99913307 0.43185635
0.63486551 1.00000000 0.53583446
0.78720416 1.00000000 0.57617249
0.96205181 0.98852940 0.56781506
1.00000000 0.96490738 0.87349126
0.29438129 1.00000000 0.38540460
0.29438129 1.00000000 0.38540460
0.38890190 1.00000000 0.43829570
0.53868136 1.00000000 0.54123300
0.69570406 1.00000000 0.66942214
0.82309331 1.00000000 0.78555311
0.91818774 1.00000000 0.87914664
1.00000000 1.00000000 1.00000000
1.00000000 1.00000000 1.00000000
0.00000000 0.06352697 0.31973021
0.00000000 0.06352697 0.31973021
0.26478182 0.02128095 0.41295965
0.51856336 0.01383297 0.42264152
0.73967471 0.01193999 0.40526380
0.90736646 0.02115194 0.35890102
0.99450972 0.12297978 0.30425992
1.00000000 0.25656760 0.28169193
1.00000000 0.35666431 0.29740909
0.00000000 0.06352697 0.31973021
0.00000000 0.06352697 0.31973021
0.26478182 0.02128095 0.41295965
0.51856336 0.01383297 0.42264152
0.73967471 0.01193999 0.40526380
0.90736646 0.02115194 0.35890102
0.99450972 0.12297978 0.30425992
1.00000000 0.25656760 0.28169193
1.00000000 0.35666431 0.29740909
0.00000000 0.24222235 0.36081383
0.00000000 0.24222235 0.36081383
0.20998218 0.23401624 0.47601838
0.54692292 0.19047614 0.47204279
0.80572921 0.13575625 0.42649297
0.95890448 0.15343999 0.37703490
0.99873656 0.26891114 0.35617957
0.99960078 0.35927150 0.35273519
1.00000000 0.43765621 0.37403722
0.00000000 0.43942878 0.42223645
0.00000000 0.43942878 0.42223645
0.05294606 0.46421674 0.44894882
0.45620114 0.45620114 0.45620114
0.75119373 0.42603239 0.44940714
0.94052037 0.40885984 0.43922858
0.98781035 0.45975202 0.45818971
0.99505142 0.51323713 0.47658269
1.00000000 0.56944434 0.50560850
0.01162812 0.62212993 0.44962571
0.01162812 0.62212993 0.44962571
0.04520368 0.64499952 0.44201191
0.29797357 0.67090880 0.42756908
0.65934130 0.65340957 0.42770037
0.94277375 0.60459288 0.44417051
0.99410790 0.62829822 0.54851496
0.99686347 0.66573253 0.60523235
1.00000000 0.70873785 0.64868455
0.04207282 0.76627114 0.43903720
0.04207282 0.76627114 0.43903720
0.07219226 0.78531220 0.43113434
0.20439304 0.81780733 0.41693778
0.49204516 0.83266243 0.41853055
0.80824619 0.80810456 0.39727947
1.00000000 0.76723286 0.53894422
1.00000000 0.78707237 0.69162423
1.00000000 0.82200365 0.76291341
0.05060655 0.87362463 0.40260067
0.05060655 0.87362463 0.40260067
0.08247263 0.89015131 0.40092768
0.18174416 0.92034866 0.40267293
0.34688220 0.95369064 0.39581283
0.61641085 0.95741697 0.40566483
0.91313821 0.92276410 0.36900357
1.00000000 0.88759219 0.71204022
1.00000000 0.90902313 0.84627647
0.06709108 0.94966265 0.36217862
0.06709108 0.94966265 0.36217862
0.11998950 0.96350152 0.37089577
0.27024149 0.98411423 0.41332407
0.49678994 0.99444908 0.51668996
0.66973610 1.00000000 0.60487252
0.81112902 1.00000000 0.64789688
0.96632214 0.98854393 0.66187956
1.00000000 0.97681975 0.91675949
0.35677084 1.00000000 0.44462867
0.35677084 1.00000000 0.44462867
0.44315100 1.00000000 0.49541074
0.58259610 1.00000000 0.59309487
0.73182340 1.00000000 0.71537028
0.85568660 1.00000000 0.82900601
0.94763579 1.00000000 0.92277171
1.00000000 1.00000000 1.00000000
1.00000000 1.00000000 1.00000000
0.00000000 0.14244563 0.40913863
0.00000000 0.14244563 0.40913863
0.19973354 0.06085695 0.61184965
0.48849758 0.03844249 0.63224925
0.73566721 0.02396977 0.59944058
0.91855571 0.02517730 0.53058706
1.00000000 0.15217590 0.45161513
1.00000000 0.28538340 0.39978742
1.00000000 0.38208661 0.38661933
0.00000000 0.14244563 0.40913863
0.00000000 0.14244563 0.40913863
0.19973354 0.06085695 0.61184965
0.48849758 0.03844249 0.63224925
0.73566721 0.02396977 0.59944058
0.91855571 0.02517730 0.53058706
1.00000000 0.15217590 0.45161513
1.00000000 0.28538340 0.39978742
1.00000000 0.38208661 0.38661933
0.00000000 0.26754330 0.47892878
0.00000000 0.26754330 0.47892878
0.13913114 0.23753977 0.68541266
0.49223041 0.20643286 0.70514023
0.78626498 0.14073204 0.65985742
0.96593743 0.15144578 0.56190378
1.00000000 0.28369610 0.48994118
1.00000000 0.37922371 0.45383357
1.00000000 0.45795476 0.44969887
0.00962731 0.44305949 0.56524789
0.00962731 0.44305949 0.56524789
0.09369694 0.45709865 0.64152883
0.43158371 0.45626682 0.67103406
0.74394648 0.42244302 0.66404294
0.95428168 0.40260973 0.60288505
1.00000000 0.46412296 0.56523280
1.00000000 0.52586653 0.55394415
1.00000000 0.58502903 0.56370656
0.00000000 0.62805171 0.60386147
0.00000000 0.62805171 0.60386147
0.00000000 0.64876558 0.62526718
0.25694036 0.67120387 0.65303947
0.65092930 0.65092930 0.65092930
0.88630748 0.62997648 0.64459248
0.98150794 0.64429737 0.65240894
0.99412814 0.68145105 0.67079949
1.00000000 0.72501067 0.69598873
0.01919138 0.77130197 0.57560583
0.01919138 0.77130197 0.57560583
0.05821461 0.78902344 0.57978127
0.23723462 0.81588116 0.59135184
0.55420884 0.81741401 0.62797164
0.80638056 0.80454199 0.63133761
0.99202679 0.77915443 0.67645364
1.00000000 0.80334712 0.75687864
1.00000000 0.84005309 0.80602356
0.07944980 0.87804443 0.52157326
0.07944980 0.87804443 0.52157326
0.12902028 0.89307607 0.52701367
0.25573091 0.91828735 0.54559044
0.48981095 0.93246576 0.59684748
0.69338005 0.93718645 0.62920722
0.91250001 0.91930556 0.61469531
1.00000000 0.89813100 0.78566467
1.00000000 0.92621944 0.88722505
0.12728755 0.95458948 0.46027828
0.12728755 0.95458948 0.46027828
0.19565309 0.96605326 0.47573847
0.36005767 0.98044404 0.52927375
0.56417839 0.98810011 0.62307950
0.71691683 0.99551731 0.69886258
0.84199685 0.99961090 0.73991645
0.97392945 0.98896435 0.76790619
1.00000000 0.98993915 0.96018735
0.42538944 1.00000000 0.52545952
0.42538944 1.00000000 0.52545952
0.50421047 1.00000000 0.57213958
0.63288572 1.00000000 0.66096712
0.77388984 1.00000000 0.77348467
0.89269506 1.00000000 0.87996218
1.00000000 1.00000000 1.00000000
1.00000000 1.00000000 1.00000000
1.00000000 1.00000000 1.00000000
0.00000000 0.20910276 0.43845589
0.00000000 0.20910276 0.43845589
0.01921504 0.17712592 0.68149180
0.38273738 0.09619192 0.84079288
0.67722349 0.05737555 0.82317626
0.90050112 0.04016170 0.73117032
1.00000000 0.16795177 0.61004240
1.00000000 0.30716402 0.52255068
1.00000000 0.40223497 0.48449942
0.00000000 0.20910276 0.43845589
0.00000000 0.20910276 0.43845589
0.01921504 0.17712592 0.68149180
0.38273738 0.09619192 0.84079288
0.67722349 0.05737555 0.82317626
0.90050112 0.04016170 0.73117032
1.00000000 0.16795177 0.61004240
1.00000000 0.30716402 0.52255068
1.00000000 0.40223497 0.48449942
0.00000000 0.30024326 0.54325947
0.00000000 0.30024326 0.54325947
0.02746869 0.29068264 0.73270528
0.37820716 0.24524337 0.89001732
0.70098339 0.19032757 0.88817150
0.94328284 0.15368163 0.77895928
1.00000000 0.29261420 0.63779444
1.00000000 0.39547244 0.56333282
1.00000000 0.47453612 0.53545367
0.02383903 0.44901813 0.67629267
0.02383903 0.44901813 0.67629267
0.08830429 0.45862904 0.77247075
0.37260175 0.46481685 0.83687159
0.67244496 0.44267900 0.86449198
0.93779204 0.39998651 0.80360083
1.00000000 0.46675134 0.69135793
1.00000000 0.53643919 0.64148392
1.00000000 0.59770106 0.63061850
0.02067970 0.61891426 0.75480039
0.02067970 0.61891426 0.75480039
0.06938829 0.63453400 0.79927220
0.33046626 0.65058383 0.84000558
0.62908035 0.65233573 0.81894268
0.88258129 0.62647865 0.81050827
0.99513088 0.64333201 0.75484140
1.00000000 0.68854530 0.73617312
1.00000000 0.73609366 0.74505050
0.00000000 0.77358943 0.74378137
0.00000000 0.77358943 0.74378137
0.00000000 0.79095984 0.76136713
0.12642477 0.81787684 0.79055819
0.52643308 0.81865631 0.80285704
0.80176386 0.80176386 0.80176386
0.96594639 0.79171509 0.79999653
0.99466672 0.81636973 0.81783863
1.00000000 0.85319691 0.84549947
0.00919651 0.88298694 0.66679237
0.00919651 0.88298694 0.66679237
0.05308339 0.89803438 0.67553339
0.21356121 0.92267456 0.69629309
0.50130166 0.93097799 0.73868918
0.73871077 0.92394568 0.78420706
0.91469511 0.91491698 0.78837905
1.00000000 0.90774164 0.85864551
1.00000000 0.94017004 0.92277804
0.13512355 0.95909983 0.58257122
0.13512355 0.95909983 0.58257122
0.21007679 0.96964741 0.59775693
0.38874395 0.98110506 0.64548542
0.59942010 0.98565993 0.72446254
0.75660888 0.99001266 0.79365777
0.87084529 0.99530753 0.83218177
0.98254878 0.98950654 0.85985635
1.00000000 1.00000000 1.00000000
0.47591216 1.00000000 0.61671488
0.47591216 1.00000000 0.61671488
0.54913944 1.00000000 0.65627333
0.67170758 1.00000000 0.73282343
0.80890285 1.00000000 0.83180102
0.92544344 1.00000000 0.92713345
1.00000000 1.00000000 1.00000000
1.00000000 1.00000000 1.00000000
1.00000000 1.00000000 1.00000000
0.00000000 0.25460495 0.45511411
0.00000000 0.25460495 0.45511411
0.00000000 0.27631115 0.58373928
0.15493197 0.23732527 0.90083172
0.51323626 0.20903650 0.97464234
0.80941504 0.12165222 0.94854042
0.98940405 0.15304835 0.80212427
1.00000000 0.31372387 0.65240673
1.00000000 0.41332257 0.58651081
0.00000000 0.25460495 0.45511411
0.00000000 0.25460495 0.45511411
0.00000000 0.27631115 0.58373928
0.15493197 0.23732527 0.90083172
0.51323626 0.20903650 0.97464234
0.80941504 0.12165222 0.94854042
0.98940405 0.15304835 0.80212427
1.00000000 0.31372387 0.65240673
1.00000000 0.41332257 0.58651081
0.00000000 0.33190434 0.56838345
0.00000000 0.33190434 0.56838345
0.00000000 0.34713033 0.69486180
0.19014088 0.33879905 0.91510129
0.52298582 0.32925322 0.97149852
0.82141073 0.26153280 0.96403906
0.99445544 0.28527399 0.81734054
1.00000000 0.40127340 0.68058485
1.00000000 0.48412654 0.62602772
0.01747778 0.46154270 0.73772537
0.01747778 0.46154270 0.73772537
0.04856234 0.47449122 0.82530677
0.27249808 0.49055323 0.92238617
0.54814054 0.49680406 0.95616297
0.82430384 0.45872619 0.96136531
0.99433554 0.46611430 0.84374102
1.00000000 0.54152590 0.73669222
1.00000000 0.60575145 0.70194794
0.06693602 0.61243006 0.86627939
0.06693602 0.61243006 0.86627939
0.12806522 0.62600094 0.91467736
0.34996371 0.64641879 0.93661100
0.57933103 0.66207334 0.94294903
0.81109976 0.64918175 0.95154052
0.98804157 0.64277413 0.88139215
1.00000000 0.69283031 0.80861952
1.00000000 0.74368257 0.79637751
0.01973299 0.75498001 0.90348631
0.01973299 0.75498001 0.90348631
0.07585517 0.76963860 0.93088032
0.29105571 0.79048164 0.95834748
0.57107412 0.80155577 0.94417803
0.78415954 0.80348881 0.92579722
0.97652610 0.78429521 0.91800383
1.00000000 0.81947081 0.87312219
1.00000000 0.86131277 0.88165018
0.00000000 0.87973517 0.84580005
0.00000000 0.87973517 0.84580005
0.00000000 0.89485974 0.86094011
0.08961000 0.92006661 0.88742545
0.38438933 0.93999705 0.91278116
0.71848471 0.92538640 0.91287688
0.91241619 0.91241619 0.91241619
0.99708051 0.91664536 0.91989554
1.00000000 0.95046491 0.95044815
0.04577125 0.96115775 0.73265676
0.04577125 0.96115775 0.73265676
0.12931365 0.97287182 0.74472624
0.33413560 0.98653943 0.77615412
0.57943189 0.99025201 0.82751015
0.76413871 0.99032076 0.87733901
0.89230118 0.99105675 0.91375221
0.99220637 0.99315868 0.90331265
1.00000000 1.00000000 1.00000000
0.49589290 1.00000000 0.71598135
0.49589290 1.00000000 0.71598135
0.56758346 1.00000000 0.74617789
0.69118334 1.00000000 0.80655094
0.83184242 1.00000000 0.88677610
0.95014982 1.00000000 0.96467481
1.00000000 1.00000000 1.00000000
1.00000000 1.00000000 1.00000000
1.00000000 1.00000000 1.00000000
0.00000000 0.28495461 0.46935392
0.00000000 0.28495461 0.46935392
0.00000000 0.31609982 0.54778648
0.00000000 0.35533020 0.75159343
0.27159670 0.35111223 0.97944521
0.59159347 0.33348104 1.00000000
0.87154715 0.24812375 0.98351972
1.00000000 0.29694677 0.81604049
1.00000000 0.41274821 0.69685674
0.00000000 0.28495461 0.46935392
0.00000000 0.28495461 0.46935392
0.00000000 0.31609982 0.54778648
0.00000000 0.35533020 0.75159343
0.27159670 0.35111223 0.97944521
0.59159347 0.33348104 1.00000000
0.87154715 0.24812375 0.98351972
1.00000000 0.29694677 0.81604049
1.00000000 0.41274821 0.69685674
0.00000000 0.35648388 0.57845757
0.00000000 0.35648388 0.57845757
0.00000000 0.38173675 0.66151176
0.00565349 0.41310009 0.84141125
0.31763335 0.42700490 0.98147135
0.61239391 0.41615221 1.00000000
0.88033103 0.35372395 0.98265720
1.00000000 0.39097574 0.82800775
1.00000000 0.48459145 0.72428489
0.00528551 0.47702170 0.75994849
0.00528551 0.47702170 0.75994849
0.01379435 0.49541632 0.82904935
0.15236636 0.52394873 0.93528600
0.41289634 0.55139797 0.97446419
0.65523858 0.55008306 0.99489151
0.89423877 0.51167853 0.98100080
1.00000000 0.53761698 0.85510960
1.00000000 0.60767612 0.77899699
0.06837699 0.61416076 0.92682932
0.06837699 0.61416076 0.92682932
0.13515579 0.62909591 0.96488212
0.33744021 0.65618128 0.96780442
0.52802221 0.68448801 0.96919672
0.70971927 0.69410905 0.98570539
0.90468153 0.67602037 0.98320601
1.00000000 0.69327424 0.89586918
1.00000000 0.74729303 0.85030130
0.20214382 0.73751681 0.98993154
0.20214382 0.73751681 0.98993154
0.30005541 0.74912850 0.99072991
0.45006749 0.77129878 0.98575234
0.61264856 0.79695166 0.97780144
0.75797956 0.81426356 0.97973184
0.90560750 0.81218755 0.98721675
1.00000000 0.82207757 0.93776025
1.00000000 0.86661504 0.91725754
0.18511013 0.84837613 0.99208033
0.18511013 0.84837613 0.99208033
0.27844047 0.85851937 0.99799070
0.43812794 0.87601743 1.00000000
0.61924431 0.89475857 0.99679737
0.77827044 0.90813030 0.98857181
0.90263762 0.91507166 0.98639102
0.99681287 0.91964669 0.97112266
1.00000000 0.95752367 0.97214933
0.00000000 0.95191753 0.91574032
0.00000000 0.95191753 0.91574032
0.05192403 0.96369375 0.92790274
0.28376036 0.98016014 0.94693720
0.56086053 0.98609435 0.96098016
0.75893498 0.98844015 0.97322026
0.89599598 0.99005022 0.98371662
0.99115111 0.99115111 0.99115111
1.00000000 1.00000000 1.00000000
0.46794238 1.00000000 0.82984109
0.46794238 1.00000000 0.82984109
0.54675203 1.00000000 0.84879016
0.68464717 1.00000000 0.88775297
0.84050595 1.00000000 0.94063258
1.00000000 1.00000000 1.00000000
1.00000000 1.00000000 1.00000000
1.00000000 1.00000000 1.00000000
1.00000000 1.00000000 1.00000000
0.00000000 0.31751943 0.49997894
0.00000000 0.31751943 0.49997894
0.00000000 0.34907303 0.55968606
0.00000000 0.40288642 0.69745776
0.00000000 0.44012240 0.93021911
0.36212142 0.45180333 1.00000000
0.64885891 0.42444785 1.00000000
0.91061507 0.34121994 1.00000000
1.00000000 0.41275043 0.83958085
0.00000000 0.31751943 0.49997894
0.00000000 0.31751943 0.49997894
0.00000000 0.34907303 0.55968606
0.00000000 0.40288642 0.69745776
0.00000000 0.44012240 0.93021911
0.36212142 0.45180333 1.00000000
0.64885891 0.42444785 1.00000000
0.91061507 0.34121994 1.00000000
1.00000000 0.41275043 0.83958085
0.00000000 0.38402172 0.60227523
0.00000000 0.38402172 0.60227523
0.00000000 0.41143389 0.66660332
0.00000000 0.45720036 0.79738948
0.05921700 0.49213322 0.98391054
0.41057094 0.51133537 1.00000000
0.67408319 0.48986509 1.00000000
0.92068493 0.42466671 0.99861413
1.00000000 0.48637148 0.85150928
0.00000000 0.49820329 0.78192482
0.00000000 0.49820329 0.78192482
0.00000000 0.51937905 0.84091441
0.00000000 0.55589214 0.94554749
0.27003128 0.59423246 1.00000000
0.50565467 0.61481216 1.00000000
0.72415470 0.60314812 1.00000000
0.93780273 0.56140361 0.99691853
1.00000000 0.61142806 0.87862130
0.02669429 0.62724842 0.96447070
0.02669429 0.62724842 0.96447070
0.09633777 0.64399344 0.99324135
0.28267192 0.67513482 1.00000000
0.46094483 0.70998212 1.00000000
0.62344417 0.73206632 1.00000000
0.78768783 0.73210597 1.00000000
0.95396057 0.71211859 0.99824967
1.00000000 0.75265273 0.91891825
0.30708478 0.73622695 1.00000000
0.30708478 0.73622695 1.00000000
0.36967663 0.74991853 1.00000000
0.47806283 0.77626122 1.00000000
0.60628893 0.80792110 1.00000000
0.72807730 0.83237107 1.00000000
0.84593519 0.84278808 1.00000000
0.96375552 0.83966067 1.00000000
1.00000000 0.87365866 0.96013195
0.44631436 0.82207673 1.00000000
0.44631436 0.82207673 1.00000000
0.49673951 0.83375429 1.00000000
0.58900138 0.85649824 1.00000000
0.70201258 0.88482793 1.00000000
0.80706077 0.90945970 1.00000000
0.89601908 0.92644346 1.00000000
0.97267086 0.93564369 1.00000000
1.00000000 0.96664776 0.99396338
0.43511526 0.90412277 1.00000000
0.43511526 0.90412277 1.00000000
0.49689064 0.91258233 1.00000000
0.61014294 0.92854081 1.00000000
0.74433956 0.94846927 1.00000000
0.86131291 0.96689070 1.00000000
0.94702642 0.98295929 1.00000000
0.99727886 0.99885065 1.00000000
1.00000000 1.00000000 1.00000000
0.42970051 1.00000000 0.97804777
0.42970051 1.00000000 0.97804777
0.52589207 1.00000000 0.98176991
0.68416163 1.00000000 0.98937537
0.85740743 1.00000000 1.00000000
1.00000000 1.00000000 1.00000000
1.00000000 1.00000000 1.00000000
1.00000000 1.00000000 1.00000000
1.00000000 1.00000000 1.00000000
