Luts Download/Canon Luts/3dlut/33grid-3dlut/full-to-full-range/BT2020_CanonLog-to-BT2020_709WideDR_33_FF_Ver.2.0.cube
# Gamut : BT.2020 to BT.2020
# Gamma : Canon Log to Wide DR
# Range : Full in / Full out
# Version : 2.0 2019/10/24
# Copyright(c) 2019 Canon Inc. All Rights Reserved.
LUT_3D_SIZE 9
# LUT_3D_INPUT_RANGE 0.0 1.0
0.00000000 0.00000000 0.00000000
0.00000000 0.00000000 0.00000000
0.23086892 0.01335314 0.01162991
0.43605244 0.02311657 0.01427765
0.60104885 0.05186442 0.01546558
0.71844537 0.10748529 0.01057029
0.79846784 0.17059105 0.00631817
0.85063186 0.22270662 0.00024313
0.89685679 0.25430801 0.00000000
0.00000000 0.00000000 0.00000000
0.00585022 0.00855015 0.00000000
0.23086892 0.01335314 0.01162991
0.43605244 0.02311657 0.01427765
0.60104885 0.05186442 0.01546558
0.71844537 0.10748529 0.01057029
0.79846784 0.17059105 0.00631817
0.85063186 0.22270662 0.00024313
0.89685679 0.25430801 0.00000000
0.03126460 0.23779674 0.02528542
0.03126460 0.23779674 0.02528542
0.24497768 0.24582127 0.00807001
0.44826674 0.24717219 0.00446044
0.62707462 0.24139445 0.01346184
0.75452213 0.24839595 0.03564067
0.84280870 0.27052450 0.05148628
0.91066033 0.28636562 0.03317711
0.96905586 0.29480925 0.00000000
0.04361925 0.44454708 0.02210701
0.04361925 0.44454708 0.02210701
0.25033660 0.44896803 0.01211566
0.44879128 0.45081169 0.01456704
0.64615021 0.43539150 0.01808713
0.80140336 0.41342286 0.06287494
0.90895467 0.40422332 0.11035826
0.98324230 0.40299346 0.12629623
1.00000000 0.43542646 0.18484648
0.08147053 0.61636697 0.01438950
0.08147053 0.61636697 0.01438950
0.25078313 0.62268613 0.02191437
0.42576414 0.63119839 0.03381702
0.62019205 0.62529178 0.02765522
0.81439597 0.59043741 0.02494972
0.97082609 0.54607741 0.06477786
1.00000000 0.56426842 0.26655479
1.00000000 0.59207744 0.36249604
0.14626103 0.74639760 0.00524122
0.14626103 0.74639760 0.00524122
0.26277750 0.75533895 0.02951564
0.39795142 0.77094944 0.05248304
0.56243987 0.77906017 0.06071715
0.75152741 0.76106821 0.04336182
0.94084582 0.71400454 0.05675282
1.00000000 0.70102681 0.32911363
1.00000000 0.71591331 0.47808438
0.21197489 0.84551543 0.00222458
0.21197489 0.84551543 0.00222458
0.28862437 0.85650320 0.03492584
0.38399406 0.87704673 0.06476976
0.51259034 0.89480062 0.09724390
0.66775380 0.89557991 0.08647553
0.85307827 0.86718086 0.06682003
1.00000000 0.82244214 0.27258201
1.00000000 0.81720308 0.53491898
0.26423433 0.91751028 0.00003754
0.26423433 0.91751028 0.00003754
0.31492558 0.93020996 0.03240519
0.38491429 0.95287610 0.07486117
0.48075361 0.97672356 0.12001139
0.59862807 0.99000706 0.13543591
0.74565559 0.98421057 0.09823865
0.92558604 0.94522068 0.15142919
1.00000000 0.90537820 0.48352121
0.29736829 0.97549547 0.00000000
0.29736829 0.97549547 0.00000000
0.32843976 0.99019992 0.00739842
0.42515246 1.00000000 0.14194019
0.56356499 1.00000000 0.30885338
0.67961001 1.00000000 0.42820602
0.77476448 1.00000000 0.50137547
0.85940008 1.00000000 0.50267744
0.97279460 1.00000000 0.41891640
0.00000000 0.00000000 0.00000000
0.00000000 0.00000000 0.00000000
0.23086892 0.01335314 0.01162991
0.43605244 0.02311657 0.01427765
0.60104885 0.05186442 0.01546558
0.71844537 0.10748529 0.01057029
0.79846784 0.17059105 0.00631817
0.85063186 0.22270662 0.00024313
0.89685679 0.25430801 0.00000000
0.00000000 0.00000000 0.00000000
0.00000000 0.00000000 0.00000000
0.23086892 0.01335314 0.01162991
0.43605244 0.02311657 0.01427765
0.60104885 0.05186442 0.01546558
0.71844537 0.10748529 0.01057029
0.79846784 0.17059105 0.00631817
0.85063186 0.22270662 0.00024313
0.89685679 0.25430801 0.00000000
0.03126460 0.23779674 0.02528542
0.03126460 0.23779674 0.02528542
0.24497768 0.24582127 0.00807001
0.44826674 0.24717219 0.00446044
0.62707462 0.24139445 0.01346184
0.75452213 0.24839595 0.03564067
0.84280870 0.27052450 0.05148628
0.91066033 0.28636562 0.03317711
0.96905586 0.29480925 0.00000000
0.04361925 0.44454708 0.02210701
0.04361925 0.44454708 0.02210701
0.25033660 0.44896803 0.01211566
0.44879128 0.45081169 0.01456704
0.64615021 0.43539150 0.01808713
0.80140336 0.41342286 0.06287494
0.90895467 0.40422332 0.11035826
0.98324230 0.40299346 0.12629623
1.00000000 0.43542646 0.18484648
0.08147053 0.61636697 0.01438950
0.08147053 0.61636697 0.01438950
0.25078313 0.62268613 0.02191437
0.42576414 0.63119839 0.03381702
0.62019205 0.62529178 0.02765522
0.81439597 0.59043741 0.02494972
0.97082609 0.54607741 0.06477786
1.00000000 0.56426842 0.26655479
1.00000000 0.59207744 0.36249604
0.14626103 0.74639760 0.00524122
0.14626103 0.74639760 0.00524122
0.26277750 0.75533895 0.02951564
0.39795142 0.77094944 0.05248304
0.56243987 0.77906017 0.06071715
0.75152741 0.76106821 0.04336182
0.94084582 0.71400454 0.05675282
1.00000000 0.70102681 0.32911363
1.00000000 0.71591331 0.47808438
0.21197489 0.84551543 0.00222458
0.21197489 0.84551543 0.00222458
0.28862437 0.85650320 0.03492584
0.38399406 0.87704673 0.06476976
0.51259034 0.89480062 0.09724390
0.66775380 0.89557991 0.08647553
0.85307827 0.86718086 0.06682003
1.00000000 0.82244214 0.27258201
1.00000000 0.81720308 0.53491898
0.26423433 0.91751028 0.00003754
0.26423433 0.91751028 0.00003754
0.31492558 0.93020996 0.03240519
0.38491429 0.95287610 0.07486117
0.48075361 0.97672356 0.12001139
0.59862807 0.99000706 0.13543591
0.74565559 0.98421057 0.09823865
0.92558604 0.94522068 0.15142919
1.00000000 0.90537820 0.48352121
0.29736829 0.97549547 0.00000000
0.29736829 0.97549547 0.00000000
0.32843976 0.99019992 0.00739842
0.42515246 1.00000000 0.14194019
0.56356499 1.00000000 0.30885338
0.67961001 1.00000000 0.42820602
0.77476448 1.00000000 0.50137547
0.85940008 1.00000000 0.50267744
0.97279460 1.00000000 0.41891640
0.00648670 0.01079263 0.20346185
0.00648670 0.01079263 0.20346185
0.23090877 0.02137216 0.22820542
0.43152230 0.03528776 0.24163730
0.60443322 0.05342034 0.22627504
0.73760485 0.07738003 0.18390807
0.83787596 0.10953214 0.11846416
0.89548346 0.16718950 0.05359704
0.93717742 0.21340138 0.00000000
0.00648670 0.01079263 0.20346185
0.00648670 0.01079263 0.20346185
0.23090877 0.02137216 0.22820542
0.43152230 0.03528776 0.24163730
0.60443322 0.05342034 0.22627504
0.73760485 0.07738003 0.18390807
0.83787596 0.10953214 0.11846416
0.89548346 0.16718950 0.05359704
0.93717742 0.21340138 0.00000000
0.03467744 0.23951916 0.23901905
0.03467744 0.23951916 0.23901905
0.24578998 0.24578998 0.24578998
0.45027451 0.24587538 0.24523786
0.62358508 0.24691447 0.23934492
0.75698904 0.25092138 0.22020390
0.85882463 0.25967494 0.18499520
0.93044146 0.27324305 0.13596547
0.98388447 0.28962814 0.07620334
0.06919778 0.44168212 0.25467907
0.06919778 0.44168212 0.25467907
0.24693018 0.45004568 0.24488267
0.44987401 0.45045910 0.24594021
0.63956843 0.43910304 0.25854621
0.77638778 0.43303420 0.28231817
0.87798825 0.43368504 0.28744774
0.95034654 0.43841586 0.27679907
0.99574835 0.45377713 0.26938800
0.11867565 0.61354950 0.23996956
0.11867565 0.61354950 0.23996956
0.25784378 0.62174880 0.23877978
0.43322048 0.62880235 0.25667436
0.62128565 0.62486984 0.24676009
0.80700061 0.59494549 0.25139565
0.93637660 0.57075804 0.29414671
0.98112652 0.58397591 0.37453673
1.00000000 0.60469514 0.42104414
0.17605673 0.74472701 0.20493198
0.17605673 0.74472701 0.20493198
0.28660697 0.75207906 0.22595987
0.42483528 0.76443525 0.26092890
0.57617146 0.77428208 0.27244177
0.75212073 0.76097227 0.24823065
0.93532035 0.71844326 0.23952933
0.99960377 0.70994312 0.41478098
1.00000000 0.72534352 0.52551446
0.24769524 0.84314834 0.17673869
0.24769524 0.84314834 0.17673869
0.32585187 0.85161325 0.21025444
0.43055305 0.86748856 0.25656651
0.54864141 0.88479180 0.28820563
0.68477470 0.88954492 0.28386684
0.85315203 0.86764724 0.24982875
0.99523399 0.82763945 0.37038022
1.00000000 0.82453370 0.57946867
0.30927415 0.91379953 0.15672251
0.30927415 0.91379953 0.15672251
0.36449976 0.92364801 0.19508755
0.44488904 0.94168870 0.24857454
0.53698934 0.96324535 0.29321093
0.63881216 0.97819373 0.30971826
0.76567750 0.97689039 0.29382853
0.92708691 0.94653417 0.25124913
1.00000000 0.91027196 0.53885998
0.35458819 0.96985727 0.14112538
0.35458819 0.96985727 0.14112538
0.39726684 0.98038373 0.18234420
0.46224134 0.99948449 0.23983645
0.59036110 1.00000000 0.37509963
0.69967411 1.00000000 0.48226877
0.79023762 1.00000000 0.55150932
0.87037429 1.00000000 0.55968774
0.97375167 1.00000000 0.49537298
0.00932275 0.03086802 0.38903326
0.00932275 0.03086802 0.38903326
0.23371415 0.03550210 0.41135138
0.43264516 0.04729432 0.42637339
0.60962473 0.06240447 0.40469590
0.74869965 0.08103212 0.35244656
0.85671744 0.10112093 0.28049917
0.93473283 0.12258371 0.18928508
0.99174916 0.14974913 0.07569954
0.00932275 0.03086802 0.38903326
0.00932275 0.03086802 0.38903326
0.23371415 0.03550210 0.41135138
0.43264516 0.04729432 0.42637339
0.60962473 0.06240447 0.40469590
0.74869965 0.08103212 0.35244656
0.85671744 0.10112093 0.28049917
0.93473283 0.12258371 0.18928508
0.99174916 0.14974913 0.07569954
0.03760388 0.24486454 0.42097563
0.03760388 0.24486454 0.42097563
0.24491022 0.24615424 0.45047405
0.45067731 0.24564238 0.44962358
0.63133351 0.24486022 0.42107477
0.76890845 0.24911421 0.37779215
0.87342570 0.25839850 0.32502308
0.94364642 0.27719270 0.26572865
0.99927023 0.29352128 0.19740289
0.07238420 0.44288068 0.44187837
0.07238420 0.44288068 0.44187837
0.24579199 0.45030604 0.45011191
0.45028250 0.45028250 0.45028250
0.62375621 0.45050050 0.44886015
0.75794150 0.45186535 0.44090062
0.86155922 0.45555198 0.42254181
0.93556966 0.46237736 0.39421790
0.99088090 0.47222659 0.36026410
0.12996177 0.61468695 0.41823334
0.12996177 0.61468695 0.41823334
0.27544631 0.62010379 0.42483343
0.45314707 0.62305251 0.44780365
0.62245815 0.62434737 0.45070330
0.78044669 0.60975977 0.46313337
0.88640342 0.60511243 0.48387309
0.95934624 0.60653696 0.48796028
0.99769859 0.62125046 0.49576060
0.21682140 0.74285353 0.37605481
0.21682140 0.74285353 0.37605481
0.33161919 0.74607071 0.40031770
0.46682824 0.75447806 0.43887468
0.60254345 0.76517808 0.46282588
0.75321699 0.76045841 0.45193009
0.90850302 0.73329181 0.45375117
0.98460363 0.72453199 0.52518294
1.00000000 0.73905136 0.59077093
0.31882211 0.83550562 0.34861239
0.31882211 0.83550562 0.34861239
0.39184956 0.84167383 0.37888283
0.49190149 0.85423592 0.42566333
0.59904299 0.87027855 0.46482775
0.71320587 0.87920590 0.47265437
0.85348954 0.86744108 0.45347747
0.98497357 0.83619254 0.49720510
1.00000000 0.83550315 0.64244385
0.39408132 0.90239304 0.32810443
0.39408132 0.90239304 0.32810443
0.44539129 0.91042257 0.36099373
0.52163813 0.92565555 0.41189730
0.60636817 0.94522255 0.46003111
0.69298368 0.96134647 0.48458677
0.79550614 0.96576930 0.48072976
0.92646010 0.94672922 0.45493465
1.00000000 0.91790824 0.61897784
0.44851641 0.95565798 0.31414968
0.44851641 0.95565798 0.31414968
0.48826267 0.96468002 0.34772300
0.54994852 0.98135426 0.39999497
0.62890211 0.99922361 0.46579295
0.72636000 1.00000000 0.55417356
0.81219990 1.00000000 0.62044201
0.88690930 1.00000000 0.63829388
0.97700795 1.00000000 0.59906800
0.00103383 0.07008792 0.53302910
0.00103383 0.07008792 0.53302910
0.21731679 0.05799302 0.58733105
0.41800337 0.06735075 0.61196187
0.60429836 0.07553616 0.59236232
0.75457957 0.08573562 0.52867827
0.87150965 0.09823840 0.44449085
0.95423647 0.12029915 0.34644996
1.00000000 0.17585635 0.25306629
0.00103383 0.07008792 0.53302910
0.00103383 0.07008792 0.53302910
0.21731679 0.05799302 0.58733105
0.41800337 0.06735075 0.61196187
0.60429836 0.07553616 0.59236232
0.75457957 0.08573562 0.52867827
0.87150965 0.09823840 0.44449085
0.95423647 0.12029915 0.34644996
1.00000000 0.17585635 0.25306629
0.04583377 0.24962621 0.58246806
0.04583377 0.24962621 0.58246806
0.23643858 0.24960291 0.62529771
0.43244106 0.25377812 0.64060408
0.62583280 0.24507133 0.61951183
0.77975629 0.24130461 0.55307927
0.89496045 0.24517176 0.47564358
0.96169190 0.27595110 0.39906862
1.00000000 0.31509974 0.33137305
0.10141392 0.43647781 0.62727796
0.10141392 0.43647781 0.62727796
0.26999189 0.44139224 0.63333132
0.44795628 0.45125085 0.62437198
0.62512380 0.44984979 0.62167125
0.77076224 0.44860542 0.58305880
0.87860628 0.45258562 0.54040336
0.95209334 0.46258600 0.49444286
0.99967793 0.48090128 0.45091283
0.09698113 0.61653938 0.61492420
0.09698113 0.61653938 0.61492420
0.24581202 0.62389496 0.62292804
0.45028809 0.62385881 0.62320586
0.62377960 0.62377960 0.62377960
0.75824051 0.62406070 0.62193266
0.86285327 0.62540855 0.61394468
0.93891406 0.62857662 0.59772827
0.99694550 0.63412030 0.57393608
0.18422225 0.75074579 0.54081238
0.18422225 0.75074579 0.54081238
0.31543898 0.75299103 0.55499718
0.48115055 0.75343670 0.58667714
0.62740771 0.75726927 0.62035210
0.75633774 0.75909759 0.62437810
0.88041613 0.74799462 0.63309083
0.95967144 0.74418722 0.64868966
0.99958330 0.75403956 0.66646647
0.32497424 0.84031977 0.48399167
0.32497424 0.84031977 0.48399167
0.41091334 0.84279601 0.51258485
0.52625565 0.84884624 0.56122168
0.64033816 0.85886616 0.61059829
0.74243277 0.86861404 0.63345862
0.85694387 0.86590930 0.62576041
0.97650150 0.84439489 0.62608747
1.00000000 0.84759530 0.71716961
0.43058578 0.90119588 0.45219702
0.43058578 0.90119588 0.45219702
0.48718634 0.90637436 0.48559637
0.57117459 0.91666910 0.54045835
0.66059963 0.93118036 0.59775011
0.74175938 0.94572081 0.63425625
0.82597621 0.95424172 0.64244583
0.92948005 0.94535996 0.62731503
1.00000000 0.92600287 0.71141112
0.50212355 0.94993923 0.43400706
0.50212355 0.94993923 0.43400706
0.54440111 0.95674702 0.46849448
0.61042417 0.96955341 0.52472561
0.68346618 0.98683269 0.58504140
0.75740969 1.00000000 0.64091070
0.83656029 1.00000000 0.69953802
0.90583227 1.00000000 0.72561974
0.98254123 1.00000000 0.71047726
0.00000000 0.13625629 0.60071742
0.00000000 0.13625629 0.60071742
0.16838099 0.09217750 0.73631327
0.37478704 0.09940507 0.78378254
0.57121064 0.09707869 0.78470143
0.73825861 0.09791047 0.71967186
0.86929591 0.10287492 0.62310872
0.96136689 0.12352530 0.51156093
1.00000000 0.19766597 0.40747989
0.00000000 0.13625629 0.60071742
0.00000000 0.13625629 0.60071742
0.16838099 0.09217750 0.73631327
0.37478704 0.09940507 0.78378254
0.57121064 0.09707869 0.78470143
0.73825861 0.09791047 0.71967186
0.86929591 0.10287492 0.62310872
0.96136689 0.12352530 0.51156093
1.00000000 0.19766597 0.40747989
0.04292136 0.26038084 0.69846577
0.04292136 0.26038084 0.69846577
0.20965049 0.26012277 0.76192751
0.39463037 0.27158738 0.79400634
0.58936184 0.25940567 0.80898979
0.76275059 0.24449277 0.74770873
0.89633317 0.23936650 0.65174236
0.96918735 0.27650842 0.54853608
1.00000000 0.32795769 0.46341521
0.12930801 0.42634601 0.78219335
0.12930801 0.42634601 0.78219335
0.28380670 0.43728941 0.76505325
0.43619190 0.45608436 0.76117644
0.59948826 0.45973196 0.78110514
0.76288584 0.44884573 0.74966322
0.88932101 0.44493857 0.68345255
0.96605400 0.45825170 0.61276526
1.00000000 0.48779308 0.55431961
0.15666996 0.59783351 0.80992979
0.15666996 0.59783351 0.80992979
0.30373163 0.60286364 0.80220610
0.47563915 0.61226622 0.77234153
0.62066824 0.62508422 0.75909653
0.76035689 0.62313796 0.75522851
0.87548742 0.62208628 0.72237665
0.95588272 0.62527168 0.68595393
1.00000000 0.64019883 0.65428687
0.11271530 0.75122298 0.74889551
0.11271530 0.75122298 0.74889551
0.24585868 0.75851544 0.75645644
0.45031903 0.75852600 0.75639552
0.62378745 0.75839307 0.75739594
0.75827205 0.75827205 0.75827205
0.86318888 0.75854617 0.75646540
0.94025031 0.75971518 0.74948945
0.99742097 0.76378460 0.73764135
0.22674709 0.85757446 0.63373944
0.22674709 0.85757446 0.63373944
0.34486718 0.85886591 0.65056771
0.50198592 0.85841404 0.68392393
0.64788415 0.85901892 0.72413000
0.76176802 0.86221771 0.75478168
0.86120822 0.86407566 0.75889269
0.95537930 0.85473488 0.76572581
1.00000000 0.85814978 0.79166452
0.39487709 0.91488318 0.55734288
0.39487709 0.91488318 0.55734288
0.46795448 0.91687512 0.58746936
0.57352377 0.92115464 0.63962598
0.68231283 0.92789417 0.69949746
0.77261407 0.93656187 0.74568046
0.85001347 0.94521764 0.76662061
0.93442749 0.94321611 0.76021901
1.00000000 0.93230257 0.79860258
0.50387058 0.95682712 0.52139768
0.50387058 0.95682712 0.52139768
0.55358247 0.96116104 0.55586309
0.63096639 0.96937500 0.61416514
0.71560727 0.98075622 0.68062823
0.78877770 0.99335239 0.73400348
0.85789773 1.00000000 0.77760647
0.92237072 1.00000000 0.80518542
0.98896355 1.00000000 0.80834894
0.00000000 0.19448752 0.62363057
0.00000000 0.19448752 0.62363057
0.08045674 0.14644952 0.83204712
0.30069724 0.15842002 0.90699980
0.50019111 0.16306710 0.93773172
0.68733981 0.13359552 0.91167127
0.84216641 0.11745581 0.81740518
0.95329731 0.12366623 0.69162246
1.00000000 0.20054513 0.56361288
0.00000000 0.19448752 0.62363057
0.00000000 0.19448752 0.62363057
0.08045674 0.14644952 0.83204712
0.30069724 0.15842002 0.90699980
0.50019111 0.16306710 0.93773172
0.68733981 0.13359552 0.91167127
0.84216641 0.11745581 0.81740518
0.95329731 0.12366623 0.69162246
1.00000000 0.20054513 0.56361288
0.02855646 0.28197134 0.76500383
0.02855646 0.28197134 0.76500383
0.15821337 0.27821287 0.86686583
0.33842039 0.30380587 0.89781236
0.52089770 0.30859475 0.93143614
0.70574233 0.28029480 0.92265224
0.86990834 0.24428192 0.84618696
0.96626330 0.27031427 0.71623948
1.00000000 0.33012078 0.60225950
0.14497872 0.42359528 0.88325900
0.14497872 0.42359528 0.88325900
0.27383135 0.44104091 0.86684424
0.41036451 0.46652509 0.86900432
0.55865886 0.47678276 0.90672366
0.72382591 0.46264690 0.90958488
0.87131473 0.44794573 0.84636116
0.96681847 0.45449891 0.75190405
1.00000000 0.48982153 0.66739103
0.24483302 0.57738454 0.92802750
0.24483302 0.57738454 0.92802750
0.35185384 0.58859449 0.90732860
0.48490976 0.60948672 0.87201082
0.60848622 0.63015585 0.86660757
0.73767975 0.63151440 0.88140038
0.86952148 0.62186363 0.85264140
0.96326303 0.62108574 0.79490634
1.00000000 0.64210965 0.74198406
0.21679103 0.72210560 0.94624275
0.21679103 0.72210560 0.94624275
0.32611678 0.72935063 0.94203752
0.49227783 0.73806069 0.90837321
0.64179082 0.74935256 0.87426285
0.75516707 0.75958082 0.86405053
0.86547618 0.75759109 0.86008390
0.95236912 0.75656241 0.83161940
1.00000000 0.76610811 0.80625883
0.13590480 0.85541584 0.85235548
0.13590480 0.85541584 0.85235548
0.25979500 0.86185179 0.85866192
0.45036851 0.86364883 0.86001972
0.62382263 0.86355998 0.86071142
0.75828013 0.86334998 0.86228405
0.86322055 0.86322055 0.86322055
0.94056549 0.86345356 0.86168230
0.99886443 0.86562396 0.85727439
0.24856733 0.93864766 0.70082160
0.24856733 0.93864766 0.70082160
0.36751876 0.93812846 0.71964601
0.51764382 0.93740746 0.75359753
0.66185420 0.93682842 0.79514625
0.77769064 0.93708895 0.83252953
0.86616412 0.93973034 0.86015608
0.93880863 0.94134883 0.86377266
1.00000000 0.93750749 0.87713634
0.44285763 0.97580454 0.61051040
0.44285763 0.97580454 0.61051040
0.50863230 0.97757403 0.64075902
0.60782985 0.98096379 0.69341142
0.71387739 0.98567659 0.75644296
0.80361873 0.99131251 0.81192776
0.87497691 0.99839599 0.85221077
0.93640703 1.00000000 0.87826653
0.99498407 1.00000000 0.89066497
0.00000000 0.23570500 0.63105453
0.00000000 0.23570500 0.63105453
0.01669559 0.23136247 0.80201008
0.20806303 0.24035531 0.94006027
0.40026127 0.27452238 0.97476454
0.58075253 0.27137227 0.98660453
0.76074746 0.21517566 0.97261900
0.91798436 0.13472485 0.88793500
1.00000000 0.17191743 0.73855777
0.00000000 0.23570500 0.63105453
0.00000000 0.23570500 0.63105453
0.01669559 0.23136247 0.80201008
0.20806303 0.24035531 0.94006027
0.40026127 0.27452238 0.97476454
0.58075253 0.27137227 0.98660453
0.76074746 0.21517566 0.97261900
0.91798436 0.13472485 0.88793500
1.00000000 0.17191743 0.73855777
0.00938151 0.30696895 0.79642679
0.00938151 0.30696895 0.79642679
0.09472776 0.30992755 0.90861029
0.27319699 0.34789374 0.93800870
0.43910914 0.37625552 0.96711648
0.60603331 0.37481976 0.98187803
0.77867602 0.33378491 0.97390998
0.94902050 0.24434489 0.91809800
1.00000000 0.31390250 0.75909950
0.13932421 0.42983693 0.94207456
0.13932421 0.42983693 0.94207456
0.24565560 0.45032481 0.94057679
0.37456442 0.48397168 0.93433044
0.50711991 0.50958530 0.95584392
0.64996033 0.51268002 0.97340123
0.80406501 0.48894365 0.96887812
0.95153414 0.44737646 0.91618517
1.00000000 0.48235162 0.79512243
0.30163635 0.57126646 0.96681432
0.30163635 0.57126646 0.96681432
0.37286053 0.58688054 0.95994331
0.47568332 0.61365277 0.94529891
0.58624035 0.64024425 0.94236779
0.69987607 0.65013851 0.96159617
0.82862831 0.63997044 0.96328434
0.95105497 0.62068989 0.92137126
1.00000000 0.63925147 0.84043565
0.38729877 0.69069564 0.98650706
0.38729877 0.69069564 0.98650706
0.45012048 0.70277148 0.97746128
0.54173685 0.72408861 0.96589242
0.64778505 0.74751396 0.94735050
0.74424538 0.76418120 0.94376124
0.84530579 0.76489452 0.95576296
0.94723135 0.75627993 0.93030547
1.00000000 0.76524610 0.88267759
0.37447854 0.80617579 0.99755119
0.37447854 0.80617579 0.99755119
0.44406379 0.81434583 0.99201953
0.54614125 0.82898030 0.98371977
0.66148957 0.84485645 0.97145423
0.77274611 0.85567787 0.95023536
0.86053491 0.86435736 0.94131104
0.94265752 0.86260476 0.93783085
1.00000000 0.86580189 0.91732321
0.19564037 0.92858356 0.92458479
0.19564037 0.92858356 0.92458479
0.30428471 0.93380948 0.92941140
0.45042026 0.94116128 0.93631860
0.62387172 0.94113191 0.93656184
0.75831375 0.94094434 0.93799716
0.86322771 0.94071029 0.93974569
0.94059311 0.94059311 0.94059311
0.99993464 0.94158333 0.94012549
0.29784358 0.99772192 0.75486043
0.29784358 0.99772192 0.75486043
0.39672822 0.99838787 0.77336040
0.53457296 0.99862433 0.80672629
0.67016914 0.99947099 0.84736468
0.78591294 0.99891434 0.88573525
0.87705635 0.99920869 0.91776655
0.94469836 1.00000000 0.93971986
0.99928553 1.00000000 0.95519015
0.00000000 0.26451920 0.64274411
0.00000000 0.26451920 0.64274411
0.00000000 0.27992696 0.77754330
0.09714777 0.28787108 0.97749798
0.30356203 0.34035774 1.00000000
0.47302082 0.36366424 1.00000000
0.64052807 0.34606255 1.00000000
0.81751002 0.26120514 1.00000000
0.98785345 0.10939805 0.95553643
0.00000000 0.26451920 0.64274411
0.00000000 0.26451920 0.64274411
0.00000000 0.27992696 0.77754330
0.09714777 0.28787108 0.97749798
0.30356203 0.34035774 1.00000000
0.47302082 0.36366424 1.00000000
0.64052807 0.34606255 1.00000000
0.81751002 0.26120514 1.00000000
0.98785345 0.10939805 0.95553643
0.00000000 0.32967580 0.81570107
0.00000000 0.32967580 0.81570107
0.01549693 0.33572102 0.94417716
0.19563997 0.37678063 0.99134790
0.36064598 0.42186723 1.00000000
0.51268880 0.44184721 1.00000000
0.66829580 0.42921138 1.00000000
0.83595183 0.36618160 1.00000000
0.99401472 0.28334797 0.95503877
0.11040453 0.43980197 0.98757189
0.11040453 0.43980197 0.98757189
0.20464123 0.46243434 0.99676052
0.32810565 0.50127284 0.99239846
0.45352414 0.53727294 0.99948913
0.58027201 0.55551732 1.00000000
0.71502645 0.54992849 1.00000000
0.86315633 0.50997998 1.00000000
0.99855632 0.46798289 0.95451903
0.31225012 0.57445246 1.00000000
0.31225012 0.57445246 1.00000000
0.36912094 0.59253014 1.00000000
0.45660486 0.62284340 0.99572435
0.55635986 0.65421856 0.99619715
0.65829553 0.67348049 1.00000000
0.76820417 0.67555706 1.00000000
0.89053021 0.65384329 1.00000000
1.00000000 0.63301680 0.96140599
0.44122936 0.68238655 1.00000000
0.44122936 0.68238655 1.00000000
0.48500160 0.69755412 1.00000000
0.55617839 0.72337957 1.00000000
0.64166079 0.75202556 0.99667531
0.72642069 0.77319923 0.99858454
0.81388787 0.78209183 1.00000000
0.91084403 0.77357404 1.00000000
1.00000000 0.76299094 0.97408053
0.51532358 0.77344348 1.00000000
0.51532358 0.77344348 1.00000000
0.55538772 0.78631203 1.00000000
0.62132724 0.80848483 1.00000000
0.70098437 0.83392728 1.00000000
0.77923827 0.85479623 0.99889593
0.85207306 0.86862774 0.99997423
0.92630371 0.86990126 1.00000000
1.00000000 0.86537670 0.98754005
0.49496786 0.86372676 1.00000000
0.49496786 0.86372676 1.00000000
0.54299637 0.87305668 1.00000000
0.62149173 0.88905999 1.00000000
0.71310761 0.90769577 1.00000000
0.79880062 0.92351929 1.00000000
0.87542656 0.93522587 1.00000000
0.93854039 0.94174346 1.00000000
1.00000000 0.94187597 0.99674943
0.21074892 0.98920288 0.98466714
0.21074892 0.98920288 0.98466714
0.33462984 0.99144404 0.98618159
0.49512787 0.99377134 0.98771929
0.64752957 0.99631757 0.99042876
0.77091960 0.99840669 0.99384596
0.86976804 0.99981706 0.99722269
0.94471264 1.00000000 0.99954328
1.00000000 1.00000000 1.00000000
