Luts Download/Canon Luts/3dlut/33grid-3dlut/full-to-full-range/BT2020_CanonLog3-to-BT709_WideDR_33_FF_Ver.2.0.cube
# Gamut : BT.2020 to BT.709
# Gamma : Canon Log 3 to Wide DR
# Range : Full in / Full out
# Version : 2.0 2019/10/24
# Copyright(c) 2019 Canon Inc. All Rights Reserved.
LUT_3D_SIZE 5
# LUT_3D_INPUT_RANGE 0.0 1.0
0.00000000 0.00000000 0.00000000
0.27123619 0.00038206 0.02178835
0.73578369 0.00000000 0.06343933
0.98912616 0.07244479 0.02202650
1.00000000 0.31436355 0.17041030
0.00000000 0.22343022 0.06512008
0.24291454 0.23669774 0.00000000
0.78752465 0.16077568 0.00578707
0.99836154 0.24063312 0.13109648
1.00000000 0.40436701 0.27423050
0.00000000 0.62730993 0.21621521
0.00000000 0.65242197 0.12545187
0.65920608 0.65704313 0.00000000
1.00000000 0.60537725 0.38301478
1.00000000 0.67859573 0.57909360
0.00000000 0.87333223 0.25086656
0.00000000 0.89129851 0.23315820
0.20970462 0.96456881 0.08232142
0.90515424 0.92085545 0.15951179
1.00000000 0.88033318 0.78149818
0.22354380 1.00000000 0.33805917
0.34383912 1.00000000 0.39840043
0.67273628 1.00000000 0.64108993
0.89903370 1.00000000 0.85024729
1.00000000 1.00000000 1.00000000
0.00069161 0.01794441 0.15792741
0.27091294 0.00635139 0.21641903
0.72798127 0.01090409 0.24105667
0.98628229 0.09995864 0.16708430
1.00000000 0.33380484 0.22583177
0.00000000 0.22659995 0.21656545
0.23600832 0.23600832 0.23600832
0.81399935 0.12093446 0.21071839
0.99172263 0.25720865 0.24001721
1.00000000 0.41919108 0.31582101
0.00000000 0.62214414 0.32300941
0.00801225 0.64720768 0.28104288
0.66354911 0.65505517 0.15661380
1.00000000 0.61192407 0.44940614
1.00000000 0.69101592 0.60704991
0.00680912 0.87197346 0.31326693
0.01620729 0.88943725 0.30260480
0.24498323 0.96250471 0.21770094
0.90761676 0.92099765 0.24335761
1.00000000 0.89191955 0.80783243
0.29438129 1.00000000 0.38540460
0.38890190 1.00000000 0.43829570
0.69570406 1.00000000 0.66942214
0.91818774 1.00000000 0.87914664
1.00000000 1.00000000 1.00000000
0.00000000 0.14244563 0.40913863
0.19973354 0.06085695 0.61184965
0.73566721 0.02396977 0.59944058
1.00000000 0.15217590 0.45161513
1.00000000 0.38208661 0.38661933
0.00000000 0.26754330 0.47892878
0.13913114 0.23753977 0.68541266
0.78626498 0.14073204 0.65985742
1.00000000 0.28369610 0.48994118
1.00000000 0.45795476 0.44969887
0.00000000 0.62805171 0.60386147
0.00000000 0.64876558 0.62526718
0.65092930 0.65092930 0.65092930
0.98150794 0.64429737 0.65240894
1.00000000 0.72501067 0.69598873
0.07944980 0.87804443 0.52157326
0.12902028 0.89307607 0.52701367
0.48981095 0.93246576 0.59684748
0.91250001 0.91930556 0.61469531
1.00000000 0.92621944 0.88722505
0.42538944 1.00000000 0.52545952
0.50421047 1.00000000 0.57213958
0.77388984 1.00000000 0.77348467
1.00000000 1.00000000 1.00000000
1.00000000 1.00000000 1.00000000
0.00000000 0.25460495 0.45511411
0.00000000 0.27631115 0.58373928
0.51323626 0.20903650 0.97464234
0.98940405 0.15304835 0.80212427
1.00000000 0.41332257 0.58651081
0.00000000 0.33190434 0.56838345
0.00000000 0.34713033 0.69486180
0.52298582 0.32925322 0.97149852
0.99445544 0.28527399 0.81734054
1.00000000 0.48412654 0.62602772
0.06693602 0.61243006 0.86627939
0.12806522 0.62600094 0.91467736
0.57933103 0.66207334 0.94294903
0.98804157 0.64277413 0.88139215
1.00000000 0.74368257 0.79637751
0.00000000 0.87973517 0.84580005
0.00000000 0.89485974 0.86094011
0.38438933 0.93999705 0.91278116
0.91241619 0.91241619 0.91241619
1.00000000 0.95046491 0.95044815
0.49589290 1.00000000 0.71598135
0.56758346 1.00000000 0.74617789
0.83184242 1.00000000 0.88677610
1.00000000 1.00000000 1.00000000
1.00000000 1.00000000 1.00000000
0.00000000 0.31751943 0.49997894
0.00000000 0.34907303 0.55968606
0.00000000 0.44012240 0.93021911
0.64885891 0.42444785 1.00000000
1.00000000 0.41275043 0.83958085
0.00000000 0.38402172 0.60227523
0.00000000 0.41143389 0.66660332
0.05921700 0.49213322 0.98391054
0.67408319 0.48986509 1.00000000
1.00000000 0.48637148 0.85150928
0.02669429 0.62724842 0.96447070
0.09633777 0.64399344 0.99324135
0.46094483 0.70998212 1.00000000
0.78768783 0.73210597 1.00000000
1.00000000 0.75265273 0.91891825
0.44631436 0.82207673 1.00000000
0.49673951 0.83375429 1.00000000
0.70201258 0.88482793 1.00000000
0.89601908 0.92644346 1.00000000
1.00000000 0.96664776 0.99396338
0.42970051 1.00000000 0.97804777
0.52589207 1.00000000 0.98176991
0.85740743 1.00000000 1.00000000
1.00000000 1.00000000 1.00000000
1.00000000 1.00000000 1.00000000
