Luts Download/Canon Luts/3dlut/33grid-3dlut/full-to-full-range/BT2020_CanonLog-to-BT709_WideDR_33_FF_Ver.2.0.cube
# Gamut : BT.2020 to BT.709
# Gamma : Canon Log to Wide DR
# Range : Full in / Full out
# Version : 2.0 2019/10/24
# Copyright(c) 2019 Canon Inc. All Rights Reserved.
LUT_3D_SIZE 33
# LUT_3D_INPUT_RANGE 0.0 1.0
0.00000000 0.00000000 0.00000000
0.00000000 0.00000000 0.00000000
0.00000000 0.00000000 0.00000000
0.00000000 0.00000000 0.00000000
0.00000000 0.00000000 0.00000000
0.06617847 0.00723821 0.01063535
0.14614797 0.00704155 0.01565335
0.21660467 0.00443464 0.01958403
0.28177303 0.00059303 0.02334589
0.34349657 0.00000000 0.02761567
0.40306629 0.00000000 0.03266106
0.46124767 0.00000000 0.03863273
0.51839660 0.00000000 0.04571158
0.57231970 0.00000000 0.05289386
0.62065680 0.00000000 0.05851430
0.66526460 0.00000000 0.06229401
0.70689826 0.00000000 0.06425590
0.74597412 0.00000000 0.06437980
0.78259375 0.00000000 0.06282925
0.81698943 0.00000000 0.05950282
0.84929790 0.00000000 0.05437312
0.87948118 0.00038549 0.04765807
0.90740275 0.00489652 0.03976147
0.93278558 0.01094694 0.03136363
0.95505504 0.02007781 0.02369141
0.97321533 0.03505109 0.01875947
0.98608466 0.05927256 0.01907275
0.99399665 0.09201385 0.02489996
0.99893544 0.12370976 0.03380292
1.00000000 0.15175912 0.04436955
1.00000000 0.17635484 0.05566214
1.00000000 0.19751719 0.06654200
1.00000000 0.21405501 0.07406855
0.00000000 0.00000000 0.00000000
0.00000000 0.00000000 0.00000000
0.00000000 0.00000000 0.00000000
0.00000000 0.00000000 0.00000000
0.00000000 0.00000000 0.00000000
0.06617847 0.00723821 0.01063535
0.14614797 0.00704155 0.01565335
0.21660467 0.00443464 0.01958403
0.28177303 0.00059303 0.02334589
0.34349657 0.00000000 0.02761567
0.40306629 0.00000000 0.03266106
0.46124767 0.00000000 0.03863273
0.51839660 0.00000000 0.04571158
0.57231970 0.00000000 0.05289386
0.62065680 0.00000000 0.05851430
0.66526460 0.00000000 0.06229401
0.70689826 0.00000000 0.06425590
0.74597412 0.00000000 0.06437980
0.78259375 0.00000000 0.06282925
0.81698943 0.00000000 0.05950282
0.84929790 0.00000000 0.05437312
0.87948118 0.00038549 0.04765807
0.90740275 0.00489652 0.03976147
0.93278558 0.01094694 0.03136363
0.95505504 0.02007781 0.02369141
0.97321533 0.03505109 0.01875947
0.98608466 0.05927256 0.01907275
0.99399665 0.09201385 0.02489996
0.99893544 0.12370976 0.03380292
1.00000000 0.15175912 0.04436955
1.00000000 0.17635484 0.05566214
1.00000000 0.19751719 0.06654200
1.00000000 0.21405501 0.07406855
0.00000000 0.00000000 0.00000000
0.00000000 0.00000000 0.00000000
0.00000000 0.00000000 0.00000000
0.00000000 0.00000000 0.00000000
0.00000000 0.00000000 0.00000000
0.06617847 0.00723821 0.01063535
0.14614797 0.00704155 0.01565335
0.21660467 0.00443464 0.01958403
0.28177303 0.00059303 0.02334589
0.34349657 0.00000000 0.02761567
0.40306629 0.00000000 0.03266106
0.46124767 0.00000000 0.03863273
0.51839660 0.00000000 0.04571158
0.57231970 0.00000000 0.05289386
0.62065680 0.00000000 0.05851430
0.66526460 0.00000000 0.06229401
0.70689826 0.00000000 0.06425590
0.74597412 0.00000000 0.06437980
0.78259375 0.00000000 0.06282925
0.81698943 0.00000000 0.05950282
0.84929790 0.00000000 0.05437312
0.87948118 0.00038549 0.04765807
0.90740275 0.00489652 0.03976147
0.93278558 0.01094694 0.03136363
0.95505504 0.02007781 0.02369141
0.97321533 0.03505109 0.01875947
0.98608466 0.05927256 0.01907275
0.99399665 0.09201385 0.02489996
0.99893544 0.12370976 0.03380292
1.00000000 0.15175912 0.04436955
1.00000000 0.17635484 0.05566214
1.00000000 0.19751719 0.06654200
1.00000000 0.21405501 0.07406855
0.00000000 0.00000000 0.00000000
0.00000000 0.00000000 0.00000000
0.00000000 0.00000000 0.00000000
0.00000000 0.00000000 0.00000000
0.00000000 0.00000000 0.00000000
0.06617847 0.00723821 0.01063535
0.14614797 0.00704155 0.01565335
0.21660467 0.00443464 0.01958403
0.28177303 0.00059303 0.02334589
0.34349657 0.00000000 0.02761567
0.40306629 0.00000000 0.03266106
0.46124767 0.00000000 0.03863273
0.51839660 0.00000000 0.04571158
0.57231970 0.00000000 0.05289386
0.62065680 0.00000000 0.05851430
0.66526460 0.00000000 0.06229401
0.70689826 0.00000000 0.06425590
0.74597412 0.00000000 0.06437980
0.78259375 0.00000000 0.06282925
0.81698943 0.00000000 0.05950282
0.84929790 0.00000000 0.05437312
0.87948118 0.00038549 0.04765807
0.90740275 0.00489652 0.03976147
0.93278558 0.01094694 0.03136363
0.95505504 0.02007781 0.02369141
0.97321533 0.03505109 0.01875947
0.98608466 0.05927256 0.01907275
0.99399665 0.09201385 0.02489996
0.99893544 0.12370976 0.03380292
1.00000000 0.15175912 0.04436955
1.00000000 0.17635484 0.05566214
1.00000000 0.19751719 0.06654200
1.00000000 0.21405501 0.07406855
0.00000000 0.00000000 0.00000000
0.00000000 0.00000000 0.00000000
0.00000000 0.00000000 0.00000000
0.00000000 0.00000000 0.00000000
0.00597043 0.00857361 0.00000000
0.06617847 0.00723821 0.01063535
0.14614797 0.00704155 0.01565335
0.21660467 0.00443464 0.01958403
0.28177303 0.00059303 0.02334589
0.34349657 0.00000000 0.02761567
0.40306629 0.00000000 0.03266106
0.46124767 0.00000000 0.03863273
0.51839660 0.00000000 0.04571158
0.57231970 0.00000000 0.05289386
0.62065680 0.00000000 0.05851430
0.66526460 0.00000000 0.06229401
0.70689826 0.00000000 0.06425590
0.74597412 0.00000000 0.06437980
0.78259375 0.00000000 0.06282925
0.81698943 0.00000000 0.05950282
0.84929790 0.00000000 0.05437312
0.87948118 0.00038549 0.04765807
0.90740275 0.00489652 0.03976147
0.93278558 0.01094694 0.03136363
0.95505504 0.02007781 0.02369141
0.97321533 0.03505109 0.01875947
0.98608466 0.05927256 0.01907275
0.99399665 0.09201385 0.02489996
0.99893544 0.12370976 0.03380292
1.00000000 0.15175912 0.04436955
1.00000000 0.17635484 0.05566214
1.00000000 0.19751719 0.06654200
1.00000000 0.21405501 0.07406855
0.01052899 0.05929082 0.02385273
0.01052899 0.05929082 0.02385273
0.01052899 0.05929082 0.02385273
0.01052899 0.05929082 0.02385273
0.01052899 0.05929082 0.02385273
0.07294856 0.07041122 0.01882413
0.15612485 0.06844237 0.01638678
0.22765532 0.06386742 0.01593453
0.29447937 0.05722803 0.01558515
0.35832854 0.04929445 0.01597751
0.42003913 0.04080814 0.01751573
0.48038705 0.03218531 0.02012659
0.53921762 0.02468444 0.02447675
0.59386750 0.01947872 0.03054340
0.64255733 0.01577383 0.03632982
0.68720461 0.01316491 0.04107899
0.72874233 0.01150447 0.04443405
0.76746148 0.01110514 0.04645500
0.80349179 0.01224355 0.04723723
0.83716372 0.01453456 0.04650280
0.86869375 0.01762182 0.04407460
0.89798388 0.02174919 0.04023391
0.92477109 0.02755564 0.03556394
0.94864765 0.03610091 0.03095366
0.96862698 0.05000142 0.02831934
0.98306823 0.07371711 0.03083386
0.99182238 0.10595405 0.03952045
0.99732995 0.13652667 0.05113023
1.00000000 0.16395999 0.06409281
1.00000000 0.18837238 0.07767112
1.00000000 0.21004757 0.09102938
1.00000000 0.22891697 0.10259271
1.00000000 0.24387578 0.11029563
0.00545216 0.12297627 0.03820933
0.00545216 0.12297627 0.03820933
0.00545216 0.12297627 0.03820933
0.00545216 0.12297627 0.03820933
0.00545216 0.12297627 0.03820933
0.05447587 0.13545480 0.02320362
0.14030127 0.13591641 0.01306426
0.21736956 0.13235843 0.00833030
0.28748842 0.12684899 0.00595988
0.35404963 0.11964421 0.00462087
0.41847259 0.11089003 0.00431554
0.48161370 0.10063747 0.00491921
0.54371866 0.08931381 0.00672722
0.60220064 0.07748328 0.00999847
0.65432930 0.06649978 0.01406603
0.70177812 0.05696624 0.01802534
0.74527049 0.04947734 0.02166322
0.78511180 0.04466893 0.02501818
0.82137859 0.04322568 0.02829540
0.85491775 0.04387125 0.03047039
0.88564038 0.04703473 0.03184000
0.91390464 0.05202512 0.03202467
0.93916385 0.06019960 0.03207558
0.96079763 0.07321076 0.03327410
0.97755475 0.09386173 0.03808258
0.98790047 0.12220289 0.04971507
0.99444806 0.15075987 0.06458026
0.99871512 0.17718798 0.08072140
1.00000000 0.20105728 0.09642911
1.00000000 0.22253558 0.11067660
1.00000000 0.24184004 0.12354669
1.00000000 0.25887897 0.13469410
1.00000000 0.27250298 0.14227301
0.00000000 0.17986806 0.05263080
0.00000000 0.17986806 0.05263080
0.00000000 0.17986806 0.05263080
0.00000000 0.17986806 0.05263080
0.00000000 0.17986806 0.05263080
0.03200710 0.19237636 0.02849110
0.11633763 0.19471166 0.01304754
0.19855981 0.19299085 0.00545019
0.27217551 0.18928156 0.00153284
0.34131360 0.18416316 0.00000000
0.40810030 0.17766623 0.00000000
0.47354205 0.16980595 0.00000000
0.53834617 0.16046331 0.00000000
0.60002837 0.14967244 0.00000000
0.65565664 0.13780363 0.00186369
0.70637609 0.12588122 0.00519323
0.75282693 0.11464755 0.00870377
0.79524558 0.10510442 0.01239103
0.83366788 0.09845763 0.01646360
0.86815613 0.09568338 0.02104231
0.89865422 0.09762351 0.02643593
0.92620196 0.10233545 0.03119281
0.95038130 0.11053899 0.03623010
0.96985877 0.12445105 0.04410805
0.98263757 0.14655423 0.05879025
0.99065388 0.17167480 0.07773439
0.99588368 0.19617533 0.09728738
0.99938446 0.21890650 0.11486542
1.00000000 0.23964597 0.13049739
1.00000000 0.25852858 0.14449090
1.00000000 0.27573579 0.15709571
1.00000000 0.29117385 0.16810872
1.00000000 0.30348662 0.17558570
0.00000000 0.23278491 0.06944621
0.00000000 0.23278491 0.06944621
0.00000000 0.23278491 0.06944621
0.00000000 0.23278491 0.06944621
0.00000000 0.23278491 0.06944621
0.01304287 0.24455467 0.04039769
0.08545100 0.24917379 0.01554903
0.17486580 0.24888404 0.00456616
0.25289595 0.24649843 0.00000000
0.32478898 0.24282282 0.00000000
0.39364243 0.23801552 0.00000000
0.46103904 0.23196705 0.00000000
0.52784779 0.22452459 0.00000000
0.59212898 0.21522270 0.00000000
0.65079703 0.20422022 0.00000000
0.70481606 0.19229127 0.00000000
0.75461109 0.18017592 0.00244503
0.80034532 0.16865242 0.00575984
0.84199883 0.15864428 0.00950070
0.87939397 0.15139175 0.01420453
0.91201812 0.14845633 0.02079192
0.93819317 0.15318991 0.03238787
0.96052459 0.16155362 0.04484804
0.97670254 0.17669693 0.06267055
0.98649612 0.19784481 0.08690090
0.99279066 0.22002064 0.11048512
0.99699550 0.24131626 0.13121269
0.99987197 0.26111080 0.14927945
1.00000000 0.27931396 0.16511892
1.00000000 0.29609972 0.17923715
1.00000000 0.31156978 0.19190587
1.00000000 0.32545937 0.20281708
1.00000000 0.33660141 0.21033460
0.00000000 0.28381510 0.08892334
0.00000000 0.28381510 0.08892334
0.00000000 0.28381510 0.08892334
0.00000000 0.28381510 0.08892334
0.00000000 0.28381510 0.08892334
0.00000000 0.29478201 0.05645855
0.05086104 0.30111481 0.02272865
0.14599497 0.30229831 0.00657297
0.22976053 0.30103442 0.00000000
0.30537214 0.29845499 0.00000000
0.37670284 0.29480545 0.00000000
0.44604365 0.29009454 0.00000000
0.51460635 0.28414597 0.00000000
0.58108500 0.27619274 0.00000000
0.64264501 0.26600980 0.00000000
0.69972877 0.25449294 0.00000000
0.75271379 0.24225705 0.00000000
0.80177938 0.22986740 0.00323122
0.84685107 0.21804767 0.00685050
0.88751691 0.20793146 0.01155133
0.92307295 0.20114898 0.01865132
0.95234582 0.20002809 0.03041287
0.97176586 0.20975051 0.05377457
0.98380165 0.22662777 0.08485630
0.99074602 0.24691492 0.11618518
0.99525773 0.26709927 0.14266356
0.99838077 0.28612521 0.16498303
1.00000000 0.30373418 0.18399685
1.00000000 0.31998025 0.20045482
1.00000000 0.33500175 0.21493177
1.00000000 0.34888447 0.22776212
1.00000000 0.36143229 0.23878066
1.00000000 0.37154685 0.24647446
0.00000000 0.33393885 0.10937407
0.00000000 0.33393885 0.10937407
0.00000000 0.33393885 0.10937407
0.00000000 0.33393885 0.10937407
0.00000000 0.33393885 0.10937407
0.00000000 0.34409250 0.07691409
0.02102314 0.35136340 0.03675876
0.11102239 0.35433919 0.01203131
0.20214826 0.35419160 0.00126503
0.28250086 0.35255172 0.00000000
0.35708275 0.34988000 0.00000000
0.42871600 0.34616304 0.00000000
0.49912875 0.34136194 0.00000000
0.56769609 0.33454666 0.00000000
0.63208689 0.32512689 0.00000000
0.69229395 0.31399635 0.00000000
0.74846187 0.30179595 0.00000000
0.80070957 0.28904774 0.00201136
0.84900029 0.27632030 0.00620325
0.89296720 0.26448616 0.01139362
0.93170025 0.25508781 0.01929687
0.96318815 0.25107528 0.03385253
0.98299253 0.25809031 0.06407759
0.99237797 0.27457095 0.10616638
0.99673008 0.29399841 0.14327530
0.99894369 0.31316577 0.17378314
1.00000000 0.33067999 0.19842657
1.00000000 0.34666737 0.21889129
1.00000000 0.36133280 0.23628739
1.00000000 0.37488055 0.25138002
1.00000000 0.38742516 0.26461316
1.00000000 0.39881223 0.27592190
1.00000000 0.40803331 0.28392031
0.00000000 0.38375211 0.13008067
0.00000000 0.38375211 0.13008067
0.00000000 0.38375211 0.13008067
0.00000000 0.38375211 0.13008067
0.00000000 0.38375211 0.13008067
0.00000000 0.39310550 0.10042907
0.00000000 0.40060702 0.05817730
0.06891247 0.40551197 0.02220358
0.16912969 0.40665839 0.00554067
0.25543973 0.40592352 0.00000000
0.33406822 0.40410787 0.00000000
0.40861832 0.40132782 0.00000000
0.48114591 0.39745200 0.00000000
0.55183484 0.39162908 0.00000000
0.61905120 0.38296429 0.00000000
0.68250711 0.37223193 0.00000000
0.74204709 0.36009080 0.00000000
0.79764488 0.34707916 0.00008006
0.84920977 0.33374071 0.00515809
0.89632179 0.32088073 0.01170555
0.93787541 0.31000656 0.02186858
0.97110135 0.30440423 0.04139465
0.98954944 0.31095140 0.08425920
0.99773885 0.32551425 0.13239677
1.00000000 0.34251466 0.17238501
1.00000000 0.35942730 0.20501408
1.00000000 0.37536756 0.23185625
1.00000000 0.38990848 0.25394431
1.00000000 0.40324241 0.27254310
1.00000000 0.41553550 0.28847900
1.00000000 0.42693082 0.30231437
1.00000000 0.43729915 0.31406186
1.00000000 0.44575004 0.32249328
0.00000000 0.43363859 0.15069960
0.00000000 0.43363859 0.15069960
0.00000000 0.43363859 0.15069960
0.00000000 0.43363859 0.15069960
0.00000000 0.43363859 0.15069960
0.00000000 0.44226752 0.12379667
0.00000000 0.44968688 0.08452622
0.02951035 0.45597006 0.03930480
0.12932826 0.45874986 0.01317228
0.22330077 0.45903322 0.00155887
0.30697039 0.45800670 0.00000000
0.38509143 0.45605700 0.00000000
0.46031711 0.45312245 0.00000000
0.53323634 0.44819860 0.00000000
0.60315297 0.44036499 0.00000000
0.66987006 0.43015562 0.00000000
0.73301036 0.41815215 0.00000000
0.79227124 0.40492772 0.00000000
0.84738206 0.39107254 0.00240788
0.89784578 0.37737381 0.01053374
0.94232776 0.36535166 0.02371114
0.97734428 0.35849932 0.04971920
0.99455396 0.36444839 0.10615085
1.00000000 0.37698646 0.15906992
1.00000000 0.39168447 0.20212019
1.00000000 0.40648753 0.23705865
1.00000000 0.42053888 0.26563004
1.00000000 0.43358115 0.28927642
1.00000000 0.44560345 0.30909800
1.00000000 0.45674167 0.32599820
1.00000000 0.46709416 0.34055955
1.00000000 0.47655102 0.35287001
1.00000000 0.48431332 0.36182303
0.00000000 0.48134821 0.16967290
0.00000000 0.48134821 0.16967290
0.00000000 0.48134821 0.16967290
0.00000000 0.48134821 0.16967290
0.00000000 0.48134821 0.16967290
0.00000000 0.48934354 0.14548456
0.00000000 0.49651381 0.11108908
0.00168618 0.50337140 0.06510818
0.08106055 0.50817566 0.02588795
0.18448032 0.50978139 0.00767011
0.27407793 0.50972427 0.00000000
0.35619100 0.50864248 0.00000000
0.43434160 0.50669097 0.00000000
0.50971875 0.50293284 0.00000000
0.58206115 0.49613421 0.00000000
0.65172386 0.48678028 0.00000000
0.71837376 0.47526459 0.00000000
0.78151191 0.46208840 0.00000000
0.84061128 0.44785501 0.00000000
0.89494794 0.43338665 0.00621173
0.94295281 0.42020388 0.02189462
0.98060451 0.41181956 0.05411222
0.99835496 0.41595196 0.12179632
1.00000000 0.42631140 0.18080873
1.00000000 0.43891874 0.22811737
1.00000000 0.45182864 0.26614631
1.00000000 0.46423328 0.29706172
1.00000000 0.47584006 0.32249910
1.00000000 0.48664080 0.34375965
1.00000000 0.49671443 0.36180084
1.00000000 0.50612569 0.37725430
1.00000000 0.51474871 0.39023915
1.00000000 0.52188950 0.39980389
0.00000000 0.52429948 0.18551755
0.00000000 0.52429948 0.18551755
0.00000000 0.52429948 0.18551755
0.00000000 0.52429948 0.18551755
0.00000000 0.52429948 0.18551755
0.00000000 0.53176359 0.16400326
0.00000000 0.53862030 0.13416980
0.00000000 0.54571460 0.09378826
0.03564855 0.55205327 0.04599804
0.13874997 0.55545508 0.01784393
0.23481612 0.55665135 0.00544083
0.32109341 0.55665421 0.00016787
0.40202561 0.55578496 0.00000000
0.47953843 0.55333679 0.00000000
0.55401768 0.54807943 0.00000000
0.62594056 0.54001442 0.00000000
0.69544846 0.52955708 0.00000000
0.76208056 0.51703090 0.00000000
0.82516610 0.50293329 0.00000000
0.88375946 0.48803421 0.00063725
0.93611749 0.47374786 0.01661580
0.97809160 0.46327789 0.05151602
0.99926721 0.46416173 0.12720466
1.00000000 0.47198107 0.19406994
1.00000000 0.48251129 0.24715766
1.00000000 0.49368289 0.28942984
1.00000000 0.50458609 0.32345657
1.00000000 0.51491683 0.35127134
1.00000000 0.52462187 0.37437775
1.00000000 0.53372582 0.39383351
1.00000000 0.54226061 0.41034800
1.00000000 0.55011479 0.42414075
1.00000000 0.55667709 0.43440048
0.00000000 0.56394047 0.19882332
0.00000000 0.56394047 0.19882332
0.00000000 0.56394047 0.19882332
0.00000000 0.56394047 0.19882332
0.00000000 0.56394047 0.19882332
0.00000000 0.57094813 0.17977637
0.00000000 0.57746630 0.15396147
0.00000000 0.58454596 0.11948685
0.00598296 0.59159947 0.07361826
0.08658670 0.59708083 0.03256617
0.19013753 0.59975852 0.01364428
0.28116056 0.60095791 0.00556934
0.36513848 0.60122650 0.00262490
0.44467516 0.60001008 0.00093899
0.52088089 0.59627850 0.00000000
0.59474416 0.58995263 0.00000000
0.66634671 0.58091914 0.00000000
0.73570068 0.56957463 0.00000000
0.80220344 0.55622961 0.00000000
0.86487103 0.54147608 0.00000000
0.92195148 0.52647909 0.01078988
0.96954793 0.51388302 0.04410776
0.99728198 0.51044916 0.12245818
1.00000000 0.51526978 0.19896823
1.00000000 0.52358635 0.25949605
1.00000000 0.53301078 0.30722073
1.00000000 0.54250179 0.34531533
1.00000000 0.55166208 0.37621265
1.00000000 0.56034021 0.40161363
1.00000000 0.56851425 0.42275618
1.00000000 0.57621440 0.44052799
1.00000000 0.58333887 0.45526957
1.00000000 0.58933905 0.46629927
0.00000000 0.60100793 0.20999853
0.00000000 0.60100793 0.20999853
0.00000000 0.60100793 0.20999853
0.00000000 0.60100793 0.20999853
0.00000000 0.60100793 0.20999853
0.00000000 0.60762223 0.19316934
0.00000000 0.61380380 0.17084303
0.00000000 0.62072972 0.14142987
0.00000000 0.62807512 0.10211759
0.03901069 0.63502324 0.05465210
0.14021763 0.63955746 0.02490660
0.23683243 0.64207010 0.01236022
0.32439191 0.64350069 0.00770720
0.40619036 0.64349042 0.00565536
0.48394779 0.64112295 0.00305295
0.55928134 0.63643448 0.00007717
0.63269997 0.62926209 0.00000000
0.70403403 0.61940927 0.00000000
0.77317964 0.60729860 0.00000000
0.83930773 0.59329097 0.00000000
0.90085628 0.57821681 0.00638135
0.95449082 0.56403307 0.03478361
0.99163225 0.55582045 0.10673658
1.00000000 0.55713683 0.19492342
1.00000000 0.56294772 0.26474954
1.00000000 0.57053353 0.31944893
1.00000000 0.57862174 0.36278345
1.00000000 0.58662565 0.39754507
1.00000000 0.59427826 0.42572281
1.00000000 0.60154222 0.44889811
1.00000000 0.60842733 0.46816037
1.00000000 0.61483998 0.48400859
1.00000000 0.62027589 0.49588490
0.00000000 0.63588423 0.21933722
0.00000000 0.63588423 0.21933722
0.00000000 0.63588423 0.21933722
0.00000000 0.63588423 0.21933722
0.00000000 0.63588423 0.21933722
0.00000000 0.64215614 0.20449786
0.00000000 0.64802093 0.18518514
0.00000000 0.65471973 0.16010474
0.00000000 0.66211926 0.12683046
0.00840515 0.66976378 0.08320207
0.08488161 0.67627230 0.04060810
0.18807143 0.68026432 0.02114275
0.27998914 0.68289962 0.01355710
0.36449090 0.68406771 0.01056376
0.44395739 0.68299733 0.00791996
0.52052952 0.67974864 0.00514845
0.59523457 0.67427808 0.00217387
0.66831298 0.66637165 0.00000000
0.73938720 0.65577736 0.00000000
0.80820301 0.64298311 0.00000000
0.87355422 0.62847838 0.00419344
0.93291071 0.61351716 0.02543577
0.98055765 0.60119546 0.08047019
1.00000000 0.59834137 0.18078493
1.00000000 0.60122681 0.26203314
1.00000000 0.60676118 0.32554559
1.00000000 0.61335443 0.37553923
1.00000000 0.62013881 0.41509052
1.00000000 0.62675066 0.44670442
1.00000000 0.63310064 0.47235292
1.00000000 0.63917348 0.49340109
1.00000000 0.64487378 0.51054149
1.00000000 0.64972435 0.52334050
0.00000000 0.66876871 0.22707601
0.00000000 0.66876871 0.22707601
0.00000000 0.66876871 0.22707601
0.00000000 0.66876871 0.22707601
0.00000000 0.66876871 0.22707601
0.00000000 0.67474270 0.21401443
0.00000000 0.68031386 0.19733137
0.00000000 0.68675425 0.17597279
0.00000000 0.69405437 0.14787255
0.00000000 0.70198269 0.11086147
0.03826024 0.70973803 0.06505631
0.13474151 0.71563546 0.03322490
0.23186211 0.71957588 0.02075070
0.31969542 0.72191828 0.01587424
0.40119400 0.72208522 0.01276627
0.47908679 0.72019438 0.01014862
0.55479192 0.71621462 0.00743181
0.62901749 0.71005015 0.00462473
0.70181341 0.70146587 0.00212408
0.77259106 0.69017409 0.00098233
0.84087290 0.67677055 0.00454333
0.90482552 0.66197969 0.01926978
0.96019391 0.64778906 0.06103712
0.99586251 0.63959067 0.15558080
1.00000000 0.63895014 0.24989813
1.00000000 0.64209095 0.32442701
1.00000000 0.64698095 0.38278994
1.00000000 0.65244381 0.42838641
1.00000000 0.65796821 0.46431595
1.00000000 0.66338212 0.49303076
1.00000000 0.66863080 0.51625487
1.00000000 0.67360183 0.53491615
1.00000000 0.67782957 0.54871899
0.00000000 0.69976234 0.23340990
0.00000000 0.69976234 0.23340990
0.00000000 0.69976234 0.23340990
0.00000000 0.69976234 0.23340990
0.00000000 0.69976234 0.23340990
0.00000000 0.70547556 0.22194080
0.00000000 0.71077970 0.20755948
0.00000000 0.71695717 0.18940138
0.00000000 0.72407552 0.16571478
0.00000000 0.73203822 0.13456041
0.00850877 0.74043642 0.09407919
0.07664626 0.74817858 0.05020709
0.17978835 0.75357937 0.03027282
0.27171457 0.75713744 0.02204140
0.35573462 0.75850364 0.01775313
0.43518586 0.75789441 0.01499342
0.51191086 0.75531874 0.01255002
0.58694655 0.75068371 0.00998062
0.66078585 0.74386634 0.00750826
0.73331921 0.73463048 0.00589200
0.80371619 0.72267098 0.00694516
0.87115279 0.70874333 0.01603313
0.93281608 0.69393980 0.04459038
0.98193780 0.68125166 0.11683618
1.00000000 0.67656945 0.22605711
1.00000000 0.67684984 0.31426366
1.00000000 0.67973942 0.38323778
1.00000000 0.68372264 0.43658298
1.00000000 0.68807869 0.47803665
1.00000000 0.69251391 0.51063556
1.00000000 0.69691034 0.53656214
1.00000000 0.70112366 0.55705029
1.00000000 0.70468710 0.57197908
0.00000000 0.72891355 0.23850039
0.00000000 0.72891355 0.23850039
0.00000000 0.72891355 0.23850039
0.00000000 0.72891355 0.23850039
0.00000000 0.72891355 0.23850039
0.00000000 0.73439657 0.22846455
0.00000000 0.73946160 0.21609930
0.00000000 0.74538595 0.20070216
0.00000000 0.75228239 0.18079459
0.00000000 0.76013089 0.15473245
0.00000000 0.76877672 0.12072358
0.03464107 0.77747631 0.07805707
0.12417925 0.78483204 0.04414211
0.22038366 0.78974750 0.02994097
0.30749551 0.79231872 0.02325188
0.38889392 0.79293362 0.01978790
0.46680661 0.79167788 0.01741255
0.54261849 0.78848613 0.01515934
0.61711715 0.78322921 0.01282767
0.69062569 0.77577305 0.01094064
0.76288290 0.76589643 0.01084607
0.83275951 0.75329706 0.01564335
0.89889611 0.73895617 0.03406317
0.95691003 0.72452763 0.08632443
0.99523463 0.71469251 0.18905842
1.00000000 0.71143679 0.29271479
1.00000000 0.71188515 0.37497872
1.00000000 0.71414703 0.43835781
1.00000000 0.71720421 0.48700444
1.00000000 0.72058923 0.52462719
1.00000000 0.72408932 0.55399361
1.00000000 0.72751264 0.57675562
1.00000000 0.73036434 0.59298727
0.00000000 0.75624337 0.24249121
0.00000000 0.75624337 0.24249121
0.00000000 0.75624337 0.24249121
0.00000000 0.75624337 0.24249121
0.00000000 0.75624337 0.24249121
0.00000000 0.76152276 0.23374454
0.00000000 0.76637402 0.22315597
0.00000000 0.77206578 0.21012964
0.00000000 0.77872424 0.19348186
0.00000000 0.78638572 0.17176561
0.00000000 0.79505223 0.14349364
0.00854954 0.80423447 0.10720022
0.06895115 0.81312954 0.06559226
0.16566383 0.81970622 0.04094702
0.25627731 0.82355378 0.02991551
0.34014148 0.82536692 0.02482495
0.41955540 0.82536093 0.02208327
0.49625323 0.82352468 0.02002298
0.57132817 0.81974613 0.01797268
0.64537960 0.81387601 0.01601844
0.71858434 0.80578000 0.01510546
0.79052063 0.79526686 0.01746442
0.85968042 0.78205975 0.02819849
0.92395736 0.76743180 0.06098506
0.97708419 0.75367470 0.13699213
1.00000000 0.74629955 0.25659599
1.00000000 0.74374344 0.35535434
