Luts Download/Canon Luts/3dlut/33grid-3dlut/full-to-full-range/BT2020_CanonLog2-to-BT709_WideDR_33_FF_Ver.2.0.cube
# Gamut : BT.2020 to BT.709
# Gamma : Canon Log 2 to Wide DR
# Range : Full in / Full out
# Version : 2.0 2019/10/24
# Copyright(c) 2019 Canon Inc. All Rights Reserved.
LUT_3D_SIZE 9
# LUT_3D_INPUT_RANGE 0.0 1.0
0.00000000 0.00000000 0.00000000
0.01853334 0.00181220 0.00277619
0.17468044 0.00000000 0.00895197
0.40596172 0.00000000 0.02401875
0.69897493 0.00000000 0.03981391
0.92501543 0.00455647 0.02946130
1.00000000 0.16759989 0.08933383
0.99405477 0.35883194 0.24417726
1.00000000 0.70229445 0.60714768
0.00195231 0.01596627 0.00578021
0.01898755 0.01830871 0.00464520
0.18425182 0.01096964 0.00551732
0.41721392 0.00000000 0.01632593
0.70823629 0.00000000 0.03270841
0.93144730 0.00604073 0.02729740
1.00000000 0.17770342 0.09660351
0.99389553 0.36413093 0.24943655
1.00000000 0.70495474 0.61041470
0.00000000 0.13857118 0.02959625
0.00000000 0.14391601 0.02037771
0.15014323 0.14634882 0.00000000
0.41503729 0.12648219 0.00000000
0.73773273 0.06629135 0.00303806
0.96572718 0.04855282 0.01824837
1.00000000 0.24153951 0.14301481
0.99273039 0.40074219 0.28599688
1.00000000 0.72401234 0.63382202
0.00000000 0.34414145 0.09814280
0.00000000 0.34683503 0.08736358
0.03676318 0.35829054 0.01610395
0.35886905 0.35562118 0.00199621
0.72645642 0.31804825 0.00402234
0.98372727 0.27789537 0.08686757
0.99880401 0.38468773 0.25920066
0.98988374 0.49819825 0.38779010
1.00000000 0.78050709 0.70402252
0.00000000 0.60511825 0.18969497
0.00000000 0.60701613 0.18417812
0.00000000 0.61768521 0.13670890
0.18390187 0.63603425 0.02576135
0.62811425 0.62823554 0.00867045
0.99873528 0.55400652 0.16470411
1.00000000 0.59284639 0.43766559
0.99629372 0.66342490 0.56829338
1.00000000 0.89413304 0.84728330
0.00000000 0.80424600 0.24494464
0.00000000 0.80591573 0.24260390
0.00000000 0.81436876 0.22623140
0.00000000 0.84044036 0.16680820
0.33001608 0.87808962 0.05530406
0.83514176 0.84366431 0.09280631
1.00000000 0.78168955 0.53628547
1.00000000 0.81058330 0.72599105
1.00000000 1.00000000 1.00000000
0.01064862 0.92765520 0.27601832
0.00859463 0.92917259 0.27529141
0.01605640 0.93587068 0.27296040
0.04106425 0.95707993 0.26700388
0.28142293 0.99423883 0.30392504
0.61884461 1.00000000 0.41549904
0.94759725 0.97384234 0.44688500
1.00000000 0.93096307 0.84545313
1.00000000 1.00000000 1.00000000
0.52759704 0.99596381 0.53331391
0.53162926 0.99621719 0.53637349
0.55744519 0.99632651 0.55588031
0.62622000 0.99791539 0.61138386
0.76184328 1.00000000 0.73394300
0.89327789 1.00000000 0.86461803
1.00000000 1.00000000 1.00000000
1.00000000 1.00000000 1.00000000
1.00000000 1.00000000 1.00000000
1.00000000 1.00000000 1.00000000
1.00000000 1.00000000 1.00000000
1.00000000 1.00000000 1.00000000
1.00000000 1.00000000 1.00000000
1.00000000 1.00000000 1.00000000
1.00000000 1.00000000 1.00000000
1.00000000 1.00000000 1.00000000
1.00000000 1.00000000 1.00000000
1.00000000 1.00000000 1.00000000
0.00069143 0.00132719 0.01042685
0.02042085 0.00195244 0.01506366
0.17317901 0.00001480 0.02470670
0.40147208 0.00000000 0.04465332
0.69452859 0.00256676 0.06183271
0.92170804 0.01338868 0.04485232
0.99924853 0.17168370 0.09765785
0.99296901 0.36078407 0.24735877
1.00000000 0.70383936 0.60919240
0.00077583 0.01739964 0.01637955
0.01903558 0.01903558 0.01903558
0.18468507 0.01089662 0.02223665
0.41321337 0.00354864 0.03722032
0.70361370 0.00240506 0.05494862
0.92783891 0.01564698 0.04309936
0.99932130 0.18161204 0.10467749
0.99283736 0.36605848 0.25258860
1.00000000 0.70648814 0.61244811
0.00000000 0.13779853 0.04485200
0.00000000 0.14301828 0.03716110
0.15023963 0.14616371 0.01339358
0.42055325 0.12129698 0.01141795
0.74096928 0.05967132 0.01742601
0.96139075 0.06022698 0.03553181
0.99933576 0.24464482 0.14993827
0.99186328 0.40251317 0.28895819
1.00000000 0.72552339 0.63582301
0.00000000 0.34218815 0.11533033
0.00000000 0.34489580 0.10592074
0.03197043 0.35771552 0.03208113
0.35879433 0.35446199 0.01124778
0.73082470 0.31428640 0.01405235
0.98141645 0.28031169 0.10326287
0.99784896 0.38648952 0.26423895
0.98948231 0.49980909 0.39049393
1.00000000 0.78218827 0.70619586
0.00000000 0.60393185 0.20058296
0.00000000 0.60552619 0.19554568
0.00000000 0.61637173 0.15039086
0.17579601 0.63594628 0.03479081
0.62816584 0.62732190 0.01409159
0.99922573 0.55360407 0.17319703
1.00000000 0.59389112 0.44115511
0.99633285 0.66510744 0.57093776
1.00000000 0.89617496 0.84991182
0.00000000 0.80397026 0.25033581
0.00000000 0.80514365 0.24847579
0.00000000 0.81374639 0.23183903
0.00000000 0.83997681 0.17383194
0.32736020 0.87822416 0.06139411
0.83522685 0.84336835 0.09738600
1.00000000 0.78229027 0.53890393
1.00000000 0.81235298 0.72880488
1.00000000 1.00000000 1.00000000
0.01669257 0.92791831 0.27838938
0.01712235 0.92884445 0.27814476
0.01729560 0.93579838 0.27512615
0.04072246 0.95716503 0.26896460
0.28282604 0.99424951 0.30670422
0.61946874 1.00000000 0.41773486
0.94770450 0.97386022 0.44908297
1.00000000 0.93216759 0.84812771
1.00000000 1.00000000 1.00000000
0.53283140 0.99573488 0.53754230
0.53649295 0.99571237 0.54029315
0.56013555 0.99617137 0.55819552
0.62779353 0.99805893 0.61307071
0.76349164 1.00000000 0.73581405
0.89486211 1.00000000 0.86657508
1.00000000 1.00000000 1.00000000
1.00000000 1.00000000 1.00000000
1.00000000 1.00000000 1.00000000
1.00000000 1.00000000 1.00000000
1.00000000 1.00000000 1.00000000
1.00000000 1.00000000 1.00000000
1.00000000 1.00000000 1.00000000
1.00000000 1.00000000 1.00000000
1.00000000 1.00000000 1.00000000
1.00000000 1.00000000 1.00000000
1.00000000 1.00000000 1.00000000
1.00000000 1.00000000 1.00000000
0.00000000 0.01017636 0.08943502
0.01638102 0.00761721 0.11352961
0.17326349 0.00271700 0.13195436
0.39926365 0.00329191 0.15679231
0.69243831 0.00672024 0.17197134
0.92166408 0.01991645 0.13221687
0.99686079 0.18359966 0.14293570
0.99113210 0.36927053 0.26513586
1.00000000 0.71367421 0.62272244
0.00000000 0.02536364 0.09886326
0.00751218 0.01825977 0.15659019
0.18221255 0.01170070 0.14305123
0.41016974 0.00636713 0.15656160
0.70069584 0.00761131 0.16905238
0.92733938 0.02306888 0.13168652
0.99692188 0.19307915 0.14889740
0.99107430 0.37446955 0.27022069
1.00000000 0.71635380 0.62599876
0.00000000 0.13862623 0.13114012
0.00000000 0.14294325 0.13561326
0.14520997 0.14520997 0.14520997
0.43795006 0.10138372 0.13871736
0.74488836 0.04959040 0.14314413
0.95625982 0.07818044 0.13300161
0.99683782 0.25409825 0.18880746
0.99061004 0.41054704 0.30576538
1.00000000 0.73548744 0.64937268
0.00000000 0.33542482 0.19530574
0.00000000 0.33841039 0.19159484
0.01578953 0.35530305 0.15496590
0.35997696 0.35123120 0.10366920
0.76312427 0.28791508 0.10306319
0.97151359 0.29110822 0.19273441
0.99623656 0.39380261 0.29530962
0.98896459 0.50817408 0.40671707
1.00000000 0.79253557 0.71999772
0.00000000 0.59728375 0.26318191
0.00000000 0.59902499 0.25961390
0.00000000 0.61093362 0.22853844
0.12425520 0.63673795 0.12580402
0.63036536 0.62306690 0.06971779
1.00000000 0.55129680 0.23528601
1.00000000 0.59995677 0.46582597
0.99629989 0.67512121 0.58795318
1.00000000 0.90887898 0.86634220
0.00000000 0.80091504 0.28598504
0.00000000 0.80215705 0.28432263
0.00000000 0.81101018 0.27064829
0.00000000 0.83753866 0.22571929
0.31016312 0.87945544 0.11874509
0.83639396 0.84176335 0.13838862
1.00000000 0.78594678 0.55858173
1.00000000 0.82330088 0.74683265
1.00000000 1.00000000 1.00000000
0.01684138 0.92789642 0.29374207
0.01633954 0.92888778 0.29339820
0.01679822 0.93598711 0.29083939
0.05164117 0.95726974 0.28828203
0.29729292 0.99370613 0.33108698
0.62519271 1.00000000 0.43722816
0.94856338 0.97394838 0.46720952
1.00000000 0.93985520 0.86527524
1.00000000 1.00000000 1.00000000
0.54552699 0.99595306 0.55005328
0.54871908 0.99604426 0.55250276
0.57102095 0.99684951 0.56976485
0.63829706 0.99897798 0.62484171
0.77466483 1.00000000 0.74881324
0.90530526 1.00000000 0.87962657
1.00000000 1.00000000 1.00000000
1.00000000 1.00000000 1.00000000
1.00000000 1.00000000 1.00000000
1.00000000 1.00000000 1.00000000
1.00000000 1.00000000 1.00000000
1.00000000 1.00000000 1.00000000
1.00000000 1.00000000 1.00000000
1.00000000 1.00000000 1.00000000
1.00000000 1.00000000 1.00000000
1.00000000 1.00000000 1.00000000
1.00000000 1.00000000 1.00000000
1.00000000 1.00000000 1.00000000
0.00000000 0.04878435 0.21936274
0.00000000 0.04106719 0.25592563
0.16557917 0.01257051 0.31818538
0.40521740 0.00702923 0.32540165
0.70111092 0.00435259 0.33006493
0.93376115 0.01814646 0.27067832
0.99771459 0.20582469 0.23424685
0.98893838 0.38729648 0.30828995
1.00000000 0.73317540 0.65189678
0.00000000 0.06321896 0.22371753
0.00000000 0.05643446 0.26126132
0.16699470 0.02003382 0.33657376
0.41218036 0.01055058 0.33336979
0.70820005 0.00562499 0.33115174
0.93886324 0.02184917 0.27136979
0.99781516 0.21433715 0.23884878
0.98893868 0.39231233 0.31302270
1.00000000 0.73592443 0.65521023
0.00000000 0.15674902 0.25587451
0.00000000 0.15844451 0.27331492
0.11887592 0.14308091 0.36734434
0.42952200 0.09764801 0.36400723
0.74783559 0.04622060 0.33310261
0.96390112 0.08197497 0.27844773
0.99782106 0.27077470 0.27088729
0.98870412 0.42749743 0.34655272
1.00000000 0.75562390 0.67895284
0.00000000 0.33676265 0.32269020
0.00000000 0.33915969 0.32510699
0.01258490 0.35362044 0.34065072
0.34979522 0.34979522 0.34979522
0.74215916 0.30120814 0.33937348
0.96469999 0.30451322 0.33311309
0.99477951 0.40798597 0.36504327
0.98712885 0.52494899 0.44455354
1.00000000 0.81476708 0.75115581
0.00198754 0.59102365 0.38268477
0.00000000 0.59272676 0.38158153
0.00000000 0.60455874 0.37087215
0.13744485 0.63216042 0.33472856
0.62946383 0.62073561 0.30352655
0.98444969 0.56153326 0.39011674
1.00000000 0.61672232 0.52944651
0.99289444 0.69674603 0.62784723
1.00000000 0.93552659 0.90133859
0.01314779 0.79752111 0.37411064
0.01200398 0.79874084 0.37331618
0.01150077 0.80734727 0.36672410
0.05216175 0.83299726 0.34654858
0.31340311 0.87919568 0.27819388
0.84209988 0.84090834 0.23746327
1.00000000 0.79594164 0.61399741
1.00000000 0.84679143 0.78705485
1.00000000 1.00000000 1.00000000
0.03742327 0.92927726 0.34225671
0.03792193 0.93025392 0.34223251
0.04809512 0.93712514 0.34245312
0.11951624 0.95710675 0.34996189
0.35800961 0.98970671 0.40939059
0.64973084 1.00000000 0.50298861
0.95147522 0.97456172 0.52888924
1.00000000 0.95745973 0.90430053
1.00000000 1.00000000 1.00000000
0.57553055 0.99711344 0.58305728
0.57861079 0.99723064 0.58545706
0.60048247 0.99814521 0.60263837
0.66827265 1.00000000 0.65885931
0.80400644 1.00000000 0.78350448
0.93103039 1.00000000 0.91195644
1.00000000 1.00000000 1.00000000
1.00000000 1.00000000 1.00000000
1.00000000 1.00000000 1.00000000
1.00000000 1.00000000 1.00000000
1.00000000 1.00000000 1.00000000
1.00000000 1.00000000 1.00000000
1.00000000 1.00000000 1.00000000
1.00000000 1.00000000 1.00000000
1.00000000 1.00000000 1.00000000
1.00000000 1.00000000 1.00000000
1.00000000 1.00000000 1.00000000
1.00000000 1.00000000 1.00000000
0.00000000 0.14599749 0.34142763
0.00000000 0.14388211 0.36281762
0.07113847 0.06298511 0.56508367
0.37506634 0.02361662 0.60115293
0.70582657 0.00873089 0.57492687
0.95519018 0.02359745 0.47690651
1.00000000 0.24306625 0.38364443
0.99218732 0.41648191 0.39278288
1.00000000 0.75660447 0.69473957
0.00000000 0.15393959 0.34739694
0.00000000 0.15228796 0.37042849
0.06757511 0.07444482 0.57404586
0.37703415 0.02985394 0.61131629
0.71047892 0.01139199 0.58000287
0.95917786 0.02863009 0.47884791
1.00000000 0.25017704 0.38693054
0.99218152 0.42112290 0.39680299
1.00000000 0.75942631 0.69803335
0.00000000 0.20965829 0.39685948
0.00000000 0.20955038 0.41529199
0.03319770 0.17634844 0.58054071
0.37619984 0.10555648 0.66897738
0.73608425 0.05599944 0.61112499
0.97878731 0.09370508 0.49124434
1.00000000 0.29876228 0.41013953
0.99204818 0.45391894 0.42550132
1.00000000 0.77965055 0.72161117
0.00548660 0.35199038 0.49006645
0.00314697 0.35335665 0.49775001
0.01508978 0.35853782 0.55971390
0.31198792 0.34944385 0.64323151
0.73220591 0.29594543 0.63516388
0.98307706 0.30225510 0.52913473
1.00000000 0.42447947 0.48157139
0.99127352 0.54720735 0.51176546
1.00000000 0.84090722 0.79382679
0.00000000 0.59746821 0.57398560
0.00000000 0.59895102 0.57546506
0.00000000 0.60928182 0.58601576
0.08519844 0.63190014 0.61154036
0.61787795 0.61787795 0.61787795
0.94653633 0.58664571 0.60508008
0.99501324 0.64066446 0.63046457
0.99051682 0.72299052 0.68705016
1.00000000 0.96822583 0.94598565
0.03560565 0.80075647 0.53619671
0.03626247 0.80186631 0.53633831
0.05021531 0.80960696 0.53696959
0.14576045 0.83129917 0.54140354
0.47484045 0.85263065 0.58033036
0.83709012 0.83766348 0.58829716
1.00000000 0.81671894 0.72633985
1.00000000 0.87808583 0.84564262
1.00000000 1.00000000 1.00000000
0.12597152 0.93393203 0.46042928
0.12899938 0.93474988 0.46104687
0.15579556 0.94034108 0.46613890
0.24589426 0.95616422 0.48735467
0.48707362 0.97696958 0.57288837
0.72022914 0.99005929 0.65857723
0.96775215 0.98287498 0.56411800
1.00000000 0.98276878 0.95823494
1.00000000 1.00000000 1.00000000
0.63636914 0.99729872 0.65556854
0.63939319 0.99738626 0.65793735
0.66131326 0.99796999 0.67525750
0.72656928 0.99993499 0.72946739
0.85405308 1.00000000 0.84559063
1.00000000 1.00000000 1.00000000
1.00000000 1.00000000 1.00000000
1.00000000 1.00000000 1.00000000
1.00000000 1.00000000 1.00000000
1.00000000 1.00000000 1.00000000
1.00000000 1.00000000 1.00000000
1.00000000 1.00000000 1.00000000
1.00000000 1.00000000 1.00000000
1.00000000 1.00000000 1.00000000
1.00000000 1.00000000 1.00000000
1.00000000 1.00000000 1.00000000
1.00000000 1.00000000 1.00000000
1.00000000 1.00000000 1.00000000
0.00000000 0.22504252 0.42116789
0.00000000 0.22597057 0.42910094
0.00000000 0.22652422 0.53414570
0.18132378 0.12421784 0.84977121
0.59941171 0.05325290 0.90938552
0.93354092 0.04293584 0.76146325
1.00000000 0.27251310 0.57166553
0.99783868 0.44336771 0.51261915
1.00000000 0.77478732 0.74664308
0.00000000 0.23000979 0.42757333
0.00000000 0.23145450 0.43739532
0.00000000 0.23168901 0.54269573
0.18138769 0.13449216 0.85293116
0.60094610 0.06329523 0.91326517
0.93631078 0.04974889 0.76428846
1.00000000 0.27889232 0.57380287
0.99778808 0.44766390 0.51571262
1.00000000 0.77760896 0.74965101
0.00000000 0.26851326 0.48452832
0.00000000 0.26968119 0.49523702
0.00000000 0.27026105 0.59090093
0.17735892 0.21061588 0.85694567
0.60500123 0.14911299 0.92988606
0.95172319 0.11385877 0.78154724
1.00000000 0.32283479 0.58904144
0.99749004 0.47814639 0.53791118
1.00000000 0.79788705 0.77128080
0.00286181 0.37627749 0.61838575
0.00051058 0.37732643 0.62669199
0.00035806 0.38130754 0.69109025
0.17070498 0.36755234 0.87579375
0.59562029 0.35157206 0.91761410
0.96046783 0.30615312 0.80496195
1.00000000 0.43938201 0.63694512
0.99699982 0.56638538 0.60595445
1.00000000 0.85964662 0.83788172
0.03966866 0.58525422 0.77382117
0.03962343 0.58635705 0.77738326
0.05454352 0.59324884 0.80351289
0.21128699 0.60839213 0.86057947
0.57659430 0.62232330 0.85750021
0.94345320 0.58033242 0.84248251
1.00000000 0.64672064 0.74180969
0.99785654 0.73878446 0.75055737
1.00000000 1.00000000 1.00000000
0.00000000 0.80673952 0.77521350
0.00000000 0.80784878 0.77630280
0.00000000 0.81560602 0.78404220
0.00000000 0.83694697 0.80611672
0.41475261 0.85617696 0.83423213
0.83311348 0.83311348 0.83311348
0.99589068 0.83617396 0.84063995
1.00000000 0.89954207 0.89396743
1.00000000 1.00000000 1.00000000
0.09479709 0.94142141 0.64004859
0.09927207 0.94216983 0.64077105
0.13364417 0.94739223 0.64610791
0.24450540 0.96154300 0.66627246
0.52660161 0.97496948 0.73694942
0.76068293 0.98490099 0.80673921
0.97226754 0.97649047 0.81644453
1.00000000 1.00000000 1.00000000
1.00000000 1.00000000 1.00000000
0.69069216 0.99655344 0.74738907
0.69369240 0.99660822 0.74947663
0.71479958 0.99716622 0.76432939
0.77680299 0.99957443 0.81016658
0.89653508 1.00000000 0.90735437
1.00000000 1.00000000 1.00000000
1.00000000 1.00000000 1.00000000
1.00000000 1.00000000 1.00000000
1.00000000 1.00000000 1.00000000
1.00000000 1.00000000 1.00000000
1.00000000 1.00000000 1.00000000
1.00000000 1.00000000 1.00000000
1.00000000 1.00000000 1.00000000
1.00000000 1.00000000 1.00000000
1.00000000 1.00000000 1.00000000
1.00000000 1.00000000 1.00000000
1.00000000 1.00000000 1.00000000
1.00000000 1.00000000 1.00000000
0.00000000 0.27419437 0.46882119
0.00000000 0.27543528 0.47204898
0.00000000 0.28946252 0.51766022
0.00000000 0.31721188 0.68539211
0.28684157 0.30979345 0.98501531
0.72090691 0.26310584 1.00000000
0.99468781 0.26902685 0.81318009
1.00000000 0.45706791 0.65149843
1.00000000 0.78768415 0.81025695
0.00000000 0.27802172 0.47461819
0.00000000 0.28022099 0.47925452
0.00000000 0.29386689 0.52565387
0.00000000 0.32109378 0.69220493
0.28896226 0.31590557 0.98432707
0.72188222 0.26996283 1.00000000
0.99469910 0.27598437 0.81370908
1.00000000 0.46123976 0.65355779
1.00000000 0.79050192 0.81272511
0.00000000 0.31117692 0.52719213
0.00000000 0.31303176 0.53316552
0.00000000 0.32507909 0.57934560
0.00000000 0.34958874 0.73604853
0.30375125 0.35765331 0.98015125
0.72789780 0.31722256 1.00000000
0.99513056 0.32252046 0.81824713
1.00000000 0.49083448 0.66849658
1.00000000 0.81076367 0.83055744
0.00000000 0.40421638 0.67164039
0.00000000 0.40563906 0.67720429
0.00000000 0.41477338 0.71861457
0.02145716 0.43610829 0.83776761
0.35668907 0.46542484 0.97197200
0.74668233 0.43839838 1.00000000
0.99778568 0.44201024 0.83596632
1.00000000 0.57715104 0.71545626
1.00000000 0.87275710 0.88599368
0.06003317 0.58416927 0.89216786
0.06223727 0.58524273 0.89523442
0.09092524 0.59234973 0.91611010
0.22904615 0.61272470 0.94720468
0.49017401 0.65047611 0.95802923
0.78238628 0.64921180 0.99118622
1.00000000 0.65090233 0.88532422
1.00000000 0.74820664 0.82078755
1.00000000 1.00000000 1.00000000
0.15263505 0.76889030 0.98394536
0.15892088 0.76967517 0.98457044
0.20687306 0.77492450 0.98801628
0.33728865 0.79024068 0.99199658
0.57832170 0.81945352 0.98038540
0.80660745 0.83927284 0.97240973
0.99739595 0.83901388 0.94384133
1.00000000 0.91085400 0.93205892
1.00000000 1.00000000 1.00000000
0.00000000 0.93560823 0.90004885
0.00000000 0.93640325 0.90084837
0.00000000 0.94182768 0.90641050
0.12059651 0.95668713 0.92229222
0.46944444 0.97492959 0.94737929
0.72504181 0.98862577 0.97233855
0.97244176 0.97244176 0.97244176
1.00000000 1.00000000 1.00000000
1.00000000 1.00000000 1.00000000
0.70984891 0.99665812 0.84786178
0.71280716 0.99676802 0.84922484
0.73426621 0.99754110 0.85919632
0.79761267 1.00000000 0.89042351
0.92140091 1.00000000 0.95959795
1.00000000 1.00000000 1.00000000
1.00000000 1.00000000 1.00000000
1.00000000 1.00000000 1.00000000
1.00000000 1.00000000 1.00000000
1.00000000 1.00000000 1.00000000
1.00000000 1.00000000 1.00000000
1.00000000 1.00000000 1.00000000
1.00000000 1.00000000 1.00000000
1.00000000 1.00000000 1.00000000
1.00000000 1.00000000 1.00000000
1.00000000 1.00000000 1.00000000
1.00000000 1.00000000 1.00000000
1.00000000 1.00000000 1.00000000
0.00000000 0.32402727 0.52717670
0.00000000 0.32492103 0.52890021
0.00000000 0.33972188 0.55674084
0.00000000 0.38068879 0.64726592
0.00000000 0.44533755 0.87570741
0.39328765 0.47101473 1.00000000
0.77523463 0.42167108 1.00000000
0.99351302 0.47388967 0.83145766
1.00000000 0.80701357 0.88813160
0.00000000 0.32700123 0.53196471
0.00000000 0.32904185 0.53504213
0.00000000 0.34366538 0.56337333
0.00000000 0.38425130 0.65360491
0.00000000 0.44843535 0.88059543
0.39605957 0.47466922 1.00000000
0.77645058 0.42592834 1.00000000
0.99350210 0.47800745 0.83216833
1.00000000 0.80980783 0.88985081
0.00000000 0.35631782 0.57664174
0.00000000 0.35823453 0.58061835
0.00000000 0.37167168 0.60953178
0.00000000 0.40976524 0.69723293
0.01400415 0.47132191 0.91079626
0.41614260 0.50087926 1.00000000
0.78495505 0.45625656 1.00000000
0.99351578 0.50723770 0.83760371
1.00000000 0.82989534 0.90241384
0.00000000 0.44026068 0.70777919
0.00000000 0.44186248 0.71155361
0.00000000 0.45308594 0.73837709
0.00000000 0.48544229 0.81632701
0.13910199 0.54348660 0.96285638
0.48085068 0.57706594 1.00000000
0.81099009 0.54383766 0.99741975
0.99356803 0.59283416 0.85638618
1.00000000 0.89147438 0.94221228
0.07420742 0.60479103 0.93246557
0.07643409 0.60599529 0.93459395
0.10021032 0.61444870 0.94836898
0.20857212 0.63970372 0.96721959
0.41225028 0.69017903 0.98122630
0.62847058 0.72499889 0.99905671
0.86671814 0.71534883 0.99541933
0.99582842 0.76324647 0.90749640
1.00000000 1.00000000 1.00000000
0.39326142 0.75664827 0.99503448
0.39642486 0.75753218 0.99507309
0.41952674 0.76382266 0.99536626
0.48833433 0.78328611 0.99521711
0.63129225 0.82532015 0.99289776
0.78138223 0.86372361 0.99757349
0.92290256 0.87853827 0.99877991
1.00000000 0.92687965 0.97138924
1.00000000 1.00000000 1.00000000
0.52937282 0.86883901 1.00000000
0.53222278 0.86950831 1.00000000
0.55314994 0.87429168 1.00000000
0.61747409 0.88911270 1.00000000
0.75374957 0.92215995 1.00000000
0.88990928 0.95719131 1.00000000
0.97879464 0.98467469 1.00000000
1.00000000 1.00000000 1.00000000
1.00000000 1.00000000 1.00000000
0.74518019 0.99226916 0.97467780
0.74834012 0.99241250 0.97499576
0.77030497 0.99365881 0.97746893
0.83371644 0.99861570 0.98613550
1.00000000 1.00000000 1.00000000
1.00000000 1.00000000 1.00000000
1.00000000 1.00000000 1.00000000
1.00000000 1.00000000 1.00000000
1.00000000 1.00000000 1.00000000
1.00000000 1.00000000 1.00000000
1.00000000 1.00000000 1.00000000
1.00000000 1.00000000 1.00000000
1.00000000 1.00000000 1.00000000
1.00000000 1.00000000 1.00000000
1.00000000 1.00000000 1.00000000
1.00000000 1.00000000 1.00000000
1.00000000 1.00000000 1.00000000
1.00000000 1.00000000 1.00000000
0.00047677 0.50171204 0.78110436
0.00000000 0.50128974 0.78138151
0.00000000 0.51210732 0.80105635
0.00000000 0.54418246 0.86236791
0.00000000 0.60746918 0.99073353
0.29434462 0.65765449 1.00000000
0.57196374 0.66488058 1.00000000
0.88025451 0.65418590 1.00000000
1.00000000 0.90405640 1.00000000
0.00000000 0.50296331 0.78388202
0.00000000 0.50396711 0.78566203
0.00000000 0.51479024 0.80581993
0.00000000 0.54673236 0.86717860
0.00000000 0.60981129 0.99458089
0.29873118 0.65986928 1.00000000
0.57439319 0.66717306 1.00000000
0.88113053 0.65686957 1.00000000
1.00000000 0.90649050 1.00000000
0.00000000 0.52227564 0.81608934
0.00000000 0.52373645 0.81896854
0.00000000 0.53419952 0.83950479
0.00000000 0.56516498 0.90083149
0.00275093 0.62678386 1.00000000
0.33013684 0.67585317 1.00000000
0.59204681 0.68374529 1.00000000
0.88753033 0.67622391 1.00000000
1.00000000 0.92400995 1.00000000
0.00000000 0.58278463 0.91574696
0.00000000 0.58409241 0.91861740
0.00000000 0.59339072 0.93845158
0.00000000 0.62175361 0.99173984
0.16750934 0.67865203 1.00000000
0.42467904 0.72438756 1.00000000
0.64818359 0.73443572 1.00000000
0.90771942 0.73556392 1.00000000
1.00000000 1.00000000 1.00000000
0.18124155 0.70905147 1.00000000
0.18432670 0.71008958 1.00000000
0.20918273 0.71744201 1.00000000
0.29007778 0.73986665 1.00000000
0.45090753 0.78630786 1.00000000
0.61887958 0.82709865 1.00000000
0.77734631 0.84336772 1.00000000
0.95530215 0.86367961 1.00000000
1.00000000 1.00000000 1.00000000
0.51497530 0.82593423 1.00000000
0.51723990 0.82674197 1.00000000
0.53375363 0.83254988 1.00000000
0.58488595 0.85055287 1.00000000
0.69619424 0.89056057 1.00000000
0.81956238 0.92976640 1.00000000
0.92229417 0.95499565 1.00000000
1.00000000 1.00000000 1.00000000
1.00000000 1.00000000 1.00000000
0.70991125 0.90452400 1.00000000
0.71190335 0.90520981 1.00000000
0.72628573 0.91019170 1.00000000
0.77069690 0.92583180 1.00000000
0.86690771 0.96120610 1.00000000
0.96787016 0.99975672 1.00000000
1.00000000 1.00000000 1.00000000
1.00000000 1.00000000 1.00000000
1.00000000 1.00000000 1.00000000
0.92338401 0.99412047 1.00000000
0.92510375 0.99467640 1.00000000
0.93744607 0.99876961 1.00000000
1.00000000 1.00000000 1.00000000
1.00000000 1.00000000 1.00000000
1.00000000 1.00000000 1.00000000
1.00000000 1.00000000 1.00000000
1.00000000 1.00000000 1.00000000
1.00000000 1.00000000 1.00000000
1.00000000 1.00000000 1.00000000
1.00000000 1.00000000 1.00000000
1.00000000 1.00000000 1.00000000
1.00000000 1.00000000 1.00000000
1.00000000 1.00000000 1.00000000
1.00000000 1.00000000 1.00000000
1.00000000 1.00000000 1.00000000
1.00000000 1.00000000 1.00000000
1.00000000 1.00000000 1.00000000
