Luts Download/Canon Luts/3dlut/33grid-3dlut/full-to-full-range/BT2020_CanonLog2-to-BT2020_709WideDR_33_FF_Ver.2.0.cube
# Gamut : BT.2020 to BT.2020
# Gamma : Canon Log 2 to Wide DR
# Range : Full in / Full out
# Version : 2.0 2019/10/24
# Copyright(c) 2019 Canon Inc. All Rights Reserved.
LUT_3D_SIZE 9
# LUT_3D_INPUT_RANGE 0.0 1.0
0.00000000 0.00000000 0.00000000
0.01410376 0.00225547 0.00222986
0.13769223 0.00458327 0.00348092
0.34223008 0.01045867 0.00411763
0.60377678 0.03285423 0.00281806
0.79758835 0.10261368 0.00122896
0.90996840 0.17365123 0.00439382
0.98294485 0.30258607 0.09064097
1.00000000 0.70825372 0.54068946
0.00449904 0.01616449 0.00439234
0.01834099 0.01838202 0.00390974
0.14178927 0.02069343 0.00383441
0.34526316 0.02513458 0.00337079
0.60621728 0.04610462 0.00310034
0.80050635 0.11145960 0.00288411
0.91323361 0.17868047 0.00662829
0.98320101 0.30894755 0.09795590
1.00000000 0.71103113 0.54448230
0.00929740 0.14155580 0.00621610
0.02284434 0.14345677 0.00467923
0.14454442 0.14519773 0.00286106
0.34711984 0.14754720 0.00249458
0.61628900 0.14748327 0.00405153
0.82332535 0.16376142 0.00798277
0.93443967 0.21660698 0.02478150
0.98302554 0.35414143 0.14821884
1.00000000 0.73085181 0.57160143
0.01565610 0.34755179 0.00504259
0.03022296 0.34822830 0.00438744
0.15215108 0.34865485 0.00724222
0.34906127 0.35071767 0.01010781
0.63321100 0.33756100 0.01396122
0.86767585 0.31030923 0.04803687
0.97823436 0.33552363 0.11368870
0.98585913 0.46677339 0.27080368
1.00000000 0.78940538 0.65378641
0.03694278 0.61444296 0.00199039
0.05209749 0.61511108 0.00263990
0.16039832 0.61640671 0.01241451
0.33563957 0.62214226 0.02769194
0.61588272 0.61976996 0.02740315
0.93448188 0.54797614 0.05778270
1.00000000 0.56863136 0.31419038
0.99563904 0.65228645 0.48340916
1.00000000 0.90599671 0.82417479
0.10783974 0.82546982 0.00000000
0.11604454 0.82652249 0.00045353
0.17746676 0.82993664 0.01389680
0.29775452 0.84240823 0.04381111
0.50775623 0.86592426 0.07735327
0.82714864 0.83611364 0.07550238
1.00000000 0.77634757 0.41700543
1.00000000 0.81235309 0.66966347
1.00000000 1.00000000 1.00000000
0.20641094 0.95667984 0.02065415
0.20947308 0.95793450 0.02172387
0.24338530 0.96178681 0.04094698
0.33024256 0.97386481 0.10732653
0.51406979 0.99299031 0.25410455
0.71422202 1.00000000 0.36741794
0.94868287 0.97363951 0.37478675
1.00000000 0.93736345 0.80908668
1.00000000 1.00000000 1.00000000
0.63419739 1.00000000 0.46508085
0.63727440 1.00000000 0.46877204
0.65691395 0.99974246 0.49280897
0.70886472 0.99930293 0.55828581
0.80941866 1.00000000 0.69280607
0.91084509 1.00000000 0.83594554
0.99953917 1.00000000 0.99836635
1.00000000 1.00000000 1.00000000
1.00000000 1.00000000 1.00000000
1.00000000 1.00000000 1.00000000
1.00000000 1.00000000 1.00000000
1.00000000 1.00000000 1.00000000
1.00000000 1.00000000 1.00000000
1.00000000 1.00000000 1.00000000
1.00000000 1.00000000 1.00000000
1.00000000 1.00000000 1.00000000
1.00000000 1.00000000 1.00000000
1.00000000 1.00000000 1.00000000
0.00101122 0.00106883 0.01255097
0.01586014 0.00227636 0.01577531
0.13709149 0.00554757 0.01984937
0.34011903 0.01365618 0.02289489
0.60323759 0.03459179 0.01826024
0.79908329 0.09997250 0.00866035
0.91158673 0.17186231 0.00703728
0.98221455 0.30454110 0.09487924
1.00000000 0.70964981 0.54280889
0.00381526 0.01747812 0.01745861
0.01903558 0.01903558 0.01903558
0.14519648 0.01910902 0.01858486
0.34504211 0.02576738 0.02054335
0.60628039 0.04646400 0.01790362
0.80136757 0.11042213 0.01117621
0.91474057 0.17714179 0.00945992
0.98235767 0.31101189 0.10226804
1.00000000 0.71241928 0.54659575
0.01181048 0.14156300 0.02407346
0.01991842 0.14497393 0.01844188
0.14487021 0.14535786 0.01912484
0.34753164 0.14737472 0.01888440
0.61558066 0.14879438 0.02008493
0.81957973 0.17092395 0.02283653
0.93400959 0.21831281 0.03067811
0.98153693 0.35669444 0.15286804
1.00000000 0.73222597 0.57370050
0.02215380 0.34704160 0.02550738
0.03280652 0.34806477 0.02252459
0.15114482 0.34871688 0.02260578
0.34900094 0.35045089 0.02570168
0.63233168 0.33817478 0.03163651
0.86360965 0.31495961 0.06685965
0.97179145 0.34317918 0.12882604
0.98370738 0.46950799 0.27570006
1.00000000 0.79090764 0.65601897
0.04247443 0.61437985 0.01794016
0.05620518 0.61483183 0.01846920
0.16055370 0.61619723 0.02679602
0.33550902 0.62192995 0.04220784
0.61575250 0.61952942 0.04144635
0.93267951 0.54929126 0.07530690
1.00000000 0.57029646 0.31996598
0.99552095 0.65376276 0.48625476
1.00000000 0.90782362 0.82689914
0.11648812 0.82534027 0.01076411
0.12572403 0.82582246 0.01307698
0.18386829 0.82920299 0.02711780
0.30212539 0.84164488 0.05861162
0.51016996 0.86523247 0.09455994
0.82695249 0.83609535 0.08951617
1.00000000 0.77695886 0.42064584
1.00000000 0.81387599 0.67261430
1.00000000 1.00000000 1.00000000
0.21602419 0.95633608 0.03052932
0.22087023 0.95683725 0.03358838
0.25220594 0.96075173 0.05369023
0.33726999 0.97278848 0.11934031
0.51781270 0.99216971 0.26140496
0.71577278 1.00000000 0.37259325
0.94861980 0.97362481 0.37996297
1.00000000 0.93841339 0.81216525
1.00000000 1.00000000 1.00000000
0.63835176 1.00000000 0.47063927
0.64114393 0.99990182 0.47407493
0.65948502 0.99934608 0.49641776
0.71062510 0.99927219 0.56101059
0.81100574 1.00000000 0.69535638
0.91235815 1.00000000 0.83851757
1.00000000 1.00000000 1.00000000
1.00000000 1.00000000 1.00000000
1.00000000 1.00000000 1.00000000
1.00000000 1.00000000 1.00000000
1.00000000 1.00000000 1.00000000
1.00000000 1.00000000 1.00000000
1.00000000 1.00000000 1.00000000
1.00000000 1.00000000 1.00000000
1.00000000 1.00000000 1.00000000
1.00000000 1.00000000 1.00000000
1.00000000 1.00000000 1.00000000
1.00000000 1.00000000 1.00000000
0.00239966 0.00520105 0.11897633
0.01730984 0.00585271 0.12284856
0.13690134 0.00872001 0.13455106
0.33763687 0.01829851 0.14641392
0.60443499 0.03529827 0.13262154
0.81810394 0.05790651 0.06276873
0.93358510 0.13749689 0.01838143
0.98289874 0.31131547 0.11676753
1.00000000 0.71841008 0.55668123
0.00467944 0.02104095 0.12637451
0.01836445 0.01931351 0.14539969
0.14551505 0.01895651 0.14464383
0.34362181 0.02811621 0.14639266
0.60818497 0.04527804 0.13202438
0.81958949 0.07199585 0.06671675
0.93507886 0.14711336 0.02310997
0.98230064 0.31853674 0.12467063
1.00000000 0.72120762 0.56049557
0.01326362 0.14169984 0.14131078
0.01903709 0.14522723 0.14508392
0.14520997 0.14520997 0.14520997
0.34977843 0.14531074 0.14461635
0.61708606 0.14778637 0.13532465
0.82621172 0.16434173 0.09630143
0.94200446 0.21331168 0.06334574
0.97906940 0.36606942 0.17556366
1.00000000 0.74109979 0.58762074
0.03062370 0.34537207 0.15259130
0.03894627 0.34691155 0.15034507
0.14640735 0.34956537 0.14450100
0.34949101 0.34992842 0.14531288
0.62796630 0.34119697 0.15618770
0.84518361 0.33535454 0.17206580
0.95253195 0.36753875 0.19161578
0.97918192 0.47970923 0.29795087
1.00000000 0.80008461 0.67013599
0.06252268 0.61265469 0.13739359
0.07526645 0.61318064 0.13760827
0.16364354 0.61553009 0.13918198
0.33650809 0.62118360 0.15160624
0.61584807 0.61878122 0.14592368
0.92794515 0.55317477 0.16727990
0.99686465 0.57995403 0.35894289
0.99475185 0.66256123 0.50500590
1.00000000 0.91921352 0.84401291
0.16943122 0.82058298 0.11219067
0.17570581 0.82115042 0.11389623
0.22008071 0.82493561 0.12480075
0.32728072 0.83725131 0.15416090
0.52442562 0.86115102 0.18873580
0.82614439 0.83609122 0.17236572
1.00000000 0.78077483 0.44775233
1.00000000 0.82335208 0.69203825
1.00000000 1.00000000 1.00000000
0.24994647 0.95325599 0.09358207
0.25317185 0.95391443 0.09566350
0.27671511 0.95860715 0.10976919
0.37703131 0.96645539 0.18738616
0.54051777 0.98716401 0.30841559
0.72585060 0.99885130 0.40802557
0.94842935 0.97352315 0.41583676
1.00000000 0.94513293 0.83220894
1.00000000 1.00000000 1.00000000
0.65079074 0.99942514 0.48933704
0.65335235 0.99934154 0.49250581
0.67109874 0.99902913 0.51443175
0.72157306 0.99936246 0.57854587
0.82146013 1.00000000 0.71256991
0.92217327 1.00000000 0.85529629
1.00000000 1.00000000 1.00000000
1.00000000 1.00000000 1.00000000
1.00000000 1.00000000 1.00000000
1.00000000 1.00000000 1.00000000
1.00000000 1.00000000 1.00000000
1.00000000 1.00000000 1.00000000
1.00000000 1.00000000 1.00000000
1.00000000 1.00000000 1.00000000
1.00000000 1.00000000 1.00000000
1.00000000 1.00000000 1.00000000
1.00000000 1.00000000 1.00000000
1.00000000 1.00000000 1.00000000
0.00203693 0.01686397 0.31222749
0.01695180 0.01504952 0.31969214
0.13969201 0.01672876 0.32390035
0.34014425 0.02309385 0.33556821
0.61072092 0.03469714 0.31715130
0.83382960 0.04824268 0.22088305
0.96891827 0.08787100 0.09738369
0.98298795 0.33147149 0.17522623
1.00000000 0.73667744 0.58904767
0.00421460 0.03316361 0.31465251
0.01796833 0.02848343 0.33081223
0.14310605 0.02655815 0.33770609
0.34443983 0.03223229 0.34106516
0.61402724 0.04471400 0.31814788
0.83520597 0.06198695 0.22360035
0.96827679 0.10593266 0.10491227
0.98191520 0.33878885 0.18245012
1.00000000 0.73952065 0.59288222
0.01470855 0.14761198 0.32533416
0.02316576 0.14733569 0.33832191
0.14434090 0.14556821 0.34997252
0.35004975 0.14512959 0.34928163
0.62273297 0.14580008 0.32275849
0.83895121 0.16078920 0.24417503
0.95094039 0.22284059 0.16696092
0.97711420 0.38553601 0.22879457
1.00000000 0.75978269 0.62019953
0.03071537 0.34594772 0.34532607
0.03985516 0.34719661 0.34669595
0.14521203 0.34980994 0.34968721
0.34979522 0.34979522 0.34979522
0.61777082 0.35032984 0.34664248
0.83040583 0.35666229 0.31970548
0.94408964 0.38870905 0.28427285
0.97486969 0.49800539 0.34583643
1.00000000 0.82032713 0.70380452
0.08186769 0.61221046 0.32396281
0.09780588 0.61235354 0.32497791
0.18836415 0.61298957 0.33022161
0.35588239 0.61649772 0.34602622
0.61606034 0.61867076 0.35033946
0.88367170 0.58278700 0.37868033
0.97589569 0.60350418 0.45184612
0.98995476 0.68250670 0.55190844
1.00000000 0.94338615 0.88132551
0.26351824 0.81024763 0.28841672
0.26845839 0.81070092 0.28995197
0.30405802 0.81376527 0.30019324
0.39623975 0.82424570 0.32990935
0.56763112 0.84824066 0.37313556
0.82503896 0.83666264 0.35219134
1.00000000 0.79145955 0.52271679
1.00000000 0.84413127 0.73746358
1.00000000 1.00000000 1.00000000
0.37521224 0.93591814 0.26598204
0.37777333 0.93650369 0.26760724
0.39655091 0.94069911 0.27901895
0.45064197 0.95440064 0.31270763
0.59208012 0.97583947 0.41597769
0.75297359 0.99222381 0.49994969
0.95844398 0.97860390 0.35395624
1.00000000 0.96069535 0.87855851
1.00000000 1.00000000 1.00000000
0.68087356 0.99788268 0.53789552
0.68320774 0.99789182 0.54077448
0.69975137 0.99809108 0.56119362
0.74872104 0.99924506 0.62353086
0.84751333 1.00000000 0.75634902
0.94554791 1.00000000 0.89522838
1.00000000 1.00000000 1.00000000
1.00000000 1.00000000 1.00000000
1.00000000 1.00000000 1.00000000
1.00000000 1.00000000 1.00000000
1.00000000 1.00000000 1.00000000
1.00000000 1.00000000 1.00000000
1.00000000 1.00000000 1.00000000
1.00000000 1.00000000 1.00000000
1.00000000 1.00000000 1.00000000
1.00000000 1.00000000 1.00000000
1.00000000 1.00000000 1.00000000
1.00000000 1.00000000 1.00000000
0.00000000 0.06207745 0.53920243
0.00628354 0.04698411 0.56538474
0.12066487 0.03444858 0.59569092
0.32476538 0.03501668 0.61920720
0.60811393 0.04009549 0.60116890
0.85456200 0.04512494 0.46493400
0.98574018 0.13281843 0.29927424
0.98911857 0.36577108 0.28744990
1.00000000 0.75999236 0.64126748
0.00067573 0.07751397 0.54014581
0.00872704 0.06127943 0.57002022
0.12276121 0.04520622 0.60437216
0.32681817 0.04621258 0.62487434
0.61032817 0.05105110 0.60377716
0.85613838 0.05761937 0.46676894
0.98408129 0.14872140 0.30418423
0.98844323 0.37193141 0.29271227
1.00000000 0.76285693 0.64500634
0.01654312 0.16488645 0.56707931
0.02286963 0.15888433 0.58866267
0.13148363 0.15118432 0.61870607
0.33171051 0.15257857 0.63556080
0.61911412 0.14507795 0.61451272
0.86248584 0.15093272 0.47859015
0.97523588 0.23516121 0.33631255
0.98540779 0.41285019 0.32838073
1.00000000 0.78336781 0.67178324
0.04924842 0.34133158 0.61876645
0.06131536 0.34180625 0.62158377
0.16396452 0.34383800 0.62303755
0.34514696 0.35171159 0.61893867
0.61943797 0.34935709 0.61479089
0.85617700 0.34937131 0.51796637
0.96507014 0.39660678 0.42205196
0.98383542 0.51853569 0.42805420
1.00000000 0.84536172 0.75446361
0.02714294 0.61588919 0.61524113
0.04196425 0.61621438 0.61556238
0.14780817 0.61766507 0.61704782
0.34980668 0.61796651 0.61722634
0.61787795 0.61787795 0.61787795
0.83286425 0.61904397 0.61076519
0.95545636 0.63335770 0.58881900
0.98690578 0.70783597 0.62737583
1.00000000 0.97378462 0.93113422
0.28750533 0.81430832 0.49536520
0.29376610 0.81441457 0.49688828
0.33725363 0.81507724 0.50731993
0.44770572 0.81798807 0.54062967
0.63031524 0.82975382 0.60806585
0.82816432 0.83523789 0.61937275
0.99278438 0.81464968 0.67673124
0.99921114 0.87337048 0.81009194
1.00000000 1.00000000 1.00000000
0.47307318 0.92405716 0.44885080
0.47580624 0.92443312 0.45069542
0.49565100 0.92712931 0.46386508
0.55338551 0.93613953 0.50435649
0.66749331 0.95971842 0.58680844
0.79145245 0.98651600 0.63988095
0.95916866 0.97815841 0.62187259
1.00000000 0.98377583 0.94452645
1.00000000 1.00000000 1.00000000
0.73137403 0.99518573 0.62790752
0.73362398 0.99519546 0.63065019
0.74927930 0.99557383 0.64969407
0.79535633 0.99773668 0.70716010
0.88948996 1.00000000 0.83014689
1.00000000 1.00000000 1.00000000
1.00000000 1.00000000 1.00000000
1.00000000 1.00000000 1.00000000
1.00000000 1.00000000 1.00000000
1.00000000 1.00000000 1.00000000
1.00000000 1.00000000 1.00000000
1.00000000 1.00000000 1.00000000
1.00000000 1.00000000 1.00000000
1.00000000 1.00000000 1.00000000
1.00000000 1.00000000 1.00000000
1.00000000 1.00000000 1.00000000
1.00000000 1.00000000 1.00000000
1.00000000 1.00000000 1.00000000
0.00000000 0.15753359 0.65080367
0.00000000 0.15248936 0.66743979
0.03680178 0.06300098 0.83198479
0.23572921 0.08640487 0.88319207
0.52623800 0.07633527 0.94335203
0.82086229 0.06731417 0.80854197
0.98950271 0.15981814 0.56716369
0.99627067 0.39426749 0.45054117
1.00000000 0.77756807 0.70865057
0.00000000 0.16380229 0.65747531
0.00000000 0.15817576 0.67799305
0.04053573 0.08073206 0.83145995
0.23823900 0.09041023 0.89392384
0.52741014 0.09333221 0.94274021
0.82211975 0.08122668 0.80947519
0.98832405 0.17307610 0.56928149
0.99592763 0.39955716 0.45415506
1.00000000 0.78042684 0.71202910
0.01076123 0.20472073 0.72587838
0.01219811 0.19945791 0.74636497
0.06909759 0.17688536 0.82915432
0.25270221 0.19555679 0.87139946
0.53216204 0.19593783 0.92884411
0.82838607 0.16923734 0.81362894
0.98230415 0.24908312 0.58415678
0.99457698 0.43565510 0.47943334
1.00000000 0.80092666 0.73626663
0.08334631 0.33607793 0.83119951
0.08519284 0.33466729 0.84414392
0.16282277 0.34439199 0.83598430
0.30781158 0.36721342 0.83697067
0.55199251 0.37303712 0.90513592
0.83869004 0.34874393 0.81936034
0.97786865 0.40019030 0.63064243
0.99408957 0.53455402 0.55494518
1.00000000 0.86338601 0.81148210
0.20789052 0.57532922 0.91329505
0.21671992 0.57599169 0.91134808
0.27578052 0.58002045 0.89862503
0.40983757 0.59354321 0.86293053
0.60679581 0.62250177 0.83575201
0.83804328 0.61643419 0.82481080
0.97759435 0.63200485 0.73175855
0.99569779 0.72139942 0.71481729
1.00000000 1.00000000 1.00000000
0.04634590 0.83058286 0.82928974
0.06323942 0.83071864 0.82936484
0.16723949 0.83137772 0.82964701
0.34986793 0.83341363 0.83086524
0.61790911 0.83338281 0.83112785
0.83311348 0.83311348 0.83311348
0.97220605 0.83414364 0.82676167
0.99943295 0.89376628 0.87481190
1.00000000 1.00000000 1.00000000
0.40489926 0.94969697 0.60807123
0.40931467 0.94978519 0.60970475
0.44066165 0.95038543 0.62141343
0.52864395 0.95245845 0.65872996
0.69391267 0.95842362 0.74391855
0.84363121 0.96937552 0.82341129
0.96749238 0.97454218 0.83465540
1.00000000 1.00000000 1.00000000
1.00000000 1.00000000 1.00000000
0.76745091 0.99576236 0.72466875
0.76968465 0.99576648 0.72703179
0.78535878 0.99605060 0.74364944
0.83160150 0.99802732 0.79407717
0.92312946 1.00000000 0.89851069
1.00000000 1.00000000 1.00000000
1.00000000 1.00000000 1.00000000
1.00000000 1.00000000 1.00000000
1.00000000 1.00000000 1.00000000
1.00000000 1.00000000 1.00000000
1.00000000 1.00000000 1.00000000
1.00000000 1.00000000 1.00000000
1.00000000 1.00000000 1.00000000
1.00000000 1.00000000 1.00000000
1.00000000 1.00000000 1.00000000
1.00000000 1.00000000 1.00000000
1.00000000 1.00000000 1.00000000
1.00000000 1.00000000 1.00000000
0.00000000 0.22094963 0.70196328
0.00000000 0.22077514 0.70890181
0.00000000 0.21030737 0.80507495
0.10325631 0.21341479 0.95185410
0.35236207 0.29562582 1.00000000
0.64268058 0.29388652 1.00000000
0.93287749 0.18425822 0.90801002
0.99719056 0.40187919 0.65528872
1.00000000 0.78756689 0.79453306
0.00000000 0.22435729 0.71067105
0.00000000 0.22503183 0.71976558
0.00000000 0.21375064 0.81643239
0.10903438 0.22338558 0.94830512
0.35502924 0.30287349 1.00000000
0.64400561 0.30072598 1.00000000
0.93276778 0.19568592 0.90716782
0.99685425 0.40712131 0.65730294
1.00000000 0.79045083 0.79719851
0.00400172 0.25340901 0.78661009
0.00398210 0.25272444 0.79824477
0.01514672 0.24592982 0.87648838
0.14799088 0.28299974 0.93040500
0.37410466 0.34950355 0.98701333
0.65350410 0.34627686 1.00000000
0.93282748 0.26467551 0.90297160
0.99551963 0.44287554 0.67187639
1.00000000 0.81117587 0.81643355
0.08995649 0.35727204 0.91049755
0.09545658 0.35876587 0.91255371
0.14059252 0.37088597 0.91695525
0.25050441 0.40767155 0.91786400
0.43525029 0.46036702 0.96505466
0.68553161 0.45994767 1.00000000
0.93709431 0.41388308 0.90008888
0.99496748 0.54121750 0.71761897
1.00000000 0.87455952 0.87639326
0.32248950 0.56475156 0.96404544
0.32653579 0.56595201 0.96270972
0.35512429 0.57405152 0.95517249
0.42958648 0.59799860 0.94400428
0.57068675 0.64374382 0.94682316
0.75536745 0.65871018 0.98428683
0.95574372 0.63968303 0.92216100
0.99779283 0.72841484 0.82007107
1.00000000 1.00000000 1.00000000
0.45331057 0.75174915 1.00000000
0.45662090 0.75245199 1.00000000
0.48029935 0.75739864 1.00000000
0.54649131 0.77336060 0.99659754
0.68149670 0.80826845 0.97425144
0.82277355 0.83749151 0.97488472
0.97794973 0.83149333 0.96427302
1.00000000 0.90423066 0.92936992
1.00000000 1.00000000 1.00000000
0.29114364 0.95009800 0.94609625
0.29773140 0.95021453 0.94616048
0.14538534 0.97272261 0.97032450
0.34994113 0.97290448 0.96895137
0.61799022 0.97303376 0.96799038
0.83314517 0.97273348 0.97029083
0.97244176 0.97244176 0.97244176
1.00000000 1.00000000 1.00000000
1.00000000 1.00000000 1.00000000
0.77735044 0.99744004 0.83443855
0.77974446 0.99744076 0.83602475
0.79666155 0.99764021 0.84735297
0.84564887 0.99983831 0.88171352
0.94218651 1.00000000 0.95551617
1.00000000 1.00000000 1.00000000
1.00000000 1.00000000 1.00000000
1.00000000 1.00000000 1.00000000
1.00000000 1.00000000 1.00000000
1.00000000 1.00000000 1.00000000
1.00000000 1.00000000 1.00000000
1.00000000 1.00000000 1.00000000
1.00000000 1.00000000 1.00000000
1.00000000 1.00000000 1.00000000
1.00000000 1.00000000 1.00000000
1.00000000 1.00000000 1.00000000
1.00000000 1.00000000 1.00000000
1.00000000 1.00000000 1.00000000
0.00000000 0.27572430 0.77812520
0.00000000 0.27621882 0.78128106
0.00000000 0.28501704 0.83043758
0.03717291 0.31263382 0.94981519
0.24437725 0.40894629 0.98665757
0.45979727 0.46461804 1.00000000
0.70896673 0.44091725 1.00000000
0.95714661 0.43255035 0.91061774
1.00000000 0.80493590 0.90213797
0.00000000 0.27824454 0.78543820
0.00000000 0.27998989 0.79029144
0.00000000 0.28828098 0.84023078
0.04348878 0.31809972 0.95023618
0.24880279 0.41344685 0.98537294
0.46249529 0.46836430 1.00000000
0.71052483 0.44503584 1.00000000
0.95720096 0.43752600 0.91050246
1.00000000 0.80783761 0.90373327
0.00509456 0.30562681 0.84714648
0.00541536 0.30673617 0.85363789
0.01159814 0.31456760 0.89800667
0.09514972 0.35659111 0.94880050
0.27969722 0.44428763 0.97854389
0.48194971 0.49501097 1.00000000
0.72173924 0.47417631 1.00000000
0.95821317 0.47176897 0.91064139
1.00000000 0.82866522 0.91541068
0.10760393 0.40034677 0.94099122
0.11159377 0.40221751 0.94188458
0.14253566 0.41594495 0.94432947
0.22610344 0.45642409 0.94397991
0.36824466 0.52723728 0.97077426
0.54270100 0.57173299 1.00000000
0.75700313 0.55771775 1.00000000
0.96453531 0.56602407 0.91690922
1.00000000 0.89243819 0.95262118
0.35967507 0.58627632 0.97045886
0.36215579 0.58754802 0.97034726
0.38044978 0.59653714 0.96950831
0.43473993 0.62363357 0.96703736
0.54483901 0.67830265 0.97496442
0.67709911 0.72039739 0.99850807
0.83431555 0.72226295 1.00000000
0.97932818 0.74868332 0.94279408
1.00000000 1.00000000 1.00000000
0.55978224 0.74182104 0.99590598
0.56170512 0.74276298 0.99575509
0.57568412 0.74951000 0.99497200
0.61793775 0.77054960 0.99390770
0.71194883 0.81638485 0.99109490
0.81582796 0.85982974 0.99680597
0.91411884 0.88037039 1.00000000
0.99466981 0.92305750 0.98195202
1.00000000 1.00000000 1.00000000
0.66754800 0.85501044 1.00000000
0.66940427 0.85572891 1.00000000
0.68294455 0.86091522 1.00000000
0.72471583 0.87726801 1.00000000
0.81693426 0.91429360 1.00000000
0.91430893 0.95389059 1.00000000
0.98139363 0.98437895 1.00000000
1.00000000 1.00000000 1.00000000
1.00000000 1.00000000 1.00000000
0.81433546 0.98688862 0.98177326
0.81661711 0.98705283 0.98197924
0.83266384 0.98843932 0.98367074
0.87898254 0.99426702 0.99046833
1.00000000 1.00000000 1.00000000
1.00000000 1.00000000 1.00000000
1.00000000 1.00000000 1.00000000
1.00000000 1.00000000 1.00000000
1.00000000 1.00000000 1.00000000
1.00000000 1.00000000 1.00000000
1.00000000 1.00000000 1.00000000
1.00000000 1.00000000 1.00000000
1.00000000 1.00000000 1.00000000
1.00000000 1.00000000 1.00000000
1.00000000 1.00000000 1.00000000
1.00000000 1.00000000 1.00000000
1.00000000 1.00000000 1.00000000
1.00000000 1.00000000 1.00000000
0.12038941 0.46333716 1.00000000
0.11941161 0.46271595 1.00000000
0.13871091 0.47509714 1.00000000
0.20613073 0.51303729 1.00000000
0.34090430 0.58531057 1.00000000
0.47970823 0.64210100 1.00000000
0.62701818 0.66006678 1.00000000
0.83537612 0.66668671 1.00000000
1.00000000 0.90961997 1.00000000
0.12231045 0.46478436 1.00000000
0.12415255 0.46593451 1.00000000
0.14321624 0.47827129 1.00000000
0.21058698 0.51603322 1.00000000
0.34431570 0.58783435 1.00000000
0.48248539 0.64438992 1.00000000
0.62918530 0.66237947 1.00000000
0.83657774 0.66925389 1.00000000
1.00000000 0.91213969 1.00000000
0.15548238 0.48776099 1.00000000
0.15792551 0.48940444 1.00000000
0.17659928 0.50136442 1.00000000
0.24212039 0.53737503 1.00000000
0.36870173 0.60592281 1.00000000
0.50262564 0.66089456 1.00000000
0.64493912 0.67909338 1.00000000
0.84533234 0.68779267 1.00000000
1.00000000 0.93026821 1.00000000
0.25850603 0.55754512 1.00000000
0.26084360 0.55895025 1.00000000
0.27832562 0.56900193 1.00000000
0.33235272 0.59954115 1.00000000
0.44287270 0.66005810 1.00000000
0.56572142 0.71102037 1.00000000
0.69473682 0.73025203 1.00000000
0.87284664 0.74483673 1.00000000
1.00000000 1.00000000 1.00000000
0.45676564 0.69029019 1.00000000
0.45853374 0.69135055 1.00000000
0.47154826 0.69893865 1.00000000
0.51255126 0.72241850 1.00000000
0.60298061 0.77186288 1.00000000
0.70705327 0.81727556 1.00000000
0.80884811 0.84029107 1.00000000
0.93641257 0.86878593 1.00000000
1.00000000 1.00000000 1.00000000
0.64939000 0.81206058 1.00000000
0.65088416 0.81291771 1.00000000
0.66178399 0.81909726 1.00000000
0.69600177 0.83831169 1.00000000
0.77360965 0.88114733 1.00000000
0.86163349 0.92403984 1.00000000
0.93574682 0.95323168 1.00000000
1.00000000 1.00000000 1.00000000
1.00000000 1.00000000 1.00000000
0.78508828 0.89475298 1.00000000
0.78650671 0.89549345 1.00000000
0.79679102 0.90087292 1.00000000
0.82894380 0.91775529 1.00000000
0.90059948 0.95585588 1.00000000
0.97821204 0.99731849 1.00000000
1.00000000 1.00000000 1.00000000
1.00000000 1.00000000 1.00000000
1.00000000 1.00000000 1.00000000
0.94588406 0.98930131 1.00000000
0.94718460 0.98991455 1.00000000
0.95657071 0.99441706 1.00000000
1.00000000 1.00000000 1.00000000
1.00000000 1.00000000 1.00000000
1.00000000 1.00000000 1.00000000
1.00000000 1.00000000 1.00000000
1.00000000 1.00000000 1.00000000
1.00000000 1.00000000 1.00000000
1.00000000 1.00000000 1.00000000
1.00000000 1.00000000 1.00000000
1.00000000 1.00000000 1.00000000
1.00000000 1.00000000 1.00000000
1.00000000 1.00000000 1.00000000
1.00000000 1.00000000 1.00000000
1.00000000 1.00000000 1.00000000
1.00000000 1.00000000 1.00000000
1.00000000 1.00000000 1.00000000
