Luts Download/Canon Luts/3dlut/33grid-3dlut/full-to-full-range/BT2020_CanonLog2-to-BT709_WideDR_33_FF_Ver.2.0.cube
# Gamut : BT.2020 to BT.709
# Gamma : Canon Log 2 to Wide DR
# Range : Full in / Full out
# Version : 2.0 2019/10/24
# Copyright(c) 2019 Canon Inc. All Rights Reserved.
LUT_3D_SIZE 33
# LUT_3D_INPUT_RANGE 0.0 1.0
0.00000000 0.00000000 0.00000000
0.00000000 0.00000000 0.00000000
0.00000000 0.00000000 0.00000000
0.00044378 0.00044378 0.00044378
0.01853334 0.00181220 0.00277619
0.04705793 0.00190437 0.00443015
0.08622519 0.00123665 0.00584110
0.12898061 0.00008052 0.00717867
0.17468044 0.00000000 0.00895197
0.22433259 0.00000000 0.01142051
0.27875650 0.00000000 0.01483768
0.33916606 0.00000000 0.01905103
0.40596172 0.00000000 0.02401875
0.47928137 0.00000000 0.02959775
0.55764536 0.00000000 0.03523292
0.63077460 0.00000000 0.03868838
0.69897493 0.00000000 0.03981391
0.76303777 0.00000000 0.03890985
0.82268443 0.00000000 0.03637906
0.87711046 0.00000000 0.03284189
0.92501543 0.00455647 0.02946130
0.96412847 0.01833234 0.02877685
0.98949208 0.05364338 0.03720409
0.99876683 0.11485509 0.05997291
1.00000000 0.16759989 0.08933383
1.00000000 0.21315778 0.12014773
0.99782333 0.25706582 0.15357857
0.99531366 0.30419446 0.19351151
0.99405477 0.35883194 0.24417726
0.99586492 0.42453580 0.30970548
1.00000000 0.50382331 0.39335511
1.00000000 0.59737514 0.49532650
1.00000000 0.70229445 0.60714768
0.00000000 0.00000000 0.00000000
0.00000000 0.00000000 0.00000000
0.00000000 0.00000000 0.00000000
0.00044378 0.00044378 0.00044378
0.01853334 0.00181220 0.00277619
0.04705793 0.00190437 0.00443015
0.08622519 0.00123665 0.00584110
0.12898061 0.00008052 0.00717867
0.17468044 0.00000000 0.00895197
0.22433259 0.00000000 0.01142051
0.27875650 0.00000000 0.01483768
0.33916606 0.00000000 0.01905103
0.40596172 0.00000000 0.02401875
0.47928137 0.00000000 0.02959775
0.55764536 0.00000000 0.03523292
0.63077460 0.00000000 0.03868838
0.69897493 0.00000000 0.03981391
0.76303777 0.00000000 0.03890985
0.82268443 0.00000000 0.03637906
0.87711046 0.00000000 0.03284189
0.92501543 0.00455647 0.02946130
0.96412847 0.01833234 0.02877685
0.98949208 0.05364338 0.03720409
0.99876683 0.11485509 0.05997291
1.00000000 0.16759989 0.08933383
1.00000000 0.21315778 0.12014773
0.99782333 0.25706582 0.15357857
0.99531366 0.30419446 0.19351151
0.99405477 0.35883194 0.24417726
0.99586492 0.42453580 0.30970548
1.00000000 0.50382331 0.39335511
1.00000000 0.59737514 0.49532650
1.00000000 0.70229445 0.60714768
0.00000000 0.00000000 0.00000000
0.00000000 0.00000000 0.00000000
0.00000000 0.00000000 0.00000000
0.00044378 0.00044378 0.00044378
0.01853334 0.00181220 0.00277619
0.04705793 0.00190437 0.00443015
0.08622519 0.00123665 0.00584110
0.12898061 0.00008052 0.00717867
0.17468044 0.00000000 0.00895197
0.22433259 0.00000000 0.01142051
0.27875650 0.00000000 0.01483768
0.33916606 0.00000000 0.01905103
0.40596172 0.00000000 0.02401875
0.47928137 0.00000000 0.02959775
0.55764536 0.00000000 0.03523292
0.63077460 0.00000000 0.03868838
0.69897493 0.00000000 0.03981391
0.76303777 0.00000000 0.03890985
0.82268443 0.00000000 0.03637906
0.87711046 0.00000000 0.03284189
0.92501543 0.00455647 0.02946130
0.96412847 0.01833234 0.02877685
0.98949208 0.05364338 0.03720409
0.99876683 0.11485509 0.05997291
1.00000000 0.16759989 0.08933383
1.00000000 0.21315778 0.12014773
0.99782333 0.25706582 0.15357857
0.99531366 0.30419446 0.19351151
0.99405477 0.35883194 0.24417726
0.99586492 0.42453580 0.30970548
1.00000000 0.50382331 0.39335511
1.00000000 0.59737514 0.49532650
1.00000000 0.70229445 0.60714768
0.00044378 0.00044378 0.00044378
0.00044378 0.00044378 0.00044378
0.00044378 0.00044378 0.00044378
0.00044378 0.00044378 0.00044378
0.01853334 0.00181220 0.00277619
0.04745883 0.00203183 0.00449959
0.08671469 0.00139959 0.00585203
0.12950042 0.00027027 0.00714613
0.17510171 0.00000000 0.00888069
0.22470493 0.00000000 0.01131350
0.27910104 0.00000000 0.01469813
0.33949733 0.00000000 0.01887823
0.40627950 0.00000000 0.02381875
0.47958477 0.00000000 0.02937811
0.55793295 0.00000000 0.03500411
0.63104394 0.00000000 0.03847074
0.69922532 0.00000000 0.03961997
0.76327042 0.00000000 0.03874474
0.82289994 0.00000000 0.03624502
0.87730824 0.00000000 0.03274030
0.92519062 0.00459179 0.02939708
0.96426485 0.01844970 0.02876776
0.98954435 0.05396738 0.03730567
0.99878258 0.11519424 0.06013889
1.00000000 0.16787527 0.08952882
1.00000000 0.21338694 0.12032953
0.99782301 0.25726032 0.15374639
0.99531273 0.30436050 0.19366504
0.99405375 0.35897260 0.24431566
0.99586362 0.42465385 0.30982873
1.00000000 0.50392155 0.39346365
1.00000000 0.59745697 0.49542172
1.00000000 0.70236416 0.60723242
0.00195231 0.01596627 0.00578021
0.00195231 0.01596627 0.00578021
0.00195231 0.01596627 0.00578021
0.00195231 0.01596627 0.00578021
0.01898755 0.01830871 0.00464520
0.05057845 0.01798497 0.00424541
0.09278335 0.01634247 0.00447249
0.13722041 0.01391045 0.00489152
0.18425182 0.01096964 0.00551732
0.23506412 0.00771350 0.00669029
0.28992477 0.00483355 0.00902750
0.35053877 0.00189038 0.01219077
0.41721392 0.00000000 0.01632593
0.49020841 0.00000000 0.02133238
0.56812591 0.00000000 0.02673585
0.64065260 0.00000000 0.03069097
0.70823629 0.00000000 0.03270841
0.77168867 0.00000000 0.03287879
0.83072101 0.00000000 0.03150288
0.88445852 0.00000000 0.02920886
0.93144730 0.00604073 0.02729740
0.96902135 0.02314587 0.02877125
0.99119124 0.06635526 0.04144189
0.99924484 0.12718211 0.06646758
1.00000000 0.17770342 0.09660351
1.00000000 0.22163260 0.12695405
0.99770709 0.26431984 0.15990346
0.99515609 0.31042916 0.19933129
0.99389553 0.36413093 0.24943655
0.99569448 0.42899774 0.31440394
1.00000000 0.50754434 0.39750096
1.00000000 0.60048538 0.49897860
1.00000000 0.70495474 0.61041470
0.00096783 0.03723682 0.01053436
0.00096783 0.03723682 0.01053436
0.00096783 0.03723682 0.01053436
0.00108105 0.03755640 0.01064323
0.01366935 0.04175527 0.00612411
0.04392692 0.04210135 0.00359696
0.08845771 0.03990777 0.00251347
0.13567832 0.03661722 0.00281779
0.18429794 0.03287964 0.00328721
0.23690457 0.02835801 0.00377211
0.29435631 0.02304541 0.00465785
0.35740517 0.01692488 0.00611735
0.42604237 0.01058008 0.00859814
0.49988899 0.00517137 0.01262544
0.57821766 0.00042773 0.01746173
0.65074094 0.00000000 0.02174130
0.71810413 0.00000000 0.02461048
0.78120148 0.00000000 0.02590677
0.83972896 0.00000000 0.02584661
0.89276322 0.00078756 0.02505473
0.93872009 0.00946776 0.02495638
0.97447256 0.03055644 0.02911891
0.99300526 0.08276575 0.04685599
0.99976591 0.14146123 0.07451964
1.00000000 0.18953456 0.10511644
1.00000000 0.23164318 0.13498332
0.99760933 0.27297427 0.16744520
0.99502675 0.31789695 0.20629959
0.99376014 0.37051298 0.25576937
0.99554995 0.43439086 0.32007878
1.00000000 0.51204884 0.40250906
1.00000000 0.60425559 0.50338880
1.00000000 0.70818846 0.61436660
0.00000000 0.06526241 0.01556588
0.00000000 0.06526241 0.01556588
0.00000000 0.06526241 0.01556588
0.00000000 0.06566927 0.01555837
0.00676282 0.07132150 0.00875379
0.03237713 0.07326474 0.00422372
0.07503579 0.07191673 0.00162578
0.12675409 0.06822494 0.00058265
0.17829911 0.06390339 0.00086533
0.23258897 0.05893145 0.00134029
0.29171384 0.05276704 0.00175838
0.35668313 0.04514781 0.00238109
0.42773757 0.03605102 0.00348587
0.50475506 0.02588056 0.00536044
0.58617113 0.01513221 0.00795121
0.66011010 0.00811811 0.01186674
0.72822868 0.00348920 0.01520835
0.79162688 0.00093538 0.01746754
0.85006279 0.00079644 0.01872807
0.90257823 0.00428437 0.01961986
0.94727902 0.01497402 0.02191590
0.98051125 0.04172279 0.02989741
0.99491693 0.10260394 0.05376083
1.00000000 0.15816601 0.08459705
1.00000000 0.20356262 0.11520041
1.00000000 0.24368187 0.14463069
0.99743631 0.28346427 0.17658617
0.99483967 0.32698923 0.21478805
0.99354817 0.37833917 0.26354602
0.99533762 0.44102731 0.32707185
1.00000000 0.51761901 0.40871373
1.00000000 0.60892687 0.50886324
1.00000000 0.71220488 0.61928514
0.00000000 0.09980717 0.02148118
0.00000000 0.09980717 0.02148118
0.00000000 0.09980717 0.02148118
0.00000000 0.10021365 0.02137891
0.00071382 0.10590485 0.01337466
0.01958439 0.10939233 0.00610924
0.05772742 0.10952358 0.00238244
0.11091377 0.10727973 0.00025987
0.16585555 0.10377296 0.00000000
0.22272358 0.09940999 0.00000000
0.28372848 0.09382562 0.00000000
0.35033946 0.08630671 0.00000000
0.42316110 0.07622377 0.00029805
0.50245568 0.06384612 0.00114572
0.58653268 0.04932215 0.00243420
0.66431429 0.03524252 0.00455295
0.73579314 0.02308969 0.00667211
0.80140895 0.01442611 0.00871843
0.86077619 0.01060424 0.01089113
0.91330188 0.01257809 0.01346759
0.95672835 0.02519519 0.01868865
0.98546074 0.06257879 0.03334920
0.99654276 0.12617641 0.06315279
1.00000000 0.17791361 0.09685513
1.00000000 0.22035538 0.12733248
0.99977698 0.25830354 0.15639433
0.99710415 0.29628126 0.18779283
0.99448015 0.33819286 0.22528790
0.99319702 0.38801598 0.27319565
0.99498895 0.44927479 0.33579260
1.00000000 0.52458291 0.41650191
1.00000000 0.61478605 0.51575994
1.00000000 0.71725688 0.62550199
0.00000000 0.13857118 0.02959625
0.00000000 0.13857118 0.02959625
0.00000000 0.13857118 0.02959625
0.00000000 0.13890864 0.02943253
0.00000000 0.14391601 0.02037771
0.00767811 0.14808534 0.01042655
0.03973578 0.14947561 0.00423011
0.09183261 0.14849765 0.00111326
0.15014323 0.14634882 0.00000000
0.20953131 0.14329316 0.00000000
0.27243888 0.13932883 0.00000000
0.34062230 0.13394822 0.00000000
0.41503729 0.12648219 0.00000000
0.49600465 0.11620428 0.00000000
0.58211124 0.10219238 0.00000000
0.66294458 0.08483873 0.00135451
0.73773273 0.06629135 0.00303806
0.80663357 0.05003980 0.00464566
0.86885159 0.03866756 0.00659709
0.92292944 0.03560725 0.01002019
0.96572718 0.04855282 0.01824837
0.98954942 0.09676757 0.04112412
0.99799494 0.15527096 0.07715158
1.00000000 0.20247459 0.11272687
1.00000000 0.24153951 0.14301481
0.99937625 0.27705513 0.17175670
0.99661119 0.31289838 0.20252840
0.99398083 0.35282792 0.23915684
0.99273039 0.40074219 0.28599688
0.99454023 0.46018573 0.34740454
1.00000000 0.53383011 0.42688504
1.00000000 0.62259321 0.52496652
1.00000000 0.72401234 0.63382202
0.00000000 0.18174986 0.04071686
0.00000000 0.18174986 0.04071686
0.00000000 0.18174986 0.04071686
0.00000000 0.18200676 0.04050888
0.00000000 0.18628869 0.03059372
0.00000000 0.19041110 0.01898420
0.02124941 0.19308303 0.00829213
0.06850178 0.19316479 0.00299835
0.13114820 0.19199383 0.00062095
0.19388508 0.19004387 0.00000000
0.25895242 0.18724869 0.00000000
0.32870248 0.18345899 0.00000000
0.40455034 0.17805774 0.00000000
0.48710842 0.17031709 0.00000000
0.57520455 0.15925670 0.00000000
0.65878550 0.14404594 0.00045127
0.73665151 0.12604077 0.00221435
0.80884281 0.10702515 0.00407302
0.87410385 0.08996095 0.00652280
0.93016009 0.08124531 0.01135785
0.97270366 0.09313927 0.02338166
0.99245183 0.14007911 0.05523309
0.99950491 0.18997101 0.09663141
1.00000000 0.23254379 0.13302387
1.00000000 0.26800244 0.16319835
0.99880648 0.30083907 0.19169004
0.99595615 0.33420612 0.22176127
0.99332803 0.37178686 0.25738002
0.99210022 0.41739883 0.30294530
0.99393356 0.47458529 0.36286577
1.00000000 0.54609914 0.44074286
1.00000000 0.63300911 0.53729715
1.00000000 0.73305559 0.64498472
0.00000000 0.23009141 0.05558804
0.00000000 0.23009141 0.05558804
0.00000000 0.23009141 0.05558804
0.00000000 0.23029647 0.05534426
0.00000000 0.23390789 0.04474486
0.00000000 0.23770462 0.03185380
0.00536304 0.24099961 0.01752034
0.04265464 0.24239811 0.00715308
0.10676701 0.24208687 0.00264512
0.17444859 0.24093879 0.00077669
0.24292037 0.23914714 0.00010873
0.31476268 0.23639378 0.00000000
0.39217687 0.23245880 0.00000000
0.47625156 0.22662474 0.00000000
0.56623834 0.21778407 0.00000000
0.65295437 0.20416436 0.00062857
0.73442600 0.18714254 0.00293772
0.81006007 0.16837835 0.00562120
0.87830703 0.15063658 0.00933205
0.93623757 0.14014759 0.01682096
0.97746894 0.14998326 0.03569758
0.99418154 0.18978614 0.07779204
1.00000000 0.23179180 0.12227387
1.00000000 0.26872757 0.15859617
1.00000000 0.30064517 0.18900215
0.99797094 0.33042501 0.21716070
0.99508196 0.36100684 0.24647381
0.99249881 0.39588622 0.28094441
0.99132385 0.43878757 0.32500559
0.99320418 0.49325017 0.38311129
1.00000000 0.56216689 0.45903254
1.00000000 0.64674148 0.55363931
1.00000000 0.74503504 0.65982369
0.00000000 0.28414904 0.07484047
0.00000000 0.28414904 0.07484047
0.00000000 0.28414904 0.07484047
0.00000000 0.28431601 0.07457029
0.00000000 0.28734439 0.06350031
0.00000000 0.29071417 0.04972464
0.00000000 0.29408231 0.03312475
0.01703647 0.29667984 0.01611570
0.07397736 0.29744616 0.00698533
0.14899087 0.29701916 0.00305000
0.22241650 0.29595437 0.00148104
0.29780809 0.29422843 0.00091276
0.37742049 0.29124386 0.00049793
0.46327506 0.28675937 0.00010007
0.55525303 0.27958459 0.00000000
0.64551458 0.26706030 0.00097531
0.73113335 0.25052581 0.00391102
0.81086322 0.23175768 0.00803666
0.88269043 0.21348437 0.01412322
0.94243384 0.20207185 0.02622601
0.98032473 0.21242309 0.05713137
0.99504268 0.24485474 0.10859259
1.00000000 0.27989483 0.15376572
1.00000000 0.31157342 0.19040865
0.99940786 0.33967908 0.22101760
0.99698212 0.36618702 0.24885689
0.99411641 0.39378850 0.27742479
0.99160185 0.42572653 0.31069165
0.99049881 0.46558741 0.35307451
0.99239640 0.51692473 0.40909557
0.99993070 0.58274812 0.48265051
1.00000000 0.66449197 0.57487615
1.00000000 0.76063746 0.67922548
0.00000000 0.34414145 0.09814280
0.00000000 0.34414145 0.09814280
0.00000000 0.34414145 0.09814280
0.00000000 0.34427771 0.09787321
0.00000000 0.34683503 0.08736358
0.00000000 0.34977349 0.07322601
0.00000000 0.35296705 0.05527029
0.00000000 0.35599677 0.03449416
0.03676318 0.35829054 0.01610395
0.11429826 0.35880074 0.00771704
0.19511448 0.35840037 0.00410031
0.27547943 0.35741975 0.00264182
0.35886905 0.35562118 0.00199621
0.44714393 0.35207933 0.00128495
0.54146758 0.34615667 0.00054586
0.63579459 0.33447761 0.00096406
0.72645642 0.31804825 0.00402234
0.81117795 0.29882535 0.00978761
0.88726247 0.27969426 0.01932612
0.94930663 0.26726992 0.03838883
0.98372727 0.27789537 0.08686757
0.99669758 0.30466318 0.14405249
1.00000000 0.33362770 0.19071971
1.00000000 0.36032194 0.22811161
0.99880401 0.38468773 0.25920066
0.99626034 0.40802791 0.28702625
0.99343380 0.43263222 0.31500001
0.99097349 0.46154417 0.34712359
0.98988374 0.49819825 0.38779010
0.99172898 0.54612279 0.44154327
0.99908523 0.60846237 0.51242365
1.00000000 0.68701948 0.60196812
1.00000000 0.78050709 0.70402252
0.00000000 0.40995118 0.12299378
0.00000000 0.40995118 0.12299378
0.00000000 0.40995118 0.12299378
0.00000000 0.41006432 0.12275556
0.00000000 0.41229653 0.11367338
0.00000000 0.41486245 0.10146059
0.00000000 0.41780110 0.08422176
0.00000000 0.42093864 0.06126316
0.00697539 0.42407134 0.03644712
0.06636056 0.42619748 0.01738109
0.15762472 0.42671097 0.00909356
0.24533642 0.42640199 0.00556646
0.33378054 0.42544750 0.00404887
0.42618646 0.42338819 0.00315800
0.52342587 0.41849576 0.00188781
0.62218371 0.40773098 0.00083114
0.71887601 0.39136611 0.00278620
0.81004665 0.37128821 0.00939930
0.89179611 0.35067600 0.02283492
0.95726396 0.33646848 0.05111598
0.98895417 0.34596554 0.11875580
1.00000000 0.36800311 0.18195361
1.00000000 0.39209725 0.23202479
1.00000000 0.41465446 0.27143015
0.99988067 0.43539948 0.30345752
0.99690046 0.45549641 0.33141571
0.99384069 0.47711391 0.35897477
0.99133704 0.50309247 0.39017028
0.99013773 0.53655058 0.42922916
0.99175648 0.58097040 0.48070788
0.99877337 0.63964634 0.54880461
1.00000000 0.71479283 0.63549300
1.00000000 0.80515419 0.73485700
0.00000000 0.47996112 0.14835183
0.00000000 0.47996112 0.14835183
0.00000000 0.47996112 0.14835183
0.00000000 0.48005676 0.14814471
0.00000000 0.48210589 0.14034217
0.00000000 0.48438205 0.13006086
0.00000000 0.48706698 0.11564995
0.00000000 0.49015315 0.09518613
0.00000000 0.49362846 0.06760232
0.02024039 0.49714562 0.03850416
0.10471602 0.49926256 0.01908198
0.20340128 0.49995178 0.01079901
0.29904999 0.49984753 0.00724087
0.39646700 0.49891973 0.00557214
0.49827117 0.49608780 0.00419851
0.60151921 0.48662770 0.00148569
0.70464234 0.47092617 0.00107144
0.80371217 0.45021278 0.00658414
0.89336715 0.42762349 0.02258823
0.96482042 0.41036016 0.06060457
0.99679798 0.41622214 0.14650247
1.00000000 0.43345408 0.21863761
1.00000000 0.45322680 0.27436932
1.00000000 0.47224166 0.31742337
1.00000000 0.48991198 0.35150095
1.00000000 0.50724662 0.38042171
0.99703108 0.52617480 0.40807785
0.99408865 0.54928382 0.43856082
0.99243259 0.57967563 0.47625441
0.99350555 0.62076341 0.52573255
0.99992565 0.67585137 0.59119665
1.00000000 0.74724549 0.67475400
1.00000000 0.83430160 0.77132853
0.00000000 0.54491114 0.17047777
0.00000000 0.54491114 0.17047777
0.00000000 0.54491114 0.17047777
0.00000000 0.54499438 0.17030369
0.00000000 0.54691445 0.16378246
0.00000000 0.54896899 0.15540188
0.00000000 0.55145088 0.14368364
0.00000000 0.55442888 0.12712038
0.00000000 0.55807930 0.10409051
0.00000000 0.56226912 0.07290328
0.04057492 0.56644951 0.04019838
0.14448589 0.56901225 0.02178015
0.24908522 0.57037868 0.01416647
0.35202188 0.57098705 0.01099733
0.45755092 0.57024074 0.00920806
0.56549901 0.56432327 0.00576607
0.67392163 0.55082360 0.00252719
0.78078543 0.53113025 0.00464115
0.88014152 0.50745671 0.01941313
0.96151357 0.48639573 0.06271347
1.00000000 0.48505122 0.16249241
1.00000000 0.49646292 0.24649298
1.00000000 0.51195679 0.31075229
1.00000000 0.52758405 0.35926222
1.00000000 0.54243166 0.39661746
1.00000000 0.55728849 0.42736459
0.99995830 0.57385440 0.45577992
0.99661046 0.59454078 0.48619179
0.99447953 0.62227869 0.52304496
0.99491012 0.66039233 0.57095130
1.00000000 0.71220004 0.63416320
1.00000000 0.78019994 0.71501225
1.00000000 0.86423455 0.80918049
0.00000000 0.60511825 0.18969497
0.00000000 0.60511825 0.18969497
0.00000000 0.60511825 0.18969497
0.00000000 0.60519222 0.18955192
0.00000000 0.60701613 0.18417812
0.00000000 0.60889000 0.17749914
0.00000000 0.61120194 0.16815571
0.00000000 0.61404204 0.15498335
0.00000000 0.61768521 0.13670890
0.00000000 0.62213337 0.11140807
0.00000000 0.62744263 0.07727891
0.06753443 0.63263626 0.04189651
0.18390187 0.63603425 0.02576135
0.29414554 0.63851158 0.01925450
0.40381785 0.63990076 0.01662152
0.51474601 0.63703049 0.01283635
0.62811425 0.62823554 0.00867045
0.74092608 0.61136419 0.00737817
0.84953052 0.58864105 0.01808085
0.94347001 0.56475089 0.05982739
0.99873528 0.55400652 0.16470411
1.00000000 0.55828112 0.26359567
1.00000000 0.56881528 0.33935420
1.00000000 0.58082556 0.39552598
1.00000000 0.59284639 0.43766559
1.00000000 0.60528626 0.47117893
1.00000000 0.61962768 0.50101559
0.99892225 0.63807178 0.53182901
0.99629372 0.66342490 0.56829338
0.99608650 0.69889582 0.61506995
1.00000000 0.74780400 0.67649724
1.00000000 0.81279250 0.75510442
1.00000000 0.89413304 0.84728330
0.00000000 0.66136522 0.20657610
0.00000000 0.66136522 0.20657610
0.00000000 0.66136522 0.20657610
0.00000000 0.66143194 0.20646042
0.00000000 0.66317991 0.20205543
0.00000000 0.66490473 0.19682801
0.00000000 0.66705846 0.18951354
0.00000000 0.66975154 0.17917125
0.00000000 0.67328982 0.16487210
0.00000000 0.67780863 0.14504362
0.00000000 0.68350687 0.11781742
0.01264926 0.69014982 0.08170199
0.10263027 0.69656687 0.04618482
0.22289182 0.70131559 0.03150319
0.33843090 0.70495051 0.02604052
0.45255050 0.70488660 0.02166304
0.56854112 0.69982406 0.01716907
0.68681607 0.68848444 0.01465906
0.80262796 0.66865969 0.02053606
0.90928306 0.64419816 0.05392432
0.98699524 0.62443320 0.14948083
1.00000000 0.62039500 0.26715896
1.00000000 0.62493651 0.35824450
1.00000000 0.63275346 0.42501802
1.00000000 0.64166859 0.47391151
1.00000000 0.65159233 0.51145246
1.00000000 0.66368265 0.54345818
1.00000000 0.67995643 0.57521036
0.99811612 0.70305368 0.61167347
0.99730508 0.73609587 0.65769364
1.00000000 0.78238770 0.71772914
1.00000000 0.84468464 0.79450211
1.00000000 0.92362415 0.88504681
0.00000000 0.71356565 0.22136775
0.00000000 0.71356565 0.22136775
0.00000000 0.71356565 0.22136775
0.00000000 0.71362647 0.22127576
0.00000000 0.71531120 0.21767931
0.00000000 0.71690933 0.21365541
0.00000000 0.71891807 0.20802091
0.00000000 0.72146467 0.20002294
0.00000000 0.72485158 0.18896091
0.00000000 0.72929181 0.17365649
0.00000000 0.73502175 0.15253651
0.00000000 0.74230486 0.12395772
0.03028027 0.75057334 0.08689366
0.13783305 0.75855063 0.05250796
0.26113010 0.76473465 0.03910349
0.37978272 0.76743711 0.03214160
0.49832663 0.76573626 0.02718765
0.61906081 0.75862505 0.02395637
0.74134154 0.74485304 0.02688419
0.85814191 0.72247321 0.04876370
0.95822708 0.69760668 0.12093800
1.00000000 0.68398726 0.25353320
1.00000000 0.68121041 0.36421754
1.00000000 0.68393046 0.44557628
1.00000000 0.68920711 0.50401832
1.00000000 0.69630926 0.54730052
1.00000000 0.70600409 0.58252016
1.00000000 0.72005056 0.61582541
0.99993103 0.74092480 0.65270560
0.99853065 0.77166017 0.69832292
1.00000000 0.81552393 0.75728121
1.00000000 0.87537130 0.83252917
1.00000000 0.95214931 0.92167651
0.00000000 0.76133062 0.23414569
0.00000000 0.76133062 0.23414569
0.00000000 0.76133062 0.23414569
0.00000000 0.76138661 0.23407371
0.00000000 0.76303640 0.23119934
0.00000000 0.76450627 0.22809735
0.00000000 0.76638684 0.22383618
0.00000000 0.76878981 0.21775534
0.00000000 0.77200936 0.20932009
0.00000000 0.77629940 0.19765626
0.00000000 0.78195461 0.18159972
0.00000000 0.78929644 0.15966710
0.00000000 0.79840681 0.13021664
0.05293775 0.80864501 0.09316573
0.17217225 0.81822926 0.06090431
0.29645295 0.82388776 0.04628121
0.41852632 0.82541790 0.03898207
0.54128682 0.82212882 0.03519894
0.66605087 0.81292304 0.03604687
0.79102546 0.79678769 0.05072963
0.90580133 0.77242234 0.10368170
0.98985642 0.74972428 0.21849194
1.00000000 0.73837875 0.35231231
1.00000000 0.73486690 0.45369552
1.00000000 0.73574385 0.52584740
1.00000000 0.73956184 0.57752201
1.00000000 0.74657098 0.61745374
1.00000000 0.75821348 0.65311790
1.00000000 0.77680418 0.69092403
0.99975189 0.80524868 0.73645657
1.00000000 0.84678514 0.79459378
1.00000000 0.90432108 0.86845641
1.00000000 0.97904288 0.95608596
0.00000000 0.80424600 0.24494464
0.00000000 0.80424600 0.24494464
0.00000000 0.80424600 0.24494464
0.00000000 0.80429798 0.24488934
0.00000000 0.80591573 0.24260390
0.00000000 0.80727515 0.24024584
0.00000000 0.80904499 0.23708883
0.00000000 0.81131118 0.23255126
0.00000000 0.81436876 0.22623140
0.00000000 0.81847859 0.21748714
0.00000000 0.82396090 0.20549372
0.00000000 0.83113273 0.18906067
0.00000000 0.84044036 0.16680820
0.00284815 0.85168229 0.13733822
0.08218865 0.86393840 0.10129241
0.20379777 0.87325738 0.06952864
0.33001608 0.87808962 0.05530406
0.45541763 0.87841024 0.04987220
0.58162285 0.87341208 0.04977984
0.70922667 0.86203352 0.05865864
0.83514176 0.84366431 0.09280631
0.94484107 0.81780314 0.17115175
1.00000000 0.79717883 0.31602572
1.00000000 0.78620206 0.44435599
1.00000000 0.78168955 0.53628547
1.00000000 0.78156340 0.60036023
1.00000000 0.78546581 0.64732488
1.00000000 0.79444501 0.68662003
1.00000000 0.81058330 0.72599105
1.00000000 0.83666354 0.77179026
1.00000000 0.87586961 0.82927097
1.00000000 0.93108046 0.90155814
1.00000000 1.00000000 1.00000000
0.00000000 0.84206139 0.25385906
0.00000000 0.84206139 0.25385906
0.00000000 0.84206139 0.25385906
0.00000000 0.84211003 0.25381760
0.00000000 0.84369690 0.25201275
0.00000000 0.84497522 0.25030767
0.00000000 0.84663305 0.24799375
0.00000000 0.84877651 0.24469627
0.00000000 0.85168011 0.24007855
0.00000000 0.85560258 0.23368066
0.00000000 0.86087557 0.22490801
0.00000000 0.86784043 0.21296983
0.00000000 0.87692563 0.19678623
0.00000000 0.88839937 0.17518287
0.02447103 0.90177791 0.14699119
0.11482198 0.91421392 0.11106504
0.23742984 0.92279387 0.08424019
0.36575087 0.92653391 0.07563414
0.49302795 0.92541333 0.07646214
0.62049821 0.91864765 0.08327507
0.74861052 0.90523468 0.10215940
0.87306610 0.88499055 0.14988406
0.97417777 0.85822687 0.24914622
1.00000000 0.83884933 0.41180532
1.00000000 0.82771768 0.53145027
1.00000000 0.82277097 0.61373289
1.00000000 0.82301142 0.67126391
