Luts Download/Canon Luts/3dlut/33grid-3dlut/full-to-full-range/BT2020_CanonLog-to-BT2020_709WideDR_33_FF_Ver.2.0.cube
# Gamut : BT.2020 to BT.2020
# Gamma : Canon Log to Wide DR
# Range : Full in / Full out
# Version : 2.0 2019/10/24
# Copyright(c) 2019 Canon Inc. All Rights Reserved.
LUT_3D_SIZE 5
# LUT_3D_INPUT_RANGE 0.0 1.0
0.00000000 0.00000000 0.00000000
0.23086892 0.01335314 0.01162991
0.60104885 0.05186442 0.01546558
0.79846784 0.17059105 0.00631817
0.89685679 0.25430801 0.00000000
0.03126460 0.23779674 0.02528542
0.24497768 0.24582127 0.00807001
0.62707462 0.24139445 0.01346184
0.84280870 0.27052450 0.05148628
0.96905586 0.29480925 0.00000000
0.08147053 0.61636697 0.01438950
0.25078313 0.62268613 0.02191437
0.62019205 0.62529178 0.02765522
0.97082609 0.54607741 0.06477786
1.00000000 0.59207744 0.36249604
0.21197489 0.84551543 0.00222458
0.28862437 0.85650320 0.03492584
0.51259034 0.89480062 0.09724390
0.85307827 0.86718086 0.06682003
1.00000000 0.81720308 0.53491898
0.29736829 0.97549547 0.00000000
0.32843976 0.99019992 0.00739842
0.56356499 1.00000000 0.30885338
0.77476448 1.00000000 0.50137547
0.97279460 1.00000000 0.41891640
0.00648670 0.01079263 0.20346185
0.23090877 0.02137216 0.22820542
0.60443322 0.05342034 0.22627504
0.83787596 0.10953214 0.11846416
0.93717742 0.21340138 0.00000000
0.03467744 0.23951916 0.23901905
0.24578998 0.24578998 0.24578998
0.62358508 0.24691447 0.23934492
0.85882463 0.25967494 0.18499520
0.98388447 0.28962814 0.07620334
0.11867565 0.61354950 0.23996956
0.25784378 0.62174880 0.23877978
0.62128565 0.62486984 0.24676009
0.93637660 0.57075804 0.29414671
1.00000000 0.60469514 0.42104414
0.24769524 0.84314834 0.17673869
0.32585187 0.85161325 0.21025444
0.54864141 0.88479180 0.28820563
0.85315203 0.86764724 0.24982875
1.00000000 0.82453370 0.57946867
0.35458819 0.96985727 0.14112538
0.39726684 0.98038373 0.18234420
0.59036110 1.00000000 0.37509963
0.79023762 1.00000000 0.55150932
0.97375167 1.00000000 0.49537298
0.00103383 0.07008792 0.53302910
0.21731679 0.05799302 0.58733105
0.60429836 0.07553616 0.59236232
0.87150965 0.09823840 0.44449085
1.00000000 0.17585635 0.25306629
0.04583377 0.24962621 0.58246806
0.23643858 0.24960291 0.62529771
0.62583280 0.24507133 0.61951183
0.89496045 0.24517176 0.47564358
1.00000000 0.31509974 0.33137305
0.09698113 0.61653938 0.61492420
0.24581202 0.62389496 0.62292804
0.62377960 0.62377960 0.62377960
0.86285327 0.62540855 0.61394468
0.99694550 0.63412030 0.57393608
0.32497424 0.84031977 0.48399167
0.41091334 0.84279601 0.51258485
0.64033816 0.85886616 0.61059829
0.85694387 0.86590930 0.62576041
1.00000000 0.84759530 0.71716961
0.50212355 0.94993923 0.43400706
0.54440111 0.95674702 0.46849448
0.68346618 0.98683269 0.58504140
0.83656029 1.00000000 0.69953802
0.98254123 1.00000000 0.71047726
0.00000000 0.19448752 0.62363057
0.08045674 0.14644952 0.83204712
0.50019111 0.16306710 0.93773172
0.84216641 0.11745581 0.81740518
1.00000000 0.20054513 0.56361288
0.02855646 0.28197134 0.76500383
0.15821337 0.27821287 0.86686583
0.52089770 0.30859475 0.93143614
0.86990834 0.24428192 0.84618696
1.00000000 0.33012078 0.60225950
0.24483302 0.57738454 0.92802750
0.35185384 0.58859449 0.90732860
0.60848622 0.63015585 0.86660757
0.86952148 0.62186363 0.85264140
1.00000000 0.64210965 0.74198406
0.13590480 0.85541584 0.85235548
0.25979500 0.86185179 0.85866192
0.62382263 0.86355998 0.86071142
0.86322055 0.86322055 0.86322055
0.99886443 0.86562396 0.85727439
0.44285763 0.97580454 0.61051040
0.50863230 0.97757403 0.64075902
0.71387739 0.98567659 0.75644296
0.87497691 0.99839599 0.85221077
0.99498407 1.00000000 0.89066497
0.00000000 0.26451920 0.64274411
0.00000000 0.27992696 0.77754330
0.30356203 0.34035774 1.00000000
0.64052807 0.34606255 1.00000000
0.98785345 0.10939805 0.95553643
0.00000000 0.32967580 0.81570107
0.01549693 0.33572102 0.94417716
0.36064598 0.42186723 1.00000000
0.66829580 0.42921138 1.00000000
0.99401472 0.28334797 0.95503877
0.31225012 0.57445246 1.00000000
0.36912094 0.59253014 1.00000000
0.55635986 0.65421856 0.99619715
0.76820417 0.67555706 1.00000000
1.00000000 0.63301680 0.96140599
0.51532358 0.77344348 1.00000000
0.55538772 0.78631203 1.00000000
0.70098437 0.83392728 1.00000000
0.85207306 0.86862774 0.99997423
1.00000000 0.86537670 0.98754005
0.21074892 0.98920288 0.98466714
0.33462984 0.99144404 0.98618159
0.64752957 0.99631757 0.99042876
0.86976804 0.99981706 0.99722269
1.00000000 1.00000000 1.00000000
