Luts Download/Canon Luts/3dlut/33grid-3dlut/full-to-full-range/BT2020_CanonLog3-to-BT2020_709WideDR_33_FF_Ver.2.0.cube
# Gamut : BT.2020 to BT.2020
# Gamma : Canon Log 3 to Wide DR
# Range : Full in / Full out
# Version : 2.0 2019/10/24
# Copyright(c) 2019 Canon Inc. All Rights Reserved.
LUT_3D_SIZE 9
# LUT_3D_INPUT_RANGE 0.0 1.0
0.00000000 0.00000000 0.00000000
0.00000000 0.00000000 0.00000000
0.22180183 0.01228011 0.01068423
0.44201544 0.02341246 0.01396761
0.62593451 0.05968834 0.01403185
0.75285864 0.13230410 0.00922482
0.83141696 0.20440079 0.00638201
0.88084789 0.25873731 0.00353629
0.95626115 0.29621013 0.00000000
0.00000000 0.00000000 0.00000000
0.00565013 0.00826772 0.00000000
0.22180183 0.01228011 0.01068423
0.44201544 0.02341246 0.01396761
0.62593451 0.05968834 0.01403185
0.75285864 0.13230410 0.00922482
0.83141696 0.20440079 0.00638201
0.88084789 0.25873731 0.00353629
0.95626115 0.29621013 0.00000000
0.02904682 0.22830698 0.02348748
0.02904682 0.22830698 0.02348748
0.23522676 0.23604034 0.00749503
0.45410323 0.23754228 0.00406176
0.65394995 0.23160603 0.01387644
0.78747806 0.25234187 0.04698851
0.87869762 0.28070645 0.05143509
0.93851295 0.30916758 0.04189497
1.00000000 0.34706228 0.04656998
0.04295099 0.45067190 0.02075387
0.04295099 0.45067190 0.02075387
0.24141796 0.45475093 0.01214633
0.45468817 0.45676913 0.01480848
0.67957541 0.43642503 0.02199280
0.84986898 0.41274831 0.08248389
0.96017351 0.40577056 0.12314687
0.98768712 0.44749151 0.21018759
1.00000000 0.50324573 0.28181203
0.09046073 0.64306495 0.01132516
0.09046073 0.64306495 0.01132516
0.24398906 0.64940852 0.02256778
0.42532810 0.65997976 0.03859675
0.64686648 0.65268002 0.02973234
0.87567849 0.60560185 0.03200592
1.00000000 0.58028340 0.21095942
1.00000000 0.61500556 0.38112132
1.00000000 0.65994418 0.47523381
0.16959643 0.78802395 0.00322908
0.16959643 0.78802395 0.00322908
0.26482439 0.79722564 0.02970431
0.39425942 0.81601679 0.05906801
0.57089735 0.82825170 0.06658476
0.79387205 0.80499607 0.05128683
0.99484483 0.75036879 0.19435825
1.00000000 0.75553923 0.49140883
1.00000000 0.78432196 0.62014741
0.24117100 0.89188129 0.00107530
0.24117100 0.89188129 0.00107530
0.29937475 0.90303672 0.03360083
0.38458397 0.92655201 0.07392929
0.51243216 0.95045380 0.11604566
0.68069787 0.95500018 0.10084859
0.89941775 0.91679789 0.12551684
1.00000000 0.87348883 0.49903653
1.00000000 0.88087580 0.71745787
0.29922186 0.96397524 0.00845336
0.29922186 0.96397524 0.00845336
0.34505412 0.97470274 0.05646001
0.44173240 0.99044650 0.17675041
0.58598583 0.99900010 0.33309475
0.71499616 1.00000000 0.44880644
0.82632799 1.00000000 0.48932875
0.96209181 0.99047254 0.43269739
1.00000000 0.96193368 0.79271896
0.48246383 1.00000000 0.24802542
0.48246383 1.00000000 0.24802542
0.54692207 1.00000000 0.32920701
0.64584372 1.00000000 0.45539794
0.75405849 1.00000000 0.59741484
0.84698853 1.00000000 0.72340163
0.92024066 1.00000000 0.82442222
0.97844965 1.00000000 0.91416292
1.00000000 1.00000000 1.00000000
0.00000000 0.00000000 0.00000000
0.00000000 0.00000000 0.00000000
0.22180183 0.01228011 0.01068423
0.44201544 0.02341246 0.01396761
0.62593451 0.05968834 0.01403185
0.75285864 0.13230410 0.00922482
0.83141696 0.20440079 0.00638201
0.88084789 0.25873731 0.00353629
0.95626115 0.29621013 0.00000000
0.00000000 0.00000000 0.00000000
0.00000000 0.00000000 0.00000000
0.22180183 0.01228011 0.01068423
0.44201544 0.02341246 0.01396761
0.62593451 0.05968834 0.01403185
0.75285864 0.13230410 0.00922482
0.83141696 0.20440079 0.00638201
0.88084789 0.25873731 0.00353629
0.95626115 0.29621013 0.00000000
0.02904682 0.22830698 0.02348748
0.02904682 0.22830698 0.02348748
0.23522676 0.23604034 0.00749503
0.45410323 0.23754228 0.00406176
0.65394995 0.23160603 0.01387644
0.78747806 0.25234187 0.04698851
0.87869762 0.28070645 0.05143509
0.93851295 0.30916758 0.04189497
1.00000000 0.34706228 0.04656998
0.04295099 0.45067190 0.02075387
0.04295099 0.45067190 0.02075387
0.24141796 0.45475093 0.01214633
0.45468817 0.45676913 0.01480848
0.67957541 0.43642503 0.02199280
0.84986898 0.41274831 0.08248389
0.96017351 0.40577056 0.12314687
0.98768712 0.44749151 0.21018759
1.00000000 0.50324573 0.28181203
0.09046073 0.64306495 0.01132516
0.09046073 0.64306495 0.01132516
0.24398906 0.64940852 0.02256778
0.42532810 0.65997976 0.03859675
0.64686648 0.65268002 0.02973234
0.87567849 0.60560185 0.03200592
1.00000000 0.58028340 0.21095942
1.00000000 0.61500556 0.38112132
1.00000000 0.65994418 0.47523381
0.16959643 0.78802395 0.00322908
0.16959643 0.78802395 0.00322908
0.26482439 0.79722564 0.02970431
0.39425942 0.81601679 0.05906801
0.57089735 0.82825170 0.06658476
0.79387205 0.80499607 0.05128683
0.99484483 0.75036879 0.19435825
1.00000000 0.75553923 0.49140883
1.00000000 0.78432196 0.62014741
0.24117100 0.89188129 0.00107530
0.24117100 0.89188129 0.00107530
0.29937475 0.90303672 0.03360083
0.38458397 0.92655201 0.07392929
0.51243216 0.95045380 0.11604566
0.68069787 0.95500018 0.10084859
0.89941775 0.91679789 0.12551684
1.00000000 0.87348883 0.49903653
1.00000000 0.88087580 0.71745787
0.29922186 0.96397524 0.00845336
0.29922186 0.96397524 0.00845336
0.34505412 0.97470274 0.05646001
0.44173240 0.99044650 0.17675041
0.58598583 0.99900010 0.33309475
0.71499616 1.00000000 0.44880644
0.82632799 1.00000000 0.48932875
0.96209181 0.99047254 0.43269739
1.00000000 0.96193368 0.79271896
0.48246383 1.00000000 0.24802542
0.48246383 1.00000000 0.24802542
0.54692207 1.00000000 0.32920701
0.64584372 1.00000000 0.45539794
0.75405849 1.00000000 0.59741484
0.84698853 1.00000000 0.72340163
0.92024066 1.00000000 0.82442222
0.97844965 1.00000000 0.91416292
1.00000000 1.00000000 1.00000000
0.00607794 0.01009367 0.19513138
0.00607794 0.01009367 0.19513138
0.22160982 0.01998506 0.21899787
0.43764352 0.03489989 0.23310594
0.63145966 0.05669011 0.21163331
0.77964274 0.08808683 0.15349310
0.87528046 0.14414074 0.07254132
0.91408564 0.22857313 0.03887447
0.97958956 0.28237479 0.00941259
0.00607794 0.01009367 0.19513138
0.00607794 0.01009367 0.19513138
0.22160982 0.01998506 0.21899787
0.43764352 0.03489989 0.23310594
0.63145966 0.05669011 0.21163331
0.77964274 0.08808683 0.15349310
0.87528046 0.14414074 0.07254132
0.91408564 0.22857313 0.03887447
0.97958956 0.28237479 0.00941259
0.03240210 0.22994251 0.22945935
0.03240210 0.22994251 0.22945935
0.23600832 0.23600832 0.23600832
0.45619048 0.23611364 0.23533487
0.65059845 0.23771393 0.22662690
0.79941696 0.24434796 0.19741032
0.90449535 0.25856490 0.14500855
0.95223394 0.30509744 0.12058011
1.00000000 0.36158378 0.12742023
0.06873598 0.44777191 0.24583026
0.06873598 0.44777191 0.24583026
0.23739086 0.45592294 0.23495341
0.45574204 0.45640000 0.23617907
0.67029924 0.44199604 0.25328265
0.82205227 0.43609807 0.27929463
0.92750034 0.43888172 0.27845827
0.96963626 0.46986457 0.29722041
1.00000000 0.51778740 0.32989544
0.12584312 0.64050327 0.22516084
0.12584312 0.64050327 0.22516084
0.25302027 0.64820236 0.22682620
0.43475942 0.65707269 0.24942094
0.64781326 0.65229465 0.23723134
0.86527072 0.61228967 0.24546745
0.97704078 0.59891591 0.34156075
0.99349994 0.62937861 0.44403766
1.00000000 0.67212663 0.51182790
0.19686132 0.78666661 0.18265646
0.19686132 0.78666661 0.18265646
0.29299310 0.79350593 0.21025416
0.42712876 0.80854316 0.25256129
0.58950553 0.82201126 0.26998382
0.79417547 0.80510133 0.23904372
0.98503469 0.75698954 0.31546856
1.00000000 0.76330142 0.53679968
1.00000000 0.79578133 0.65178034
0.28208436 0.88869126 0.15698298
0.28208436 0.88869126 0.15698298
0.34172373 0.89760080 0.19148867
0.43753184 0.91632231 0.24576506
0.55651292 0.93889943 0.28781008
0.70346516 0.94714398 0.28640447
0.90042092 0.91769771 0.24086188
1.00000000 0.87847859 0.54767729
1.00000000 0.89129739 0.74954288
0.34169411 0.96075938 0.13675596
0.34169411 0.96075938 0.13675596
0.38378209 0.97065872 0.17529327
0.49273906 0.98076802 0.28729387
0.61709062 0.99227314 0.40666369
0.73340216 0.99941761 0.50357502
0.83798577 1.00000000 0.54318371
0.97569640 0.99795836 0.24231404
1.00000000 0.96846194 0.83015334
0.52442540 1.00000000 0.31942749
0.52442540 1.00000000 0.31942749
0.57817399 1.00000000 0.38463981
0.66843945 1.00000000 0.49690988
0.77261826 1.00000000 0.63226243
0.86417086 1.00000000 0.75671435
0.93609490 1.00000000 0.85884229
1.00000000 1.00000000 1.00000000
1.00000000 1.00000000 1.00000000
0.00880512 0.03150388 0.39530389
0.00880512 0.03150388 0.39530389
0.22470866 0.03479434 0.41702981
0.43889908 0.04729902 0.43249602
0.63837928 0.06488854 0.40194345
0.79471336 0.08701456 0.33187345
0.90719768 0.11384358 0.23363796
0.96287663 0.18464091 0.13874246
1.00000000 0.28212731 0.10688726
0.00880512 0.03150388 0.39530389
0.00880512 0.03150388 0.39530389
0.22470866 0.03479434 0.41702981
0.43889908 0.04729902 0.43249602
0.63837928 0.06488854 0.40194345
0.79471336 0.08701456 0.33187345
0.90719768 0.11384358 0.23363796
0.96287663 0.18464091 0.13874246
1.00000000 0.28212731 0.10688726
0.03512367 0.23598121 0.42552075
0.03512367 0.23598121 0.42552075
0.23495077 0.23644541 0.45642503
0.45663597 0.23584503 0.45545288
0.66005927 0.23521270 0.41814209
0.81391573 0.24190358 0.36072225
0.92208163 0.25705021 0.28818196
0.96298254 0.31595257 0.24041405
1.00000000 0.38242661 0.22539097
0.07107348 0.44903407 0.44802997
0.07107348 0.44903407 0.44802997
0.23601081 0.45622691 0.45601403
0.45620114 0.45620114 0.45620114
0.65088767 0.45653546 0.45405021
0.80111624 0.45878459 0.44151802
0.90908555 0.46497043 0.41341373
0.96190404 0.49055484 0.39309053
1.00000000 0.53589237 0.39607811
0.14317068 0.64136201 0.41546359
0.14317068 0.64136201 0.41546359
0.27732541 0.64580459 0.42421142
0.46044597 0.64986489 0.45267711
0.64910699 0.65171333 0.45678115
0.83000509 0.63278039 0.47297666
0.94098167 0.62782074 0.49645713
0.97730276 0.65098136 0.53252943
1.00000000 0.69002783 0.56771534
0.26088200 0.78138480 0.36970155
0.26088200 0.78138480 0.36970155
0.35131982 0.78547908 0.39509748
0.48063962 0.79625249 0.44038547
0.62399040 0.81043183 0.47167232
0.79502486 0.80468214 0.45838678
0.96672174 0.76993704 0.47910368
1.00000000 0.77739541 0.61170635
1.00000000 0.81290031 0.70079568
0.36902392 0.87779493 0.34093490
0.36902392 0.87779493 0.34093490
0.42399257 0.88469186 0.37091148
0.51445813 0.89997123 0.42379811
0.62130025 0.92080294 0.47291877
0.74142072 0.93370144 0.48543803
0.90004685 0.91778456 0.46023084
1.00000000 0.88745611 0.62793055
1.00000000 0.90701707 0.79779140
0.44246521 0.94576453 0.32189952
0.44246521 0.94576453 0.32189952
0.48130264 0.95408934 0.35315829
0.54952153 0.97172916 0.40867104
0.66110897 0.98401743 0.50937306
0.76350033 0.99443959 0.58954902
0.85849316 0.99917953 0.63050987
0.96601817 0.98983992 0.62619705
1.00000000 0.97903290 0.88605344
0.56711109 1.00000000 0.39957417
0.56711109 1.00000000 0.39957417
0.61561195 1.00000000 0.45558835
0.70061650 1.00000000 0.55822068
0.80114612 1.00000000 0.68664859
0.89059651 1.00000000 0.80771789
0.96039460 1.00000000 0.90995528
1.00000000 1.00000000 1.00000000
1.00000000 1.00000000 1.00000000
0.00000000 0.08170137 0.55072727
0.00000000 0.08170137 0.55072727
0.20133286 0.06162575 0.61725330
0.41848356 0.07113296 0.64675940
0.63179198 0.07840774 0.61880519
0.80344943 0.08968078 0.53199601
0.92739608 0.10868925 0.41722327
0.97885517 0.20109627 0.31022368
1.00000000 0.31069554 0.25753005
0.00000000 0.08170137 0.55072727
0.00000000 0.08170137 0.55072727
0.20133286 0.06162575 0.61725330
0.41848356 0.07113296 0.64675940
0.63179198 0.07840774 0.61880519
0.80344943 0.08968078 0.53199601
0.92739608 0.10868925 0.41722327
0.97885517 0.20109627 0.31022368
1.00000000 0.31069554 0.25753005
0.04308750 0.24280812 0.60527448
0.04308750 0.24280812 0.60527448
0.22259658 0.24145569 0.65287906
0.43243489 0.24671526 0.67328573
0.65338525 0.23519048 0.64557533
0.82857463 0.23131329 0.55661335
0.94303360 0.25067400 0.45400183
0.97634525 0.32771773 0.37687526
1.00000000 0.40487999 0.33885918
0.10980553 0.44010931 0.65948506
0.10980553 0.44010931 0.65948506
0.26709531 0.44517149 0.66216097
0.45274451 0.45763752 0.65179077
0.65275076 0.45561899 0.64797647
0.81764335 0.45438486 0.59607481
0.93160066 0.46047251 0.53670468
0.97286835 0.49928583 0.49381711
1.00000000 0.55165152 0.47736782
0.09337722 0.64428242 0.64260422
0.09337722 0.64428242 0.64260422
0.23603828 0.65106589 0.64991770
0.45620996 0.65103513 0.65015950
0.65092930 0.65092930 0.65092930
0.80170444 0.65136950 0.64807819
0.91167419 0.65356605 0.63564031
0.96980662 0.66867894 0.62435416
1.00000000 0.70617399 0.63288511
0.21254875 0.79358454 0.54386010
0.21254875 0.79358454 0.54386010
0.33607456 0.79348006 0.56243982
0.49981020 0.79479190 0.60203190
0.65635309 0.80026545 0.64594154
0.79904006 0.80292649 0.65177384
0.93609196 0.78762475 0.66328055
0.98595652 0.79678648 0.71113293
1.00000000 0.83066497 0.75967596
0.38977251 0.88102647 0.48421123
0.38977251 0.88102647 0.48421123
0.45448185 0.88439965 0.51382866
0.55970344 0.89261945 0.57048044
0.67470592 0.90613369 0.63265366
0.78053123 0.91965766 0.66363132
0.90407478 0.91598714 0.65356299
1.00000000 0.89767842 0.72831016
1.00000000 0.92329528 0.85213468
0.49485333 0.94156779 0.45486502
0.49485333 0.94156779 0.45486502
0.53745125 0.94733177 0.48726827
0.61265066 0.95983403 0.54800785
0.70050092 0.97834936 0.61706059
0.79999789 0.98727856 0.69576028
0.88357572 0.99470772 0.73507820
0.97287494 0.98988186 0.74873680
1.00000000 0.99092804 0.94381000
0.61072500 1.00000000 0.49376840
0.61072500 1.00000000 0.49376840
0.65590808 1.00000000 0.54265112
0.73613674 1.00000000 0.63426353
0.83317444 1.00000000 0.75257952
0.91998969 1.00000000 0.86613274
1.00000000 1.00000000 1.00000000
1.00000000 1.00000000 1.00000000
1.00000000 1.00000000 1.00000000
0.00000000 0.16091997 0.61151817
0.00000000 0.16091997 0.61151817
0.12979426 0.10884384 0.77977950
0.35644087 0.11512116 0.84401016
0.58419672 0.10840902 0.84925954
0.78162478 0.10457601 0.76100332
0.92619567 0.11360318 0.62653206
0.98515300 0.21594471 0.48760957
1.00000000 0.33256769 0.40479504
0.00000000 0.16091997 0.61151817
0.00000000 0.16091997 0.61151817
0.12979426 0.10884384 0.77977950
0.35644087 0.11512116 0.84401016
0.58419672 0.10840902 0.84925954
0.78162478 0.10457601 0.76100332
0.92619567 0.11360318 0.62653206
0.98515300 0.21594471 0.48760957
1.00000000 0.33256769 0.40479504
0.03589723 0.26159338 0.72308368
0.03589723 0.26159338 0.72308368
0.18135666 0.25720882 0.80560547
0.37937360 0.27198006 0.84763653
0.60340098 0.25404838 0.87310559
0.80697819 0.23470091 0.78883614
0.94479922 0.24765059 0.65335658
0.98373245 0.33584482 0.53148562
1.00000000 0.42124288 0.46448239
0.14364720 0.42935793 0.82630716
0.14364720 0.42935793 0.82630716
0.27854215 0.44206791 0.80904169
0.43457525 0.46507929 0.80579608
0.61745251 0.46918133 0.83356612
0.80770328 0.45441239 0.79017011
0.94676937 0.44979816 0.69797395
0.98310077 0.50260184 0.61384598
1.00000000 0.56287473 0.57349834
0.18588499 0.61800676 0.86923572
0.18588499 0.61800676 0.86923572
0.31527500 0.62367177 0.85629883
0.48884753 0.63636030 0.81937057
0.64619902 0.65291240 0.80298794
0.80468189 0.65003669 0.79740580
0.92909351 0.64878636 0.75145568
0.98066141 0.67222908 0.71233543
1.00000000 0.71586514 0.70260188
0.10996323 0.79530637 0.79282419
0.10996323 0.79530637 0.79282419
0.23609965 0.80204569 0.79965504
0.45625418 0.80208493 0.79937953
0.65094226 0.80192989 0.80055578
0.80176386 0.80176386 0.80176386
0.91235783 0.80217429 0.79909790
0.97753904 0.81007904 0.79609762
1.00000000 0.84315948 0.81523809
0.27811656 0.90469023 0.63827553
0.27811656 0.90469023 0.63827553
0.38053974 0.90455678 0.65872757
0.53140322 0.90480132 0.70082372
0.68522747 0.90629923 0.75460750
0.80671779 0.91098585 0.79687471
0.90969454 0.91357138 0.80260907
0.99311718 0.90736494 0.83232675
1.00000000 0.93687085 0.90182294
0.47073807 0.95548548 0.55939645
0.47073807 0.95548548 0.55939645
0.52535946 0.95827896 0.59018169
0.62037738 0.96441902 0.65052048
0.72901212 0.97387598 0.72529827
0.82117046 0.98562362 0.78500270
0.90628258 0.98997049 0.83360505
0.98332174 0.99447550 0.80425512
1.00000000 1.00000000 1.00000000
0.63711486 1.00000000 0.58776546
0.63711486 1.00000000 0.58776546
0.68237407 1.00000000 0.63062251
0.76242305 1.00000000 0.71148677
0.85913970 1.00000000 0.81676980
0.94563162 1.00000000 0.91908485
1.00000000 1.00000000 1.00000000
1.00000000 1.00000000 1.00000000
1.00000000 1.00000000 1.00000000
0.00000000 0.22080149 0.62925244
0.00000000 0.22080149 0.62925244
0.02868137 0.20025578 0.81490367
0.25299377 0.21174137 0.93267253
0.47540694 0.23350134 0.97144431
0.69645332 0.19596217 0.96305464
0.88783215 0.13688155 0.85987177
0.98229320 0.21034353 0.68309138
1.00000000 0.33891923 0.55845037
0.00000000 0.22080149 0.62925244
0.00000000 0.22080149 0.62925244
0.02868137 0.20025578 0.81490367
0.25299377 0.21174137 0.93267253
0.47540694 0.23350134 0.97144431
0.69645332 0.19596217 0.96305464
0.88783215 0.13688155 0.85987177
0.98229320 0.21034353 0.68309138
1.00000000 0.33891923 0.55845037
0.02166479 0.29361061 0.77209272
0.02166479 0.29361061 0.77209272
0.11385603 0.29238018 0.88309914
0.30285240 0.32733280 0.92171891
0.50170798 0.34548808 0.96053903
0.71283722 0.31791889 0.96120980
0.91993164 0.23470448 0.89240518
0.98257520 0.33260458 0.70644104
1.00000000 0.42659062 0.60059985
0.16062221 0.43282641 0.91040774
0.16062221 0.43282641 0.91040774
0.26153253 0.45061066 0.90673249
0.39764607 0.48226767 0.90978812
0.55681235 0.50259902 0.94213347
0.74147017 0.48944465 0.95156625
0.92226824 0.45351647 0.89099960
0.98445088 0.50138923 0.75417910
1.00000000 0.56759166 0.68060774
0.30213708 0.59619281 0.95971146
0.30213708 0.59619281 0.95971146
0.37990656 0.60894690 0.94419972
0.49680565 0.63432399 0.92329603
0.62760802 0.66066033 0.91709747
0.77170453 0.66219671 0.93912701
0.92067998 0.64845524 0.89816927
0.98615526 0.67174888 0.81606479
1.00000000 0.72109258 0.77908909
0.32469521 0.74861231 0.98656449
0.32469521 0.74861231 0.98656449
0.40244587 0.75645884 0.97771251
0.52734066 0.77235959 0.95998674
0.67516978 0.78975505 0.92768624
0.79723395 0.80367653 0.91359388
0.91548642 0.80084275 0.90810580
0.98628890 0.81070678 0.87192963
1.00000000 0.84988556 0.86784711
0.17066125 0.90228684 0.89874083
0.17066125 0.90228684 0.89874083
0.28193938 0.90728301 0.90340256
0.45631660 0.91293054 0.90855544
0.65099209 0.91285004 0.90919000
0.80177685 0.91258796 0.91116651
0.91241619 0.91241619 0.91241619
0.98467208 0.91551265 0.91326278
1.00000000 0.94677232 0.94086126
0.35076048 0.97971588 0.70812641
0.35076048 0.97971588 0.70812641
0.44122198 0.97838873 0.73016637
0.57583167 0.97834889 0.77282738
0.70345090 0.98535796 0.82284254
0.82686061 0.98645226 0.87362300
0.91638181 0.98998032 0.90831898
0.98885402 0.99212245 0.91313389
1.00000000 1.00000000 1.00000000
0.64376483 1.00000000 0.69166456
0.64376483 1.00000000 0.69166456
0.69121290 1.00000000 0.72573529
0.77479633 1.00000000 0.79085137
0.87561516 1.00000000 0.87671109
0.96473762 1.00000000 0.96051082
1.00000000 1.00000000 1.00000000
1.00000000 1.00000000 1.00000000
1.00000000 1.00000000 1.00000000
0.00000000 0.25962730 0.63912021
0.00000000 0.25962730 0.63912021
0.00326646 0.27462430 0.76023117
0.14155229 0.29325167 0.94083271
0.35433760 0.34209443 0.98573577
0.55427355 0.35240788 1.00000000
0.75817797 0.30257176 0.99634910
0.94753902 0.20568354 0.91114231
1.00000000 0.32489357 0.73162225
0.00000000 0.25962730 0.63912021
0.00000000 0.25962730 0.63912021
0.00326646 0.27462430 0.76023117
0.14155229 0.29325167 0.94083271
0.35433760 0.34209443 0.98573577
0.55427355 0.35240788 1.00000000
0.75817797 0.30257176 0.99634910
0.94753902 0.20568354 0.91114231
1.00000000 0.32489357 0.73162225
0.00712002 0.32349959 0.79039429
0.00712002 0.32349959 0.79039429
0.05188293 0.33463371 0.89141459
0.22587124 0.37820391 0.94300869
0.40237947 0.42088957 0.97806822
0.58459276 0.43029333 0.99918363
0.77669750 0.39248179 0.99327428
0.95262632 0.33141896 0.91170849
1.00000000 0.41764764 0.75464794
0.15163234 0.44609082 0.95139163
0.15163234 0.44609082 0.95139163
0.23701531 0.46837099 0.94804731
0.35867336 0.50837670 0.94522599
0.49389341 0.54530443 0.96742330
0.64427412 0.55738553 0.98934499
0.81110667 0.53490176 0.98835599
0.96211002 0.50297377 0.91916291
1.00000000 0.56407119 0.80125880
0.35084175 0.59559901 0.97668858
0.35084175 0.59559901 0.97668858
0.40275384 0.61184406 0.97305130
0.49463139 0.64315251 0.96142577
0.60337732 0.67751837 0.96229688
0.71860027 0.69578207 0.98048392
0.85052693 0.68851504 0.98582892
0.97176293 0.67469533 0.93706268
1.00000000 0.72181403 0.86296005
0.47410063 0.71916607 0.99508910
0.47410063 0.71916607 0.99508910
0.51739020 0.73208495 0.98972021
0.59435209 0.75762074 0.98197471
0.69145926 0.78838377 0.97292198
0.78538322 0.81183206 0.97501104
0.88307706 0.81749581 0.98564621
0.97861722 0.81395272 0.95941578
1.00000000 0.85375337 0.92197782
0.50290304 0.83047352 1.00000000
0.50290304 0.83047352 1.00000000
0.54754767 0.83991979 1.00000000
0.62902926 0.85877072 1.00000000
0.73133650 0.88206489 0.99431103
0.82902472 0.90161404 0.98564423
0.90985269 0.91468033 0.98382785
0.98393112 0.91787258 0.97860553
1.00000000 0.95346325 0.97199004
0.33246527 0.96390236 0.95849844
0.33246527 0.96390236 0.95849844
0.42120796 0.96565153 0.95979834
0.56287045 0.96899852 0.96285078
0.70951137 0.97510662 0.96984678
0.83201587 0.98125774 0.97804400
0.91242724 0.99129943 0.99007221
0.99115111 0.99115111 0.99115111
1.00000000 1.00000000 1.00000000
0.62499733 1.00000000 0.82106457
0.62499733 1.00000000 0.82106457
0.67734627 1.00000000 0.84168458
0.77004234 1.00000000 0.88244345
0.88157541 1.00000000 0.93724892
1.00000000 1.00000000 1.00000000
1.00000000 1.00000000 1.00000000
1.00000000 1.00000000 1.00000000
1.00000000 1.00000000 1.00000000
0.00000000 0.29518867 0.67660054
0.00000000 0.29518867 0.67660054
0.00000000 0.31808597 0.77155102
0.03738805 0.34725416 0.96371859
0.25811028 0.40908407 1.00000000
0.43712423 0.44558288 1.00000000
0.61482201 0.43818612 1.00000000
0.80877413 0.37063628 1.00000000
0.99912977 0.31051783 0.95334293
0.00000000 0.29518867 0.67660054
0.00000000 0.29518867 0.67660054
0.00000000 0.31808597 0.77155102
0.03738805 0.34725416 0.96371859
0.25811028 0.40908407 1.00000000
0.43712423 0.44558288 1.00000000
0.61482201 0.43818612 1.00000000
0.80877413 0.37063628 1.00000000
0.99912977 0.31051783 0.95334293
0.00000000 0.35322267 0.82937120
0.00000000 0.35322267 0.82937120
0.00011055 0.36898643 0.92670430
0.14897315 0.41509285 0.99313536
0.32424433 0.47299046 1.00000000
0.48253182 0.50546554 1.00000000
0.64611962 0.50070263 1.00000000
0.82745281 0.44693674 1.00000000
1.00000000 0.40962346 0.95242009
0.12991217 0.46635273 0.99490319
0.12991217 0.46635273 0.99490319
0.20215356 0.48988344 1.00000000
0.31576863 0.53394086 0.99825140
0.44138051 0.58057382 1.00000000
0.56944959 0.60925996 1.00000000
0.70677649 0.60991388 1.00000000
0.86180272 0.57544356 1.00000000
1.00000000 0.56231683 0.95615920
0.35927233 0.60779821 1.00000000
0.35927233 0.60779821 1.00000000
0.40152051 0.62568779 1.00000000
0.47942797 0.65977036 1.00000000
0.57655232 0.69897063 1.00000000
0.67673730 0.72686440 1.00000000
0.78279141 0.73512340 1.00000000
0.90164135 0.71981223 1.00000000
1.00000000 0.72471129 0.96865011
0.51499337 0.71976521 1.00000000
0.51499337 0.71976521 1.00000000
0.54769571 0.73466866 1.00000000
0.61019998 0.76350889 1.00000000
0.69154762 0.79874115 1.00000000
0.77281183 0.82743371 1.00000000
0.85214085 0.84305438 1.00000000
0.93532472 0.84348892 1.00000000
1.00000000 0.86032648 0.98581161
0.61160532 0.80672961 1.00000000
0.61160532 0.80672961 1.00000000
0.64153063 0.81954899 1.00000000
0.69926875 0.84466547 1.00000000
0.77422488 0.87635135 1.00000000
0.84680572 0.90456530 1.00000000
0.90943706 0.92501319 1.00000000
0.96417964 0.93693468 1.00000000
1.00000000 0.96338934 1.00000000
0.63446635 0.88700597 1.00000000
0.63446635 0.88700597 1.00000000
0.66942794 0.89637322 1.00000000
0.73594373 0.91499776 1.00000000
0.82056860 0.93909613 1.00000000
0.89916947 0.96177810 1.00000000
0.95979219 0.98117525 1.00000000
0.99806108 0.99876619 1.00000000
1.00000000 1.00000000 1.00000000
0.62369490 1.00000000 0.99602327
0.62369490 1.00000000 0.99602327
0.67909097 1.00000000 0.99697004
0.77875294 1.00000000 0.99997932
0.89915837 1.00000000 1.00000000
1.00000000 1.00000000 1.00000000
1.00000000 1.00000000 1.00000000
1.00000000 1.00000000 1.00000000
1.00000000 1.00000000 1.00000000
