Luts Download/Canon Luts/3dlut/33grid-3dlut/full-to-full-range/BT2020_CanonLog3-to-BT2020_709WideDR_33_FF_Ver.2.0.cube
# Gamut : BT.2020 to BT.2020
# Gamma : Canon Log 3 to Wide DR
# Range : Full in / Full out
# Version : 2.0 2019/10/24
# Copyright(c) 2019 Canon Inc. All Rights Reserved.
LUT_3D_SIZE 5
# LUT_3D_INPUT_RANGE 0.0 1.0
0.00000000 0.00000000 0.00000000
0.22180183 0.01228011 0.01068423
0.62593451 0.05968834 0.01403185
0.83141696 0.20440079 0.00638201
0.95626115 0.29621013 0.00000000
0.02904682 0.22830698 0.02348748
0.23522676 0.23604034 0.00749503
0.65394995 0.23160603 0.01387644
0.87869762 0.28070645 0.05143509
1.00000000 0.34706228 0.04656998
0.09046073 0.64306495 0.01132516
0.24398906 0.64940852 0.02256778
0.64686648 0.65268002 0.02973234
1.00000000 0.58028340 0.21095942
1.00000000 0.65994418 0.47523381
0.24117100 0.89188129 0.00107530
0.29937475 0.90303672 0.03360083
0.51243216 0.95045380 0.11604566
0.89941775 0.91679789 0.12551684
1.00000000 0.88087580 0.71745787
0.48246383 1.00000000 0.24802542
0.54692207 1.00000000 0.32920701
0.75405849 1.00000000 0.59741484
0.92024066 1.00000000 0.82442222
1.00000000 1.00000000 1.00000000
0.00607794 0.01009367 0.19513138
0.22160982 0.01998506 0.21899787
0.63145966 0.05669011 0.21163331
0.87528046 0.14414074 0.07254132
0.97958956 0.28237479 0.00941259
0.03240210 0.22994251 0.22945935
0.23600832 0.23600832 0.23600832
0.65059845 0.23771393 0.22662690
0.90449535 0.25856490 0.14500855
1.00000000 0.36158378 0.12742023
0.12584312 0.64050327 0.22516084
0.25302027 0.64820236 0.22682620
0.64781326 0.65229465 0.23723134
0.97704078 0.59891591 0.34156075
1.00000000 0.67212663 0.51182790
0.28208436 0.88869126 0.15698298
0.34172373 0.89760080 0.19148867
0.55651292 0.93889943 0.28781008
0.90042092 0.91769771 0.24086188
1.00000000 0.89129739 0.74954288
0.52442540 1.00000000 0.31942749
0.57817399 1.00000000 0.38463981
0.77261826 1.00000000 0.63226243
0.93609490 1.00000000 0.85884229
1.00000000 1.00000000 1.00000000
0.00000000 0.08170137 0.55072727
0.20133286 0.06162575 0.61725330
0.63179198 0.07840774 0.61880519
0.92739608 0.10868925 0.41722327
1.00000000 0.31069554 0.25753005
0.04308750 0.24280812 0.60527448
0.22259658 0.24145569 0.65287906
0.65338525 0.23519048 0.64557533
0.94303360 0.25067400 0.45400183
1.00000000 0.40487999 0.33885918
0.09337722 0.64428242 0.64260422
0.23603828 0.65106589 0.64991770
0.65092930 0.65092930 0.65092930
0.91167419 0.65356605 0.63564031
1.00000000 0.70617399 0.63288511
0.38977251 0.88102647 0.48421123
0.45448185 0.88439965 0.51382866
0.67470592 0.90613369 0.63265366
0.90407478 0.91598714 0.65356299
1.00000000 0.92329528 0.85213468
0.61072500 1.00000000 0.49376840
0.65590808 1.00000000 0.54265112
0.83317444 1.00000000 0.75257952
1.00000000 1.00000000 1.00000000
1.00000000 1.00000000 1.00000000
0.00000000 0.22080149 0.62925244
0.02868137 0.20025578 0.81490367
0.47540694 0.23350134 0.97144431
0.88783215 0.13688155 0.85987177
1.00000000 0.33891923 0.55845037
0.02166479 0.29361061 0.77209272
0.11385603 0.29238018 0.88309914
0.50170798 0.34548808 0.96053903
0.91993164 0.23470448 0.89240518
1.00000000 0.42659062 0.60059985
0.30213708 0.59619281 0.95971146
0.37990656 0.60894690 0.94419972
0.62760802 0.66066033 0.91709747
0.92067998 0.64845524 0.89816927
1.00000000 0.72109258 0.77908909
0.17066125 0.90228684 0.89874083
0.28193938 0.90728301 0.90340256
0.65099209 0.91285004 0.90919000
0.91241619 0.91241619 0.91241619
1.00000000 0.94677232 0.94086126
0.64376483 1.00000000 0.69166456
0.69121290 1.00000000 0.72573529
0.87561516 1.00000000 0.87671109
1.00000000 1.00000000 1.00000000
1.00000000 1.00000000 1.00000000
0.00000000 0.29518867 0.67660054
0.00000000 0.31808597 0.77155102
0.25811028 0.40908407 1.00000000
0.61482201 0.43818612 1.00000000
0.99912977 0.31051783 0.95334293
0.00000000 0.35322267 0.82937120
0.00011055 0.36898643 0.92670430
0.32424433 0.47299046 1.00000000
0.64611962 0.50070263 1.00000000
1.00000000 0.40962346 0.95242009
0.35927233 0.60779821 1.00000000
0.40152051 0.62568779 1.00000000
0.57655232 0.69897063 1.00000000
0.78279141 0.73512340 1.00000000
1.00000000 0.72471129 0.96865011
0.61160532 0.80672961 1.00000000
0.64153063 0.81954899 1.00000000
0.77422488 0.87635135 1.00000000
0.90943706 0.92501319 1.00000000
1.00000000 0.96338934 1.00000000
0.62369490 1.00000000 0.99602327
0.67909097 1.00000000 0.99697004
0.89915837 1.00000000 1.00000000
1.00000000 1.00000000 1.00000000
1.00000000 1.00000000 1.00000000
