Luts Download/Canon Luts/3dlut/33grid-3dlut/full-to-full-range/BT2020_CanonLog2-to-BT2020_709WideDR_33_FF_Ver.2.0.cube
# Gamut : BT.2020 to BT.2020
# Gamma : Canon Log 2 to Wide DR
# Range : Full in / Full out
# Version : 2.0 2019/10/24
# Copyright(c) 2019 Canon Inc. All Rights Reserved.
LUT_3D_SIZE 5
# LUT_3D_INPUT_RANGE 0.0 1.0
0.00000000 0.00000000 0.00000000
0.13769223 0.00458327 0.00348092
0.60377678 0.03285423 0.00281806
0.90996840 0.17365123 0.00439382
1.00000000 0.70825372 0.54068946
0.00929740 0.14155580 0.00621610
0.14454442 0.14519773 0.00286106
0.61628900 0.14748327 0.00405153
0.93443967 0.21660698 0.02478150
1.00000000 0.73085181 0.57160143
0.03694278 0.61444296 0.00199039
0.16039832 0.61640671 0.01241451
0.61588272 0.61976996 0.02740315
1.00000000 0.56863136 0.31419038
1.00000000 0.90599671 0.82417479
0.20641094 0.95667984 0.02065415
0.24338530 0.96178681 0.04094698
0.51406979 0.99299031 0.25410455
0.94868287 0.97363951 0.37478675
1.00000000 1.00000000 1.00000000
1.00000000 1.00000000 1.00000000
1.00000000 1.00000000 1.00000000
1.00000000 1.00000000 1.00000000
1.00000000 1.00000000 1.00000000
1.00000000 1.00000000 1.00000000
0.00239966 0.00520105 0.11897633
0.13690134 0.00872001 0.13455106
0.60443499 0.03529827 0.13262154
0.93358510 0.13749689 0.01838143
1.00000000 0.71841008 0.55668123
0.01326362 0.14169984 0.14131078
0.14520997 0.14520997 0.14520997
0.61708606 0.14778637 0.13532465
0.94200446 0.21331168 0.06334574
1.00000000 0.74109979 0.58762074
0.06252268 0.61265469 0.13739359
0.16364354 0.61553009 0.13918198
0.61584807 0.61878122 0.14592368
0.99686465 0.57995403 0.35894289
1.00000000 0.91921352 0.84401291
0.24994647 0.95325599 0.09358207
0.27671511 0.95860715 0.10976919
0.54051777 0.98716401 0.30841559
0.94842935 0.97352315 0.41583676
1.00000000 1.00000000 1.00000000
1.00000000 1.00000000 1.00000000
1.00000000 1.00000000 1.00000000
1.00000000 1.00000000 1.00000000
1.00000000 1.00000000 1.00000000
1.00000000 1.00000000 1.00000000
0.00000000 0.06207745 0.53920243
0.12066487 0.03444858 0.59569092
0.60811393 0.04009549 0.60116890
0.98574018 0.13281843 0.29927424
1.00000000 0.75999236 0.64126748
0.01654312 0.16488645 0.56707931
0.13148363 0.15118432 0.61870607
0.61911412 0.14507795 0.61451272
0.97523588 0.23516121 0.33631255
1.00000000 0.78336781 0.67178324
0.02714294 0.61588919 0.61524113
0.14780817 0.61766507 0.61704782
0.61787795 0.61787795 0.61787795
0.95545636 0.63335770 0.58881900
1.00000000 0.97378462 0.93113422
0.47307318 0.92405716 0.44885080
0.49565100 0.92712931 0.46386508
0.66749331 0.95971842 0.58680844
0.95916866 0.97815841 0.62187259
1.00000000 1.00000000 1.00000000
1.00000000 1.00000000 1.00000000
1.00000000 1.00000000 1.00000000
1.00000000 1.00000000 1.00000000
1.00000000 1.00000000 1.00000000
1.00000000 1.00000000 1.00000000
0.00000000 0.22094963 0.70196328
0.00000000 0.21030737 0.80507495
0.35236207 0.29562582 1.00000000
0.93287749 0.18425822 0.90801002
1.00000000 0.78756689 0.79453306
0.00400172 0.25340901 0.78661009
0.01514672 0.24592982 0.87648838
0.37410466 0.34950355 0.98701333
0.93282748 0.26467551 0.90297160
1.00000000 0.81117587 0.81643355
0.32248950 0.56475156 0.96404544
0.35512429 0.57405152 0.95517249
0.57068675 0.64374382 0.94682316
0.95574372 0.63968303 0.92216100
1.00000000 1.00000000 1.00000000
0.29114364 0.95009800 0.94609625
0.14538534 0.97272261 0.97032450
0.61799022 0.97303376 0.96799038
0.97244176 0.97244176 0.97244176
1.00000000 1.00000000 1.00000000
1.00000000 1.00000000 1.00000000
1.00000000 1.00000000 1.00000000
1.00000000 1.00000000 1.00000000
1.00000000 1.00000000 1.00000000
1.00000000 1.00000000 1.00000000
0.12038941 0.46333716 1.00000000
0.13871091 0.47509714 1.00000000
0.34090430 0.58531057 1.00000000
0.62701818 0.66006678 1.00000000
1.00000000 0.90961997 1.00000000
0.15548238 0.48776099 1.00000000
0.17659928 0.50136442 1.00000000
0.36870173 0.60592281 1.00000000
0.64493912 0.67909338 1.00000000
1.00000000 0.93026821 1.00000000
0.45676564 0.69029019 1.00000000
0.47154826 0.69893865 1.00000000
0.60298061 0.77186288 1.00000000
0.80884811 0.84029107 1.00000000
1.00000000 1.00000000 1.00000000
0.78508828 0.89475298 1.00000000
0.79679102 0.90087292 1.00000000
0.90059948 0.95585588 1.00000000
1.00000000 1.00000000 1.00000000
1.00000000 1.00000000 1.00000000
1.00000000 1.00000000 1.00000000
1.00000000 1.00000000 1.00000000
1.00000000 1.00000000 1.00000000
1.00000000 1.00000000 1.00000000
1.00000000 1.00000000 1.00000000
