Luts Download/Canon Luts/3dlut/33grid-3dlut/full-to-full-range/BT2020_CanonLog-to-BT709_WideDR_33_FF_Ver.2.0.cube
# Gamut : BT.2020 to BT.709
# Gamma : Canon Log to Wide DR
# Range : Full in / Full out
# Version : 2.0 2019/10/24
# Copyright(c) 2019 Canon Inc. All Rights Reserved.
LUT_3D_SIZE 9
# LUT_3D_INPUT_RANGE 0.0 1.0
0.00000000 0.00000000 0.00000000
0.00000000 0.00000000 0.00000000
0.28177303 0.00059303 0.02334589
0.51839660 0.00000000 0.04571158
0.70689826 0.00000000 0.06425590
0.84929790 0.00000000 0.05437312
0.95505504 0.02007781 0.02369141
0.99893544 0.12370976 0.03380292
1.00000000 0.21405501 0.07406855
0.00000000 0.00000000 0.00000000
0.00597043 0.00857361 0.00000000
0.28177303 0.00059303 0.02334589
0.51839660 0.00000000 0.04571158
0.70689826 0.00000000 0.06425590
0.84929790 0.00000000 0.05437312
0.95505504 0.02007781 0.02369141
0.99893544 0.12370976 0.03380292
1.00000000 0.21405501 0.07406855
0.00000000 0.23278491 0.06944621
0.00000000 0.23278491 0.06944621
0.25289595 0.24649843 0.00000000
0.52784779 0.22452459 0.00000000
0.75461109 0.18017592 0.00244503
0.91201812 0.14845633 0.02079192
0.98649612 0.19784481 0.08690090
1.00000000 0.27931396 0.16511892
1.00000000 0.33660141 0.21033460
0.00000000 0.43363859 0.15069960
0.00000000 0.43363859 0.15069960
0.12932826 0.45874986 0.01317228
0.46031711 0.45312245 0.00000000
0.73301036 0.41815215 0.00000000
0.94232776 0.36535166 0.02371114
1.00000000 0.39168447 0.20212019
1.00000000 0.44560345 0.30909800
1.00000000 0.48431332 0.36182303
0.00000000 0.60100793 0.20999853
0.00000000 0.60100793 0.20999853
0.00000000 0.62807512 0.10211759
0.32439191 0.64350069 0.00770720
0.63269997 0.62926209 0.00000000
0.90085628 0.57821681 0.00638135
1.00000000 0.56294772 0.26474954
1.00000000 0.59427826 0.42572281
1.00000000 0.62027589 0.49588490
0.00000000 0.72891355 0.23850039
0.00000000 0.72891355 0.23850039
0.00000000 0.75228239 0.18079459
0.12417925 0.78483204 0.04414211
0.46680661 0.79167788 0.01741255
0.76288290 0.76589643 0.01084607
0.99523463 0.71469251 0.18905842
1.00000000 0.71720421 0.48700444
1.00000000 0.73036434 0.59298727
0.00000000 0.82745542 0.24911707
0.00000000 0.82745542 0.24911707
0.00000000 0.84772697 0.22002046
0.00000000 0.88220414 0.14613608
0.26403367 0.91084631 0.03853835
0.57297370 0.90768910 0.03025645
0.86184191 0.87196736 0.05577801
1.00000000 0.82756669 0.43914221
1.00000000 0.82249298 0.64761016
0.00000000 0.89940660 0.24948946
0.00000000 0.89940660 0.24948946
0.00000000 0.91769970 0.23695608
0.00000000 0.94915928 0.20900189
0.11733283 0.98562149 0.14529643
0.42595156 0.99531967 0.18837310
0.66825536 0.98894600 0.16591857
0.92999486 0.94868365 0.19578358
1.00000000 0.90451880 0.60932515
0.00000000 0.95576695 0.24810074
0.00000000 0.95576695 0.24810074
0.00000000 0.97327509 0.24286381
0.03714452 1.00000000 0.24980807
0.36227620 1.00000000 0.36707178
0.55990622 1.00000000 0.47907223
0.70032501 1.00000000 0.54876081
0.81698614 1.00000000 0.54939137
0.97170073 1.00000000 0.48821629
0.00000000 0.00000000 0.00000000
0.00000000 0.00000000 0.00000000
0.28177303 0.00059303 0.02334589
0.51839660 0.00000000 0.04571158
0.70689826 0.00000000 0.06425590
0.84929790 0.00000000 0.05437312
0.95505504 0.02007781 0.02369141
0.99893544 0.12370976 0.03380292
1.00000000 0.21405501 0.07406855
0.00000000 0.00000000 0.00000000
0.00000000 0.00000000 0.00000000
0.28177303 0.00059303 0.02334589
0.51839660 0.00000000 0.04571158
0.70689826 0.00000000 0.06425590
0.84929790 0.00000000 0.05437312
0.95505504 0.02007781 0.02369141
0.99893544 0.12370976 0.03380292
1.00000000 0.21405501 0.07406855
0.00000000 0.23278491 0.06944621
0.00000000 0.23278491 0.06944621
0.25289595 0.24649843 0.00000000
0.52784779 0.22452459 0.00000000
0.75461109 0.18017592 0.00244503
0.91201812 0.14845633 0.02079192
0.98649612 0.19784481 0.08690090
1.00000000 0.27931396 0.16511892
1.00000000 0.33660141 0.21033460
0.00000000 0.43363859 0.15069960
0.00000000 0.43363859 0.15069960
0.12932826 0.45874986 0.01317228
0.46031711 0.45312245 0.00000000
0.73301036 0.41815215 0.00000000
0.94232776 0.36535166 0.02371114
1.00000000 0.39168447 0.20212019
1.00000000 0.44560345 0.30909800
1.00000000 0.48431332 0.36182303
0.00000000 0.60100793 0.20999853
0.00000000 0.60100793 0.20999853
0.00000000 0.62807512 0.10211759
0.32439191 0.64350069 0.00770720
0.63269997 0.62926209 0.00000000
0.90085628 0.57821681 0.00638135
1.00000000 0.56294772 0.26474954
1.00000000 0.59427826 0.42572281
1.00000000 0.62027589 0.49588490
0.00000000 0.72891355 0.23850039
0.00000000 0.72891355 0.23850039
0.00000000 0.75228239 0.18079459
0.12417925 0.78483204 0.04414211
0.46680661 0.79167788 0.01741255
0.76288290 0.76589643 0.01084607
0.99523463 0.71469251 0.18905842
1.00000000 0.71720421 0.48700444
1.00000000 0.73036434 0.59298727
0.00000000 0.82745542 0.24911707
0.00000000 0.82745542 0.24911707
0.00000000 0.84772697 0.22002046
0.00000000 0.88220414 0.14613608
0.26403367 0.91084631 0.03853835
0.57297370 0.90768910 0.03025645
0.86184191 0.87196736 0.05577801
1.00000000 0.82756669 0.43914221
1.00000000 0.82249298 0.64761016
0.00000000 0.89940660 0.24948946
0.00000000 0.89940660 0.24948946
0.00000000 0.91769970 0.23695608
0.00000000 0.94915928 0.20900189
0.11733283 0.98562149 0.14529643
0.42595156 0.99531967 0.18837310
0.66825536 0.98894600 0.16591857
0.92999486 0.94868365 0.19578358
1.00000000 0.90451880 0.60932515
0.00000000 0.95576695 0.24810074
0.00000000 0.95576695 0.24810074
0.00000000 0.97327509 0.24286381
0.03714452 1.00000000 0.24980807
0.36227620 1.00000000 0.36707178
0.55990622 1.00000000 0.47907223
0.70032501 1.00000000 0.54876081
0.81698614 1.00000000 0.54939137
0.97170073 1.00000000 0.48821629
0.00073817 0.01912703 0.16514377
0.00073817 0.01912703 0.16514377
0.28162946 0.00681752 0.22554789
0.50830742 0.00523252 0.24726744
0.69857211 0.00959700 0.25045088
0.84535560 0.01759072 0.22912666
0.95432549 0.04043897 0.18895294
0.99398102 0.15130787 0.17175297
1.00000000 0.23938091 0.17635004
0.00073817 0.01912703 0.16514377
0.00073817 0.01912703 0.16514377
0.28162946 0.00681752 0.22554789
0.50830742 0.00523252 0.24726744
0.69857211 0.00959700 0.25045088
0.84535560 0.01759072 0.22912666
0.95432549 0.04043897 0.18895294
0.99398102 0.15130787 0.17175297
1.00000000 0.23938091 0.17635004
0.00000000 0.23611359 0.22577866
0.00000000 0.23611359 0.22577866
0.24578998 0.24578998 0.24578998
0.54535821 0.20837543 0.23999604
0.77669890 0.15079657 0.22610668
0.91838789 0.14190987 0.21983228
0.97780168 0.21746587 0.23680621
0.99329964 0.29776314 0.26069075
1.00000000 0.35346124 0.27640152
0.00000000 0.42911168 0.28674921
0.00000000 0.42911168 0.28674921
0.08972306 0.46016913 0.24276290
0.46097814 0.45186073 0.21030693
0.74784110 0.40845218 0.22041516
0.93722352 0.36908397 0.24450580
0.97968766 0.41292219 0.32998671
0.99319795 0.45987831 0.38105359
1.00000000 0.49712801 0.41033627
0.00000000 0.59570945 0.32518465
0.00000000 0.59570945 0.32518465
0.02099003 0.62290265 0.28066809
0.27361857 0.65101051 0.17950350
0.63793130 0.62750262 0.15564776
0.92993672 0.56473405 0.15978554
1.00000000 0.57064618 0.37496187
1.00000000 0.60305882 0.48270727
1.00000000 0.63132657 0.53545939
0.00292253 0.72476669 0.33452577
0.00292253 0.72476669 0.33452577
0.01762210 0.74735423 0.30479699
0.14162429 0.78219040 0.23655665
0.45102730 0.79468190 0.17785449
0.76734675 0.76452501 0.15748193
0.99447739 0.71500475 0.30693028
1.00000000 0.72239814 0.53706449
1.00000000 0.74008410 0.62752682
0.00893054 0.82494392 0.32668413
0.00893054 0.82494392 0.32668413
0.02319663 0.84454355 0.31021300
0.09432128 0.87735988 0.27583628
0.26421798 0.91146886 0.19438058
0.57052540 0.90924549 0.17348758
0.86523298 0.87165938 0.18113537
1.00000000 0.82992468 0.49420330
1.00000000 0.83034870 0.68097959
0.00889304 0.89869319 0.30909282
0.00889304 0.89869319 0.30909282
0.02280309 0.91652493 0.30215086
0.08233227 0.94663096 0.29129533
0.21322315 0.98045227 0.26872403
0.45802681 0.99156736 0.29701087
0.67933141 0.98771046 0.27205802
0.93218559 0.94921121 0.27886038
1.00000000 0.90916654 0.64900447
0.00409788 0.95690175 0.29134762
0.00409788 0.95690175 0.29134762
0.00000000 0.97460692 0.28574881
0.10623016 1.00000000 0.30211831
0.39911489 1.00000000 0.41731039
0.58374337 1.00000000 0.52111899
0.71801708 1.00000000 0.58811142
0.82920842 1.00000000 0.59319085
0.97343704 1.00000000 0.54775399
0.00000000 0.06080822 0.31726828
0.00000000 0.06080822 0.31726828
0.27665030 0.02064847 0.40723841
0.51157859 0.01392095 0.41704849
0.70825368 0.01209799 0.40553306
0.85929899 0.01605973 0.37186496
0.96834195 0.04445809 0.32371079
0.99938858 0.17386790 0.29009564
1.00000000 0.26340820 0.27266703
0.00000000 0.06080822 0.31726828
0.00000000 0.06080822 0.31726828
0.27665030 0.02064847 0.40723841
0.51157859 0.01392095 0.41704849
0.70825368 0.01209799 0.40553306
0.85929899 0.01605973 0.37186496
0.96834195 0.04445809 0.32371079
0.99938858 0.17386790 0.29009564
1.00000000 0.26340820 0.27266703
0.00000000 0.24999814 0.36056244
0.00000000 0.24999814 0.36056244
0.22264237 0.24395329 0.46901729
0.53636296 0.20525215 0.46532552
0.78175647 0.14059310 0.43034346
0.92702659 0.13907862 0.38634847
0.98475938 0.22572335 0.36349101
0.99737264 0.31144684 0.35617016
1.00000000 0.37014123 0.35111430
0.00000000 0.43364952 0.41669526
0.00000000 0.43364952 0.41669526
0.07281442 0.45930279 0.44460543
0.45028250 0.45028250 0.45028250
0.71476684 0.42390442 0.44486985
0.90261048 0.39711387 0.43179070
0.97267668 0.42693301 0.44300137
0.99011818 0.47403330 0.45997565
1.00000000 0.51141236 0.46911640
0.00556781 0.59624839 0.44469503
0.00556781 0.59624839 0.44469503
0.04992602 0.62100454 0.43775035
0.31332052 0.64216877 0.42602378
0.63199551 0.62582166 0.42535754
0.88022950 0.58590256 0.43745869
0.97768315 0.58707998 0.50095941
0.99282535 0.61844144 0.55727598
1.00000000 0.64616296 0.58703167
0.03239347 0.72444654 0.44228503
0.03239347 0.72444654 0.44228503
0.07008892 0.74560488 0.43257735
0.21304469 0.77630360 0.41437775
0.49158478 0.78486472 0.41684433
0.76616158 0.76337697 0.39949603
0.98276745 0.72134972 0.45931204
1.00000000 0.73189606 0.60572963
1.00000000 0.75369198 0.67401414
0.04492181 0.82575456 0.41953402
0.04492181 0.82575456 0.41953402
0.08232813 0.84427376 0.41463269
0.18076801 0.87405708 0.40727776
0.36135368 0.90038946 0.39764956
0.60975696 0.90005543 0.40242990
0.86701941 0.87173521 0.37438927
1.00000000 0.83540102 0.57686656
1.00000000 0.84176758 0.72677521
0.04515970 0.90126907 0.38439796
0.04515970 0.90126907 0.38439796
0.07886312 0.91831298 0.38455840
0.16469471 0.94622203 0.38903751
0.31480888 0.97369775 0.40299174
0.52243736 0.98261255 0.44197074
0.71046121 0.98153942 0.43146673
0.93937066 0.95217862 0.35245142
1.00000000 0.91662883 0.70779549
0.03570419 0.96134124 0.34858150
0.03570419 0.96134124 0.34858150
0.03065889 0.97911256 0.34598171
0.18875744 1.00000000 0.37811797
0.44697807 1.00000000 0.48704900
0.61883297 1.00000000 0.58276753
0.74472042 1.00000000 0.64602960
0.84902241 1.00000000 0.65936033
0.97725110 1.00000000 0.63814430
0.00000000 0.12870455 0.40515335
0.00000000 0.12870455 0.40515335
0.23025036 0.05055846 0.58471000
0.48999001 0.03380505 0.59803928
0.70514621 0.02303140 0.57497804
0.86790996 0.02022770 0.52457902
0.98049274 0.05409093 0.46250194
1.00000000 0.20189229 0.40956154
1.00000000 0.28896615 0.37336662
0.00000000 0.12870455 0.40515335
0.00000000 0.12870455 0.40515335
0.23025036 0.05055846 0.58471000
0.48999001 0.03380505 0.59803928
0.70514621 0.02303140 0.57497804
0.86790996 0.02022770 0.52457902
0.98049274 0.05409093 0.46250194
1.00000000 0.20189229 0.40956154
1.00000000 0.28896615 0.37336662
0.00000000 0.26980857 0.46943264
0.00000000 0.26980857 0.46943264
0.17102753 0.24583990 0.65569509
0.49327098 0.21647919 0.67004771
0.76487539 0.13832223 0.64503426
0.93125869 0.13326295 0.56138761
0.99345315 0.23205497 0.49586850
1.00000000 0.32538616 0.45901100
1.00000000 0.38769126 0.43541752
0.00279470 0.43753086 0.54315987
0.00279470 0.43753086 0.54315987
0.10362821 0.45288070 0.61902828
0.43022203 0.44992841 0.64176435
0.70763940 0.42103066 0.63623964
0.91551866 0.38815983 0.59093197
0.98352184 0.42864114 0.55511352
0.99755629 0.48251033 0.54228483
1.00000000 0.52363737 0.53478606
0.00000000 0.60141670 0.57833370
0.00000000 0.60141670 0.57833370
0.00000000 0.62370457 0.60156518
0.28257545 0.64208952 0.62582246
0.62377960 0.62377960 0.62377960
0.83445186 0.60514497 0.61894698
0.96180874 0.60120558 0.61661112
0.98818506 0.63164064 0.63217752
1.00000000 0.65934032 0.64229022
0.01113201 0.72887437 0.56359656
0.01113201 0.72887437 0.56359656
0.05466787 0.74863810 0.56801303
0.23637944 0.77426803 0.57640609
0.53624406 0.77282247 0.60461956
0.76339505 0.76045758 0.60632589
0.96289442 0.73057055 0.61469414
0.99411665 0.74626897 0.68941995
1.00000000 0.76819741 0.72677366
0.05816896 0.82944763 0.52890532
0.05816896 0.82944763 0.52890532
0.11120014 0.84666595 0.53218471
0.23434051 0.87230358 0.54236651
0.46560608 0.88371438 0.57873657
0.66433722 0.88460610 0.60208653
0.86599313 0.86872076 0.59053020
1.00000000 0.84241876 0.67638468
1.00000000 0.85400880 0.77923091
0.08044475 0.90547525 0.47987850
0.08044475 0.90547525 0.47987850
0.13425280 0.92094572 0.48664879
0.24403860 0.94456367 0.50565632
0.42804868 0.96129333 0.55097890
0.59578479 0.96993450 0.59087499
0.75237036 0.97101963 0.59728017
0.93816844 0.94948283 0.57752003
1.00000000 0.92493727 0.77706638
0.07811909 0.96679532 0.42753178
0.07811909 0.96679532 0.42753178
0.08408309 0.98400939 0.42923843
0.27365393 0.99985131 0.47592413
0.49874640 1.00000000 0.57210607
0.65747394 1.00000000 0.65681711
0.77673693 1.00000000 0.71719376
0.87333436 1.00000000 0.73891769
0.98330092 1.00000000 0.73775441
0.00000000 0.18935631 0.43465260
0.00000000 0.18935631 0.43465260
0.10115403 0.11995115 0.70835675
0.41894327 0.07158734 0.77856857
0.66457462 0.04666223 0.75979697
0.85374848 0.03312770 0.69385014
0.98060408 0.06482357 0.61073699
1.00000000 0.22202634 0.52873196
1.00000000 0.30859648 0.47422149
0.00000000 0.18935631 0.43465260
0.00000000 0.18935631 0.43465260
0.10115403 0.11995115 0.70835675
0.41894327 0.07158734 0.77856857
0.66457462 0.04666223 0.75979697
0.85374848 0.03312770 0.69385014
0.98060408 0.06482357 0.61073699
1.00000000 0.22202634 0.52873196
1.00000000 0.30859648 0.47422149
0.00000000 0.29486889 0.53520264
0.00000000 0.29486889 0.53520264
0.07683056 0.27592127 0.74294022
0.41156128 0.24334188 0.83300223
0.69879321 0.17172690 0.84730156
0.90626401 0.14254521 0.75228405
0.99366493 0.23502344 0.63922019
1.00000000 0.33786095 0.56669905
1.00000000 0.40216503 0.52379348
0.01980784 0.44178502 0.64444571
0.01980784 0.44178502 0.64444571
0.10317898 0.45150346 0.74479136
0.38888775 0.45507260 0.78941283
0.65376991 0.43530646 0.80878352
0.89583694 0.38803768 0.77292069
0.98882866 0.42674440 0.68160377
1.00000000 0.48820558 0.63144944
1.00000000 0.53351286 0.60574939
0.00927377 0.59571814 0.70657360
0.00927377 0.59571814 0.70657360
0.06469571 0.61282284 0.75405891
0.33387463 0.62563895 0.79071867
0.60661032 0.62438467 0.77342638
0.83011522 0.60244746 0.76707988
0.97175028 0.59820570 0.72663029
0.99607226 0.63575012 0.70461205
1.00000000 0.66730791 0.69777831
0.00000000 0.73094508 0.70294176
0.00000000 0.73094508 0.70294176
0.00000000 0.74997360 0.72241135
0.15769355 0.77542999 0.75045874
0.51479879 0.77341694 0.75948917
0.75827205 0.75827205 0.75827205
0.92541178 0.74440783 0.75416595
0.98623686 0.75629667 0.76289652
1.00000000 0.77840394 0.77581561
0.00278542 0.83347410 0.65429479
0.00278542 0.83347410 0.65429479
0.04498039 0.85058324 0.66306962
0.19627465 0.87545326 0.67971722
0.47091541 0.88251350 0.71035436
0.69594506 0.87467392 0.74290946
0.86647483 0.86525138 0.74539085
0.99248565 0.84982914 0.77804878
1.00000000 0.86491665 0.83089177
0.06938543 0.90948024 0.59093505
0.06938543 0.90948024 0.59093505
0.12932799 0.92441653 0.60004714
0.25469678 0.94620214 0.62192928
0.47573664 0.95530027 0.67216881
0.65783624 0.95621905 0.72291645
0.79438144 0.95766609 0.74440925
0.94061438 0.94566780 0.73538543
1.00000000 0.93208744 0.84298403
0.10780385 0.97069562 0.52526594
0.10780385 0.97069562 0.52526594
0.11965931 0.98728901 0.53049797
0.32275223 0.99903280 0.57888762
0.53523968 1.00000000 0.66026117
0.68786157 1.00000000 0.73267625
0.80328577 1.00000000 0.78707853
0.89481326 1.00000000 0.81357275
0.99019684 1.00000000 0.82581802
0.00000000 0.23424074 0.44880290
0.00000000 0.23424074 0.44880290
0.00000000 0.23914060 0.63773007
0.27409893 0.15659077 0.90676772
0.56454441 0.11899340 0.93575347
0.79707315 0.06736756 0.88153507
0.96191797 0.06756507 0.77967728
1.00000000 0.22627488 0.65509064
1.00000000 0.31937202 0.57622576
0.00000000 0.23424074 0.44880290
0.00000000 0.23424074 0.44880290
0.00000000 0.23914060 0.63773007
0.27409893 0.15659077 0.90676772
0.56454441 0.11899340 0.93575347
0.79707315 0.06736756 0.88153507
0.96191797 0.06756507 0.77967728
1.00000000 0.22627488 0.65509064
1.00000000 0.31937202 0.57622576
0.00000000 0.32190850 0.56621402
0.00000000 0.32190850 0.56621402
0.00044749 0.32692391 0.72982957
0.28101713 0.30251811 0.91120056
0.56731287 0.28039470 0.94631275
0.82440273 0.20619535 0.93083102
0.98079342 0.22596383 0.80725639
1.00000000 0.34138558 0.68217232
1.00000000 0.41070336 0.61474439
0.01874250 0.45050571 0.71139883
0.01874250 0.45050571 0.71139883
0.06521261 0.46094491 0.81590145
0.31049869 0.46820616 0.90475001
0.56768575 0.46527469 0.92785769
0.81633526 0.42317597 0.92947045
0.97827755 0.42259488 0.83077740
1.00000000 0.49091894 0.72931605
1.00000000 0.54015353 0.68022524
0.04929731 0.59059965 0.80903509
0.04929731 0.59059965 0.80903509
0.11474552 0.60481611 0.86633952
0.34050526 0.62055225 0.89905534
0.57121799 0.63043169 0.89047469
0.78223983 0.61432590 0.90473565
0.96377899 0.59577249 0.85768867
1.00000000 0.63693837 0.78524455
1.00000000 0.67280064 0.75625040
0.00387808 0.71894564 0.83599475
0.00387808 0.71894564 0.83599475
0.04678170 0.73550032 0.86891936
0.24438817 0.75630197 0.90798361
0.54501913 0.76049455 0.88932346
0.74391924 0.75919105 0.87562329
0.92287377 0.74201912 0.86956938
0.99456404 0.75663650 0.83265241
1.00000000 0.78345510 0.82275220
0.00000000 0.83167939 0.79979108
0.00000000 0.83167939 0.79979108
0.00000000 0.84864946 0.81689322
0.09661719 0.87387614 0.84347503
0.38664977 0.88858966 0.86408098
0.67931743 0.87548612 0.86393903
0.86322055 0.86322055 0.86322055
0.97740416 0.85697913 0.86283920
1.00000000 0.87288574 0.87568620
0.00000000 0.91142591 0.72088568
0.00000000 0.91142591 0.72088568
0.03359682 0.92705723 0.73166499
0.17869297 0.95028662 0.75225135
0.39898776 0.96621244 0.78157672
0.65973809 0.95571282 0.82217553
0.82000131 0.94908073 0.85158830
0.94253172 0.94228261 0.85409726
1.00000000 0.93839929 0.90067499
0.11333907 0.97173345 0.64107715
0.11333907 0.97173345 0.64107715
0.12157057 0.98814118 0.64879202
0.32613667 0.99974849 0.68708222
0.54447192 1.00000000 0.74973628
0.70390765 1.00000000 0.80831074
0.82277135 1.00000000 0.85481356
0.91185325 1.00000000 0.88107584
0.99642328 1.00000000 0.90032116
0.00000000 0.26538076 0.45972575
0.00000000 0.26538076 0.45972575
0.00000000 0.29383172 0.57093219
0.03980554 0.28792773 0.85438499
0.38631545 0.26821060 0.97895743
0.65127038 0.23249989 0.98978467
0.88638430 0.13088602 0.95728247
0.99901172 0.20359210 0.81020553
1.00000000 0.31596401 0.68651120
0.00000000 0.26538076 0.45972575
0.00000000 0.26538076 0.45972575
0.00000000 0.29383172 0.57093219
0.03980554 0.28792773 0.85438499
0.38631545 0.26821060 0.97895743
0.65127038 0.23249989 0.98978467
0.88638430 0.13088602 0.95728247
0.99901172 0.20359210 0.81020553
1.00000000 0.31596401 0.68651120
0.00000000 0.34507353 0.57844690
0.00000000 0.34507353 0.57844690
0.00000000 0.36583397 0.69172544
0.09838997 0.36864258 0.90852343
0.41012513 0.37344242 0.97484806
0.66296979 0.34899240 0.98857111
0.89761073 0.27741911 0.96781390
1.00000000 0.32900705 0.82342447
1.00000000 0.40912525 0.71351038
0.00798272 0.46262133 0.74473734
0.00798272 0.46262133 0.74473734
0.02094501 0.47789853 0.83698627
0.21266621 0.49523110 0.94110453
0.45976129 0.51083222 0.96615135
0.68335025 0.49899710 0.98137592
0.90173813 0.45617150 0.96798045
0.99982185 0.48565226 0.84776153
1.00000000 0.54036245 0.76112239
0.05030473 0.59024430 0.87888035
0.05030473 0.59024430 0.87888035
0.09669159 0.60460907 0.93996773
0.31869679 0.62579267 0.95831550
0.52005134 0.64483703 0.95785112
0.70380362 0.64482804 0.97216397
0.89686421 0.62038401 0.96942349
0.99750065 0.63471913 0.88170202
1.00000000 0.67432595 0.81921686
0.06759994 0.70714857 0.94087413
0.06759994 0.70714857 0.94087413
0.15888194 0.72119389 0.96956764
0.36422614 0.73941627 0.97241862
0.55689520 0.75671067 0.96069028
0.71507512 0.76493606 0.96293652
0.87720040 0.75521666 0.96643482
0.99263008 0.75547075 0.91570913
1.00000000 0.78566198 0.87265811
0.00983076 0.81399385 0.93597081
0.00983076 0.81399385 0.93597081
0.08076958 0.82885218 0.95792354
0.27956390 0.84804195 0.97799104
0.50661418 0.86101205 0.97800573
0.70323249 0.86457418 0.96203755
0.85204837 0.86415822 0.95005520
0.97777819 0.85565894 0.93974093
1.00000000 0.87525251 0.91677738
0.00000000 0.90551345 0.87077672
0.00000000 0.90551345 0.87077672
0.00000000 0.92104364 0.88628590
0.10101664 0.94427417 0.91048418
0.33698261 0.96380783 0.93375744
0.60564093 0.96106975 0.94061691
0.80764283 0.94988245 0.94097443
0.94059311 0.94059311 0.94059311
1.00000000 0.94333191 0.94623550
0.05834728 0.96960109 0.77384975
0.05834728 0.96960109 0.77384975
0.05525765 0.98598513 0.78470816
0.26378343 1.00000000 0.81021840
0.51489406 1.00000000 0.84940144
0.69310829 1.00000000 0.88699204
0.82553534 1.00000000 0.91876122
0.92222584 1.00000000 0.94073935
1.00000000 1.00000000 0.95947892
0.00000000 0.28874047 0.47294650
0.00000000 0.28874047 0.47294650
0.00000000 0.32216470 0.55376821
0.00000000 0.36196024 0.73880555
0.15401738 0.35660634 0.98891174
0.46298246 0.35928063 1.00000000
0.71097765 0.31565799 1.00000000
0.93680843 0.21250965 0.99121652
1.00000000 0.30157511 0.82377945
0.00000000 0.28874047 0.47294650
0.00000000 0.28874047 0.47294650
0.00000000 0.32216470 0.55376821
0.00000000 0.36196024 0.73880555
0.15401738 0.35660634 0.98891174
0.46298246 0.35928063 1.00000000
0.71097765 0.31565799 1.00000000
0.93680843 0.21250965 0.99121652
1.00000000 0.30157511 0.82377945
0.00000000 0.36437146 0.58851715
0.00000000 0.36437146 0.58851715
0.00000000 0.39112302 0.67445251
0.00000000 0.42157581 0.84642658
0.22308812 0.43373754 0.99912047
0.49482079 0.43980846 1.00000000
0.72870161 0.40716956 1.00000000
0.94374544 0.33702175 0.98984462
1.00000000 0.40049080 0.83615942
0.00000000 0.47618483 0.76126527
0.00000000 0.47618483 0.76126527
0.00000000 0.49576477 0.84059067
0.04470819 0.52084223 0.96695857
0.33528027 0.54731671 1.00000000
0.55293327 0.55602686 1.00000000
0.75858630 0.53642126 1.00000000
0.95247700 0.49301949 0.98884963
1.00000000 0.53650193 0.86098424
0.01311657 0.59543397 0.92224467
0.01311657 0.59543397 0.92224467
0.04049808 0.61151024 0.97893307
0.26378159 0.63759647 0.99704536
0.45435743 0.66371500 0.99890073
0.62199941 0.67614756 1.00000000
0.79097810 0.66865214 1.00000000
0.95778883 0.64294591 0.99288246
1.00000000 0.67317487 0.89589329
0.14177605 0.70097099 0.99712405
0.14177605 0.70097099 0.99712405
0.25247296 0.71466687 1.00000000
0.39914224 0.73739110 1.00000000
0.54650827 0.76175844 0.99920918
0.68117090 0.77773266 1.00000000
0.81547591 0.77997555 1.00000000
0.95482918 0.76631679 0.99915251
1.00000000 0.78598082 0.93197770
0.24977160 0.79227841 1.00000000
0.24977160 0.79227841 1.00000000
0.33769661 0.80390328 1.00000000
0.46420784 0.82337411 1.00000000
0.59929492 0.84497706 1.00000000
0.72275908 0.86139301 1.00000000
0.83391615 0.87021050 1.00000000
0.94550919 0.86617326 1.00000000
1.00000000 0.87641234 0.96442208
0.13650379 0.88041603 0.99932544
0.13650379 0.88041603 0.99932544
0.23849064 0.89153520 1.00000000
0.39886526 0.90732413 1.00000000
0.56805850 0.92279069 1.00000000
0.71363328 0.93386803 1.00000000
0.83558413 0.94049098 1.00000000
0.93316670 0.94205618 1.00000000
1.00000000 0.94492437 0.98814406
0.00000000 0.96254819 0.92584904
0.00000000 0.96254819 0.92584904
0.00000000 0.97850745 0.94136994
0.12348799 0.99945196 0.96326367
0.46612970 1.00000000 0.97447730
0.67053738 1.00000000 0.98346135
0.81596754 1.00000000 0.99152663
0.92226053 1.00000000 0.99722478
1.00000000 1.00000000 1.00000000
