Luts Download/Canon Luts/3dlut/33grid-3dlut/full-to-full-range/BT2020_CanonLog2-to-BT2020_709WideDR_33_FF_Ver.2.0.cube
# Gamut : BT.2020 to BT.2020
# Gamma : Canon Log 2 to Wide DR
# Range : Full in / Full out
# Version : 2.0 2019/10/24
# Copyright(c) 2019 Canon Inc. All Rights Reserved.
LUT_3D_SIZE 33
# LUT_3D_INPUT_RANGE 0.0 1.0
0.00000000 0.00000000 0.00000000
0.00000000 0.00000000 0.00000000
0.00000000 0.00000000 0.00000000
0.00044378 0.00044378 0.00044378
0.01410376 0.00225547 0.00222986
0.03480425 0.00319791 0.00308778
0.06309746 0.00370140 0.00342351
0.09839493 0.00403698 0.00344335
0.13769223 0.00458327 0.00348092
0.18098854 0.00542123 0.00356837
0.22900914 0.00671378 0.00378675
0.28262596 0.00836085 0.00397886
0.34223008 0.01045867 0.00411763
0.40790346 0.01331842 0.00425964
0.47816564 0.01751119 0.00440308
0.54348469 0.02372712 0.00380110
0.60377678 0.03285423 0.00281806
0.65958461 0.04554381 0.00189923
0.71074662 0.06192697 0.00127560
0.75687863 0.08167072 0.00103979
0.79758835 0.10261368 0.00122896
0.83265436 0.12278245 0.00186334
0.86229608 0.14170631 0.00285049
0.88769614 0.15836762 0.00355656
0.90996840 0.17365123 0.00439382
0.93059327 0.18953785 0.00662231
0.95119459 0.20963084 0.01307727
0.97156078 0.24170744 0.03184793
0.98294485 0.30258607 0.09064097
0.99123275 0.38390998 0.17898867
1.00000000 0.48088120 0.28546030
1.00000000 0.59077170 0.41046596
1.00000000 0.70825372 0.54068946
0.00000000 0.00000000 0.00000000
0.00000000 0.00000000 0.00000000
0.00000000 0.00000000 0.00000000
0.00044378 0.00044378 0.00044378
0.01410376 0.00225547 0.00222986
0.03480425 0.00319791 0.00308778
0.06309746 0.00370140 0.00342351
0.09839493 0.00403698 0.00344335
0.13769223 0.00458327 0.00348092
0.18098854 0.00542123 0.00356837
0.22900914 0.00671378 0.00378675
0.28262596 0.00836085 0.00397886
0.34223008 0.01045867 0.00411763
0.40790346 0.01331842 0.00425964
0.47816564 0.01751119 0.00440308
0.54348469 0.02372712 0.00380110
0.60377678 0.03285423 0.00281806
0.65958461 0.04554381 0.00189923
0.71074662 0.06192697 0.00127560
0.75687863 0.08167072 0.00103979
0.79758835 0.10261368 0.00122896
0.83265436 0.12278245 0.00186334
0.86229608 0.14170631 0.00285049
0.88769614 0.15836762 0.00355656
0.90996840 0.17365123 0.00439382
0.93059327 0.18953785 0.00662231
0.95119459 0.20963084 0.01307727
0.97156078 0.24170744 0.03184793
0.98294485 0.30258607 0.09064097
0.99123275 0.38390998 0.17898867
1.00000000 0.48088120 0.28546030
1.00000000 0.59077170 0.41046596
1.00000000 0.70825372 0.54068946
0.00000000 0.00000000 0.00000000
0.00000000 0.00000000 0.00000000
0.00000000 0.00000000 0.00000000
0.00044378 0.00044378 0.00044378
0.01410376 0.00225547 0.00222986
0.03480425 0.00319791 0.00308778
0.06309746 0.00370140 0.00342351
0.09839493 0.00403698 0.00344335
0.13769223 0.00458327 0.00348092
0.18098854 0.00542123 0.00356837
0.22900914 0.00671378 0.00378675
0.28262596 0.00836085 0.00397886
0.34223008 0.01045867 0.00411763
0.40790346 0.01331842 0.00425964
0.47816564 0.01751119 0.00440308
0.54348469 0.02372712 0.00380110
0.60377678 0.03285423 0.00281806
0.65958461 0.04554381 0.00189923
0.71074662 0.06192697 0.00127560
0.75687863 0.08167072 0.00103979
0.79758835 0.10261368 0.00122896
0.83265436 0.12278245 0.00186334
0.86229608 0.14170631 0.00285049
0.88769614 0.15836762 0.00355656
0.90996840 0.17365123 0.00439382
0.93059327 0.18953785 0.00662231
0.95119459 0.20963084 0.01307727
0.97156078 0.24170744 0.03184793
0.98294485 0.30258607 0.09064097
0.99123275 0.38390998 0.17898867
1.00000000 0.48088120 0.28546030
1.00000000 0.59077170 0.41046596
1.00000000 0.70825372 0.54068946
0.00044378 0.00044378 0.00044378
0.00044378 0.00044378 0.00044378
0.00044378 0.00044378 0.00044378
0.00044378 0.00044378 0.00044378
0.01410376 0.00225547 0.00222986
0.03512116 0.00333668 0.00314932
0.06344925 0.00389203 0.00343919
0.09872832 0.00427939 0.00344046
0.13794882 0.00486986 0.00347040
0.18117600 0.00573815 0.00355148
0.22915943 0.00704666 0.00376155
0.28275254 0.00870120 0.00394659
0.34233948 0.01080186 0.00408125
0.40799908 0.01366267 0.00422323
0.47824863 0.01785843 0.00437292
0.54355770 0.02407789 0.00378690
0.60384607 0.03319962 0.00281950
0.65965489 0.04587501 0.00191315
0.71082080 0.06223755 0.00129866
0.75695790 0.08194593 0.00106946
0.79767185 0.10283895 0.00126471
0.83273878 0.12297596 0.00190756
0.86237832 0.14188171 0.00290556
0.88777569 0.15853047 0.00362166
0.91005226 0.17379259 0.00445813
0.93067716 0.18966754 0.00668997
0.95127170 0.20975917 0.01315682
0.97161770 0.24184846 0.03196075
0.98295681 0.30275283 0.09083216
0.99123389 0.38405044 0.17914408
1.00000000 0.48099230 0.28558879
1.00000000 0.59085992 0.41057597
1.00000000 0.70832651 0.54078744
0.00449904 0.01616449 0.00439234
0.00449904 0.01616449 0.00439234
0.00449904 0.01616449 0.00439234
0.00449904 0.01616449 0.00439234
0.01834099 0.01838202 0.00390974
0.03998376 0.01941885 0.00365315
0.06844323 0.01992326 0.00379379
0.10320884 0.02025371 0.00391845
0.14178927 0.02069343 0.00383441
0.18462846 0.02131475 0.00366927
0.23246295 0.02219655 0.00351243
0.28588000 0.02342543 0.00340673
0.34526316 0.02513458 0.00337079
0.41074004 0.02760395 0.00344377
0.48080845 0.03146125 0.00369282
0.54598556 0.03736271 0.00353480
0.60621728 0.04610462 0.00310034
0.66207486 0.05822104 0.00265867
0.71338004 0.07383139 0.00238742
0.75966991 0.09235412 0.00243620
0.80050635 0.11145960 0.00288411
0.83565536 0.13029749 0.00376580
0.86530880 0.14833317 0.00502755
0.89086169 0.16406601 0.00575933
0.91323361 0.17868047 0.00662829
0.93379678 0.19424425 0.00905390
0.95400690 0.21450137 0.01613980
0.97339134 0.24734028 0.03651009
0.98320101 0.30894755 0.09795590
0.99112978 0.38923251 0.18492922
1.00000000 0.48509815 0.29039313
1.00000000 0.59412831 0.41470638
1.00000000 0.71103113 0.54448230
0.00678248 0.03796480 0.00634459
0.00678248 0.03796480 0.00634459
0.00678248 0.03796480 0.00634459
0.00694127 0.03828275 0.00643435
0.02042551 0.04086646 0.00474729
0.04195115 0.04205795 0.00345069
0.07153657 0.04210472 0.00291072
0.10669385 0.04194470 0.00338727
0.14613534 0.04143640 0.00239598
0.18703476 0.04282788 0.00374866
0.23455772 0.04359526 0.00357082
0.28779828 0.04461926 0.00336875
0.34710738 0.04600939 0.00321881
0.41259293 0.04802054 0.00319213
0.48277074 0.05120308 0.00339601
0.54817389 0.05615535 0.00350357
0.60873464 0.06366829 0.00341863
0.66496026 0.07439871 0.00331646
0.71658572 0.08850957 0.00339794
0.76311580 0.10464912 0.00381806
0.80414093 0.12173392 0.00460968
0.83935014 0.13919866 0.00590494
0.86899042 0.15628832 0.00758916
0.89461367 0.17116703 0.00854258
0.91701405 0.18515416 0.00960718
0.93742011 0.20045425 0.01241791
0.95697663 0.22114064 0.02056965
0.97435916 0.25589297 0.04422378
0.98325607 0.31690900 0.10702940
0.99101402 0.39568098 0.19210793
1.00000000 0.49019454 0.29634284
1.00000000 0.59819292 0.41982316
1.00000000 0.71439932 0.54905441
0.00796706 0.06687995 0.00695567
0.00796706 0.06687995 0.00695567
0.00796706 0.06687995 0.00695567
0.00811817 0.06726509 0.00693537
0.02142186 0.06983065 0.00503002
0.04222417 0.07127866 0.00377000
0.07136351 0.07159212 0.00262420
0.10760039 0.07096832 0.00220858
0.14611461 0.07081109 0.00268620
0.18832474 0.07122743 0.00305075
0.23567491 0.07190982 0.00303000
0.28884463 0.07278232 0.00285143
0.34817491 0.07389730 0.00268441
0.41378938 0.07542514 0.00261801
0.48426530 0.07772770 0.00277346
0.55021096 0.08115561 0.00309877
0.61143681 0.08658637 0.00332414
0.66834288 0.09459864 0.00353718
0.72064104 0.10520553 0.00386756
0.76774219 0.11815731 0.00453802
0.80905920 0.13301265 0.00578903
0.84423862 0.14921684 0.00782319
0.87373389 0.16551303 0.01028001
0.89923671 0.17979304 0.01185023
0.92155265 0.19325262 0.01337514
0.94165477 0.20841072 0.01686834
0.96031972 0.22970261 0.02653647
0.97508956 0.26681976 0.05467553
0.98317939 0.32671636 0.11805095
0.99082734 0.40359769 0.20090872
1.00000000 0.49647992 0.30369600
1.00000000 0.60322346 0.42617448
1.00000000 0.71858021 0.55474908
0.00857163 0.10227413 0.00666829
0.00857163 0.10227413 0.00666829
0.00857163 0.10227413 0.00666829
0.00874238 0.10262593 0.00659860
0.02199590 0.10478402 0.00492114
0.04228658 0.10614864 0.00407546
0.07040366 0.10677417 0.00326917
0.10615622 0.10659157 0.00241953
0.14512369 0.10641932 0.00219491
0.18772482 0.10664569 0.00235220
0.23517481 0.10721878 0.00239071
0.28841880 0.10794184 0.00224186
0.34792443 0.10872609 0.00205007
0.41383684 0.10963981 0.00195066
0.48483006 0.11073330 0.00203989
0.55165664 0.11190937 0.00256957
0.61394150 0.11416272 0.00308418
0.67197417 0.11836775 0.00353079
0.72534145 0.12501549 0.00405639
0.77341424 0.13420084 0.00486977
0.81558211 0.14572967 0.00621670
0.85100755 0.16005078 0.00892827
0.87998953 0.17609854 0.01289579
0.90510515 0.19011810 0.01565127
0.92713820 0.20326283 0.01807406
0.94669608 0.21850855 0.02273070
0.96407561 0.24073884 0.03466540
0.97580308 0.28026970 0.06839566
0.98303665 0.33870854 0.13132861
0.99054974 0.41336881 0.21176788
1.00000000 0.50430283 0.31288486
1.00000000 0.60952428 0.43417706
1.00000000 0.72383456 0.56195519
0.00929740 0.14155580 0.00621610
0.00929740 0.14155580 0.00621610
0.00929740 0.14155580 0.00621610
0.00949997 0.14181976 0.00613092
0.02284434 0.14345677 0.00467923
0.04304248 0.14452901 0.00415943
0.07078784 0.14510221 0.00374738
0.10593985 0.14513518 0.00315702
0.14454442 0.14519773 0.00286106
0.18704369 0.14549521 0.00282624
0.23440686 0.14608897 0.00282227
0.28757238 0.14683077 0.00268588
0.34711984 0.14754720 0.00249458
0.41325866 0.14814913 0.00235091
0.48478204 0.14844046 0.00235971
0.55269438 0.14784826 0.00312506
0.61628900 0.14748327 0.00405153
0.67564548 0.14844635 0.00497327
0.73037533 0.15128766 0.00582057
0.77983429 0.15632635 0.00672124
0.82332535 0.16376142 0.00798277
0.86005589 0.17412659 0.01037046
0.88881092 0.18911478 0.01581747
0.91313355 0.20329407 0.02060439
0.93443967 0.21660698 0.02478150
0.95293933 0.23244202 0.03156205
0.96814393 0.25640656 0.04742261
0.97661691 0.29777699 0.08772649
0.98302554 0.35414143 0.14821884
0.99034174 0.42610201 0.22593340
1.00000000 0.51464169 0.32508581
1.00000000 0.61790525 0.44486073
1.00000000 0.73085181 0.57160143
0.01031258 0.18502649 0.00579247
0.01031258 0.18502649 0.00579247
0.01031258 0.18502649 0.00579247
0.01054678 0.18521263 0.00570522
0.02404588 0.18645989 0.00445217
0.04441223 0.18727348 0.00422264
0.07218080 0.18771500 0.00411856
0.10701450 0.18776223 0.00384240
0.14521214 0.18788895 0.00375978
0.18736995 0.18825038 0.00385543
0.23438086 0.18887400 0.00396551
0.28722036 0.18967547 0.00392945
0.34660212 0.19042098 0.00375237
0.41281573 0.19090921 0.00357641
0.48476999 0.19075285 0.00356260
0.55385804 0.18883264 0.00466623
0.62016373 0.18482169 0.00452502
0.68076441 0.18333337 0.00667024
0.73725943 0.18247079 0.00793334
0.78913542 0.18232052 0.00814039
0.83585413 0.18289111 0.00731462
0.87046532 0.19498714 0.01451406
0.90137837 0.20479820 0.01866052
0.92425191 0.21980773 0.02685596
0.94394837 0.23428072 0.03445629
0.96023080 0.25192581 0.04550576
0.97095818 0.27985037 0.06965701
0.97745612 0.32042309 0.11261634
0.98320511 0.37392553 0.16969893
0.99018476 0.44270135 0.24448639
1.00000000 0.52830728 0.34134128
1.00000000 0.62906631 0.45918441
1.00000000 0.74024293 0.58458068
0.01175563 0.23344813 0.00551598
0.01175563 0.23344813 0.00551598
0.01175563 0.23344813 0.00551598
0.01201600 0.23358808 0.00542952
0.02573517 0.23454400 0.00439118
0.04636727 0.23516090 0.00439774
0.07439374 0.23547531 0.00457691
0.10902534 0.23548143 0.00457947
0.14689997 0.23557586 0.00475728
0.18872086 0.23590266 0.00505391
0.23538491 0.23650132 0.00537753
0.28779279 0.23727199 0.00555971
0.34681600 0.23802769 0.00552431
0.41291914 0.23846669 0.00536844
0.48519795 0.23801718 0.00534647
0.55564618 0.23498515 0.00676271
0.62357751 0.22953465 0.00742848
0.68527198 0.22648835 0.01191109
0.74258785 0.22410035 0.01577106
0.79508328 0.22247465 0.01853151
0.84228116 0.22162631 0.02002676
0.88386791 0.22152235 0.02028956
0.91989341 0.22210191 0.01946228
0.95097907 0.22328768 0.01772488
0.95668228 0.25646677 0.04754534
0.96791734 0.27897216 0.06815523
0.97447221 0.30921153 0.10041110
0.97907571 0.34825188 0.14222374
0.98379187 0.39876204 0.19653978
0.99007127 0.46403943 0.26853464
1.00000000 0.54610758 0.36273817
1.00000000 0.64375251 0.47820857
1.00000000 0.75267898 0.60190412
0.01359291 0.28747284 0.00532633
0.01359291 0.28747284 0.00532633
0.01359291 0.28747284 0.00532633
0.01387278 0.28758181 0.00524288
0.02785745 0.28832287 0.00443115
0.04878114 0.28880298 0.00463488
0.07719252 0.28901869 0.00508970
0.11168770 0.28896928 0.00542190
0.14930080 0.28901377 0.00591142
0.19080354 0.28927137 0.00646636
0.23711217 0.28979575 0.00700612
0.28915690 0.29052657 0.00743582
0.34776270 0.29121842 0.00759526
0.41362486 0.29160141 0.00752881
0.48614222 0.29093708 0.00748287
0.55824872 0.28686801 0.00886567
0.62720010 0.28095234 0.01222623
0.69247907 0.27422521 0.01602738
0.75111860 0.26992395 0.02319500
0.80453318 0.26656309 0.02949858
0.85237392 0.26414826 0.03440026
0.89442273 0.26262771 0.03770399
0.93078785 0.26192972 0.03943891
0.96211560 0.26198054 0.03974922
0.97020955 0.28792123 0.07012001
0.97681020 0.31325103 0.10048634
0.97973552 0.34412018 0.13562437
0.98182107 0.38175763 0.17715798
0.98481858 0.42942677 0.22976504
0.98999337 0.49092280 0.29921894
0.99950857 0.56884538 0.39044704
1.00000000 0.66270178 0.50302470
1.00000000 0.76884488 0.62461326
0.01565610 0.34755179 0.00504259
0.01565610 0.34755179 0.00504259
0.01565610 0.34755179 0.00504259
0.01595591 0.34763702 0.00496607
0.03022296 0.34822830 0.00438744
0.05153273 0.34859541 0.00485016
0.08042931 0.34874119 0.00562669
0.11477286 0.34865401 0.00635272
0.15215108 0.34865485 0.00724222
0.19333767 0.34885974 0.00816011
0.23924332 0.34931637 0.00900707
0.29084502 0.34999862 0.00969680
0.34906127 0.35071767 0.01010781
0.41457681 0.35106114 0.01013816
0.48723905 0.35027033 0.00996650
0.56123071 0.34534840 0.01068684
0.63321100 0.33756100 0.01396122
0.70270227 0.32741216 0.01671866
0.76373405 0.32044242 0.02751435
0.81877613 0.31472820 0.03835581
0.86767585 0.31030923 0.04803687
0.91040700 0.30709291 0.05587751
0.94721117 0.30495887 0.06161910
0.97880960 0.30379711 0.06527375
0.97823436 0.33552363 0.11368870
0.98274744 0.35928854 0.14502298
0.98379363 0.38795997 0.17976087
0.98424822 0.42272127 0.22012881
0.98585913 0.46677339 0.27080368
0.99000094 0.52391699 0.33753161
0.99881500 0.59712227 0.42545977
1.00000000 0.68664780 0.53475832
1.00000000 0.78940538 0.65378641
0.01813518 0.41385760 0.00473656
0.01813518 0.41385760 0.00473656
0.01813518 0.41385760 0.00473656
0.01845505 0.41392579 0.00466964
0.03304195 0.41444704 0.00429699
0.05473844 0.41473537 0.00504151
0.08405836 0.41483616 0.00616208
0.11812218 0.41473686 0.00730813
0.15523671 0.41471314 0.00868169
0.19605339 0.41489552 0.01007824
0.24148065 0.41532272 0.01137047
0.29252123 0.41597299 0.01247765
0.35016082 0.41673183 0.01323300
0.41527257 0.41725432 0.01352442
0.48784343 0.41651952 0.01322390
0.56356647 0.41118835 0.01269173
0.63913161 0.40182263 0.01457370
0.71151134 0.39030901 0.02029280
0.78021361 0.37694050 0.02554602
0.83845175 0.36773643 0.04108550
0.88946727 0.36036845 0.05667969
0.93352098 0.35476288 0.07075156
0.97111787 0.35072349 0.08238370
0.97775404 0.37358491 0.13200602
0.98552211 0.39175510 0.16458952
0.98766621 0.41375553 0.19757575
0.98743958 0.43933448 0.23187973
0.98687595 0.47053009 0.27100516
0.98744919 0.51051580 0.31974813
0.99055109 0.56303701 0.38383079
0.99861676 0.63117998 0.46830356
1.00000000 0.71600544 0.57408722
1.00000000 0.81481455 0.69013139
0.02152570 0.48508652 0.00428658
0.02152570 0.48508652 0.00428658
0.02152570 0.48508652 0.00428658
0.02186536 0.48514236 0.00423247
0.03675778 0.48567015 0.00410753
0.05873443 0.48591855 0.00518317
0.08814946 0.48600330 0.00667882
0.12156172 0.48593561 0.00824618
0.15811257 0.48593449 0.01012864
0.19831857 0.48613952 0.01211122
0.24307611 0.48658615 0.01406623
0.29330291 0.48731836 0.01577359
0.35003959 0.48823168 0.01707084
0.41429760 0.48904936 0.01781929
0.48646029 0.48885708 0.01773054
0.56317152 0.48383520 0.01593457
0.64203681 0.47381793 0.01535886
0.71972181 0.46003342 0.01864856
0.79262624 0.44456145 0.02737239
0.86129465 0.42697825 0.03374090
0.91670524 0.41506772 0.05472203
0.96369426 0.40569861 0.07586464
0.97847794 0.42083576 0.13774258
0.98978066 0.43522010 0.18028666
0.99367095 0.45309187 0.21906276
0.99392330 0.47286939 0.25437977
0.99265471 0.49539338 0.28912902
0.99118896 0.52304237 0.32759945
0.99075244 0.55905455 0.37490188
0.99267374 0.60713020 0.43682661
0.99978236 0.67031385 0.51814454
1.00000000 0.75014026 0.62025315
1.00000000 0.84475369 0.73322888
0.02757358 0.55188474 0.00325374
0.02757358 0.55188474 0.00325374
0.02757358 0.55188474 0.00325374
0.02792323 0.55193307 0.00321702
0.04289714 0.55250197 0.00348933
0.06446638 0.55278048 0.00497637
0.09283062 0.55294230 0.00690478
0.12446580 0.55300936 0.00897399
0.15937539 0.55320393 0.01145597
0.19806857 0.55359576 0.01426763
0.24120204 0.55434329 0.01714036
0.28966975 0.55549129 0.01988732
0.34447698 0.55699610 0.02224856
0.40671736 0.55864553 0.02399299
0.47706170 0.55963451 0.02462986
0.55326350 0.55631878 0.02231288
0.63366606 0.54742130 0.01918491
0.71570253 0.53334697 0.01850168
0.79536570 0.51547307 0.02326186
0.86824873 0.49645230 0.03618689
0.93868996 0.47328941 0.03864296
0.97257280 0.47367863 0.10854862
0.99198213 0.48170345 0.17002599
0.99908871 0.49596419 0.22422240
1.00000000 0.51218921 0.26930115
0.99929040 0.52959733 0.30795993
0.99713042 0.54938354 0.34426184
0.99488074 0.57399642 0.38310668
0.99344609 0.60662482 0.42992753
0.99434169 0.65072230 0.49029079
1.00000000 0.70943608 0.56904507
1.00000000 0.78471861 0.66802072
1.00000000 0.87543961 0.77838649
0.03694278 0.61444296 0.00199039
0.03694278 0.61444296 0.00199039
0.03694278 0.61444296 0.00199039
0.03728996 0.61448668 0.00197036
0.05209749 0.61511108 0.00263990
0.07274636 0.61544751 0.00451563
0.09897378 0.61573170 0.00682348
0.12801511 0.61597167 0.00938316
0.16039832 0.61640671 0.01241451
0.19678206 0.61708449 0.01603681
0.23756328 0.61822028 0.01992711
0.28353499 0.61989979 0.02390265
0.33563957 0.62214226 0.02769194
0.39496861 0.62482227 0.03099973
0.46232277 0.62725430 0.03315400
0.53610068 0.62604391 0.03149748
0.61588272 0.61976996 0.02740315
0.69971354 0.60750622 0.02343902
0.78435577 0.58975754 0.02342220
0.86483026 0.56845337 0.03216714
0.93448188 0.54797614 0.05778270
0.98181990 0.53759164 0.11849421
1.00000000 0.54306880 0.19641749
1.00000000 0.55488234 0.26184418
1.00000000 0.56863136 0.31419038
1.00000000 0.58354266 0.35735408
1.00000000 0.60078436 0.39628073
0.99790137 0.62272046 0.43646961
0.99563904 0.65228645 0.48340916
0.99568950 0.69282809 0.54275250
1.00000000 0.74758587 0.61954188
1.00000000 0.81880657 0.71594515
1.00000000 0.90599671 0.82417479
0.05010159 0.67343003 0.00092631
0.05010159 0.67343003 0.00092631
0.05010159 0.67343003 0.00092631
0.05043130 0.67347108 0.00091818
0.06460551 0.67416957 0.00179017
0.08395002 0.67457521 0.00397047
0.10703551 0.67498596 0.00657180
0.13294515 0.67540698 0.00952312
0.16227245 0.67608054 0.01303071
0.19570888 0.67707144 0.01729721
0.23361257 0.67859041 0.02214773
0.27656605 0.68079982 0.02734424
0.32545579 0.68376604 0.03270509
0.38126977 0.68746021 0.03785482
0.44485698 0.69132771 0.04206013
0.51494078 0.69224847 0.04210553
0.59185998 0.68878177 0.03861255
0.67499331 0.67984067 0.03344986
0.76166039 0.66441542 0.02976297
0.84770942 0.64345259 0.03349993
0.92592988 0.62034851 0.05564833
0.98298014 0.60409038 0.12011002
1.00000000 0.60445669 0.21369380
1.00000000 0.61232330 0.29169322
1.00000000 0.62295133 0.35306326
1.00000000 0.63520770 0.40232323
1.00000000 0.64996174 0.44509559
1.00000000 0.66925872 0.48724678
0.99769355 0.69592934 0.53478045
0.99704174 0.73323262 0.59359942
1.00000000 0.78444172 0.66894099
1.00000000 0.85201515 0.76325609
1.00000000 0.93600907 0.86973547
0.06698402 0.72863314 0.00018741
0.06698402 0.72863314 0.00018741
0.06698402 0.72863314 0.00018741
0.06728344 0.72867286 0.00018597
0.08043520 0.72945674 0.00109162
0.09741203 0.72993391 0.00345794
0.11702675 0.73046327 0.00625774
0.13956389 0.73106037 0.00949522
0.16559423 0.73194851 0.01340661
0.19568046 0.73323669 0.01817332
0.23029061 0.73512016 0.02382379
0.26985496 0.73781327 0.03015326
0.31510490 0.74144667 0.03696637
0.36697155 0.74606712 0.04397539
0.42627092 0.75124808 0.05045983
0.49185050 0.75414926 0.05287893
0.56449276 0.75340140 0.05127501
0.64437672 0.74783781 0.04667435
0.73034668 0.73629738 0.04153520
0.81888208 0.71790854 0.04091791
0.90417145 0.69458700 0.05612423
0.97449517 0.67253344 0.11074741
1.00000000 0.66607797 0.21920675
1.00000000 0.66869661 0.31180738
1.00000000 0.67553497 0.38476386
1.00000000 0.68477108 0.44202864
1.00000000 0.69679624 0.48974206
1.00000000 0.71342651 0.53466831
0.99961595 0.73730114 0.58337172
0.99837465 0.77158494 0.64215195
1.00000000 0.81953795 0.71644715
1.00000000 0.88378737 0.80899131
1.00000000 0.96484262 0.91379268
0.08706361 0.77950905 0.00000000
0.08706361 0.77950905 0.00000000
0.08706361 0.77950905 0.00000000
0.08730730 0.77954823 0.00000000
0.09794161 0.78045193 0.00064244
0.11231148 0.78096568 0.00304053
0.12868571 0.78160438 0.00596070
0.14789274 0.78236089 0.00938190
0.17061621 0.78343693 0.01363445
0.19720826 0.78498883 0.01880292
0.22825782 0.78721148 0.02506989
0.26420241 0.79032380 0.03240069
0.30555712 0.79454382 0.04054329
0.35321687 0.79997258 0.04937714
0.40787845 0.80630880 0.05817027
0.46840640 0.81096874 0.06323757
0.53584545 0.81270699 0.06424397
0.61088470 0.81037986 0.06162492
0.69326447 0.80269208 0.05684239
0.78131202 0.78858661 0.05403016
0.87019768 0.76761223 0.06285916
0.95072321 0.74359283 0.10642080
1.00000000 0.72837083 0.21140465
1.00000000 0.72440884 0.31956940
1.00000000 0.72656653 0.40706160
1.00000000 0.73221536 0.47474915
1.00000000 0.74122672 0.52913881
1.00000000 0.75505665 0.57790518
1.00000000 0.77614708 0.62850119
0.99966701 0.80752364 0.68772252
1.00000000 0.85241269 0.76128426
1.00000000 0.91352168 0.85199521
1.00000000 0.99955602 0.99847755
0.10783974 0.82546982 0.00000000
0.10783974 0.82546982 0.00000000
0.10783974 0.82546982 0.00000000
0.10802435 0.82550885 0.00000000
0.11604454 0.82652249 0.00045353
0.12822276 0.82706894 0.00284035
0.14175772 0.82780376 0.00583369
0.15791651 0.82869318 0.00938675
0.17746676 0.82993664 0.01389680
0.20066526 0.83171036 0.01942391
0.22811214 0.83422535 0.02619606
0.26036070 0.83769805 0.03440591
0.29775452 0.84240823 0.04381111
0.34107351 0.84852260 0.05435872
0.39094700 0.85583590 0.06547076
0.44612548 0.86200156 0.07335246
0.50775623 0.86592426 0.07735327
0.57690508 0.86654084 0.07765308
0.65387007 0.86255614 0.07481217
0.73805502 0.85266967 0.07150950
0.82714864 0.83611364 0.07550238
0.91411964 0.81321453 0.10460799
0.98347078 0.79092871 0.18588953
1.00000000 0.77975614 0.31118097
1.00000000 0.77634757 0.41700543
1.00000000 0.77776989 0.49862596
1.00000000 0.78334953 0.56212589
1.00000000 0.79414628 0.61626128
1.00000000 0.81235309 0.66966347
1.00000000 0.84083436 0.72986218
1.00000000 0.88273945 0.80287681
1.00000000 0.94073712 0.89114755
1.00000000 1.00000000 1.00000000
0.12842240 0.86609108 0.00003993
0.12842240 0.86609108 0.00003993
0.12842240 0.86609108 0.00003993
0.12856159 0.86613010 0.00004419
0.13455021 0.86723941 0.00074108
0.14467793 0.86783656 0.00316069
0.15613000 0.86862549 0.00616674
0.16964774 0.86962397 0.00983674
0.18632462 0.87100549 0.01456505
0.20646645 0.87294891 0.02050195
0.23052432 0.87569566 0.02779309
0.25921114 0.87946081 0.03686947
0.29284580 0.88453789 0.04766786
0.33198757 0.89118155 0.06011475
0.37721707 0.89925559 0.07387682
0.42705151 0.90663309 0.08497355
0.48289307 0.91230029 0.09304655
0.54568640 0.91539065 0.09787664
0.61593477 0.91476418 0.09910313
0.69378948 0.90908100 0.09756656
0.77854537 0.89708654 0.09802612
0.86714206 0.87845205 0.11277036
0.94937707 0.85446297 0.16369664
1.00000000 0.83530762 0.28458886
1.00000000 0.82541336 0.41151233
1.00000000 0.82189248 0.51169451
1.00000000 0.82353003 0.58779133
