Luts Download/Canon Luts/3dlut/33grid-3dlut/full-to-full-range/BT2020_CanonLog-to-BT709_WideDR_33_FF_Ver.2.0.cube
# Gamut : BT.2020 to BT.709
# Gamma : Canon Log to Wide DR
# Range : Full in / Full out
# Version : 2.0 2019/10/24
# Copyright(c) 2019 Canon Inc. All Rights Reserved.
LUT_3D_SIZE 5
# LUT_3D_INPUT_RANGE 0.0 1.0
0.00000000 0.00000000 0.00000000
0.28177303 0.00059303 0.02334589
0.70689826 0.00000000 0.06425590
0.95505504 0.02007781 0.02369141
1.00000000 0.21405501 0.07406855
0.00000000 0.23278491 0.06944621
0.25289595 0.24649843 0.00000000
0.75461109 0.18017592 0.00244503
0.98649612 0.19784481 0.08690090
1.00000000 0.33660141 0.21033460
0.00000000 0.60100793 0.20999853
0.00000000 0.62807512 0.10211759
0.63269997 0.62926209 0.00000000
1.00000000 0.56294772 0.26474954
1.00000000 0.62027589 0.49588490
0.00000000 0.82745542 0.24911707
0.00000000 0.84772697 0.22002046
0.26403367 0.91084631 0.03853835
0.86184191 0.87196736 0.05577801
1.00000000 0.82249298 0.64761016
0.00000000 0.95576695 0.24810074
0.00000000 0.97327509 0.24286381
0.36227620 1.00000000 0.36707178
0.70032501 1.00000000 0.54876081
0.97170073 1.00000000 0.48821629
0.00073817 0.01912703 0.16514377
0.28162946 0.00681752 0.22554789
0.69857211 0.00959700 0.25045088
0.95432549 0.04043897 0.18895294
1.00000000 0.23938091 0.17635004
0.00000000 0.23611359 0.22577866
0.24578998 0.24578998 0.24578998
0.77669890 0.15079657 0.22610668
0.97780168 0.21746587 0.23680621
1.00000000 0.35346124 0.27640152
0.00000000 0.59570945 0.32518465
0.02099003 0.62290265 0.28066809
0.63793130 0.62750262 0.15564776
1.00000000 0.57064618 0.37496187
1.00000000 0.63132657 0.53545939
0.00893054 0.82494392 0.32668413
0.02319663 0.84454355 0.31021300
0.26421798 0.91146886 0.19438058
0.86523298 0.87165938 0.18113537
1.00000000 0.83034870 0.68097959
0.00409788 0.95690175 0.29134762
0.00000000 0.97460692 0.28574881
0.39911489 1.00000000 0.41731039
0.71801708 1.00000000 0.58811142
0.97343704 1.00000000 0.54775399
0.00000000 0.12870455 0.40515335
0.23025036 0.05055846 0.58471000
0.70514621 0.02303140 0.57497804
0.98049274 0.05409093 0.46250194
1.00000000 0.28896615 0.37336662
0.00000000 0.26980857 0.46943264
0.17102753 0.24583990 0.65569509
0.76487539 0.13832223 0.64503426
0.99345315 0.23205497 0.49586850
1.00000000 0.38769126 0.43541752
0.00000000 0.60141670 0.57833370
0.00000000 0.62370457 0.60156518
0.62377960 0.62377960 0.62377960
0.96180874 0.60120558 0.61661112
1.00000000 0.65934032 0.64229022
0.05816896 0.82944763 0.52890532
0.11120014 0.84666595 0.53218471
0.46560608 0.88371438 0.57873657
0.86599313 0.86872076 0.59053020
1.00000000 0.85400880 0.77923091
0.07811909 0.96679532 0.42753178
0.08408309 0.98400939 0.42923843
0.49874640 1.00000000 0.57210607
0.77673693 1.00000000 0.71719376
0.98330092 1.00000000 0.73775441
0.00000000 0.23424074 0.44880290
0.00000000 0.23914060 0.63773007
0.56454441 0.11899340 0.93575347
0.96191797 0.06756507 0.77967728
1.00000000 0.31937202 0.57622576
0.00000000 0.32190850 0.56621402
0.00044749 0.32692391 0.72982957
0.56731287 0.28039470 0.94631275
0.98079342 0.22596383 0.80725639
1.00000000 0.41070336 0.61474439
0.04929731 0.59059965 0.80903509
0.11474552 0.60481611 0.86633952
0.57121799 0.63043169 0.89047469
0.96377899 0.59577249 0.85768867
1.00000000 0.67280064 0.75625040
0.00000000 0.83167939 0.79979108
0.00000000 0.84864946 0.81689322
0.38664977 0.88858966 0.86408098
0.86322055 0.86322055 0.86322055
1.00000000 0.87288574 0.87568620
0.11333907 0.97173345 0.64107715
0.12157057 0.98814118 0.64879202
0.54447192 1.00000000 0.74973628
0.82277135 1.00000000 0.85481356
0.99642328 1.00000000 0.90032116
0.00000000 0.28874047 0.47294650
0.00000000 0.32216470 0.55376821
0.15401738 0.35660634 0.98891174
0.71097765 0.31565799 1.00000000
1.00000000 0.30157511 0.82377945
0.00000000 0.36437146 0.58851715
0.00000000 0.39112302 0.67445251
0.22308812 0.43373754 0.99912047
0.72870161 0.40716956 1.00000000
1.00000000 0.40049080 0.83615942
0.01311657 0.59543397 0.92224467
0.04049808 0.61151024 0.97893307
0.45435743 0.66371500 0.99890073
0.79097810 0.66865214 1.00000000
1.00000000 0.67317487 0.89589329
0.24977160 0.79227841 1.00000000
0.33769661 0.80390328 1.00000000
0.59929492 0.84497706 1.00000000
0.83391615 0.87021050 1.00000000
1.00000000 0.87641234 0.96442208
0.00000000 0.96254819 0.92584904
0.00000000 0.97850745 0.94136994
0.46612970 1.00000000 0.97447730
0.81596754 1.00000000 0.99152663
1.00000000 1.00000000 1.00000000
