Luts Download/Canon Luts/3dlut/33grid-3dlut/full-to-full-range/BT709_CanonLog2-to-BT709_WideDR_33_FF_Ver.2.0.cube
# Gamut : BT.709 to BT.709
# Gamma : Canon Log 2 to Wide DR
# Range : Full in / Full out
# Version : 2.0 2019/10/24
# Copyright(c) 2019 Canon Inc. All Rights Reserved.
LUT_3D_SIZE 5
# LUT_3D_INPUT_RANGE 0.0 1.0
0.00000000 0.00000000 0.00000000
0.12728685 0.00732097 0.00621363
0.58820367 0.04884457 0.01621551
0.91035573 0.14574112 0.01083054
1.00000000 0.66619432 0.53953489
0.01699737 0.14075659 0.01308950
0.14405298 0.14517317 0.00976255
0.60202820 0.16132895 0.02521416
0.93776970 0.19746415 0.03990932
1.00000000 0.69046660 0.57048872
0.07428404 0.61330645 0.03171165
0.17793960 0.61463333 0.04278397
0.61481492 0.61883107 0.04471319
1.00000000 0.57070416 0.36680223
1.00000000 0.87995305 0.81813185
0.21145144 0.96068568 0.07535031
0.24940302 0.96329812 0.10596951
0.47912602 0.99094738 0.26555930
0.94553709 0.96875297 0.40574295
1.00000000 1.00000000 1.00000000
1.00000000 1.00000000 1.00000000
1.00000000 1.00000000 1.00000000
1.00000000 1.00000000 1.00000000
1.00000000 1.00000000 1.00000000
1.00000000 1.00000000 1.00000000
0.00352523 0.00733068 0.10696383
0.13361893 0.00905371 0.13084799
0.60070426 0.03274640 0.13210264
0.93253597 0.11955546 0.02758937
1.00000000 0.67320430 0.54969437
0.01462907 0.14232447 0.14207906
0.14520997 0.14520997 0.14520997
0.61622765 0.14816865 0.13801229
0.93987183 0.20391334 0.08554073
1.00000000 0.69738635 0.58032800
0.06511443 0.61394558 0.14313670
0.16151724 0.61643050 0.14231794
0.61588198 0.61852234 0.14567510
1.00000000 0.57688151 0.39529702
1.00000000 0.88763468 0.82827022
0.22552611 0.96131127 0.11814668
0.24805866 0.96546364 0.12889741
0.50754430 0.98678824 0.31787028
0.94555246 0.96903208 0.44115390
1.00000000 1.00000000 1.00000000
1.00000000 1.00000000 1.00000000
1.00000000 1.00000000 1.00000000
1.00000000 1.00000000 1.00000000
1.00000000 1.00000000 1.00000000
1.00000000 1.00000000 1.00000000
0.00194075 0.09605467 0.48643155
0.11364134 0.03543095 0.59236217
0.60677921 0.03646078 0.59904943
0.98919230 0.13256434 0.30481153
1.00000000 0.71846431 0.62893159
0.01692847 0.16939464 0.56217968
0.12768243 0.15011242 0.61932594
0.62008103 0.14412337 0.61502723
0.97802069 0.23265220 0.34191510
1.00000000 0.74169742 0.65694500
0.01790669 0.61694457 0.61661981
0.14705732 0.61777769 0.61742056
0.61787795 0.61787795 0.61787795
0.94779749 0.63286685 0.60134497
1.00000000 0.93264731 0.89375075
0.53637816 0.92776462 0.51827852
0.55051890 0.93085085 0.52776230
0.66673251 0.96314024 0.60315030
0.95796046 0.97698709 0.62047380
1.00000000 1.00000000 1.00000000
1.00000000 1.00000000 1.00000000
1.00000000 1.00000000 1.00000000
1.00000000 1.00000000 1.00000000
1.00000000 1.00000000 1.00000000
1.00000000 1.00000000 1.00000000
0.00000000 0.24283325 0.65537668
0.00000000 0.23571865 0.73611253
0.30847548 0.26719368 0.98950753
0.93214207 0.16930791 0.90482612
1.00000000 0.75155520 0.77028986
0.00115960 0.27311225 0.74939133
0.00153260 0.26526992 0.82283865
0.33191374 0.32907710 0.96951886
0.93182589 0.25504010 0.89823979
1.00000000 0.77480627 0.79102493
0.35465944 0.58139710 0.94757336
0.37769365 0.58789333 0.94547717
0.55752706 0.64117155 0.95100723
0.95707722 0.63729425 0.91928825
1.00000000 0.96880267 0.97136253
0.30113417 0.95635000 0.95394602
0.14433534 0.97266282 0.97125928
0.61729705 0.97293660 0.96987218
0.97244176 0.97244176 0.97244176
1.00000000 1.00000000 1.00000000
1.00000000 1.00000000 1.00000000
1.00000000 1.00000000 1.00000000
1.00000000 1.00000000 1.00000000
1.00000000 1.00000000 1.00000000
1.00000000 1.00000000 1.00000000
0.09954004 0.48752717 1.00000000
0.11208214 0.49536709 1.00000000
0.28401201 0.57550618 1.00000000
0.58307062 0.64776445 1.00000000
1.00000000 0.87716872 1.00000000
0.13785861 0.51261789 1.00000000
0.15511413 0.52110613 1.00000000
0.31968765 0.59861157 1.00000000
0.60341773 0.66825256 1.00000000
1.00000000 0.89771941 1.00000000
0.49000913 0.72359751 1.00000000
0.50127098 0.72946181 1.00000000
0.60424641 0.78224206 1.00000000
0.79137705 0.84042785 1.00000000
1.00000000 1.00000000 1.00000000
0.87397180 0.94370859 1.00000000
0.88199694 0.94779667 1.00000000
0.95504675 0.98699392 1.00000000
1.00000000 1.00000000 1.00000000
1.00000000 1.00000000 1.00000000
1.00000000 1.00000000 1.00000000
1.00000000 1.00000000 1.00000000
1.00000000 1.00000000 1.00000000
1.00000000 1.00000000 1.00000000
1.00000000 1.00000000 1.00000000
