Luts Download/Canon Luts/3dlut/33grid-3dlut/full-to-full-range/BT709_CanonLog3-to-BT709_WideDR_33_FF_Ver.2.0.cube
# Gamut : BT.709 to BT.709
# Gamma : Canon Log 3 to Wide DR
# Range : Full in / Full out
# Version : 2.0 2019/10/24
# Copyright(c) 2019 Canon Inc. All Rights Reserved.
LUT_3D_SIZE 9
# LUT_3D_INPUT_RANGE 0.0 1.0
0.00000000 0.00000000 0.00000000
0.00000000 0.00000000 0.00000000
0.20594730 0.01787304 0.01647293
0.42395829 0.03680668 0.02776559
0.60702204 0.07386406 0.03486140
0.73697224 0.12919082 0.03216999
0.82103946 0.18355210 0.02786593
0.87677350 0.22496107 0.02262802
0.95882759 0.25361329 0.00559231
0.00000000 0.00000000 0.00000000
0.00000000 0.00000000 0.00000000
0.20594730 0.01787304 0.01647293
0.42395829 0.03680668 0.02776559
0.60702204 0.07386406 0.03486140
0.73697224 0.12919082 0.03216999
0.82103946 0.18355210 0.02786593
0.87677350 0.22496107 0.02262802
0.95882759 0.25361329 0.00559231
0.04240383 0.22735236 0.03633634
0.04240383 0.22735236 0.03633634
0.23418738 0.23540262 0.02271959
0.44514491 0.24102999 0.02746237
0.64313585 0.23967296 0.04660132
0.78731258 0.24643702 0.06876403
0.88559784 0.26181045 0.07228371
0.94819515 0.28238487 0.06977312
1.00000000 0.32546351 0.10738189
0.09264269 0.44696497 0.06458908
0.09264269 0.44696497 0.06458908
0.25292912 0.45197029 0.05106019
0.45287166 0.45612242 0.05692732
0.67687081 0.44154825 0.06530751
0.86459790 0.41193474 0.10387705
0.96407436 0.40982049 0.18028182
0.98417669 0.44466764 0.26486256
1.00000000 0.48863175 0.32532090
0.15195900 0.63975919 0.08437411
0.15195900 0.63975919 0.08437411
0.26784144 0.64534418 0.08970632
0.43062181 0.65502999 0.10113937
0.64438544 0.65164401 0.10054509
0.87938153 0.61388326 0.10838044
0.99847989 0.59290127 0.29110389
1.00000000 0.61418021 0.43297687
1.00000000 0.64836854 0.51228780
0.20484496 0.78822386 0.08819419
0.20484496 0.78822386 0.08819419
0.28615512 0.79448873 0.11445464
0.39969045 0.80941350 0.13030883
0.56798311 0.81985031 0.13782500
0.79132043 0.80321830 0.13209520
0.99454988 0.75860445 0.28812587
1.00000000 0.75635848 0.54735988
1.00000000 0.77684934 0.65451848
0.24912855 0.89649726 0.08795696
0.24912855 0.89649726 0.08795696
0.30653945 0.90331320 0.12542831
0.38052206 0.92105418 0.14668382
0.49853719 0.94005244 0.16632796
0.67065734 0.94323154 0.17401242
0.89667339 0.91389204 0.19724882
1.00000000 0.87307980 0.56184640
1.00000000 0.87632555 0.75019760
0.30107486 0.97091605 0.11581541
0.30107486 0.97091605 0.11581541
0.35405154 0.97613860 0.17110950
0.44099479 0.98729999 0.25362820
0.56907402 0.99555129 0.37335419
0.69192892 1.00000000 0.46783677
0.80643780 1.00000000 0.49671373
0.95836593 0.98522142 0.46785628
1.00000000 0.95658637 0.81279127
0.57249100 1.00000000 0.43420540
0.57249100 1.00000000 0.43420540
0.61723622 1.00000000 0.48546147
0.69365930 1.00000000 0.57520860
0.78601962 1.00000000 0.68733277
0.86910043 1.00000000 0.79070875
0.93513631 1.00000000 0.87398808
1.00000000 1.00000000 1.00000000
1.00000000 1.00000000 1.00000000
0.00000000 0.00000000 0.00000000
0.00000000 0.00000000 0.00000000
0.20594730 0.01787304 0.01647293
0.42395829 0.03680668 0.02776559
0.60702204 0.07386406 0.03486140
0.73697224 0.12919082 0.03216999
0.82103946 0.18355210 0.02786593
0.87677350 0.22496107 0.02262802
0.95882759 0.25361329 0.00559231
0.00000000 0.00000000 0.00000000
0.00000000 0.00000000 0.00000000
0.20594730 0.01787304 0.01647293
0.42395829 0.03680668 0.02776559
0.60702204 0.07386406 0.03486140
0.73697224 0.12919082 0.03216999
0.82103946 0.18355210 0.02786593
0.87677350 0.22496107 0.02262802
0.95882759 0.25361329 0.00559231
0.04240383 0.22735236 0.03633634
0.04240383 0.22735236 0.03633634
0.23418738 0.23540262 0.02271959
0.44514491 0.24102999 0.02746237
0.64313585 0.23967296 0.04660132
0.78731258 0.24643702 0.06876403
0.88559784 0.26181045 0.07228371
0.94819515 0.28238487 0.06977312
1.00000000 0.32546351 0.10738189
0.09264269 0.44696497 0.06458908
0.09264269 0.44696497 0.06458908
0.25292912 0.45197029 0.05106019
0.45287166 0.45612242 0.05692732
0.67687081 0.44154825 0.06530751
0.86459790 0.41193474 0.10387705
0.96407436 0.40982049 0.18028182
0.98417669 0.44466764 0.26486256
1.00000000 0.48863175 0.32532090
0.15195900 0.63975919 0.08437411
0.15195900 0.63975919 0.08437411
0.26784144 0.64534418 0.08970632
0.43062181 0.65502999 0.10113937
0.64438544 0.65164401 0.10054509
0.87938153 0.61388326 0.10838044
0.99847989 0.59290127 0.29110389
1.00000000 0.61418021 0.43297687
1.00000000 0.64836854 0.51228780
0.20484496 0.78822386 0.08819419
0.20484496 0.78822386 0.08819419
0.28615512 0.79448873 0.11445464
0.39969045 0.80941350 0.13030883
0.56798311 0.81985031 0.13782500
0.79132043 0.80321830 0.13209520
0.99454988 0.75860445 0.28812587
1.00000000 0.75635848 0.54735988
1.00000000 0.77684934 0.65451848
0.24912855 0.89649726 0.08795696
0.24912855 0.89649726 0.08795696
0.30653945 0.90331320 0.12542831
0.38052206 0.92105418 0.14668382
0.49853719 0.94005244 0.16632796
0.67065734 0.94323154 0.17401242
0.89667339 0.91389204 0.19724882
1.00000000 0.87307980 0.56184640
1.00000000 0.87632555 0.75019760
0.30107486 0.97091605 0.11581541
0.30107486 0.97091605 0.11581541
0.35405154 0.97613860 0.17110950
0.44099479 0.98729999 0.25362820
0.56907402 0.99555129 0.37335419
0.69192892 1.00000000 0.46783677
0.80643780 1.00000000 0.49671373
0.95836593 0.98522142 0.46785628
1.00000000 0.95658637 0.81279127
0.57249100 1.00000000 0.43420540
0.57249100 1.00000000 0.43420540
0.61723622 1.00000000 0.48546147
0.69365930 1.00000000 0.57520860
0.78601962 1.00000000 0.68733277
0.86910043 1.00000000 0.79070875
0.93513631 1.00000000 0.87398808
1.00000000 1.00000000 1.00000000
1.00000000 1.00000000 1.00000000
0.00886744 0.01397740 0.17842541
0.00886744 0.01397740 0.17842541
0.21511295 0.02223416 0.21205015
0.42872002 0.03789628 0.22840769
0.62323498 0.05852726 0.21089238
0.77183542 0.08769525 0.16066943
0.87149425 0.12976656 0.08885029
0.91406904 0.19871038 0.05414348
0.98563184 0.24137358 0.02414049
0.00886744 0.01397740 0.17842541
0.00886744 0.01397740 0.17842541
0.21511295 0.02223416 0.21205015
0.42872002 0.03789628 0.22840769
0.62323498 0.05852726 0.21089238
0.77183542 0.08769525 0.16066943
0.87149425 0.12976656 0.08885029
0.91406904 0.19871038 0.05414348
0.98563184 0.24137358 0.02414049
0.03929776 0.23065802 0.23033616
0.03929776 0.23065802 0.23033616
0.23600832 0.23600832 0.23600832
0.45613266 0.23611505 0.23556576
0.64986482 0.23786275 0.22955748
0.79653117 0.24519814 0.20921023
0.89835998 0.26007805 0.17451069
0.95012711 0.29339881 0.15571747
1.00000000 0.33953279 0.16530757
0.07846561 0.44873658 0.24882804
0.07846561 0.44873658 0.24882804
0.23768217 0.45594100 0.23542043
0.45567337 0.45636777 0.23612629
0.68140449 0.44038294 0.24521197
0.84371419 0.42685631 0.27293437
0.93972166 0.43168199 0.29413917
0.97496115 0.45897673 0.32350847
1.00000000 0.49969884 0.35871675
0.13943601 0.64211819 0.23497269
0.13943601 0.64211819 0.23497269
0.25371155 0.64885321 0.23137916
0.42895473 0.65658780 0.24482395
0.64756531 0.65200155 0.23682086
0.88499582 0.61358094 0.23711074
0.99037426 0.60045864 0.36966661
1.00000000 0.62240744 0.47171542
1.00000000 0.65713639 0.53587151
0.20769783 0.79017432 0.20759939
0.20769783 0.79017432 0.20759939
0.28895799 0.79633720 0.22397025
0.41104729 0.80918293 0.24947116
0.57549030 0.81952600 0.25953913
0.79400328 0.80424422 0.23796815
0.99195211 0.76205292 0.36096652
1.00000000 0.76198627 0.57624743
1.00000000 0.78526361 0.67454466
0.27965406 0.89607077 0.19656886
0.27965406 0.89607077 0.19656886
0.32769529 0.90358976 0.21628571
0.40939807 0.91914230 0.24897653
0.52387244 0.93722089 0.27499766
0.68171193 0.94255338 0.27269868
0.90060420 0.91619416 0.23908829
1.00000000 0.87721919 0.59345644
1.00000000 0.88390588 0.76995415
0.32751334 0.97154617 0.18860222
0.32751334 0.97154617 0.18860222
0.35953972 0.97964251 0.20999240
0.47952723 0.98373629 0.32665863
0.59577996 0.99281499 0.42825832
0.70945053 0.99858551 0.51170557
0.81792781 1.00000000 0.54138955
0.96018173 0.98634953 0.51661997
1.00000000 0.96174297 0.83668875
0.59205359 1.00000000 0.46486210
0.59205359 1.00000000 0.46486210
0.63594375 1.00000000 0.51465779
0.71090070 1.00000000 0.60216828
0.80141823 1.00000000 0.71173087
0.88356271 1.00000000 0.81450328
0.94844602 1.00000000 0.89850794
1.00000000 1.00000000 1.00000000
1.00000000 1.00000000 1.00000000
0.01422985 0.04480698 0.36671546
0.01422985 0.04480698 0.36671546
0.22092183 0.03629435 0.41288400
0.43449350 0.04623331 0.42723426
0.63897617 0.05590806 0.39881053
0.79797185 0.07446094 0.33024448
0.90826308 0.10714320 0.23967278
0.95759761 0.17892936 0.16112713
0.99998385 0.25969240 0.13429424
0.01422985 0.04480698 0.36671546
0.01422985 0.04480698 0.36671546
0.22092183 0.03629435 0.41288400
0.43449350 0.04623331 0.42723426
0.63897617 0.05590806 0.39881053
0.79797185 0.07446094 0.33024448
0.90826308 0.10714320 0.23967278
0.95759761 0.17892936 0.16112713
0.99998385 0.25969240 0.13429424
0.04071606 0.23744075 0.42621546
0.04071606 0.23744075 0.42621546
0.23468463 0.23640436 0.45637813
0.45688956 0.23573170 0.45566708
0.66793304 0.23063330 0.41955768
0.82031972 0.23894253 0.36271855
0.92077252 0.26026146 0.30077912
0.95601938 0.31291881 0.26356566
1.00000000 0.36532595 0.25093767
0.07307981 0.45087052 0.45026744
0.07307981 0.45087052 0.45026744
0.23597590 0.45622307 0.45609150
0.45620114 0.45620114 0.45620114
0.65066300 0.45653259 0.45480592
0.79962908 0.45888018 0.44638608
0.90477757 0.46534275 0.42744003
0.95518650 0.48660601 0.41539693
0.99940026 0.52141486 0.41911451
0.18356348 0.64080601 0.42417420
0.18356348 0.64080601 0.42417420
0.30117301 0.64385358 0.43334890
0.46138164 0.64990921 0.45423364
0.64881292 0.65159346 0.45660296
0.84692736 0.63053240 0.46443045
0.95809896 0.62312240 0.50155528
0.98401552 0.64333660 0.54737100
1.00000000 0.67525767 0.58292061
0.31603060 0.78072082 0.40295108
0.31603060 0.78072082 0.40295108
0.38048763 0.78572312 0.41969140
0.48233262 0.79734696 0.44819461
0.61532395 0.81017190 0.46650563
0.79428370 0.80412349 0.45765874
0.97760513 0.77198362 0.49440501
1.00000000 0.77407854 0.63248847
1.00000000 0.80052397 0.71180679
0.40835267 0.88247428 0.39163509
0.40835267 0.88247428 0.39163509
0.44610137 0.88921096 0.40949106
0.51250296 0.90365938 0.44094005
0.60311008 0.92216574 0.46977621
0.72483110 0.93200327 0.47626427
0.89922537 0.91658337 0.45880812
1.00000000 0.88581931 0.65687428
1.00000000 0.89747490 0.80573758
0.46708711 0.95554912 0.38469334
0.46708711 0.95554912 0.38469334
0.49301343 0.96298961 0.40258861
0.54059409 0.97863332 0.43485836
0.64848977 0.98648503 0.52741713
0.74558940 0.99473265 0.59510847
0.84228845 0.99797540 0.62794132
0.96346112 0.98713937 0.62638408
1.00000000 0.97131314 0.88047139
0.63569379 1.00000000 0.53019785
0.63569379 1.00000000 0.53019785
0.67525172 1.00000000 0.57433164
0.74568162 1.00000000 0.65572516
0.83177674 1.00000000 0.75937497
0.91098680 1.00000000 0.85913703
0.97207881 1.00000000 0.94083186
1.00000000 1.00000000 1.00000000
1.00000000 1.00000000 1.00000000
0.00515660 0.10684360 0.50733706
0.00515660 0.10684360 0.50733706
0.19185725 0.06279091 0.61161048
0.40903875 0.07316458 0.63544351
0.62924256 0.07230277 0.61469954
0.81224672 0.07013583 0.53194565
0.93965616 0.09046325 0.41811651
0.98079652 0.19351323 0.31628842
1.00000000 0.29262148 0.26808849
0.00515660 0.10684360 0.50733706
0.00515660 0.10684360 0.50733706
0.19185725 0.06279091 0.61161048
0.40903875 0.07316458 0.63544351
0.62924256 0.07230277 0.61469954
0.81224672 0.07013583 0.53194565
0.93965616 0.09046325 0.41811651
0.98079652 0.19351323 0.31628842
1.00000000 0.29262148 0.26808849
0.04644698 0.24558870 0.60559787
0.04644698 0.24558870 0.60559787
0.21896474 0.24085411 0.65273213
0.42651722 0.24847586 0.66350914
0.65512675 0.23397448 0.64671493
0.85055634 0.21318250 0.56307564
0.95594460 0.24586957 0.45741951
0.97827753 0.32198089 0.38399586
1.00000000 0.38987626 0.35077603
0.12816090 0.44232747 0.65989328
0.12816090 0.44232747 0.65989328
0.28000857 0.44680243 0.65367251
0.45189670 0.45749629 0.65160503
0.65380423 0.45526569 0.64883296
0.83227215 0.44851174 0.59809264
0.94477373 0.45569665 0.53883796
0.97057840 0.49659216 0.50353792
1.00000000 0.53952216 0.49000424
0.07822497 0.64700435 0.64608058
0.07822497 0.64700435 0.64608058
0.23579098 0.65104091 0.65035301
0.45609497 0.65102052 0.65047474
0.65092930 0.65092930 0.65092930
0.80138194 0.65135431 0.64910913
0.90995177 0.65354185 0.64098505
0.96365780 0.66678516 0.63573886
1.00000000 0.69531449 0.64316769
0.31417624 0.78635860 0.56473321
0.31417624 0.78635860 0.56473321
0.40040099 0.78731717 0.58148494
0.52710481 0.79138354 0.61515115
0.65763572 0.80027464 0.64812562
0.79856051 0.80276215 0.65151756
0.95202673 0.78540186 0.65678440
0.99306253 0.79218545 0.71704150
1.00000000 0.81885940 0.76249579
0.47956141 0.87662607 0.54306024
0.47956141 0.87662607 0.54306024
0.52069438 0.88109970 0.56361920
0.59158581 0.89149227 0.60183962
0.67702797 0.90709365 0.64158801
0.77243018 0.91987723 0.65960549
0.90291635 0.91538359 0.65270054
1.00000000 0.89633378 0.74185939
1.00000000 0.91323241 0.85040993
0.56393367 0.94405166 0.53593924
0.56393367 0.94405166 0.53593924
0.59062940 0.94999278 0.55602429
0.63937776 0.96286881 0.59332733
0.70055252 0.98151419 0.63479071
0.79174811 0.98874802 0.70150910
0.87361983 0.99425072 0.73439228
0.97574945 0.99596439 0.65381924
1.00000000 0.98320051 0.93159797
0.68883997 1.00000000 0.61501466
0.68883997 1.00000000 0.61501466
0.72403201 1.00000000 0.65296689
0.78856017 1.00000000 0.72527684
0.86984184 1.00000000 0.82077906
0.94487989 1.00000000 0.91417551
1.00000000 1.00000000 1.00000000
1.00000000 1.00000000 1.00000000
1.00000000 1.00000000 1.00000000
0.00000000 0.18099551 0.56419107
0.00000000 0.18099551 0.56419107
0.10128866 0.11114627 0.76391383
0.33516024 0.11682206 0.81937415
0.56759221 0.11453544 0.82814695
0.78062338 0.09544183 0.75737198
0.93878951 0.09426973 0.62780421
0.99159874 0.20676841 0.48649478
1.00000000 0.31617103 0.40453142
0.00000000 0.18099551 0.56419107
0.00000000 0.18099551 0.56419107
0.10128866 0.11114627 0.76391383
0.33516024 0.11682206 0.81937415
0.56759221 0.11453544 0.82814695
0.78062338 0.09544183 0.75737198
0.93878951 0.09426973 0.62780421
0.99159874 0.20676841 0.48649478
1.00000000 0.31617103 0.40453142
0.03403940 0.26786053 0.71646270
0.03403940 0.26786053 0.71646270
0.16487119 0.25402290 0.80697240
0.36407294 0.27233754 0.82766633
0.58663479 0.26674464 0.84406656
0.81105153 0.23111769 0.79095740
0.95924493 0.24149679 0.65640140
0.99114716 0.32861560 0.53055024
1.00000000 0.40763138 0.46534742
0.17796638 0.43628172 0.80625572
0.17796638 0.43628172 0.80625572
0.28578102 0.44607284 0.80184220
0.42897102 0.46409800 0.80536390
0.60826285 0.47089477 0.82001079
0.81185460 0.45253176 0.79276703
0.95931764 0.44855682 0.70021140
0.98943953 0.49811380 0.61366678
1.00000000 0.55164281 0.57498371
0.27708146 0.61857178 0.83675052
0.27708146 0.61857178 0.83675052
0.37202364 0.62426720 0.82508280
0.50496240 0.63777248 0.80700570
0.64508327 0.65270535 0.80271391
0.80633693 0.64958195 0.79869878
0.94530034 0.64359560 0.75321067
0.98251647 0.66999947 0.71344422
1.00000000 0.70621901 0.70349225
0.07884882 0.79864665 0.79730733
0.07884882 0.79864665 0.79730733
0.24007365 0.80158449 0.80014403
0.45584235 0.80203191 0.80038710
0.65077966 0.80190952 0.80104272
0.80176386 0.80176386 0.80176386
0.91204417 0.80215281 0.80008118
0.97337379 0.80929904 0.79985874
1.00000000 0.83422893 0.81457043
0.40397591 0.89487406 0.66512677
0.40397591 0.89487406 0.66512677
0.47302615 0.89553983 0.68335349
0.58587291 0.89776661 0.72040456
0.70778638 0.90275910 0.76662949
0.80794390 0.91095508 0.79900074
0.90918864 0.91341720 0.80235509
0.99742572 0.90581218 0.83364138
1.00000000 0.92732064 0.89537664
0.58418982 0.94767770 0.63677275
0.58418982 0.94767770 0.63677275
0.61854590 0.95126632 0.65907380
0.68103706 0.95930069 0.70230349
0.75573020 0.97188139 0.75434079
0.82342186 0.98627102 0.79312728
0.90230049 0.99034503 0.83397956
0.98208464 0.99396419 0.80345195
1.00000000 0.99457035 0.97285945
0.72966612 1.00000000 0.69732365
0.72966612 1.00000000 0.69732365
0.76362488 1.00000000 0.73085059
0.82584944 1.00000000 0.79496228
0.90438179 1.00000000 0.88033542
1.00000000 1.00000000 1.00000000
1.00000000 1.00000000 1.00000000
1.00000000 1.00000000 1.00000000
1.00000000 1.00000000 1.00000000
0.00000000 0.23586312 0.58724713
0.00000000 0.23586312 0.58724713
0.00347133 0.21781878 0.75213354
0.20882072 0.19269182 0.91849219
0.44249922 0.21750054 0.94942800
0.67697701 0.18599806 0.94625141
0.88762179 0.12573777 0.85596160
0.98875818 0.20114086 0.67868408
1.00000000 0.32190535 0.55075280
0.00000000 0.23586312 0.58724713
0.00000000 0.23586312 0.58724713
0.00347133 0.21781878 0.75213354
0.20882072 0.19269182 0.91849219
0.44249922 0.21750054 0.94942800
0.67697701 0.18599806 0.94625141
0.88762179 0.12573777 0.85596160
0.98875818 0.20114086 0.67868408
1.00000000 0.32190535 0.55075280
0.01619521 0.30335672 0.75683616
0.01619521 0.30335672 0.75683616
0.07198165 0.29092363 0.87472197
0.26893922 0.31530990 0.91716988
0.47306985 0.33663004 0.94040908
0.69483994 0.31436065 0.94502089
0.92607252 0.22850753 0.89513167
0.99010552 0.32578762 0.70205010
1.00000000 0.41288858 0.59338415
0.17299198 0.44184682 0.90018490
0.17299198 0.44184682 0.90018490
0.25223093 0.45314182 0.91230498
0.37880151 0.47735598 0.92023093
0.53798014 0.49784197 0.93164359
0.72712663 0.48893470 0.93898929
0.92986760 0.44948610 0.89484245
0.99177860 0.49728682 0.75012429
1.00000000 0.55676339 0.67405150
0.35091036 0.60701249 0.93661124
0.35091036 0.60701249 0.93661124
0.41118052 0.61739858 0.92597951
0.50655167 0.63808388 0.91345812
0.62190275 0.65955016 0.91647618
0.76268408 0.66333346 0.92814079
0.92632534 0.64651838 0.90153857
0.99221389 0.66907773 0.81341682
1.00000000 0.71167086 0.77301981
0.39652890 0.75312102 0.97046556
0.39652890 0.75312102 0.97046556
0.46169354 0.75943918 0.95930380
0.56591315 0.77309886 0.94128556
0.68875925 0.79029885 0.91747996
0.79619967 0.80346732 0.91332400
0.91720219 0.80042825 0.90940415
0.99002243 0.80890062 0.87075408
1.00000000 0.84119126 0.86193813
0.13068886 0.90758350 0.90567354
0.13068886 0.90758350 0.90567354
0.27101147 0.90981188 0.90758490
0.45557928 0.91283863 0.91021218
0.65052213 0.91278778 0.91052311
0.80161722 0.91256889 0.91166430
0.91241619 0.91241619 0.91241619
0.98316151 0.91512492 0.91364349
1.00000000 0.93843178 0.93407103
0.45910472 0.97417674 0.73389072
0.45910472 0.97417674 0.73389072
0.51966787 0.97478426 0.75232450
0.62425760 0.97632851 0.78969633
0.74358506 0.97905863 0.83887214
0.84380231 0.98341231 0.88316787
0.91739057 0.98993240 0.91009222
0.98841325 0.99199759 0.91291961
1.00000000 1.00000000 1.00000000
0.74934825 1.00000000 0.77664572
0.74934825 1.00000000 0.77664572
0.78511910 1.00000000 0.80493714
0.85013740 1.00000000 0.85930649
0.93076161 1.00000000 0.93141562
1.00000000 1.00000000 1.00000000
1.00000000 1.00000000 1.00000000
1.00000000 1.00000000 1.00000000
1.00000000 1.00000000 1.00000000
0.00000000 0.27193874 0.60405267
0.00000000 0.27193874 0.60405267
0.00000000 0.28220385 0.70458122
0.05341631 0.27791877 0.90917781
0.29605742 0.31429215 0.97006075
0.51187315 0.32885073 0.98497093
0.73575743 0.28244467 0.98333646
0.94677947 0.19125208 0.90558496
1.00000000 0.30463013 0.72196953
0.00000000 0.27193874 0.60405267
0.00000000 0.27193874 0.60405267
0.00000000 0.28220385 0.70458122
0.05341631 0.27791877 0.90917781
0.29605742 0.31429215 0.97006075
0.51187315 0.32885073 0.98497093
0.73575743 0.28244467 0.98333646
0.94677947 0.19125208 0.90558496
1.00000000 0.30463013 0.72196953
0.00247210 0.33473657 0.76931369
0.00247210 0.33473657 0.76931369
0.02020550 0.33969596 0.85557652
0.16289432 0.36167059 0.94292494
0.35384305 0.40145235 0.96573046
0.54626250 0.41410454 0.98061313
0.75609371 0.37938013 0.98139853
0.95318112 0.32221727 0.90656451
1.00000000 0.40204042 0.74461773
0.15099915 0.45677583 0.94141921
0.15099915 0.45677583 0.94141921
0.21916582 0.47215373 0.94807782
0.32844814 0.50282697 0.95269177
0.46164926 0.53475460 0.96439975
0.61508739 0.54782067 0.97717214
0.79408419 0.52814957 0.97922248
0.96349877 0.49797260 0.91457270
1.00000000 0.55241051 0.79141006
0.38126754 0.61124647 0.96758097
0.38126754 0.61124647 0.96758097
0.42245664 0.62349607 0.96461916
0.49518161 0.64747987 0.96179837
0.59036223 0.67504041 0.96593212
0.70215615 0.69127681 0.97568299
0.83842618 0.68563804 0.97978894
0.97291267 0.67204575 0.93392683
1.00000000 0.71215465 0.85431373
0.52670034 0.73683347 0.98747966
0.52670034 0.73683347 0.98747966
0.56134807 0.74668967 0.98082077
0.62093896 0.76659600 0.97506147
0.69804845 0.79160212 0.97257885
0.78102028 0.81105760 0.97639062
0.87674313 0.81642291 0.98238021
0.97888076 0.81252441 0.95787699
1.00000000 0.84477826 0.91484710
0.57663641 0.84266662 1.00000000
0.57663641 0.84266662 1.00000000
0.61204397 0.84996234 0.99992989
0.67611575 0.86510037 0.99398194
0.75717633 0.88504690 0.98816459
0.83726431 0.90291920 0.98318214
0.90915709 0.91459398 0.98404836
0.98367443 0.91714324 0.97808261
1.00000000 0.94482951 0.96551733
0.35492727 0.97030430 0.96700053
0.35492727 0.97030430 0.96700053
0.44156336 0.97114135 0.96756297
0.57732362 0.97346810 0.96971284
0.71842476 0.97809109 0.97485389
0.80139184 0.99153022 0.98923423
0.91229345 0.99128410 0.99049886
0.99115111 0.99115111 0.99115111
1.00000000 1.00000000 1.00000000
0.74359692 1.00000000 0.86941041
0.74359692 1.00000000 0.86941041
0.78403139 1.00000000 0.88787824
0.85760064 1.00000000 0.92434720
0.94734695 1.00000000 0.97332861
1.00000000 1.00000000 1.00000000
1.00000000 1.00000000 1.00000000
1.00000000 1.00000000 1.00000000
1.00000000 1.00000000 1.00000000
0.00000000 0.30713234 0.64427055
0.00000000 0.30713234 0.64427055
0.00000000 0.32330893 0.72043336
0.00000000 0.34394923 0.87956117
0.16047704 0.37410624 1.00000000
0.37080681 0.41184243 1.00000000
0.56875487 0.40964058 1.00000000
0.78592959 0.34719544 1.00000000
0.99941490 0.28687989 0.94792594
0.00000000 0.30713234 0.64427055
0.00000000 0.30713234 0.64427055
0.00000000 0.32330893 0.72043336
0.00000000 0.34394923 0.87956117
0.16047704 0.37410624 1.00000000
0.37080681 0.41184243 1.00000000
0.56875487 0.40964058 1.00000000
0.78592959 0.34719544 1.00000000
0.99941490 0.28687989 0.94792594
0.00000000 0.36532847 0.80422106
0.00000000 0.36532847 0.80422106
0.00000000 0.37600828 0.87595861
0.04348156 0.39844049 0.98429084
0.24966512 0.44666841 1.00000000
0.42428339 0.47932453 1.00000000
0.60369843 0.47856350 1.00000000
0.80643788 0.42962393 1.00000000
1.00000000 0.39228872 0.94620181
0.10715350 0.47687279 0.99081100
0.10715350 0.47687279 0.99081100
0.16893942 0.49340895 0.99983866
0.27279262 0.52715487 1.00000000
0.39536627 0.56637459 1.00000000
0.52611726 0.59305478 1.00000000
0.67219697 0.59573331 1.00000000
0.84431423 0.56467415 1.00000000
1.00000000 0.54992353 0.94984724
0.37691404 0.62530631 1.00000000
0.37691404 0.62530631 1.00000000
0.41037952 0.63841791 1.00000000
0.47315650 0.66417535 1.00000000
0.55735468 0.69553893 1.00000000
0.65207606 0.71948083 1.00000000
0.75962493 0.72750222 1.00000000
0.88880706 0.71355490 1.00000000
1.00000000 0.71486914 0.96335339
0.55838440 0.74323843 1.00000000
0.55838440 0.74323843 1.00000000
0.58283563 0.75405191 1.00000000
0.63023024 0.77562417 1.00000000
0.69492791 0.80313663 1.00000000
0.76546111 0.82664004 1.00000000
0.84085028 0.84004241 1.00000000
0.92734101 0.83984278 1.00000000
1.00000000 0.85115487 0.98243256
0.67672141 0.83227073 1.00000000
0.67672141 0.83227073 1.00000000
0.69820375 0.84165947 1.00000000
0.74010295 0.86057136 1.00000000
0.79641537 0.88546756 1.00000000
0.85407558 0.90858057 1.00000000
0.90835860 0.92562646 1.00000000
0.96077074 0.93525153 1.00000000
1.00000000 0.95452825 0.99902438
0.72402605 0.90536131 1.00000000
0.72402605 0.90536131 1.00000000
0.74902382 0.91274614 1.00000000
0.79729115 0.92779469 1.00000000
0.86042473 0.94805647 1.00000000
0.92054746 0.96793468 1.00000000
0.96799904 0.98509020 1.00000000
1.00000000 1.00000000 1.00000000
1.00000000 1.00000000 1.00000000
0.74355694 1.00000000 1.00000000
0.74355694 1.00000000 1.00000000
0.78932937 1.00000000 1.00000000
0.87363143 1.00000000 1.00000000
1.00000000 1.00000000 1.00000000
1.00000000 1.00000000 1.00000000
1.00000000 1.00000000 1.00000000
1.00000000 1.00000000 1.00000000
1.00000000 1.00000000 1.00000000
