Luts Download/Canon Luts/3dlut/33grid-3dlut/full-to-full-range/BT709_CanonLog3-to-BT709_WideDR_33_FF_Ver.2.0.cube
# Gamut : BT.709 to BT.709
# Gamma : Canon Log 3 to Wide DR
# Range : Full in / Full out
# Version : 2.0 2019/10/24
# Copyright(c) 2019 Canon Inc. All Rights Reserved.
LUT_3D_SIZE 5
# LUT_3D_INPUT_RANGE 0.0 1.0
0.00000000 0.00000000 0.00000000
0.20594730 0.01787304 0.01647293
0.60702204 0.07386406 0.03486140
0.82103946 0.18355210 0.02786593
0.95882759 0.25361329 0.00559231
0.04240383 0.22735236 0.03633634
0.23418738 0.23540262 0.02271959
0.64313585 0.23967296 0.04660132
0.88559784 0.26181045 0.07228371
1.00000000 0.32546351 0.10738189
0.15195900 0.63975919 0.08437411
0.26784144 0.64534418 0.08970632
0.64438544 0.65164401 0.10054509
0.99847989 0.59290127 0.29110389
1.00000000 0.64836854 0.51228780
0.24912855 0.89649726 0.08795696
0.30653945 0.90331320 0.12542831
0.49853719 0.94005244 0.16632796
0.89667339 0.91389204 0.19724882
1.00000000 0.87632555 0.75019760
0.57249100 1.00000000 0.43420540
0.61723622 1.00000000 0.48546147
0.78601962 1.00000000 0.68733277
0.93513631 1.00000000 0.87398808
1.00000000 1.00000000 1.00000000
0.00886744 0.01397740 0.17842541
0.21511295 0.02223416 0.21205015
0.62323498 0.05852726 0.21089238
0.87149425 0.12976656 0.08885029
0.98563184 0.24137358 0.02414049
0.03929776 0.23065802 0.23033616
0.23600832 0.23600832 0.23600832
0.64986482 0.23786275 0.22955748
0.89835998 0.26007805 0.17451069
1.00000000 0.33953279 0.16530757
0.13943601 0.64211819 0.23497269
0.25371155 0.64885321 0.23137916
0.64756531 0.65200155 0.23682086
0.99037426 0.60045864 0.36966661
1.00000000 0.65713639 0.53587151
0.27965406 0.89607077 0.19656886
0.32769529 0.90358976 0.21628571
0.52387244 0.93722089 0.27499766
0.90060420 0.91619416 0.23908829
1.00000000 0.88390588 0.76995415
0.59205359 1.00000000 0.46486210
0.63594375 1.00000000 0.51465779
0.80141823 1.00000000 0.71173087
0.94844602 1.00000000 0.89850794
1.00000000 1.00000000 1.00000000
0.00515660 0.10684360 0.50733706
0.19185725 0.06279091 0.61161048
0.62924256 0.07230277 0.61469954
0.93965616 0.09046325 0.41811651
1.00000000 0.29262148 0.26808849
0.04644698 0.24558870 0.60559787
0.21896474 0.24085411 0.65273213
0.65512675 0.23397448 0.64671493
0.95594460 0.24586957 0.45741951
1.00000000 0.38987626 0.35077603
0.07822497 0.64700435 0.64608058
0.23579098 0.65104091 0.65035301
0.65092930 0.65092930 0.65092930
0.90995177 0.65354185 0.64098505
1.00000000 0.69531449 0.64316769
0.47956141 0.87662607 0.54306024
0.52069438 0.88109970 0.56361920
0.67702797 0.90709365 0.64158801
0.90291635 0.91538359 0.65270054
1.00000000 0.91323241 0.85040993
0.68883997 1.00000000 0.61501466
0.72403201 1.00000000 0.65296689
0.86984184 1.00000000 0.82077906
1.00000000 1.00000000 1.00000000
1.00000000 1.00000000 1.00000000
0.00000000 0.23586312 0.58724713
0.00347133 0.21781878 0.75213354
0.44249922 0.21750054 0.94942800
0.88762179 0.12573777 0.85596160
1.00000000 0.32190535 0.55075280
0.01619521 0.30335672 0.75683616
0.07198165 0.29092363 0.87472197
0.47306985 0.33663004 0.94040908
0.92607252 0.22850753 0.89513167
1.00000000 0.41288858 0.59338415
0.35091036 0.60701249 0.93661124
0.41118052 0.61739858 0.92597951
0.62190275 0.65955016 0.91647618
0.92632534 0.64651838 0.90153857
1.00000000 0.71167086 0.77301981
0.13068886 0.90758350 0.90567354
0.27101147 0.90981188 0.90758490
0.65052213 0.91278778 0.91052311
0.91241619 0.91241619 0.91241619
1.00000000 0.93843178 0.93407103
0.74934825 1.00000000 0.77664572
0.78511910 1.00000000 0.80493714
0.93076161 1.00000000 0.93141562
1.00000000 1.00000000 1.00000000
1.00000000 1.00000000 1.00000000
0.00000000 0.30713234 0.64427055
0.00000000 0.32330893 0.72043336
0.16047704 0.37410624 1.00000000
0.56875487 0.40964058 1.00000000
0.99941490 0.28687989 0.94792594
0.00000000 0.36532847 0.80422106
0.00000000 0.37600828 0.87595861
0.24966512 0.44666841 1.00000000
0.60369843 0.47856350 1.00000000
1.00000000 0.39228872 0.94620181
0.37691404 0.62530631 1.00000000
0.41037952 0.63841791 1.00000000
0.55735468 0.69553893 1.00000000
0.75962493 0.72750222 1.00000000
1.00000000 0.71486914 0.96335339
0.67672141 0.83227073 1.00000000
0.69820375 0.84165947 1.00000000
0.79641537 0.88546756 1.00000000
0.90835860 0.92562646 1.00000000
1.00000000 0.95452825 0.99902438
0.74355694 1.00000000 1.00000000
0.78932937 1.00000000 1.00000000
1.00000000 1.00000000 1.00000000
1.00000000 1.00000000 1.00000000
1.00000000 1.00000000 1.00000000
