Luts Download/Canon Luts/3dlut/33grid-3dlut/full-to-full-range/BT709_CanonLog-to-BT709_WideDR_33_FF_Ver.2.0.cube
# Gamut : BT.709 to BT.709
# Gamma : Canon Log to Wide DR
# Range : Full in / Full out
# Version : 2.0 2019/10/24
# Copyright(c) 2019 Canon Inc. All Rights Reserved.
LUT_3D_SIZE 33
# LUT_3D_INPUT_RANGE 0.0 1.0
0.00000000 0.00000000 0.00000000
0.00000000 0.00000000 0.00000000
0.00000000 0.00000000 0.00000000
0.00000000 0.00000000 0.00000000
0.00000000 0.00000000 0.00000000
0.04579193 0.00769498 0.00762620
0.10504576 0.01177055 0.01145268
0.16097022 0.01576601 0.01498077
0.21464728 0.01918351 0.01768210
0.26659690 0.02265827 0.02013805
0.31734704 0.02664601 0.02271326
0.36765833 0.03118748 0.02534078
0.41771647 0.03660746 0.02818746
0.46519044 0.04295092 0.03098091
0.50756128 0.04999858 0.03311491
0.54625912 0.05793146 0.03461704
0.58199090 0.06691832 0.03554547
0.61512272 0.07707684 0.03596329
0.64596539 0.08813608 0.03577768
0.67449317 0.09964946 0.03524500
0.70084670 0.11133261 0.03434335
0.72496992 0.12322192 0.03331792
0.74692852 0.13516002 0.03224010
0.76684965 0.14693068 0.03109189
0.78490725 0.15830753 0.02979250
0.80136275 0.16902113 0.02813528
0.81666628 0.17865434 0.02561303
0.83100696 0.18720428 0.02221386
0.84453230 0.19478861 0.01809015
0.85745634 0.20152571 0.01338672
0.87001423 0.20760379 0.00833914
0.88249726 0.21325449 0.00322971
0.89523921 0.21878387 0.00000000
0.00000000 0.00000000 0.00000000
0.00000000 0.00000000 0.00000000
0.00000000 0.00000000 0.00000000
0.00000000 0.00000000 0.00000000
0.00000000 0.00000000 0.00000000
0.04579193 0.00769498 0.00762620
0.10504576 0.01177055 0.01145268
0.16097022 0.01576601 0.01498077
0.21464728 0.01918351 0.01768210
0.26659690 0.02265827 0.02013805
0.31734704 0.02664601 0.02271326
0.36765833 0.03118748 0.02534078
0.41771647 0.03660746 0.02818746
0.46519044 0.04295092 0.03098091
0.50756128 0.04999858 0.03311491
0.54625912 0.05793146 0.03461704
0.58199090 0.06691832 0.03554547
0.61512272 0.07707684 0.03596329
0.64596539 0.08813608 0.03577768
0.67449317 0.09964946 0.03524500
0.70084670 0.11133261 0.03434335
0.72496992 0.12322192 0.03331792
0.74692852 0.13516002 0.03224010
0.76684965 0.14693068 0.03109189
0.78490725 0.15830753 0.02979250
0.80136275 0.16902113 0.02813528
0.81666628 0.17865434 0.02561303
0.83100696 0.18720428 0.02221386
0.84453230 0.19478861 0.01809015
0.85745634 0.20152571 0.01338672
0.87001423 0.20760379 0.00833914
0.88249726 0.21325449 0.00322971
0.89523921 0.21878387 0.00000000
0.00000000 0.00000000 0.00000000
0.00000000 0.00000000 0.00000000
0.00000000 0.00000000 0.00000000
0.00000000 0.00000000 0.00000000
0.00000000 0.00000000 0.00000000
0.04579193 0.00769498 0.00762620
0.10504576 0.01177055 0.01145268
0.16097022 0.01576601 0.01498077
0.21464728 0.01918351 0.01768210
0.26659690 0.02265827 0.02013805
0.31734704 0.02664601 0.02271326
0.36765833 0.03118748 0.02534078
0.41771647 0.03660746 0.02818746
0.46519044 0.04295092 0.03098091
0.50756128 0.04999858 0.03311491
0.54625912 0.05793146 0.03461704
0.58199090 0.06691832 0.03554547
0.61512272 0.07707684 0.03596329
0.64596539 0.08813608 0.03577768
0.67449317 0.09964946 0.03524500
0.70084670 0.11133261 0.03434335
0.72496992 0.12322192 0.03331792
0.74692852 0.13516002 0.03224010
0.76684965 0.14693068 0.03109189
0.78490725 0.15830753 0.02979250
0.80136275 0.16902113 0.02813528
0.81666628 0.17865434 0.02561303
0.83100696 0.18720428 0.02221386
0.84453230 0.19478861 0.01809015
0.85745634 0.20152571 0.01338672
0.87001423 0.20760379 0.00833914
0.88249726 0.21325449 0.00322971
0.89523921 0.21878387 0.00000000
0.00000000 0.00000000 0.00000000
0.00000000 0.00000000 0.00000000
0.00000000 0.00000000 0.00000000
0.00000000 0.00000000 0.00000000
0.00000000 0.00000000 0.00000000
0.04579193 0.00769498 0.00762620
0.10504576 0.01177055 0.01145268
0.16097022 0.01576601 0.01498077
0.21464728 0.01918351 0.01768210
0.26659690 0.02265827 0.02013805
0.31734704 0.02664601 0.02271326
0.36765833 0.03118748 0.02534078
0.41771647 0.03660746 0.02818746
0.46519044 0.04295092 0.03098091
0.50756128 0.04999858 0.03311491
0.54625912 0.05793146 0.03461704
0.58199090 0.06691832 0.03554547
0.61512272 0.07707684 0.03596329
0.64596539 0.08813608 0.03577768
0.67449317 0.09964946 0.03524500
0.70084670 0.11133261 0.03434335
0.72496992 0.12322192 0.03331792
0.74692852 0.13516002 0.03224010
0.76684965 0.14693068 0.03109189
0.78490725 0.15830753 0.02979250
0.80136275 0.16902113 0.02813528
0.81666628 0.17865434 0.02561303
0.83100696 0.18720428 0.02221386
0.84453230 0.19478861 0.01809015
0.85745634 0.20152571 0.01338672
0.87001423 0.20760379 0.00833914
0.88249726 0.21325449 0.00322971
0.89523921 0.21878387 0.00000000
0.00000000 0.00000000 0.00000000
0.00000000 0.00000000 0.00000000
0.00000000 0.00000000 0.00000000
0.00000000 0.00000000 0.00000000
0.00000000 0.00000000 0.00000000
0.04579193 0.00769498 0.00762620
0.10504576 0.01177055 0.01145268
0.16097022 0.01576601 0.01498077
0.21464728 0.01918351 0.01768210
0.26659690 0.02265827 0.02013805
0.31734704 0.02664601 0.02271326
0.36765833 0.03118748 0.02534078
0.41771647 0.03660746 0.02818746
0.46519044 0.04295092 0.03098091
0.50756128 0.04999858 0.03311491
0.54625912 0.05793146 0.03461704
0.58199090 0.06691832 0.03554547
0.61512272 0.07707684 0.03596329
0.64596539 0.08813608 0.03577768
0.67449317 0.09964946 0.03524500
0.70084670 0.11133261 0.03434335
0.72496992 0.12322192 0.03331792
0.74692852 0.13516002 0.03224010
0.76684965 0.14693068 0.03109189
0.78490725 0.15830753 0.02979250
0.80136275 0.16902113 0.02813528
0.81666628 0.17865434 0.02561303
0.83100696 0.18720428 0.02221386
0.84453230 0.19478861 0.01809015
0.85745634 0.20152571 0.01338672
0.87001423 0.20760379 0.00833914
0.88249726 0.21325449 0.00322971
0.89523921 0.21878387 0.00000000
0.02153750 0.06200588 0.02110375
0.02153750 0.06200588 0.02110375
0.02153750 0.06200588 0.02110375
0.02153750 0.06200588 0.02110375
0.02153750 0.06200588 0.02110375
0.06997772 0.07021047 0.01877012
0.12869635 0.07317373 0.01771845
0.18154872 0.07607523 0.01872283
0.23230084 0.07899329 0.01962890
0.28228629 0.08192413 0.02057155
0.33189632 0.08502181 0.02180702
0.38134840 0.08850986 0.02348531
0.43078519 0.09262338 0.02569175
0.47786036 0.09732248 0.02852286
0.52020229 0.10217931 0.03134946
0.55899432 0.10754504 0.03395283
0.59475452 0.11372511 0.03637683
0.62781594 0.12081546 0.03858397
0.65858394 0.12849278 0.04026539
0.68718491 0.13667815 0.04138712
0.71374211 0.14519761 0.04188218
0.73825391 0.15399467 0.04186765
0.76075025 0.16296285 0.04142675
0.78134076 0.17191146 0.04053443
0.80024995 0.18054837 0.03899435
0.81779405 0.18853088 0.03647566
0.83411195 0.19579181 0.03300332
0.84936720 0.20230253 0.02863368
0.86371374 0.20812173 0.02353280
0.87738044 0.21330936 0.01783824
0.89057452 0.21804890 0.01185498
0.90362228 0.22250099 0.00581108
0.91685132 0.22695083 0.00009964
0.03070609 0.12617679 0.02898552
0.03070609 0.12617679 0.02898552
0.03070609 0.12617679 0.02898552
0.03070609 0.12617679 0.02898552
0.03070609 0.12617679 0.02898552
0.07859920 0.13272570 0.02342930
0.13472446 0.13530502 0.01950556
0.18727481 0.13717720 0.01820336
0.23767775 0.13901479 0.01807688
0.28723153 0.14088865 0.01847840
0.33659808 0.14281947 0.01931351
0.38604940 0.14489891 0.02065833
0.43573561 0.14725421 0.02254167
0.48350703 0.14965689 0.02526382
0.52670603 0.15194797 0.02878274
0.56622633 0.15470205 0.03276008
0.60261533 0.15821083 0.03693681
0.63652575 0.16228339 0.04061534
0.66793169 0.16717092 0.04402817
0.69724087 0.17253436 0.04664949
0.72455170 0.17827770 0.04839954
0.74991277 0.18431023 0.04928417
0.77333602 0.19056564 0.04939264
0.79497137 0.19683166 0.04860533
0.81500461 0.20287831 0.04677225
0.83357608 0.20856368 0.04387167
0.85084725 0.21377442 0.03990648
0.86697021 0.21847061 0.03497456
0.88210974 0.22267272 0.02924412
0.89649581 0.22641557 0.02286899
0.91033198 0.22986115 0.01617951
0.92398090 0.23310775 0.00934456
0.93775779 0.23643090 0.00278886
0.03783983 0.18336519 0.03408879
0.03783983 0.18336519 0.03408879
0.03783983 0.18336519 0.03408879
0.03783983 0.18336519 0.03408879
0.03783983 0.18336519 0.03408879
0.08592523 0.18838654 0.02678841
0.13982529 0.19045627 0.02231313
0.19110304 0.19200637 0.02062444
0.24068217 0.19349091 0.02026381
0.28965097 0.19500926 0.02056158
0.33867191 0.19653385 0.02131242
0.38806797 0.19806134 0.02251091
0.43798482 0.19962874 0.02415997
0.48650925 0.20080270 0.02666589
0.53100083 0.20134838 0.03034068
0.57207415 0.20189896 0.03469726
0.61002715 0.20293085 0.03958850
0.64470712 0.20500468 0.04545104
0.67747236 0.20724608 0.04993982
0.70770072 0.21029168 0.05424889
0.73608132 0.21356475 0.05720272
0.76252416 0.21713081 0.05902587
0.78704982 0.22093970 0.05977621
0.80977084 0.22484972 0.05938228
0.83081844 0.22871115 0.05778626
0.85031747 0.23240745 0.05500208
0.86843928 0.23581663 0.05102591
0.88534795 0.23887859 0.04594982
0.90119519 0.24161424 0.03998685
0.91620719 0.24404825 0.03331576
0.93065146 0.24625500 0.02615955
0.94478654 0.24842556 0.01890309
0.95902900 0.25070433 0.01178156
0.04536240 0.23684006 0.03886070
0.04536240 0.23684006 0.03886070
0.04536240 0.23684006 0.03886070
0.04536240 0.23684006 0.03886070
0.04536240 0.23684006 0.03886070
0.09310022 0.24091941 0.03054838
0.14508761 0.24260165 0.02593029
0.19517782 0.24389070 0.02435928
0.24390725 0.24516375 0.02423025
0.29217571 0.24646692 0.02474707
0.34068775 0.24777924 0.02563927
0.38981504 0.24904326 0.02687367
0.43971940 0.25023700 0.02847523
0.48879952 0.25076657 0.03083528
0.53456412 0.25022746 0.03449409
0.57728351 0.24927945 0.03903684
0.61712726 0.24836910 0.04413412
0.65413332 0.24785557 0.04966479
0.68840893 0.24793684 0.05535310
0.71972297 0.24898258 0.06162837
0.74934327 0.25011845 0.06601000
0.77682357 0.25168180 0.06937814
0.80235017 0.25351308 0.07146165
0.82601119 0.25552306 0.07221104
0.84792119 0.25760217 0.07159291
0.86816639 0.25968630 0.06970104
0.88690363 0.26168015 0.06656746
0.90431790 0.26350749 0.06225630
0.92059020 0.26515555 0.05694024
0.93592761 0.26665991 0.05085379
0.95052273 0.26815698 0.04439145
0.96456093 0.26989762 0.03810659
0.97870305 0.27176225 0.03174284
0.05438527 0.28848634 0.04431055
0.05438527 0.28848634 0.04431055
0.05438527 0.28848634 0.04431055
0.05438527 0.28848634 0.04431055
0.05438527 0.28848634 0.04431055
0.10100592 0.29194390 0.03539597
0.15089819 0.29337058 0.03075478
0.19969060 0.29448076 0.02930506
0.24752283 0.29559929 0.02937584
0.29511267 0.29676979 0.03012632
0.34307400 0.29792421 0.03116991
0.39184648 0.29901429 0.03244058
0.44162798 0.29997566 0.03397045
0.49113963 0.30010512 0.03602581
0.53813659 0.29882360 0.03928784
0.58249225 0.29680100 0.04378874
0.62417427 0.29450533 0.04920200
0.66316883 0.29228120 0.05519565
0.69947081 0.29038858 0.06149232
0.73305139 0.28904190 0.06794620
0.76403117 0.28829900 0.07415993
0.79279046 0.28796194 0.07926873
0.81945734 0.28796245 0.08304107
0.84402216 0.28832450 0.08558854
0.86655215 0.28902687 0.08703256
0.88715321 0.29000275 0.08741815
0.90600089 0.29116070 0.08676885
0.92330903 0.29241316 0.08507514
0.93920693 0.29379752 0.08261138
0.95388396 0.29536521 0.07962509
0.96714999 0.29759530 0.07740245
0.97889730 0.30098761 0.07718457
0.99045572 0.30480771 0.07727389
0.06524884 0.33933823 0.05062419
0.06524884 0.33933823 0.05062419
0.06524884 0.33933823 0.05062419
0.06524884 0.33933823 0.05062419
0.06524884 0.33933823 0.05062419
0.10987677 0.34235851 0.04135361
0.15740426 0.34362540 0.03668613
0.20469206 0.34463288 0.03527394
0.25148919 0.34564873 0.03543653
0.29831693 0.34672970 0.03631139
0.34570988 0.34781145 0.03747021
0.39405054 0.34878670 0.03874341
0.44358117 0.34961100 0.04030896
0.49333320 0.34952440 0.04205894
0.54140674 0.34778513 0.04460742
0.58741697 0.34497881 0.04851283
0.63106761 0.34158255 0.05374456
0.67218277 0.33796807 0.05998122
0.71061497 0.33445551 0.06695411
0.74635221 0.33125280 0.07421956
0.77939338 0.32851929 0.08146300
0.80983245 0.32631402 0.08812432
0.83786941 0.32458178 0.09363632
0.86347309 0.32340442 0.09824377
0.88668495 0.32281032 0.10208470
0.90743609 0.32292179 0.10558039
0.92567771 0.32386992 0.10916546
0.94157830 0.32563854 0.11292381
0.95500421 0.32849249 0.11761316
0.96646032 0.33221590 0.12286821
0.97666876 0.33646715 0.12809627
0.98621886 0.34109092 0.13309861
0.99629462 0.34553858 0.13682132
0.07794053 0.39001544 0.05763611
0.07794053 0.39001544 0.05763611
0.07794053 0.39001544 0.05763611
0.07794053 0.39001544 0.05763611
0.07794053 0.39001544 0.05763611
0.11976074 0.39269426 0.04831799
0.16461025 0.39387701 0.04351667
0.21020476 0.39482804 0.04214676
0.25582510 0.39578186 0.04247341
0.30173376 0.39680637 0.04347470
0.34841583 0.39785549 0.04479736
0.39622577 0.39882367 0.04622683
0.44537655 0.39958921 0.04775564
0.49515908 0.39942634 0.04918409
0.54403760 0.39747971 0.05083576
0.59155128 0.39418900 0.05365461
0.63721633 0.38997250 0.05798278
0.68062328 0.38522119 0.06380198
0.72148536 0.38027956 0.07084375
0.75964586 0.37542425 0.07869415
0.79497136 0.37090644 0.08696045
0.82747829 0.36687157 0.09488734
0.85720650 0.36342266 0.10221618
0.88411703 0.36069587 0.10906027
0.90799912 0.35894668 0.11596728
0.92841493 0.35861407 0.12392461
0.94470179 0.36032808 0.13423309
0.95677397 0.36429086 0.14706399
0.96644543 0.36926532 0.15960229
0.97504328 0.37440873 0.17044506
0.98298346 0.37962527 0.17981714
0.99085211 0.38477360 0.18772559
0.99982562 0.38937343 0.19342326
0.09207359 0.44089248 0.06518705
0.09207359 0.44089248 0.06518705
0.09207359 0.44089248 0.06518705
0.09207359 0.44089248 0.06518705
0.09207359 0.44089248 0.06518705
0.13064050 0.44327389 0.05627738
0.17284800 0.44438401 0.05165082
0.21648160 0.44531012 0.05034157
0.26063376 0.44626013 0.05065028
0.30542708 0.44727430 0.05171530
0.35121352 0.44831790 0.05310899
0.39832799 0.44931351 0.05462774
0.44698797 0.45013518 0.05623641
0.49657057 0.44999930 0.05741451
0.54590537 0.44804695 0.05822042
0.59459136 0.44456213 0.05975601
0.64207844 0.43985366 0.06267964
0.68780429 0.43426194 0.06729607
0.73129583 0.42813618 0.07356988
0.77219136 0.42181264 0.08128250
0.81024020 0.41559542 0.08988089
0.84528258 0.40974794 0.09877107
0.87713989 0.40454515 0.10787396
0.90556596 0.40030903 0.11747179
0.92985922 0.39767313 0.12882874
0.94833870 0.39796676 0.14477159
0.96072418 0.40157490 0.16493439
0.96936982 0.40699090 0.18504495
0.97615911 0.41300508 0.20291593
0.98231072 0.41891973 0.21786037
0.98846670 0.42449902 0.23006148
0.99498550 0.42976855 0.24001588
1.00000000 0.43432472 0.24721456
0.10624790 0.48967030 0.07237901
0.10624790 0.48967030 0.07237901
0.10624790 0.48967030 0.07237901
0.10624790 0.48967030 0.07237901
0.10624790 0.48967030 0.07237901
0.14181925 0.49182178 0.06442712
0.18119502 0.49291728 0.06025424
0.22252120 0.49388836 0.05915493
0.26483017 0.49491714 0.05957558
0.30812413 0.49602493 0.06074150
0.35265726 0.49718002 0.06222375
0.39871959 0.49830818 0.06382683
0.44654673 0.49931194 0.06551191
0.49563303 0.49943951 0.06660391
0.54495593 0.49772515 0.06674499
0.59429208 0.49438523 0.06707640
0.64313738 0.48960199 0.06838450
0.69088488 0.48361554 0.07121821
0.73692300 0.47672598 0.07587979
0.78071185 0.46927028 0.08241154
0.82181148 0.46159805 0.09043524
0.85984576 0.45407169 0.09959447
0.89439415 0.44711386 0.11000425
0.92469749 0.44138320 0.12270247
0.94882362 0.43831228 0.14088400
0.96395894 0.43995133 0.16807298
0.97341624 0.44445783 0.19617458
0.97967745 0.45033548 0.22172005
0.98438793 0.45661980 0.24365400
0.98870617 0.46271282 0.26179499
0.99338937 0.46833275 0.27641202
0.99876682 0.47352023 0.28816816
1.00000000 0.47790805 0.29669116
0.11968779 0.53372749 0.07791961
0.11968779 0.53372749 0.07791961
0.11968779 0.53372749 0.07791961
0.11968779 0.53372749 0.07791961
0.11968779 0.53372749 0.07791961
0.15261890 0.53570521 0.07168476
0.18902553 0.53684157 0.06843853
0.22763756 0.53793842 0.06781642
0.26762221 0.53914590 0.06856312
0.30891216 0.54046903 0.07000246
0.35169128 0.54187693 0.07174875
0.39620397 0.54330079 0.07360132
0.44267410 0.54464594 0.07550242
0.49070077 0.54522393 0.07669012
0.53945488 0.54408502 0.07656974
0.58872971 0.54124400 0.07602511
0.63819186 0.53684181 0.07590255
0.68728122 0.53100341 0.07686110
0.73535480 0.52393124 0.07942499
0.78176036 0.51590367 0.08391748
0.82587863 0.50726495 0.09036709
0.86710762 0.49842885 0.09883165
0.90469433 0.48995981 0.10991324
0.93719374 0.48288138 0.12583823
0.96080324 0.47966384 0.15296009
0.97417286 0.48151106 0.18922758
0.98200132 0.48596543 0.22371942
0.98689944 0.49158296 0.25373858
0.99037562 0.49756017 0.27905717
0.99342008 0.50344114 0.30004322
0.99688185 0.50891435 0.31703679
1.00000000 0.51392514 0.33063280
1.00000000 0.51810973 0.34053359
0.13256634 0.57449221 0.08206507
0.13256634 0.57449221 0.08206507
0.13256634 0.57449221 0.08206507
0.13256634 0.57449221 0.08206507
0.13256634 0.57449221 0.08206507
0.16334275 0.57631093 0.07811229
0.19685277 0.57750296 0.07605752
0.23261746 0.57874501 0.07608962
0.27002935 0.58015884 0.07728266
0.30901041 0.58173496 0.07908022
0.34971165 0.58344084 0.08119074
0.39233469 0.58521461 0.08340473
0.43708750 0.58696760 0.08563920
0.48361433 0.58804591 0.08707431
0.53124821 0.58755598 0.08703305
0.57991342 0.58547160 0.08625476
0.62926278 0.58172774 0.08528601
0.67890886 0.57642717 0.08482541
0.72826650 0.56966270 0.08543059
0.77666253 0.56161637 0.08765509
0.82337697 0.55256916 0.09196849
0.86762263 0.54292370 0.09894042
0.90834021 0.53331235 0.10986428
0.94349888 0.52497918 0.12819524
0.96778960 0.52104269 0.16292967
0.98086629 0.52223921 0.20678455
0.98809694 0.52602589 0.24704750
0.99235285 0.53096347 0.28132353
0.99517817 0.53630320 0.30988262
0.99747365 0.54167011 0.33353064
0.99993406 0.54684795 0.35297302
1.00000000 0.55164525 0.36860842
1.00000000 0.55561803 0.38003357
0.14505787 0.61269106 0.08509107
0.14505787 0.61269106 0.08509107
0.14505787 0.61269106 0.08509107
0.14505787 0.61269106 0.08509107
0.14505787 0.61269106 0.08509107
0.17401606 0.61436729 0.08369386
0.20482907 0.61561134 0.08301624
0.23780310 0.61699376 0.08386850
0.27254188 0.61860629 0.08555145
0.30904633 0.62043543 0.08769904
0.34746067 0.62244269 0.09011369
0.38795741 0.62457287 0.09262577
0.43072949 0.62674496 0.09517790
0.47544954 0.62833940 0.09695403
0.52154126 0.62849414 0.09718870
0.56905163 0.62718306 0.09654305
0.61776607 0.62431810 0.09542146
0.66726103 0.61978476 0.09418402
0.71712556 0.61366917 0.09344547
0.76674455 0.60604976 0.09380894
0.81539255 0.59710952 0.09598833
0.86219421 0.58717840 0.10100863
0.90591428 0.57685215 0.11080977
0.94417124 0.56740033 0.12994699
0.97096683 0.56203492 0.16900120
0.98502077 0.56201010 0.21972194
0.99249890 0.56473095 0.26577491
0.99668604 0.56871753 0.30450522
0.99926309 0.57322929 0.33651757
1.00000000 0.57792651 0.36298610
1.00000000 0.58265770 0.38496693
1.00000000 0.58719369 0.40287538
1.00000000 0.59091995 0.41596011
0.15713662 0.64871472 0.08714452
0.15713662 0.64871472 0.08714452
0.15713662 0.64871472 0.08714452
0.15713662 0.64871472 0.08714452
0.15713662 0.64871472 0.08714452
0.18450701 0.65026767 0.08823193
0.21294004 0.65154591 0.08907323
0.24331322 0.65304425 0.09087510
0.27538812 0.65483899 0.09304241
0.30933539 0.65690706 0.09550442
0.34532899 0.65920296 0.09818907
0.38353582 0.66167597 0.10099106
0.42413988 0.66425261 0.10388085
0.46683044 0.66634632 0.10606636
0.51109171 0.66713062 0.10673155
0.55703745 0.66656195 0.10641410
0.60457225 0.66455862 0.10544270
0.65341574 0.66099724 0.10407111
0.70309936 0.65573137 0.10259940
0.75318990 0.64884447 0.10169932
0.80302402 0.64041731 0.10213565
0.85174761 0.63067017 0.10513029
0.89810084 0.62008257 0.11304627
0.93969876 0.60975298 0.13098924
0.97074144 0.60250663 0.17006099
0.98702610 0.60084466 0.22715561
0.99555210 0.60220957 0.27940435
1.00000000 0.60507477 0.32318387
1.00000000 0.60865351 0.35918224
1.00000000 0.61260005 0.38888241
1.00000000 0.61677329 0.41362105
1.00000000 0.62095206 0.43397432
1.00000000 0.62435753 0.44879829
0.16879056 0.68276558 0.08839533
0.16879056 0.68276558 0.08839533
0.16879056 0.68276558 0.08839533
0.16879056 0.68276558 0.08839533
0.16879056 0.68276558 0.08839533
0.19467368 0.68422185 0.09171441
0.22109658 0.68551050 0.09418704
0.24915321 0.68709181 0.09710606
0.27866795 0.68904463 0.09982147
0.31005037 0.69133062 0.10260017
0.34355268 0.69389463 0.10553067
0.37936110 0.69668834 0.10859122
0.41766075 0.69964512 0.11179037
0.45815417 0.70220888 0.11437167
0.50036824 0.70358874 0.11550149
0.54446493 0.70373405 0.11562124
0.59041493 0.70254956 0.11494896
0.63805855 0.69991942 0.11369154
0.68708135 0.69570164 0.11209147
0.73697487 0.68972954 0.11046372
0.78727349 0.68209571 0.10962942
0.83721295 0.67290663 0.11081161
0.88564795 0.66248441 0.11638700
0.93046934 0.65164542 0.13136335
0.96692984 0.64248159 0.16575924
0.98685592 0.63883937 0.22820068
0.99726694 0.63861731 0.28733052
1.00000000 0.64023071 0.33708928
1.00000000 0.64281588 0.37793142
1.00000000 0.64603728 0.41174762
1.00000000 0.64967648 0.43991627
1.00000000 0.65328476 0.46254983
1.00000000 0.65617272 0.47886383
0.18027646 0.71491254 0.08931887
0.18027646 0.71491254 0.08931887
0.18027646 0.71491254 0.08931887
0.18027646 0.71491254 0.08931887
0.18027646 0.71491254 0.08931887
0.20465620 0.71630296 0.09452560
0.22929971 0.71759354 0.09857500
0.25525808 0.71923829 0.10261908
0.28236829 0.72132439 0.10593139
0.31124191 0.72380440 0.10903216
0.34224168 0.72661247 0.11218638
0.37559534 0.72970104 0.11546696
0.41149848 0.73301007 0.11891859
0.44967194 0.73601034 0.12183522
0.48967365 0.73794544 0.12337571
0.53170340 0.73876329 0.12391252
0.57578517 0.73836301 0.12360014
0.62182975 0.73661511 0.12257404
0.66964194 0.73338523 0.12102930
0.71888069 0.72852454 0.11921429
0.76899842 0.72185413 0.11750500
0.81946358 0.71348825 0.11715991
0.86930712 0.70359644 0.12034738
0.91679399 0.69271096 0.13159929
0.95816245 0.68228323 0.16003472
0.98406331 0.67615739 0.22218872
0.99745124 0.67409828 0.28867755
1.00000000 0.67432778 0.34565654
1.00000000 0.67584822 0.39247488
1.00000000 0.67832486 0.43145288
1.00000000 0.68125688 0.46326511
1.00000000 0.68420185 0.48837711
1.00000000 0.68647097 0.50616196
0.19156769 0.74519625 0.09005922
0.19156769 0.74519625 0.09005922
0.19156769 0.74519625 0.09005922
0.19156769 0.74519625 0.09005922
0.19156769 0.74519625 0.09005922
0.21446957 0.74654261 0.09686781
0.23745621 0.74783910 0.10230406
0.26147371 0.74953941 0.10736118
0.28636251 0.75173677 0.11128884
0.31282771 0.75438828 0.11469685
0.34136552 0.75741639 0.11804250
0.37224793 0.76077580 0.12146642
0.40569302 0.76441249 0.12504661
0.44146697 0.76781617 0.12818986
0.47914523 0.77026385 0.13004429
0.51895833 0.77170494 0.13094511
0.56096645 0.77204019 0.13097933
0.60513830 0.77113481 0.13022798
0.65135167 0.76884090 0.12879999
0.69938737 0.76501451 0.12690012
0.74888084 0.75950547 0.12490817
0.79921695 0.75213375 0.12355904
0.84972953 0.74305870 0.12480926
0.89905375 0.73257608 0.13254674
0.94427700 0.72162425 0.15501372
0.97798970 0.71293512 0.20844765
0.99570294 0.70880069 0.28228284
1.00000000 0.70746216 0.34786148
1.00000000 0.70778944 0.40199096
1.00000000 0.70935555 0.44698527
1.00000000 0.71148294 0.48308258
1.00000000 0.71370693 0.51110007
1.00000000 0.71530800 0.53052774
0.20257340 0.77363411 0.09065715
0.20257340 0.77363411 0.09065715
0.20257340 0.77363411 0.09065715
0.20257340 0.77363411 0.09065715
0.20257340 0.77363411 0.09065715
0.22399749 0.77495917 0.09874494
0.24539232 0.77627257 0.10530686
0.26758643 0.77802840 0.11119809
0.29041750 0.78032587 0.11567863
0.31457951 0.78313193 0.11930760
0.34071091 0.78636365 0.12273543
0.36917165 0.78996810 0.12625351
0.40020489 0.79389563 0.12999439
0.43357310 0.79766327 0.13334689
0.46887898 0.80057655 0.13548371
0.50638438 0.80258740 0.13673073
0.54618374 0.80359949 0.13716501
0.58828340 0.80348099 0.13680239
0.63261947 0.80207962 0.13569137
0.67904834 0.79923763 0.13395902
0.72732965 0.79480716 0.13190124
0.77706526 0.78864479 0.13012967
0.82754422 0.78058125 0.12990141
0.87787029 0.77084803 0.13439401
0.92601995 0.75994706 0.14999068
0.96737692 0.74938304 0.18852208
0.99129557 0.74291315 0.26695445
