Luts Download/Canon Luts/3dlut/33grid-3dlut/full-to-full-range/BT709_CanonLog2-to-BT709_WideDR_33_FF_Ver.2.0.cube
# Gamut : BT.709 to BT.709
# Gamma : Canon Log 2 to Wide DR
# Range : Full in / Full out
# Version : 2.0 2019/10/24
# Copyright(c) 2019 Canon Inc. All Rights Reserved.
LUT_3D_SIZE 9
# LUT_3D_INPUT_RANGE 0.0 1.0
0.00000000 0.00000000 0.00000000
0.01274707 0.00213089 0.00211281
0.12728685 0.00732097 0.00621363
0.32992992 0.01839064 0.01087461
0.58820367 0.04884457 0.01621551
0.78823732 0.09875535 0.01342685
0.91035573 0.14574112 0.01083054
0.98094824 0.26785637 0.10362038
1.00000000 0.66619432 0.53953489
0.00490265 0.01643263 0.00479748
0.01826300 0.01831577 0.00461081
0.13644352 0.02219528 0.00632570
0.33525464 0.03232833 0.01010503
0.59101595 0.06300760 0.01755001
0.79125939 0.10914200 0.01647396
0.91448667 0.15136332 0.01352188
0.98083322 0.27525921 0.11209507
1.00000000 0.66918382 0.54334820
0.01699737 0.14075659 0.01308950
0.02893830 0.14246883 0.01081755
0.14405298 0.14517317 0.00976255
0.33927265 0.15152036 0.01377827
0.60202820 0.16132895 0.02521416
0.81231315 0.17303378 0.03422538
0.93776970 0.19746415 0.03990932
0.97910482 0.32534651 0.16757754
1.00000000 0.69046660 0.57048872
0.04334451 0.34527108 0.02635498
0.05723518 0.34581001 0.02581803
0.16232856 0.34710272 0.02618761
0.34792765 0.35054721 0.02905494
0.63021653 0.34171828 0.03536400
0.87929660 0.30742603 0.06762954
0.97440887 0.33724473 0.16155718
0.98206590 0.44439122 0.29690896
1.00000000 0.75344445 0.65186642
0.07428404 0.61330645 0.03171165
0.09178842 0.61336572 0.03519145
0.17793960 0.61463333 0.04278397
0.33579239 0.62026773 0.04658056
0.61481492 0.61883107 0.04471319
0.95023734 0.55583907 0.09456455
1.00000000 0.57070416 0.36680223
0.99727261 0.63827061 0.51375409
1.00000000 0.87995305 0.81813185
0.12017243 0.82710757 0.03043888
0.13249707 0.82717736 0.03611602
0.18537553 0.82964974 0.05085997
0.28367228 0.84064619 0.05920181
0.49023606 0.85930100 0.07541293
0.82626688 0.83432967 0.09598023
1.00000000 0.78137466 0.48393982
1.00000000 0.81003395 0.70615448
1.00000000 1.00000000 1.00000000
0.21145144 0.96068568 0.07535031
0.21824058 0.96080882 0.08182946
0.24940302 0.96329812 0.10596951
0.31388002 0.97384471 0.14618274
0.47912602 0.99094738 0.26555930
0.68559896 0.99776295 0.37145055
0.94553709 0.96875297 0.40574295
1.00000000 0.93760242 0.83968583
1.00000000 1.00000000 1.00000000
0.72943093 1.00000000 0.63349947
0.73142695 1.00000000 0.63592909
0.74505136 1.00000000 0.65240039
0.78536540 1.00000000 0.70200245
0.86685506 1.00000000 0.80496136
0.95006525 1.00000000 0.91257588
1.00000000 1.00000000 1.00000000
1.00000000 1.00000000 1.00000000
1.00000000 1.00000000 1.00000000
1.00000000 1.00000000 1.00000000
1.00000000 1.00000000 1.00000000
1.00000000 1.00000000 1.00000000
1.00000000 1.00000000 1.00000000
1.00000000 1.00000000 1.00000000
1.00000000 1.00000000 1.00000000
1.00000000 1.00000000 1.00000000
1.00000000 1.00000000 1.00000000
1.00000000 1.00000000 1.00000000
0.00116992 0.00123906 0.01165592
0.01466974 0.00239867 0.01457254
0.12930128 0.00728736 0.02039097
0.33093209 0.01789569 0.02652621
0.59388281 0.04044675 0.02560112
0.79495427 0.08705006 0.01509599
0.91416741 0.14094804 0.01088499
0.98144900 0.26851520 0.10574159
1.00000000 0.66702752 0.54064403
0.00459489 0.01768780 0.01767261
0.01903558 0.01903558 0.01903558
0.14514181 0.01911251 0.01873234
0.33951694 0.02880383 0.02373203
0.59769777 0.05298369 0.02590773
0.79760695 0.09885879 0.01852173
0.91802974 0.14712494 0.01391071
0.98117823 0.27606666 0.11435336
1.00000000 0.67001913 0.54445878
0.01679440 0.14087224 0.02813871
0.02004974 0.14500487 0.01871620
0.14482862 0.14533086 0.01909629
0.34339851 0.14918238 0.02488724
0.60743750 0.15611595 0.03381642
0.81536213 0.16988352 0.04014447
0.93914413 0.19683953 0.04325032
0.97891765 0.32654638 0.17008800
1.00000000 0.69129884 0.57158125
0.03856104 0.34565199 0.03909657
0.04921144 0.34655229 0.03611795
0.15755428 0.34778521 0.03469391
0.34826235 0.35028609 0.03781467
0.63249956 0.34044754 0.04553449
0.87712611 0.30960595 0.08256943
0.97100342 0.34079773 0.16975202
0.98140554 0.44572225 0.29942181
1.00000000 0.75428731 0.65294004
0.06492813 0.61386997 0.03950014
0.08192538 0.61398391 0.04234578
0.17473349 0.61494466 0.05269942
0.33489989 0.62039766 0.05775882
0.61492103 0.61875557 0.05634949
0.94958860 0.55630197 0.10691972
1.00000000 0.57146704 0.37004836
0.99748309 0.63908386 0.51527332
1.00000000 0.88094544 0.81941227
0.11533756 0.82753775 0.03431402
0.12851955 0.82757106 0.04039166
0.18895897 0.82943566 0.06232783
0.28745680 0.84026170 0.07347219
0.49230841 0.85893275 0.09172269
0.82615333 0.83438874 0.10864707
1.00000000 0.78175607 0.48627037
1.00000000 0.81084562 0.70761602
1.00000000 1.00000000 1.00000000
0.21111528 0.96095989 0.07807855
0.21827836 0.96104806 0.08495879
0.25548033 0.96287098 0.11577008
0.32044022 0.97319708 0.15649929
0.48297603 0.99038628 0.27249378
0.68714678 0.99749337 0.37613621
0.94551901 0.96878965 0.41013831
1.00000000 0.93816747 0.84118350
1.00000000 1.00000000 1.00000000
0.73037480 1.00000000 0.63482574
0.73238439 1.00000000 0.63727413
0.74614692 1.00000000 0.65393901
0.78647611 1.00000000 0.70358083
0.86777641 1.00000000 0.80628928
0.95094053 1.00000000 0.91389942
1.00000000 1.00000000 1.00000000
1.00000000 1.00000000 1.00000000
1.00000000 1.00000000 1.00000000
1.00000000 1.00000000 1.00000000
1.00000000 1.00000000 1.00000000
1.00000000 1.00000000 1.00000000
1.00000000 1.00000000 1.00000000
1.00000000 1.00000000 1.00000000
1.00000000 1.00000000 1.00000000
1.00000000 1.00000000 1.00000000
1.00000000 1.00000000 1.00000000
1.00000000 1.00000000 1.00000000
0.00352523 0.00733068 0.10696383
0.01679583 0.00694497 0.11700523
0.13361893 0.00905371 0.13084799
0.33327305 0.01742736 0.14342391
0.60070426 0.03274640 0.13210264
0.81358656 0.05745561 0.07068376
0.93253597 0.11955546 0.02758937
0.98148162 0.27648668 0.12634995
1.00000000 0.67320430 0.54969437
0.00625314 0.02224896 0.12057533
0.01819154 0.01928727 0.14536510
0.14570765 0.01888716 0.14479083
0.34234645 0.02682346 0.14494430
0.60608847 0.04247249 0.13183743
0.81535910 0.07182863 0.07548891
0.93399291 0.13069761 0.03375147
0.98057417 0.28449973 0.13510757
1.00000000 0.67618392 0.55347160
0.01462907 0.14232447 0.14207906
0.02422782 0.14419811 0.14405706
0.14520997 0.14520997 0.14520997
0.34972431 0.14531795 0.14480558
0.61622765 0.14816865 0.13801229
0.82265379 0.16550567 0.10978831
0.93987183 0.20391334 0.08554073
0.97617524 0.33579568 0.19001681
1.00000000 0.69738635 0.58032800
0.03264306 0.34596226 0.15378871
0.04080517 0.34722733 0.15138437
0.14654307 0.34960519 0.14483424
0.34945853 0.34990251 0.14527966
0.63490688 0.33916310 0.15329452
0.85986746 0.32558009 0.17620122
0.95541045 0.35815569 0.21688223
0.97761458 0.45405521 0.31667192
1.00000000 0.76016258 0.66103632
0.06511443 0.61394558 0.14313670
0.07763654 0.61434469 0.14323974
0.16151724 0.61643050 0.14231794
0.33173940 0.62104299 0.15016654
0.61588198 0.61852234 0.14567510
0.94381537 0.55992163 0.18883011
1.00000000 0.57688151 0.39529702
0.99783662 0.64479343 0.52699149
1.00000000 0.88763468 0.82827022
0.15819126 0.82530234 0.12745697
0.16381750 0.82575446 0.12857828
0.20497910 0.82876794 0.13577928
0.31068207 0.83786186 0.16097300
0.50422452 0.85688866 0.17907920
0.82565888 0.83475298 0.18482928
1.00000000 0.78431745 0.50436525
1.00000000 0.81632549 0.71805312
1.00000000 1.00000000 1.00000000
0.22552611 0.96131127 0.11814668
0.22816942 0.96182185 0.11951361
0.24805866 0.96546364 0.12889741
0.35936583 0.96924872 0.21757253
0.50754430 0.98678824 0.31787028
0.69782987 0.99561853 0.40917383
0.94555246 0.96903208 0.44115390
1.00000000 0.94205339 0.85166844
1.00000000 1.00000000 1.00000000
0.73804844 1.00000000 0.64580414
0.74001473 1.00000000 0.64819696
0.75382487 1.00000000 0.66495388
0.79419487 1.00000000 0.71473962
0.87427802 1.00000000 0.81578160
0.95683605 1.00000000 0.92276523
1.00000000 1.00000000 1.00000000
1.00000000 1.00000000 1.00000000
1.00000000 1.00000000 1.00000000
1.00000000 1.00000000 1.00000000
1.00000000 1.00000000 1.00000000
1.00000000 1.00000000 1.00000000
1.00000000 1.00000000 1.00000000
1.00000000 1.00000000 1.00000000
1.00000000 1.00000000 1.00000000
1.00000000 1.00000000 1.00000000
1.00000000 1.00000000 1.00000000
1.00000000 1.00000000 1.00000000
0.00459339 0.02829797 0.28290185
0.01632444 0.02101137 0.30632797
0.13726384 0.01709960 0.32245834
0.33774746 0.02153838 0.33257975
0.61043367 0.02997728 0.31500036
0.83316641 0.04864928 0.22348740
0.95673304 0.11189468 0.12110962
0.97777342 0.30266638 0.18510675
1.00000000 0.69043486 0.57734486
0.00654474 0.04051278 0.29743997
0.01763642 0.03208708 0.32306525
0.14183089 0.02677077 0.33742899
0.34361531 0.03066314 0.33992115
0.61526129 0.03944829 0.31678152
0.83487200 0.06263276 0.22653308
0.95591776 0.12753662 0.12886321
0.97628580 0.31056564 0.19298114
1.00000000 0.69335447 0.58098352
0.01623799 0.14853136 0.32663943
0.02370145 0.14756754 0.33881916
0.14411251 0.14553327 0.34994565
0.35021600 0.14503960 0.34940751
0.62603949 0.14354040 0.32312463
0.83692403 0.16519594 0.25014585
0.94005985 0.22760161 0.18784300
0.96987091 0.35996127 0.24242232
1.00000000 0.71417677 0.60689385
0.03121658 0.34688727 0.34652251
0.04071381 0.34778585 0.34748747
0.14519062 0.34980741 0.34973309
0.34979522 0.34979522 0.34979522
0.61744070 0.35036010 0.34766480
0.82723645 0.35730986 0.32874958
0.93606817 0.38636713 0.30657156
0.96739507 0.47551842 0.36269665
1.00000000 0.77651616 0.68567940
0.11933754 0.61132404 0.33243030
0.13090108 0.61152723 0.33317051
0.20509944 0.61254279 0.33709476
0.35655452 0.61673334 0.34781405
0.61585689 0.61851980 0.35016258
0.91257071 0.57734150 0.36762079
0.98839112 0.59549085 0.46855009
0.99289821 0.66144195 0.56268986
1.00000000 0.90468565 0.85184729
0.28662604 0.81461930 0.31481876
0.29024076 0.81503764 0.31577182
0.31759471 0.81787704 0.32213261
0.39261638 0.82731550 0.34043820
0.55131538 0.84735147 0.36646854
0.82485381 0.83575192 0.35133735
1.00000000 0.79251006 0.55881121
1.00000000 0.83086349 0.74675377
1.00000000 1.00000000 1.00000000
0.37879584 0.94671306 0.30454617
0.38059068 0.94719884 0.30553720
0.39415212 0.95068366 0.31250880
0.43446508 0.96204545 0.33323734
0.56811095 0.97790771 0.42549190
0.72878877 0.99030767 0.49850015
0.95879465 0.97680568 0.35241622
1.00000000 0.95282296 0.88054946
1.00000000 1.00000000 1.00000000
0.76293836 1.00000000 0.68141803
0.76481416 1.00000000 0.68370183
0.77808578 1.00000000 0.69982681
0.81659662 1.00000000 0.74724234
0.89347017 1.00000000 0.84385402
1.00000000 1.00000000 1.00000000
1.00000000 1.00000000 1.00000000
1.00000000 1.00000000 1.00000000
1.00000000 1.00000000 1.00000000
1.00000000 1.00000000 1.00000000
1.00000000 1.00000000 1.00000000
1.00000000 1.00000000 1.00000000
1.00000000 1.00000000 1.00000000
1.00000000 1.00000000 1.00000000
1.00000000 1.00000000 1.00000000
1.00000000 1.00000000 1.00000000
1.00000000 1.00000000 1.00000000
1.00000000 1.00000000 1.00000000
0.00194075 0.09605467 0.48643155
0.00498682 0.07381808 0.52819588
0.11364134 0.03543095 0.59236217
0.31848505 0.03679838 0.61151741
0.60677921 0.03646078 0.59904943
0.86599713 0.03023569 0.46751641
0.98919230 0.13256434 0.30481153
0.98619849 0.34090727 0.29013611
1.00000000 0.71846431 0.62893159
0.00308097 0.10239910 0.50335083
0.00650617 0.08079913 0.54402741
0.11653945 0.04571576 0.60169093
0.32109135 0.04819683 0.61757546
0.60968187 0.04731932 0.60244947
0.86875075 0.04088846 0.46964267
0.98722805 0.14831818 0.30978560
0.98528132 0.34743710 0.29573725
1.00000000 0.72131391 0.63237363
0.01692847 0.16939464 0.56217968
0.02125844 0.16159215 0.58557403
0.12768243 0.15011242 0.61932594
0.32734079 0.15486106 0.62774395
0.62008103 0.14412337 0.61502723
0.88207457 0.13001220 0.48247936
0.97802069 0.23265220 0.34191510
0.98108222 0.39037513 0.33335095
1.00000000 0.74169742 0.65694500
0.05521165 0.34271324 0.62079644
0.07091766 0.34320931 0.62041657
0.17018953 0.34523282 0.61867329
0.34393425 0.35152058 0.61877958
0.62046990 0.34889146 0.61553958
0.87468286 0.33988160 0.51965896
0.96535862 0.39454286 0.42983717
0.97713530 0.49975729 0.43656405
1.00000000 0.80334160 0.73224583
0.01790669 0.61694457 0.61661981
0.03416230 0.61710022 0.61676424
0.14705732 0.61777769 0.61742056
0.34969708 0.61795151 0.61750248
0.61787795 0.61787795 0.61787795
0.83205123 0.61903718 0.61324569
0.94779749 0.63286685 0.60134497
0.97968304 0.69130349 0.63375312
1.00000000 0.93264731 0.89375075
0.38134779 0.80819297 0.53135265
0.38524657 0.80838167 0.53253477
0.41362655 0.80966174 0.54072397
0.49076901 0.81460644 0.56605552
0.63217772 0.83011185 0.61266411
0.82742683 0.83489427 0.61889644
1.00000000 0.81211708 0.68371240
1.00000000 0.85732316 0.80475283
1.00000000 1.00000000 1.00000000
0.53637816 0.92776462 0.51827852
0.53806216 0.92813942 0.51944355
0.55051890 0.93085085 0.52776230
0.58771110 0.93991225 0.55307983
0.66673251 0.96314024 0.60315030
0.77435082 0.98692198 0.63367574
0.95796046 0.97698709 0.62047380
1.00000000 0.97298567 0.93290097
1.00000000 1.00000000 1.00000000
0.81625117 1.00000000 0.75980056
0.81779983 1.00000000 0.76164467
0.82872864 1.00000000 0.77460320
0.86173717 1.00000000 0.81423000
0.93355984 1.00000000 0.90291990
1.00000000 1.00000000 1.00000000
1.00000000 1.00000000 1.00000000
1.00000000 1.00000000 1.00000000
1.00000000 1.00000000 1.00000000
1.00000000 1.00000000 1.00000000
1.00000000 1.00000000 1.00000000
1.00000000 1.00000000 1.00000000
1.00000000 1.00000000 1.00000000
1.00000000 1.00000000 1.00000000
1.00000000 1.00000000 1.00000000
1.00000000 1.00000000 1.00000000
1.00000000 1.00000000 1.00000000
1.00000000 1.00000000 1.00000000
0.00000000 0.18445802 0.59806501
0.00000000 0.17914290 0.61855885
0.02099421 0.10036869 0.78307069
0.21746989 0.07302244 0.86922762
0.50666170 0.08795474 0.91227227
0.82141399 0.05646694 0.80808910
0.99832969 0.15364425 0.56793823
0.99863405 0.37024203 0.44289500
1.00000000 0.74123316 0.69250603
0.00000000 0.18803258 0.61359634
0.00000000 0.18254987 0.63406962
0.02408862 0.10869081 0.79102663
0.21953845 0.09225434 0.86751154
0.50760179 0.10598895 0.91049028
0.82291943 0.07066717 0.80918251
0.99723035 0.16674988 0.56986733
0.99833161 0.37571274 0.44656495
1.00000000 0.74403774 0.69561746
0.00794269 0.21974570 0.70126457
0.00781792 0.21468633 0.71948549
0.04600001 0.16855944 0.83637246
0.23490495 0.19125700 0.85718421
0.51266432 0.20436660 0.89676976
0.83121088 0.16161580 0.81509471
0.99263054 0.24115473 0.58391979
0.99720881 0.41308692 0.47230787
1.00000000 0.76417669 0.71795638
0.07989166 0.34033426 0.83376537
0.08997570 0.34125848 0.83407147
0.15828405 0.34757506 0.83310769
0.29608538 0.36451046 0.83863962
0.53551700 0.37926161 0.87286416
0.84307212 0.34595717 0.82158598
0.99031303 0.39288281 0.62977889
0.99675697 0.51499325 0.54891777
1.00000000 0.82543315 0.78674829
0.29429173 0.58161438 0.86184926
0.29955825 0.58217637 0.86098956
0.33768725 0.58580258 0.85523446
0.43440210 0.59780974 0.84078696
0.60407960 0.62201295 0.83527878
0.84120048 0.61540658 0.82695952
0.98823015 0.62804684 0.73135274
0.99516707 0.70580775 0.70897230
1.00000000 0.95509147 0.93508535
0.02464254 0.83220894 0.83154167
0.04113683 0.83231772 0.83161596
0.14473542 0.83325335 0.83236925
0.34938780 0.83335466 0.83184729
0.61763022 0.83334465 0.83194561
0.83311348 0.83311348 0.83311348
0.97144181 0.83409677 0.82907820
0.99497797 0.88051683 0.86665103
1.00000000 1.00000000 1.00000000
0.53424235 0.93888734 0.66443560
0.53696129 0.93902622 0.66573239
0.55672806 0.94001340 0.67508423
0.61506861 0.94345115 0.70474779
0.73221073 0.95352247 0.77112855
0.84547134 0.96954336 0.82790077
0.96663673 0.97424231 0.83417425
1.00000000 0.99214260 0.97849265
1.00000000 1.00000000 1.00000000
0.86155170 1.00000000 0.83871434
0.86301568 1.00000000 0.84029333
0.87344063 1.00000000 0.85152680
0.90528872 1.00000000 0.88637034
1.00000000 1.00000000 1.00000000
1.00000000 1.00000000 1.00000000
1.00000000 1.00000000 1.00000000
1.00000000 1.00000000 1.00000000
1.00000000 1.00000000 1.00000000
1.00000000 1.00000000 1.00000000
1.00000000 1.00000000 1.00000000
1.00000000 1.00000000 1.00000000
1.00000000 1.00000000 1.00000000
1.00000000 1.00000000 1.00000000
1.00000000 1.00000000 1.00000000
1.00000000 1.00000000 1.00000000
1.00000000 1.00000000 1.00000000
1.00000000 1.00000000 1.00000000
0.00000000 0.24283325 0.65537668
0.00000000 0.24258897 0.66415861
0.00000000 0.23571865 0.73611253
0.04648853 0.19664714 0.93390637
0.30847548 0.26719368 0.98950753
0.61360266 0.27386707 1.00000000
0.93214207 0.16930791 0.90482612
1.00000000 0.37581319 0.64223632
1.00000000 0.75155520 0.77028986
0.00000000 0.24636630 0.66814535
0.00000000 0.24607145 0.67689349
0.00000000 0.23884618 0.74852925
0.05122702 0.20531907 0.93487068
0.31122381 0.27588447 0.98607130
0.61470439 0.28217183 1.00000000
0.93197198 0.18173144 0.90372644
1.00000000 0.38129905 0.64423548
1.00000000 0.75439829 0.77281587
0.00115960 0.27311225 0.74939133
0.00052803 0.27258921 0.75781331
0.00153260 0.26526992 0.82283865
0.09262125 0.26510987 0.93311605
0.33191374 0.32907710 0.96951886
0.62369193 0.33413452 0.99138228
0.93182589 0.25504010 0.89823979
1.00000000 0.41886239 0.65878726
1.00000000 0.77480627 0.79102493
0.07503284 0.36843261 0.90063419
0.07804225 0.36889415 0.90428949
0.11392111 0.37502695 0.91756466
0.21639039 0.40097718 0.92808284
0.40138175 0.44839822 0.95280673
0.65787126 0.45499195 0.97680465
0.93677514 0.40832186 0.89458932
1.00000000 0.52098547 0.70485559
1.00000000 0.83702669 0.84753702
0.35465944 0.58139710 0.94757336
0.35729929 0.58220824 0.94738741
0.37769365 0.58789333 0.94547717
0.43525546 0.60540494 0.94346882
0.55752706 0.64117155 0.95100723
0.73887818 0.65673706 0.97092531
0.95707722 0.63729425 0.91928825
1.00000000 0.71244404 0.80843638
1.00000000 0.96880267 0.97136253
0.52018356 0.76667632 0.99829969
0.52284882 0.76720868 0.99747392
0.54189877 0.77099378 0.99216190
0.59420867 0.78336967 0.98091292
0.69954564 0.81212164 0.96651118
0.82039175 0.83699521 0.97440972
0.98137827 0.83060096 0.96647856
1.00000000 0.89080064 0.91879872
1.00000000 1.00000000 1.00000000
0.30113417 0.95635000 0.95394602
0.30674371 0.95649791 0.95406835
0.14433534 0.97266282 0.97125928
0.34908215 0.97281030 0.97048584
0.61729705 0.97293660 0.96987218
0.83286903 0.97269914 0.97115503
0.97244176 0.97244176 0.97244176
1.00000000 1.00000000 1.00000000
1.00000000 1.00000000 1.00000000
0.88452385 1.00000000 0.91213944
0.88609672 1.00000000 0.91330987
0.89735601 1.00000000 0.92173323
0.93161416 1.00000000 0.94804124
1.00000000 1.00000000 1.00000000
1.00000000 1.00000000 1.00000000
1.00000000 1.00000000 1.00000000
1.00000000 1.00000000 1.00000000
1.00000000 1.00000000 1.00000000
1.00000000 1.00000000 1.00000000
1.00000000 1.00000000 1.00000000
1.00000000 1.00000000 1.00000000
1.00000000 1.00000000 1.00000000
1.00000000 1.00000000 1.00000000
1.00000000 1.00000000 1.00000000
1.00000000 1.00000000 1.00000000
1.00000000 1.00000000 1.00000000
1.00000000 1.00000000 1.00000000
0.00000000 0.29723497 0.73205874
0.00000000 0.29804269 0.73695964
0.00000000 0.30332374 0.77308175
0.00000000 0.31682050 0.88314087
0.16691091 0.37786632 0.98104160
0.40346061 0.43700616 0.99771883
0.67465338 0.41899982 1.00000000
0.95511880 0.40292194 0.90296099
1.00000000 0.76591135 0.87741299
0.00000000 0.30066453 0.74223349
0.00000000 0.30145935 0.74707591
0.00000000 0.30664026 0.78284816
0.00165346 0.32028206 0.89067105
0.17258266 0.38307959 0.97979511
0.40650599 0.44133192 0.99694084
0.67623282 0.42365245 1.00000000
0.95512313 0.40834089 0.90269595
1.00000000 0.76880350 0.87896213
0.00103249 0.32621746 0.80831766
0.00083287 0.32693763 0.81280499
0.00130759 0.33176696 0.84544328
0.02450205 0.34872441 0.93129345
0.21160015 0.41831759 0.97350411
0.42852850 0.47130922 0.99304095
0.68793883 0.45580092 1.00000000
0.95594258 0.44527161 0.90206390
1.00000000 0.78956092 0.89030516
0.08123801 0.41399455 0.93433256
0.08404988 0.41511381 0.93571791
0.10733643 0.42354738 0.94333648
0.17967887 0.45198533 0.95278337
0.31904138 0.51072862 0.96873100
0.49729290 0.55425533 0.99025396
0.72647843 0.54434892 0.99667864
0.96280068 0.54441552 0.90799801
1.00000000 0.85285766 0.92644678
0.37820630 0.60723637 0.97003855
0.37999579 0.60810261 0.97010158
0.39341912 0.61430236 0.97053279
0.43447737 0.63367408 0.97198500
0.52582911 0.67577241 0.98029012
0.65063649 0.71208468 0.99367672
0.81345216 0.71479120 0.99701894
0.97899603 0.73181506 0.93593328
1.00000000 1.00000000 1.00000000
0.61403213 0.77096351 0.99222500
0.61542650 0.77161474 0.99207513
0.62545438 0.77632059 0.99148378
0.65593600 0.79126417 0.99109770
0.72545838 0.82550816 0.99277054
0.81178599 0.86036189 0.99797284
0.90545297 0.87760677 0.99999615
0.99268347 0.90953070 0.97663563
1.00000000 1.00000000 1.00000000
0.75172507 0.88334065 1.00000000
0.75300418 0.88385854 1.00000000
0.76234986 0.88762873 1.00000000
0.79134639 0.89973269 0.99928322
0.85662020 0.92841336 0.99902249
0.92880230 0.96088766 1.00000000
0.98287890 0.98603654 1.00000000
1.00000000 1.00000000 1.00000000
1.00000000 1.00000000 1.00000000
0.92346860 1.00000000 1.00000000
0.92512417 1.00000000 1.00000000
0.93696095 1.00000000 1.00000000
1.00000000 1.00000000 1.00000000
1.00000000 1.00000000 1.00000000
1.00000000 1.00000000 1.00000000
1.00000000 1.00000000 1.00000000
1.00000000 1.00000000 1.00000000
1.00000000 1.00000000 1.00000000
1.00000000 1.00000000 1.00000000
1.00000000 1.00000000 1.00000000
1.00000000 1.00000000 1.00000000
1.00000000 1.00000000 1.00000000
1.00000000 1.00000000 1.00000000
1.00000000 1.00000000 1.00000000
1.00000000 1.00000000 1.00000000
1.00000000 1.00000000 1.00000000
1.00000000 1.00000000 1.00000000
0.09954004 0.48752717 1.00000000
0.10082935 0.48845774 1.00000000
0.11208214 0.49536709 1.00000000
0.16330809 0.51975021 1.00000000
0.28401201 0.57550618 1.00000000
0.42466005 0.62739998 1.00000000
0.58307062 0.64776445 1.00000000
0.81127895 0.65207480 1.00000000
1.00000000 0.87716872 1.00000000
0.10319362 0.49041992 1.00000000
0.10450744 0.49135198 1.00000000
0.11643511 0.49834904 1.00000000
0.16847166 0.52284682 1.00000000
0.28842505 0.57834385 1.00000000
0.42803432 0.62994165 1.00000000
0.58553000 0.65026217 1.00000000
0.81259299 0.65477358 1.00000000
1.00000000 0.87967441 1.00000000
0.13785861 0.51261789 1.00000000
0.13981005 0.51363459 1.00000000
0.15511413 0.52110613 1.00000000
0.20647265 0.54533549 1.00000000
0.31968765 0.59861157 1.00000000
0.45234551 0.64820130 1.00000000
0.60341773 0.66825256 1.00000000
0.82221736 0.67420312 1.00000000
1.00000000 0.89771941 1.00000000
0.25933110 0.58328417 1.00000000
0.26114966 0.58422587 1.00000000
0.27480917 0.59104992 1.00000000
0.31788092 0.61241278 1.00000000
0.41203201 0.65882706 1.00000000
0.52764006 0.70336747 1.00000000
0.66019444 0.72306881 1.00000000
0.85279067 0.73364324 1.00000000
1.00000000 0.95303810 1.00000000
0.49000913 0.72359751 1.00000000
0.49135510 0.72430913 1.00000000
0.50127098 0.72946181 1.00000000
0.53250149 0.74567028 1.00000000
0.60424641 0.78224206 1.00000000
0.69430197 0.81966081 1.00000000
0.79137705 0.84042785 1.00000000
0.92443822 0.86205845 1.00000000
1.00000000 1.00000000 1.00000000
0.71407163 0.85496014 1.00000000
0.71515597 0.85552862 1.00000000
0.72307385 0.85966995 1.00000000
0.74808910 0.87282884 1.00000000
0.80615619 0.90341549 1.00000000
0.87636855 0.93690769 1.00000000
0.93933268 0.96114530 1.00000000
1.00000000 1.00000000 1.00000000
1.00000000 1.00000000 1.00000000
0.87397180 0.94370859 1.00000000
0.87494465 0.94420030 1.00000000
0.88199694 0.94779667 1.00000000
0.90422353 0.95930312 1.00000000
0.95504675 0.98699392 1.00000000
1.00000000 1.00000000 1.00000000
1.00000000 1.00000000 1.00000000
1.00000000 1.00000000 1.00000000
1.00000000 1.00000000 1.00000000
1.00000000 1.00000000 1.00000000
1.00000000 1.00000000 1.00000000
1.00000000 1.00000000 1.00000000
1.00000000 1.00000000 1.00000000
1.00000000 1.00000000 1.00000000
1.00000000 1.00000000 1.00000000
1.00000000 1.00000000 1.00000000
1.00000000 1.00000000 1.00000000
1.00000000 1.00000000 1.00000000
1.00000000 1.00000000 1.00000000
1.00000000 1.00000000 1.00000000
1.00000000 1.00000000 1.00000000
1.00000000 1.00000000 1.00000000
1.00000000 1.00000000 1.00000000
1.00000000 1.00000000 1.00000000
1.00000000 1.00000000 1.00000000
1.00000000 1.00000000 1.00000000
1.00000000 1.00000000 1.00000000
