Luts Download/Canon Luts/3dlut/33grid-3dlut/full-to-full-range/BT709_CanonLog-to-BT709_WideDR_33_FF_Ver.2.0.cube
# Gamut : BT.709 to BT.709
# Gamma : Canon Log to Wide DR
# Range : Full in / Full out
# Version : 2.0 2019/10/24
# Copyright(c) 2019 Canon Inc. All Rights Reserved.
LUT_3D_SIZE 9
# LUT_3D_INPUT_RANGE 0.0 1.0
0.00000000 0.00000000 0.00000000
0.00000000 0.00000000 0.00000000
0.21464728 0.01918351 0.01768210
0.41771647 0.03660746 0.02818746
0.58199090 0.06691832 0.03554547
0.70084670 0.11133261 0.03434335
0.78490725 0.15830753 0.02979250
0.84453230 0.19478861 0.01809015
0.89523921 0.21878387 0.00000000
0.00000000 0.00000000 0.00000000
0.00000000 0.00000000 0.00000000
0.21464728 0.01918351 0.01768210
0.41771647 0.03660746 0.02818746
0.58199090 0.06691832 0.03554547
0.70084670 0.11133261 0.03434335
0.78490725 0.15830753 0.02979250
0.84453230 0.19478861 0.01809015
0.89523921 0.21878387 0.00000000
0.04536240 0.23684006 0.03886070
0.04536240 0.23684006 0.03886070
0.24390725 0.24516375 0.02423025
0.43971940 0.25023700 0.02847523
0.61712726 0.24836910 0.04413412
0.74934327 0.25011845 0.06601000
0.84792119 0.25760217 0.07159291
0.92059020 0.26515555 0.05694024
0.97870305 0.27176225 0.03174284
0.09207359 0.44089248 0.06518705
0.09207359 0.44089248 0.06518705
0.26063376 0.44626013 0.05065028
0.44698797 0.45013518 0.05623641
0.64207844 0.43985366 0.06267964
0.81024020 0.41559542 0.08988089
0.92985922 0.39767313 0.12882874
0.97615911 0.41300508 0.20291593
1.00000000 0.43432472 0.24721456
0.14505787 0.61269106 0.08509107
0.14505787 0.61269106 0.08509107
0.27254188 0.61860629 0.08555145
0.43072949 0.62674496 0.09517790
0.61776607 0.62431810 0.09542146
0.81539255 0.59710952 0.09598833
0.97096683 0.56203492 0.16900120
0.99926309 0.57322929 0.33651757
1.00000000 0.59091995 0.41596011
0.19156769 0.74519625 0.09005922
0.19156769 0.74519625 0.09005922
0.28636251 0.75173677 0.11128884
0.40569302 0.76441249 0.12504661
0.56096645 0.77204019 0.13097933
0.74888084 0.75950547 0.12490817
0.94427700 0.72162425 0.15501372
1.00000000 0.70778944 0.40199096
1.00000000 0.71530800 0.53052774
0.23287674 0.84799077 0.09138980
0.23287674 0.84799077 0.09138980
0.30242202 0.85518277 0.12409689
0.38663543 0.87080941 0.14058253
0.50443541 0.88558381 0.15172650
0.65977957 0.88674031 0.15145132
0.85053208 0.86495690 0.14971932
1.00000000 0.82672249 0.36010765
1.00000000 0.81716727 0.59106874
0.26452935 0.92364597 0.08822101
0.26452935 0.92364597 0.08822101
0.31762261 0.93122926 0.12849273
0.37808920 0.94813618 0.15167097
0.46638272 0.96634669 0.17764331
0.58657071 0.97569876 0.20310009
0.73727196 0.97114498 0.20157644
0.92287496 0.94198757 0.21885260
1.00000000 0.90418748 0.54607598
0.26464399 0.98654045 0.04122773
0.26464399 0.98654045 0.04122773
0.29970202 0.99573256 0.07123574
0.41289477 1.00000000 0.21168668
0.54457142 1.00000000 0.35007809
0.65619502 1.00000000 0.45178627
0.75068589 1.00000000 0.51157026
0.84012049 1.00000000 0.50213555
0.97251630 0.99881413 0.40029451
0.00000000 0.00000000 0.00000000
0.00000000 0.00000000 0.00000000
0.21464728 0.01918351 0.01768210
0.41771647 0.03660746 0.02818746
0.58199090 0.06691832 0.03554547
0.70084670 0.11133261 0.03434335
0.78490725 0.15830753 0.02979250
0.84453230 0.19478861 0.01809015
0.89523921 0.21878387 0.00000000
0.00000000 0.00000000 0.00000000
0.00000000 0.00000000 0.00000000
0.21464728 0.01918351 0.01768210
0.41771647 0.03660746 0.02818746
0.58199090 0.06691832 0.03554547
0.70084670 0.11133261 0.03434335
0.78490725 0.15830753 0.02979250
0.84453230 0.19478861 0.01809015
0.89523921 0.21878387 0.00000000
0.04536240 0.23684006 0.03886070
0.04536240 0.23684006 0.03886070
0.24390725 0.24516375 0.02423025
0.43971940 0.25023700 0.02847523
0.61712726 0.24836910 0.04413412
0.74934327 0.25011845 0.06601000
0.84792119 0.25760217 0.07159291
0.92059020 0.26515555 0.05694024
0.97870305 0.27176225 0.03174284
0.09207359 0.44089248 0.06518705
0.09207359 0.44089248 0.06518705
0.26063376 0.44626013 0.05065028
0.44698797 0.45013518 0.05623641
0.64207844 0.43985366 0.06267964
0.81024020 0.41559542 0.08988089
0.92985922 0.39767313 0.12882874
0.97615911 0.41300508 0.20291593
1.00000000 0.43432472 0.24721456
0.14505787 0.61269106 0.08509107
0.14505787 0.61269106 0.08509107
0.27254188 0.61860629 0.08555145
0.43072949 0.62674496 0.09517790
0.61776607 0.62431810 0.09542146
0.81539255 0.59710952 0.09598833
0.97096683 0.56203492 0.16900120
0.99926309 0.57322929 0.33651757
1.00000000 0.59091995 0.41596011
0.19156769 0.74519625 0.09005922
0.19156769 0.74519625 0.09005922
0.28636251 0.75173677 0.11128884
0.40569302 0.76441249 0.12504661
0.56096645 0.77204019 0.13097933
0.74888084 0.75950547 0.12490817
0.94427700 0.72162425 0.15501372
1.00000000 0.70778944 0.40199096
1.00000000 0.71530800 0.53052774
0.23287674 0.84799077 0.09138980
0.23287674 0.84799077 0.09138980
0.30242202 0.85518277 0.12409689
0.38663543 0.87080941 0.14058253
0.50443541 0.88558381 0.15172650
0.65977957 0.88674031 0.15145132
0.85053208 0.86495690 0.14971932
1.00000000 0.82672249 0.36010765
1.00000000 0.81716727 0.59106874
0.26452935 0.92364597 0.08822101
0.26452935 0.92364597 0.08822101
0.31762261 0.93122926 0.12849273
0.37808920 0.94813618 0.15167097
0.46638272 0.96634669 0.17764331
0.58657071 0.97569876 0.20310009
0.73727196 0.97114498 0.20157644
0.92287496 0.94198757 0.21885260
1.00000000 0.90418748 0.54607598
0.26464399 0.98654045 0.04122773
0.26464399 0.98654045 0.04122773
0.29970202 0.99573256 0.07123574
0.41289477 1.00000000 0.21168668
0.54457142 1.00000000 0.35007809
0.65619502 1.00000000 0.45178627
0.75068589 1.00000000 0.51157026
0.84012049 1.00000000 0.50213555
0.97251630 0.99881413 0.40029451
0.00948444 0.01495426 0.18627177
0.00948444 0.01495426 0.18627177
0.22419638 0.02379315 0.22102652
0.42245955 0.03851388 0.23654105
0.59597028 0.05580371 0.22451308
0.72937346 0.07876915 0.18777148
0.83062953 0.10633524 0.13198646
0.89458487 0.14581282 0.06891921
0.94197201 0.17960157 0.01382572
0.00948444 0.01495426 0.18627177
0.00948444 0.01495426 0.18627177
0.22419638 0.02379315 0.22102652
0.42245955 0.03851388 0.23654105
0.59597028 0.05580371 0.22451308
0.72937346 0.07876915 0.18777148
0.83062953 0.10633524 0.13198646
0.89458487 0.14581282 0.06891921
0.94197201 0.17960157 0.01382572
0.04213906 0.24025121 0.23991780
0.04213906 0.24025121 0.23991780
0.24578998 0.24578998 0.24578998
0.45022617 0.24587571 0.24542935
0.62307306 0.24699596 0.24139802
0.75502788 0.25143071 0.22806852
0.85440631 0.26089047 0.20402597
0.92328159 0.27464965 0.17279024
0.97464597 0.29003375 0.13968781
0.07933886 0.44266115 0.25759039
0.07933886 0.44266115 0.25759039
0.24719079 0.45005599 0.24527906
0.44981013 0.45043138 0.24589421
0.64807153 0.43819053 0.25201020
0.79490311 0.42601075 0.27485063
0.89854826 0.42252472 0.28775109
0.95853838 0.43214759 0.29919107
0.99723319 0.44763271 0.30589358
0.13205537 0.61505324 0.24785429
0.13205537 0.61505324 0.24785429
0.25876455 0.62216337 0.24218216
0.42885257 0.62838257 0.25278632
0.62104503 0.62464960 0.24643981
0.82101579 0.59660091 0.24508600
0.95988063 0.57013387 0.30090933
0.99109345 0.58260316 0.40324905
1.00000000 0.59929429 0.45455037
0.19167893 0.74724387 0.22542018
0.19167893 0.74724387 0.22542018
0.28534452 0.75396619 0.23627111
0.41289124 0.76472712 0.25726043
0.56603204 0.77223457 0.26372709
0.75183828 0.76032523 0.24738173
0.95409688 0.72121157 0.23699647
1.00000000 0.71263191 0.45490441
1.00000000 0.72217555 0.56130240
0.25387020 0.84851322 0.21018458
0.25387020 0.84851322 0.21018458
0.31791449 0.85590815 0.22961776
0.40953697 0.86936384 0.25741371
0.52460041 0.88326504 0.27657920
0.66933070 0.88599953 0.27275020
0.85307622 0.86646133 0.24837395
0.99965643 0.83027721 0.42077217
1.00000000 0.82294779 0.62002921
0.30464789 0.92235364 0.20197388
0.30464789 0.92235364 0.20197388
0.34796526 0.93061178 0.22358410
0.41441127 0.94557697 0.25554047
0.49914296 0.96304219 0.28319407
0.60490673 0.97441375 0.29303917
0.74534188 0.97187982 0.28099375
0.92732717 0.94483242 0.24924305
1.00000000 0.90838035 0.58314228
0.34064679 0.98111616 0.19599254
0.34064679 0.98111616 0.19599254
0.37265435 0.98974076 0.21868787
0.44737870 1.00000000 0.28384862
0.56801956 1.00000000 0.39983867
0.67483278 1.00000000 0.49417225
0.76555120 1.00000000 0.55207164
0.85089821 1.00000000 0.54974190
0.97317707 0.99957548 0.47411693
0.01482140 0.04360569 0.36127711
0.01482140 0.04360569 0.36127711
0.22978824 0.03706572 0.40678287
0.42791969 0.04669875 0.42079024
0.60885564 0.05539954 0.40115330
0.75103323 0.06940597 0.34989699
0.85891440 0.09129858 0.28185460
0.93423546 0.11853643 0.20121957
0.98812594 0.14901625 0.11264286
0.01482140 0.04360569 0.36127711
0.01482140 0.04360569 0.36127711
0.22978824 0.03706572 0.40678287
0.42791969 0.04669875 0.42079024
0.60885564 0.05539954 0.40115330
0.75103323 0.06940597 0.34989699
0.85891440 0.09129858 0.28185460
0.93423546 0.11853643 0.20121957
0.98812594 0.14901625 0.11264286
0.04381247 0.24630342 0.42158787
0.04381247 0.24630342 0.42158787
0.24469114 0.24611983 0.45043245
0.45090188 0.24554842 0.44981726
0.63798791 0.24121066 0.42252281
0.77568571 0.24576483 0.37878525
0.87517684 0.25905195 0.33166740
0.94129641 0.27893686 0.28256621
0.98729112 0.30204828 0.23697769
0.07551816 0.44469755 0.44408976
0.07551816 0.44469755 0.44408976
0.24576125 0.45030265 0.45018216
0.45028250 0.45028250 0.45028250
0.62360713 0.45049676 0.44936527
0.75699694 0.45190899 0.44405079
0.85878555 0.45579273 0.43162735
0.93003675 0.46281384 0.41272091
0.98240217 0.47240548 0.39081495
0.16137498 0.61491491 0.42414877
0.16137498 0.61491491 0.42414877
0.29457328 0.61836840 0.43152539
0.45384850 0.62306246 0.44887669
0.62223570 0.62426352 0.45057573
0.79301962 0.60847013 0.45609378
0.91121393 0.59739541 0.47601848
0.96745835 0.60348075 0.50238005
1.00000000 0.61628900 0.51816628
0.27484810 0.74100428 0.40258802
0.27484810 0.74100428 0.40258802
0.35865188 0.74546212 0.41942558
0.46865037 0.75507985 0.44434912
0.59625933 0.76488261 0.45840977
0.75258528 0.76006433 0.45139324
0.92430942 0.73379557 0.44893639
0.99568348 0.72432039 0.54300114
1.00000000 0.73485125 0.61275131
0.36495118 0.83757236 0.39134069
0.36495118 0.83757236 0.39134069
0.41620509 0.84406891 0.40997546
0.49230678 0.85653309 0.43831997
0.58586151 0.87108966 0.46138144
0.70155297 0.87782743 0.46528519
0.85265752 0.86655626 0.45237754
0.99128148 0.83771598 0.52325058
1.00000000 0.83317159 0.66874963
0.42735449 0.90888815 0.38345397
0.42735449 0.90888815 0.38345397
0.46237986 0.91642641 0.40263901
0.51747502 0.93043494 0.43254750
0.58624661 0.94773666 0.46082447
0.66888036 0.96094520 0.47485587
0.77875634 0.96323082 0.47139305
0.92569172 0.94530174 0.45326800
1.00000000 0.91581456 0.64826967
0.47029717 0.96610639 0.37848760
0.47029717 0.96610639 0.37848760
0.49682950 0.97409684 0.39757287
0.53972027 0.98877445 0.42784052
0.61355992 1.00000000 0.48568204
0.70783170 1.00000000 0.56442819
0.79232863 1.00000000 0.62045880
0.87063134 1.00000000 0.62991933
0.97552130 1.00000000 0.58560112
0.00792132 0.09455235 0.49226563
0.00792132 0.09455235 0.49226563
0.20944087 0.05926587 0.58215170
0.40982506 0.06876425 0.60232831
0.60135872 0.07015098 0.58800588
0.76074151 0.06923589 0.52792651
0.88288791 0.07727808 0.44422455
0.96236572 0.11107465 0.35002919
1.00000000 0.17613341 0.26706228
0.00792132 0.09455235 0.49226563
0.00792132 0.09455235 0.49226563
0.20944087 0.05926587 0.58215170
0.40982506 0.06876425 0.60232831
0.60135872 0.07015098 0.58800588
0.76074151 0.06923589 0.52792651
0.88288791 0.07727808 0.44422455
0.96236572 0.11107465 0.35002919
1.00000000 0.17613341 0.26706228
0.05066511 0.25214103 0.58312275
0.05066511 0.25214103 0.58312275
0.23394501 0.24920789 0.62511598
0.42790159 0.25500250 0.63330681
0.62723897 0.24417341 0.62048585
0.79744325 0.22797549 0.55924226
0.91989229 0.22629773 0.47798068
0.96783729 0.27563452 0.40557257
1.00000000 0.31526870 0.34667169
0.12919205 0.43812177 0.62360981
0.12919205 0.43812177 0.62360981
0.28101784 0.44249443 0.62633844
0.44739223 0.45115539 0.62423862
0.62587308 0.44961165 0.62230513
0.78237448 0.44410307 0.58508383
0.89021124 0.44838590 0.54146073
0.95368445 0.46327953 0.50225315
0.99586187 0.48151809 0.46797093
0.08646067 0.61922213 0.61831627
0.08646067 0.61922213 0.61831627
0.24561632 0.62387460 0.62329188
0.45020384 0.62384827 0.62343945
0.62377960 0.62377960 0.62377960
0.75803236 0.62404976 0.62260469
0.86176277 0.62539263 0.61739013
0.93600847 0.62856974 0.60674498
0.99140709 0.63399251 0.59137042
0.25508925 0.74760970 0.55217570
0.25508925 0.74760970 0.55217570
0.36716295 0.74793075 0.56760068
0.50235027 0.75062501 0.59583155
0.62835690 0.75724836 0.62181969
0.75598827 0.75898365 0.62419887
0.89169154 0.74659906 0.62798526
0.97145688 0.74135842 0.65230844
1.00000000 0.75049408 0.67883736
0.41678855 0.83460759 0.52908733
0.41678855 0.83460759 0.52908733
0.47296718 0.83855802 0.55012448
0.55409306 0.84713912 0.58440316
0.64261210 0.85936817 0.61684759
0.73668533 0.86872676 0.63026456
0.85601189 0.86547374 0.62512554
0.97944549 0.84629014 0.64438615
1.00000000 0.84517645 0.73100090
0.50570998 0.90058341 0.51970585
0.50570998 0.90058341 0.51970585
0.54159108 0.90645293 0.54118605
0.59744822 0.91785216 0.57586598
0.66218329 0.93314706 0.61097228
0.73073025 0.94695002 0.63228854
0.81510135 0.95353733 0.63633006
0.92816439 0.94448108 0.62611983
1.00000000 0.92430178 0.72828674
0.56188116 0.95473289 0.51543799
0.56188116 0.95473289 0.51543799
0.58850765 0.96147253 0.53620792
0.63143590 0.97413615 0.56993199
0.68202803 0.99093695 0.60564457
0.74799826 1.00000000 0.65113147
0.82376041 1.00000000 0.70118446
0.89423156 1.00000000 0.72064730
0.98066243 1.00000000 0.70238111
0.00000000 0.15823920 0.55350191
0.00000000 0.15823920 0.55350191
0.14856189 0.09243087 0.72593615
0.35781610 0.10247930 0.76343770
0.55780765 0.10183956 0.76795703
0.73666544 0.08990718 0.71573225
0.87964661 0.08282546 0.62400529
0.97184692 0.11499569 0.51263370
1.00000000 0.19769616 0.41199638
0.00000000 0.15823920 0.55350191
0.00000000 0.15823920 0.55350191
0.14856189 0.09243087 0.72593615
0.35781610 0.10247930 0.76343770
0.55780765 0.10183956 0.76795703
0.73666544 0.08990718 0.71573225
0.87964661 0.08282546 0.62400529
0.97184692 0.11499569 0.51263370
1.00000000 0.19769616 0.41199638
0.04359089 0.26518291 0.69499840
0.04359089 0.26518291 0.69499840
0.19934409 0.25822393 0.76230518
0.38332111 0.27222260 0.77836040
0.57694473 0.26774110 0.78870719
0.76614271 0.24178446 0.74962559
0.92265546 0.21521986 0.66181277
0.97941529 0.27509402 0.55052377
1.00000000 0.32813501 0.46876348
0.16713793 0.43165375 0.76341350
0.16713793 0.43165375 0.76341350
0.29160249 0.44058855 0.75842328
0.43258558 0.45547893 0.76073986
0.59282908 0.46085707 0.77142126
0.76596663 0.44753056 0.75174572
0.91201633 0.43402273 0.68977581
0.97653561 0.45679473 0.61465209
1.00000000 0.48758543 0.56028992
0.23309901 0.59765493 0.78951430
0.23309901 0.59765493 0.78951430
0.35125909 0.60240743 0.77831510
0.48868660 0.61321028 0.76261982
0.61993929 0.62494861 0.75890458
0.76149261 0.62283658 0.75616457
0.88744846 0.61829276 0.72400311
0.96195706 0.62477788 0.68792920
1.00000000 0.64024442 0.66111314
0.09280084 0.75431657 0.75303047
0.09280084 0.75431657 0.75303047
0.24536824 0.75846868 0.75724593
0.45000421 0.75848563 0.75718279
0.62367017 0.75837858 0.75774780
0.75827205 0.75827205 0.75827205
0.86297830 0.75853171 0.75713308
0.93922611 0.75966493 0.75265376
0.99764201 0.76222189 0.74388002
0.32616087 0.85172370 0.64876261
0.32616087 0.85172370 0.64876261
0.41934231 0.85179606 0.66559015
0.54403146 0.85290415 0.69630747
0.66509182 0.85625670 0.73217610
0.76271819 0.86217301 0.75626538
0.86082954 0.86396275 0.75870836
0.96546296 0.85352034 0.76152665
1.00000000 0.85589634 0.79670921
0.51033473 0.90584106 0.61566927
0.51033473 0.90584106 0.61566927
0.55684431 0.90903336 0.63863672
0.62813987 0.91568162 0.67764296
0.70553275 0.92570759 0.72078879
0.77483429 0.93689403 0.75159554
0.84498243 0.94542837 0.76389545
0.93341595 0.94282355 0.75960347
1.00000000 0.93125513 0.80634338
0.60008359 0.95325392 0.60802120
0.60008359 0.95325392 0.60802120
0.63118002 0.95818004 0.63122865
0.68120896 0.96765759 0.67004270
0.73810817 0.98087660 0.71314710
0.79071692 0.99483205 0.74621872
0.85223765 1.00000000 0.78062048
0.91550893 1.00000000 0.80328362
0.98733600 1.00000000 0.80364287
0.00000000 0.21190980 0.57769588
0.00000000 0.21190980 0.57769588
0.03893364 0.15513364 0.79931194
0.27015805 0.14760883 0.88742430
0.47504808 0.15781479 0.91245213
0.67140855 0.13417514 0.89384393
0.84175328 0.10743250 0.81373752
0.96405705 0.10960825 0.69206036
1.00000000 0.19972638 0.56212928
0.00000000 0.21190980 0.57769588
0.00000000 0.21190980 0.57769588
0.03893364 0.15513364 0.79931194
0.27015805 0.14760883 0.88742430
0.47504808 0.15781479 0.91245213
0.67140855 0.13417514 0.89384393
0.84175328 0.10743250 0.81373752
0.96405705 0.10960825 0.69206036
1.00000000 0.19972638 0.56212928
0.02583315 0.29039830 0.75242767
0.02583315 0.29039830 0.75242767
0.12886901 0.27283155 0.87014847
0.31534632 0.29501269 0.89213791
0.49983772 0.30590058 0.91003620
0.69521460 0.27713081 0.91412295
0.87525571 0.23937116 0.84876112
0.97642768 0.26840116 0.71659777
1.00000000 0.33023520 0.60086741
0.16881691 0.43195281 0.86575869
0.16881691 0.43195281 0.86575869
0.27379490 0.44465332 0.86291660
0.39974417 0.46451243 0.86903786
0.54491897 0.47673825 0.88783992
0.71069924 0.46779427 0.89148949
0.87731906 0.44492130 0.84970070
0.97764280 0.45317858 0.75242129
1.00000000 0.48990243 0.66634931
0.31582265 0.58519546 0.88637457
0.31582265 0.58519546 0.88637457
0.39222844 0.59494509 0.87525707
0.49367679 0.61249749 0.86393459
0.60475045 0.62946584 0.86603009
0.73141692 0.63229062 0.87400059
0.87362234 0.62049219 0.85532459
0.97488210 0.61900949 0.79647523
1.00000000 0.64185843 0.74180741
0.31593531 0.72108521 0.91963426
0.31593531 0.72108521 0.91963426
0.40917392 0.72623536 0.90659243
0.53226414 0.73649523 0.88544556
0.65208240 0.74966665 0.86687514
0.75445810 0.75943952 0.86385358
0.86668699 0.75730240 0.86106144
0.96412712 0.75324302 0.83308511
1.00000000 0.76584289 0.80721706
0.10274254 0.85940354 0.85773783
0.10274254 0.85940354 0.85773783
0.25476482 0.86268209 0.86082524
0.44977647 0.86357447 0.86138550
0.62345908 0.86351234 0.86174391
0.75816015 0.86333564 0.86265680
0.86322055 0.86322055 0.86322055
0.94038235 0.86343876 0.86225785
0.99637111 0.86577437 0.86019010
0.37383424 0.93006230 0.71856602
0.37383424 0.93006230 0.71856602
0.45646802 0.93007494 0.73590163
0.57392428 0.93050542 0.76715861
0.69397344 0.93177426 0.80555754
0.79183582 0.93453102 0.83948862
0.86698589 0.93967543 0.86145150
0.93846349 0.94125227 0.86360966
1.00000000 0.93671145 0.87852514
0.57331592 0.96473476 0.67720556
0.57331592 0.96473476 0.67720556
0.61521778 0.96739680 0.70066873
0.68217353 0.97261873 0.74132820
0.75718342 0.98018099 0.78942662
0.82241445 0.98906923 0.83019551
0.87692276 0.99859790 0.85735095
0.93386123 1.00000000 0.87855938
0.99400123 1.00000000 0.88823819
0.00000000 0.24964892 0.59118364
0.00000000 0.24964892 0.59118364
0.00000000 0.24571067 0.73569017
0.14843528 0.21915135 0.92764021
0.35786827 0.25071007 0.95962326
0.54980312 0.25125907 0.97036407
0.74518949 0.19856656 0.96204852
0.91934847 0.12026871 0.88545599
1.00000000 0.16814654 0.73503652
0.00000000 0.24964892 0.59118364
0.00000000 0.24964892 0.59118364
0.00000000 0.24571067 0.73569017
0.14843528 0.21915135 0.92764021
0.35786827 0.25071007 0.95962326
0.54980312 0.25125907 0.97036407
0.74518949 0.19856656 0.96204852
0.91934847 0.12026871 0.88545599
1.00000000 0.16814654 0.73503652
0.00669291 0.31798445 0.77489373
0.00669291 0.31798445 0.77489373
0.04862547 0.31036093 0.89106134
0.22969462 0.33305503 0.93944953
0.40346668 0.36084261 0.95686973
0.57849870 0.36243842 0.96804058
0.76507816 0.32514346 0.96514737
0.94109895 0.26485051 0.90386563
1.00000000 0.31279287 0.75493922
0.14597344 0.43911330 0.93015819
0.14597344 0.43911330 0.93015819
0.23523664 0.45371163 0.93583556
0.35207402 0.47921992 0.93972117
0.48306005 0.50170179 0.95206636
0.62867652 0.50647253 0.96310666
0.79243346 0.48596009 0.96140963
0.94891117 0.45424132 0.90846729
1.00000000 0.48197448 0.79080865
0.33655811 0.58357557 0.95170839
0.33655811 0.58357557 0.95170839
0.39420852 0.59583284 0.94575034
0.47802737 0.61682451 0.94045799
0.57634794 0.63815346 0.94394512
0.68745287 0.64760462 0.95507705
0.81942236 0.63981778 0.95671527
0.95863114 0.61781528 0.92546624
1.00000000 0.63896244 0.83720136
0.44066261 0.70224106 0.97417175
0.44066261 0.70224106 0.97417175
0.49235928 0.71193195 0.96378055
0.56565012 0.72928492 0.95497010
0.65489521 0.74933119 0.94129137
0.74095110 0.76351673 0.94318548
0.83965605 0.76546370 0.94970391
0.95146988 0.75506927 0.93299463
1.00000000 0.76473480 0.88109506
0.43946403 0.81189064 0.99180670
0.43946403 0.81189064 0.99180670
0.49843703 0.81826699 0.98447561
0.58484039 0.83025547 0.97468328
0.68541833 0.84420910 0.96096259
0.78151128 0.85573107 0.94400148
0.85993523 0.86423070 0.94113833
0.94375395 0.86236341 0.93869950
1.00000000 0.86520624 0.91688274
0.17948250 0.93333604 0.93106524
0.17948250 0.93333604 0.93106524
0.29861572 0.93642044 0.93385480
0.44957284 0.94105811 0.93815869
0.62325319 0.94104956 0.93824546
0.75796519 0.94090027 0.93904898
0.86312218 0.94069808 0.94008091
0.94059311 0.94059311 0.94059311
0.99922407 0.94152158 0.94056238
0.40513406 0.99247331 0.77150572
0.40513406 0.99247331 0.77150572
0.48122326 0.99255265 0.78878938
0.59309653 0.99286990 0.81966549
0.71073777 0.99353125 0.85801393
0.80970965 0.99473413 0.89374513
0.88727842 0.99723191 0.92285686
0.94565566 1.00000000 0.94109100
0.99895290 1.00000000 0.95411443
0.00000000 0.27670953 0.60743745
0.00000000 0.27670953 0.60743745
0.00000000 0.28827455 0.71359430
0.00608785 0.27799498 0.92768388
0.23347400 0.30561029 0.99994505
0.42243327 0.33169870 1.00000000
0.60576157 0.31884581 1.00000000
0.80092442 0.24091007 1.00000000
0.98813947 0.10428614 0.95108810
0.00000000 0.27670953 0.60743745
0.00000000 0.27670953 0.60743745
0.00000000 0.28827455 0.71359430
0.00608785 0.27799498 0.92768388
0.23347400 0.30561029 0.99994505
0.42243327 0.33169870 1.00000000
0.60576157 0.31884581 1.00000000
0.80092442 0.24091007 1.00000000
0.98813947 0.10428614 0.95108810
0.00000000 0.34117459 0.79063703
0.00000000 0.34117459 0.79063703
0.00000000 0.34319961 0.89366871
0.11771360 0.35836196 0.99096900
0.30400075 0.39832419 1.00000000
0.46783724 0.41936549 1.00000000
0.63643347 0.41049027 1.00000000
0.82103892 0.35423562 1.00000000
0.99504187 0.28247367 0.95013905
0.09032271 0.44812842 0.98349064
0.09032271 0.44812842 0.98349064
0.17588996 0.46415287 0.99506975
0.29132934 0.49409290 0.99747950
0.41573961 0.52490586 1.00000000
0.54582198 0.54237965 1.00000000
0.68861459 0.53906750 1.00000000
0.85057605 0.50413091 1.00000000
1.00000000 0.46812515 0.94962090
0.32916795 0.58808094 0.99959847
0.32916795 0.58808094 0.99959847
0.37566146 0.60162185 0.99927904
0.44884852 0.62494525 0.99818248
0.53845013 0.65034361 0.99936234
0.63724845 0.66719965 1.00000000
0.74944762 0.66995859 1.00000000
0.88065524 0.65133224 1.00000000
1.00000000 0.63310944 0.95798620
0.48122542 0.69985030 1.00000000
0.48122542 0.69985030 1.00000000
0.51506615 0.71117186 1.00000000
0.57114607 0.73098770 0.99906395
0.64182873 0.75384009 0.99847101
0.71823526 0.77143621 1.00000000
0.80343525 0.77949794 1.00000000
0.90379845 0.77259611 1.00000000
1.00000000 0.76294764 0.97245526
0.57582267 0.79094725 1.00000000
0.57582267 0.79094725 1.00000000
0.60567315 0.80070086 1.00000000
0.65561634 0.81793499 1.00000000
0.71828368 0.83854851 1.00000000
0.78317680 0.85620744 0.99909580
0.84926171 0.86801918 1.00000000
0.92256567 0.86955690 1.00000000
1.00000000 0.86527404 0.98715139
0.57641513 0.87308045 1.00000000
0.57641513 0.87308045 1.00000000
0.61224082 0.88053811 1.00000000
0.67182510 0.89379214 1.00000000
0.74419751 0.90988035 1.00000000
0.81484176 0.92425078 1.00000000
0.88005299 0.93552604 1.00000000
0.93804553 0.94164347 1.00000000
1.00000000 0.94168773 0.99677437
0.23728190 0.99142252 0.98863846
0.23728190 0.99142252 0.98863846
0.35234979 0.99295111 0.98974706
0.50477457 0.99486919 0.99119998
0.65267453 0.99700026 0.99339753
0.77362370 0.99879308 0.99596202
0.87118086 1.00000000 0.99839457
0.94581453 1.00000000 0.99995270
1.00000000 1.00000000 1.00000000
