Luts Download/Canon Luts/3dlut/33grid-3dlut/full-to-full-range/BT709_CanonLog-to-BT709_WideDR_33_FF_Ver.2.0.cube
# Gamut : BT.709 to BT.709
# Gamma : Canon Log to Wide DR
# Range : Full in / Full out
# Version : 2.0 2019/10/24
# Copyright(c) 2019 Canon Inc. All Rights Reserved.
LUT_3D_SIZE 5
# LUT_3D_INPUT_RANGE 0.0 1.0
0.00000000 0.00000000 0.00000000
0.21464728 0.01918351 0.01768210
0.58199090 0.06691832 0.03554547
0.78490725 0.15830753 0.02979250
0.89523921 0.21878387 0.00000000
0.04536240 0.23684006 0.03886070
0.24390725 0.24516375 0.02423025
0.61712726 0.24836910 0.04413412
0.84792119 0.25760217 0.07159291
0.97870305 0.27176225 0.03174284
0.14505787 0.61269106 0.08509107
0.27254188 0.61860629 0.08555145
0.61776607 0.62431810 0.09542146
0.97096683 0.56203492 0.16900120
1.00000000 0.59091995 0.41596011
0.23287674 0.84799077 0.09138980
0.30242202 0.85518277 0.12409689
0.50443541 0.88558381 0.15172650
0.85053208 0.86495690 0.14971932
1.00000000 0.81716727 0.59106874
0.26464399 0.98654045 0.04122773
0.29970202 0.99573256 0.07123574
0.54457142 1.00000000 0.35007809
0.75068589 1.00000000 0.51157026
0.97251630 0.99881413 0.40029451
0.00948444 0.01495426 0.18627177
0.22419638 0.02379315 0.22102652
0.59597028 0.05580371 0.22451308
0.83062953 0.10633524 0.13198646
0.94197201 0.17960157 0.01382572
0.04213906 0.24025121 0.23991780
0.24578998 0.24578998 0.24578998
0.62307306 0.24699596 0.24139802
0.85440631 0.26089047 0.20402597
0.97464597 0.29003375 0.13968781
0.13205537 0.61505324 0.24785429
0.25876455 0.62216337 0.24218216
0.62104503 0.62464960 0.24643981
0.95988063 0.57013387 0.30090933
1.00000000 0.59929429 0.45455037
0.25387020 0.84851322 0.21018458
0.31791449 0.85590815 0.22961776
0.52460041 0.88326504 0.27657920
0.85307622 0.86646133 0.24837395
1.00000000 0.82294779 0.62002921
0.34064679 0.98111616 0.19599254
0.37265435 0.98974076 0.21868787
0.56801956 1.00000000 0.39983867
0.76555120 1.00000000 0.55207164
0.97317707 0.99957548 0.47411693
0.00792132 0.09455235 0.49226563
0.20944087 0.05926587 0.58215170
0.60135872 0.07015098 0.58800588
0.88288791 0.07727808 0.44422455
1.00000000 0.17613341 0.26706228
0.05066511 0.25214103 0.58312275
0.23394501 0.24920789 0.62511598
0.62723897 0.24417341 0.62048585
0.91989229 0.22629773 0.47798068
1.00000000 0.31526870 0.34667169
0.08646067 0.61922213 0.61831627
0.24561632 0.62387460 0.62329188
0.62377960 0.62377960 0.62377960
0.86176277 0.62539263 0.61739013
0.99140709 0.63399251 0.59137042
0.41678855 0.83460759 0.52908733
0.47296718 0.83855802 0.55012448
0.64261210 0.85936817 0.61684759
0.85601189 0.86547374 0.62512554
1.00000000 0.84517645 0.73100090
0.56188116 0.95473289 0.51543799
0.58850765 0.96147253 0.53620792
0.68202803 0.99093695 0.60564457
0.82376041 1.00000000 0.70118446
0.98066243 1.00000000 0.70238111
0.00000000 0.21190980 0.57769588
0.03893364 0.15513364 0.79931194
0.47504808 0.15781479 0.91245213
0.84175328 0.10743250 0.81373752
1.00000000 0.19972638 0.56212928
0.02583315 0.29039830 0.75242767
0.12886901 0.27283155 0.87014847
0.49983772 0.30590058 0.91003620
0.87525571 0.23937116 0.84876112
1.00000000 0.33023520 0.60086741
0.31582265 0.58519546 0.88637457
0.39222844 0.59494509 0.87525707
0.60475045 0.62946584 0.86603009
0.87362234 0.62049219 0.85532459
1.00000000 0.64185843 0.74180741
0.10274254 0.85940354 0.85773783
0.25476482 0.86268209 0.86082524
0.62345908 0.86351234 0.86174391
0.86322055 0.86322055 0.86322055
0.99637111 0.86577437 0.86019010
0.57331592 0.96473476 0.67720556
0.61521778 0.96739680 0.70066873
0.75718342 0.98018099 0.78942662
0.87692276 0.99859790 0.85735095
0.99400123 1.00000000 0.88823819
0.00000000 0.27670953 0.60743745
0.00000000 0.28827455 0.71359430
0.23347400 0.30561029 0.99994505
0.60576157 0.31884581 1.00000000
0.98813947 0.10428614 0.95108810
0.00000000 0.34117459 0.79063703
0.00000000 0.34319961 0.89366871
0.30400075 0.39832419 1.00000000
0.63643347 0.41049027 1.00000000
0.99504187 0.28247367 0.95013905
0.32916795 0.58808094 0.99959847
0.37566146 0.60162185 0.99927904
0.53845013 0.65034361 0.99936234
0.74944762 0.66995859 1.00000000
1.00000000 0.63310944 0.95798620
0.57582267 0.79094725 1.00000000
0.60567315 0.80070086 1.00000000
0.71828368 0.83854851 1.00000000
0.84926171 0.86801918 1.00000000
1.00000000 0.86527404 0.98715139
0.23728190 0.99142252 0.98863846
0.35234979 0.99295111 0.98974706
0.65267453 0.99700026 0.99339753
0.87118086 1.00000000 0.99839457
1.00000000 1.00000000 1.00000000
