Luts Download/Canon Luts/3dlut/33grid-3dlut/full-to-full-range/BT709_CanonLog2-to-BT709_WideDR_33_FF_Ver.2.0.cube
# Gamut : BT.709 to BT.709
# Gamma : Canon Log 2 to Wide DR
# Range : Full in / Full out
# Version : 2.0 2019/10/24
# Copyright(c) 2019 Canon Inc. All Rights Reserved.
LUT_3D_SIZE 33
# LUT_3D_INPUT_RANGE 0.0 1.0
0.00000000 0.00000000 0.00000000
0.00000000 0.00000000 0.00000000
0.00000000 0.00000000 0.00000000
0.00044378 0.00044378 0.00044378
0.01274707 0.00213089 0.00211281
0.03098753 0.00351479 0.00342398
0.05570657 0.00472462 0.00447038
0.08852369 0.00595453 0.00538250
0.12728685 0.00732097 0.00621363
0.17053553 0.00896946 0.00703683
0.21834359 0.01120811 0.00804609
0.27133194 0.01426076 0.00931104
0.32992992 0.01839064 0.01087461
0.39439171 0.02388200 0.01273206
0.46344245 0.03100219 0.01481004
0.52797447 0.03932971 0.01597212
0.58820367 0.04884457 0.01621551
0.64466721 0.05977396 0.01589508
0.69719097 0.07201184 0.01519581
0.74521932 0.08539772 0.01433511
0.78823732 0.09875535 0.01342685
0.82598950 0.11141257 0.01246629
0.85852745 0.12322303 0.01150267
0.88631599 0.13441931 0.01077175
0.91035573 0.14574112 0.01083054
0.93208742 0.15889656 0.01300085
0.95288744 0.17745272 0.02048117
0.97177350 0.20931798 0.04250799
0.98094824 0.26785637 0.10362038
0.98874244 0.34387631 0.18673194
1.00000000 0.43600427 0.28756980
1.00000000 0.54445874 0.40829129
1.00000000 0.66619432 0.53953489
0.00000000 0.00000000 0.00000000
0.00000000 0.00000000 0.00000000
0.00000000 0.00000000 0.00000000
0.00044378 0.00044378 0.00044378
0.01274707 0.00213089 0.00211281
0.03098753 0.00351479 0.00342398
0.05570657 0.00472462 0.00447038
0.08852369 0.00595453 0.00538250
0.12728685 0.00732097 0.00621363
0.17053553 0.00896946 0.00703683
0.21834359 0.01120811 0.00804609
0.27133194 0.01426076 0.00931104
0.32992992 0.01839064 0.01087461
0.39439171 0.02388200 0.01273206
0.46344245 0.03100219 0.01481004
0.52797447 0.03932971 0.01597212
0.58820367 0.04884457 0.01621551
0.64466721 0.05977396 0.01589508
0.69719097 0.07201184 0.01519581
0.74521932 0.08539772 0.01433511
0.78823732 0.09875535 0.01342685
0.82598950 0.11141257 0.01246629
0.85852745 0.12322303 0.01150267
0.88631599 0.13441931 0.01077175
0.91035573 0.14574112 0.01083054
0.93208742 0.15889656 0.01300085
0.95288744 0.17745272 0.02048117
0.97177350 0.20931798 0.04250799
0.98094824 0.26785637 0.10362038
0.98874244 0.34387631 0.18673194
1.00000000 0.43600427 0.28756980
1.00000000 0.54445874 0.40829129
1.00000000 0.66619432 0.53953489
0.00000000 0.00000000 0.00000000
0.00000000 0.00000000 0.00000000
0.00000000 0.00000000 0.00000000
0.00044378 0.00044378 0.00044378
0.01274707 0.00213089 0.00211281
0.03098753 0.00351479 0.00342398
0.05570657 0.00472462 0.00447038
0.08852369 0.00595453 0.00538250
0.12728685 0.00732097 0.00621363
0.17053553 0.00896946 0.00703683
0.21834359 0.01120811 0.00804609
0.27133194 0.01426076 0.00931104
0.32992992 0.01839064 0.01087461
0.39439171 0.02388200 0.01273206
0.46344245 0.03100219 0.01481004
0.52797447 0.03932971 0.01597212
0.58820367 0.04884457 0.01621551
0.64466721 0.05977396 0.01589508
0.69719097 0.07201184 0.01519581
0.74521932 0.08539772 0.01433511
0.78823732 0.09875535 0.01342685
0.82598950 0.11141257 0.01246629
0.85852745 0.12322303 0.01150267
0.88631599 0.13441931 0.01077175
0.91035573 0.14574112 0.01083054
0.93208742 0.15889656 0.01300085
0.95288744 0.17745272 0.02048117
0.97177350 0.20931798 0.04250799
0.98094824 0.26785637 0.10362038
0.98874244 0.34387631 0.18673194
1.00000000 0.43600427 0.28756980
1.00000000 0.54445874 0.40829129
1.00000000 0.66619432 0.53953489
0.00044378 0.00044378 0.00044378
0.00044378 0.00044378 0.00044378
0.00044378 0.00044378 0.00044378
0.00044378 0.00044378 0.00044378
0.01274707 0.00213089 0.00211281
0.03113486 0.00358248 0.00345782
0.05629804 0.00491459 0.00454095
0.08920746 0.00615751 0.00539021
0.12795525 0.00755115 0.00618476
0.17101677 0.00922850 0.00698796
0.21870571 0.01149033 0.00798525
0.27161494 0.01456022 0.00924341
0.33015489 0.01870474 0.01080594
0.39458012 0.02419878 0.01268352
0.46354647 0.03138097 0.01481079
0.52806315 0.03971147 0.01599097
0.58828122 0.04922825 0.01625602
0.64474009 0.06015258 0.01595372
0.69726616 0.07237366 0.01526547
0.74530041 0.08571612 0.01441057
0.78832629 0.09902665 0.01350400
0.82608760 0.11164197 0.01254161
0.85863493 0.12341611 0.01157375
0.88643166 0.13458255 0.01083806
0.91047644 0.14588258 0.01089419
0.93220599 0.15902854 0.01306942
0.95299079 0.17759258 0.02057099
0.97183727 0.20948937 0.04265560
0.98096009 0.26804719 0.10383989
0.98874083 0.34403566 0.18690884
1.00000000 0.43612919 0.28771206
1.00000000 0.54455703 0.40840891
1.00000000 0.66627432 0.53963577
0.00490265 0.01643263 0.00479748
0.00490265 0.01643263 0.00479748
0.00490265 0.01643263 0.00479748
0.00492219 0.01646107 0.00480818
0.01826300 0.01831577 0.00461081
0.03860079 0.01944582 0.00469416
0.06544855 0.02028006 0.00519507
0.09884597 0.02109919 0.00579942
0.13644352 0.02219528 0.00632570
0.17834850 0.02365607 0.00687932
0.22516672 0.02565487 0.00760862
0.27736903 0.02843510 0.00864421
0.33525464 0.03232833 0.01010503
0.39902587 0.03766684 0.01206937
0.46736800 0.04481233 0.01446987
0.53126012 0.05333267 0.01640779
0.59101595 0.06300760 0.01755001
0.64722885 0.07388227 0.01801500
0.69976136 0.08561205 0.01783915
0.74795748 0.09750834 0.01728224
0.79125939 0.10914200 0.01647396
0.82935278 0.12023087 0.01546274
0.86223435 0.13068574 0.01436208
0.89031459 0.14077926 0.01348116
0.91448667 0.15136332 0.01352188
0.93607083 0.16424499 0.01598020
0.95607102 0.18337380 0.02460080
0.97258525 0.21737990 0.05018011
0.98083322 0.27525921 0.11209507
0.98841999 0.34984455 0.19338950
1.00000000 0.44064542 0.29289323
1.00000000 0.54811949 0.41271269
1.00000000 0.66918382 0.54334820
0.00804289 0.03851468 0.00759206
0.00804289 0.03851468 0.00759206
0.00804289 0.03851468 0.00759206
0.00818938 0.03873081 0.00758065
0.02121448 0.04079417 0.00612360
0.04176597 0.04194478 0.00537859
0.07003304 0.04238376 0.00513996
0.10448962 0.04259733 0.00561981
0.14158016 0.04337414 0.00642641
0.18266065 0.04472224 0.00722336
0.22879234 0.04665942 0.00806189
0.28051703 0.04932856 0.00910731
0.33815785 0.05297084 0.01052001
0.40170327 0.05803353 0.01251024
0.46994543 0.06479153 0.01501561
0.53381762 0.07282424 0.01749007
0.59355614 0.08201026 0.01941021
0.64986677 0.09185621 0.02059508
0.70261697 0.10174368 0.02096887
0.75110298 0.11170696 0.02079263
0.79474553 0.12154932 0.02019635
0.83322030 0.13099734 0.01923216
0.86647284 0.14001983 0.01807850
0.89483169 0.14897769 0.01715781
0.91908561 0.15882233 0.01732269
0.94037846 0.17152585 0.02032844
0.95945986 0.19118909 0.03034842
0.97323961 0.22738728 0.06023161
0.98065579 0.28416706 0.12215399
0.98812197 0.35698401 0.20131635
1.00000000 0.44622458 0.29927185
1.00000000 0.55253429 0.41802014
1.00000000 0.67279816 0.54793077
0.01055355 0.06714992 0.00942850
0.01055355 0.06714992 0.00942850
0.01055355 0.06714992 0.00942850
0.01074197 0.06732545 0.00935120
0.02326904 0.06953933 0.00738353
0.04321086 0.07087356 0.00648996
0.07106128 0.07148732 0.00594898
0.10602744 0.07150972 0.00584156
0.14365192 0.07191133 0.00644078
0.18472708 0.07302730 0.00740159
0.23055979 0.07487680 0.00844534
0.28202314 0.07746357 0.00962034
0.33946010 0.08099076 0.01115763
0.40303963 0.08569479 0.01319031
0.47148419 0.09160659 0.01577974
0.53582370 0.09800416 0.01869338
0.59603578 0.10501286 0.02131200
0.65283876 0.11245888 0.02319984
0.70598846 0.12021313 0.02428809
0.75488012 0.12817742 0.02468280
0.79895805 0.13613829 0.02446228
0.83787223 0.14387332 0.02370259
0.87151255 0.15142310 0.02266017
0.90013595 0.15922085 0.02186779
0.92436403 0.16840317 0.02242139
0.94517384 0.18106163 0.02634747
0.96293673 0.20154644 0.03846932
0.97375494 0.23968298 0.07335354
0.98032457 0.29501253 0.13424659
0.98772939 0.36569771 0.21096985
0.99999296 0.45308992 0.30712918
1.00000000 0.55798863 0.42458618
1.00000000 0.67728023 0.55362475
0.01328944 0.10203491 0.01102735
0.01328944 0.10203491 0.01102735
0.01328944 0.10203491 0.01102735
0.01352112 0.10216268 0.01093149
0.02552316 0.10418834 0.00882063
0.04473074 0.10549579 0.00800685
0.07160310 0.10627166 0.00758173
0.10578313 0.10655731 0.00731995
0.14327328 0.10699375 0.00752790
0.18451795 0.10790217 0.00818665
0.23041325 0.10941575 0.00915788
0.28185482 0.11157072 0.01036825
0.33937236 0.11439786 0.01192070
0.40317405 0.11798932 0.01393367
0.47208320 0.12230180 0.01650958
0.53737975 0.12643861 0.01974058
0.59860445 0.13090082 0.02296891
0.65632929 0.13578578 0.02558803
0.71024048 0.14115043 0.02746277
0.75976609 0.14693366 0.02859749
0.80436234 0.15296909 0.02903169
0.84371547 0.15902205 0.02879638
0.87768940 0.16517054 0.02819804
0.90643012 0.17197546 0.02794245
0.93042097 0.18069381 0.02935410
0.95032288 0.19369976 0.03496589
0.96576353 0.21591283 0.05088041
0.97385033 0.25500367 0.09071485
0.97974880 0.30829014 0.14889662
0.98715124 0.37643766 0.22286795
0.99941461 0.46164442 0.31695728
1.00000000 0.56482690 0.43285932
1.00000000 0.68292225 0.56083497
0.01699737 0.14075659 0.01308950
0.01699737 0.14075659 0.01308950
0.01699737 0.14075659 0.01308950
0.01727460 0.14081376 0.01300643
0.02893830 0.14246883 0.01081755
0.04770493 0.14357858 0.01003885
0.07401668 0.14429701 0.00973534
0.10727661 0.14465928 0.00956787
0.14405298 0.14517317 0.00976255
0.18484388 0.14601473 0.01029518
0.23048223 0.14734039 0.01114431
0.28176175 0.14918345 0.01228723
0.33927265 0.15152036 0.01377827
0.40328951 0.15434041 0.01571367
0.47274123 0.15743051 0.01821048
0.53928205 0.15951218 0.02160448
0.60202820 0.16132895 0.02521416
0.66127946 0.16335140 0.02837547
0.71650807 0.16589058 0.03092045
0.76705009 0.16911161 0.03284984
0.81231315 0.17303378 0.03422538
0.85203224 0.17745615 0.03501619
0.88607745 0.18247870 0.03554961
0.91462598 0.18859057 0.03653794
0.93776970 0.19746415 0.03990932
0.95580463 0.21169481 0.04886647
0.96714011 0.23701127 0.07176678
0.97356020 0.27495815 0.11299037
0.97910482 0.32534651 0.16757754
0.98658418 0.39037215 0.23831458
0.99876345 0.47290872 0.32993648
1.00000000 0.57391639 0.44388260
1.00000000 0.69046660 0.57048872
0.02199858 0.18360328 0.01585547
0.02199858 0.18360328 0.01585547
0.02199858 0.18360328 0.01585547
0.02228955 0.18364598 0.01578506
0.03382106 0.18499146 0.01362138
0.05230774 0.18593377 0.01282022
0.07833190 0.18656466 0.01256921
0.11063412 0.18691399 0.01248502
0.14656383 0.18741256 0.01274532
0.18672219 0.18821651 0.01332230
0.23181268 0.18938064 0.01416378
0.28267265 0.19097964 0.01527206
0.33996396 0.19294701 0.01667124
0.40404102 0.19518535 0.01846649
0.47398485 0.19732885 0.02081603
0.54202428 0.19768813 0.02430382
0.60672572 0.19710625 0.02829133
0.66789884 0.19632009 0.03205587
0.72496875 0.19579095 0.03523479
0.77724735 0.19584101 0.03771926
0.82390748 0.19684955 0.03976216
0.86429425 0.19920373 0.04179633
0.89779092 0.20371412 0.04486042
0.92542841 0.20984248 0.04857539
0.94650031 0.22004988 0.05614370
0.96044915 0.23749278 0.07237293
0.96826012 0.26409894 0.10120831
0.97339814 0.29991952 0.14013724
0.97865209 0.34691146 0.19104838
0.98617728 0.40831639 0.25823856
0.99807829 0.48768772 0.34703709
1.00000000 0.58599119 0.45858374
1.00000000 0.70057237 0.58344035
0.02838045 0.23157031 0.01928855
0.02838045 0.23157031 0.01928855
0.02838045 0.23157031 0.01928855
0.02869027 0.23160180 0.01923353
0.04041227 0.23265590 0.01730735
0.05882194 0.23343305 0.01656095
0.08466633 0.23396344 0.01634202
0.11573898 0.23427198 0.01628743
0.15068726 0.23470709 0.01656667
0.19007218 0.23541317 0.01715591
0.23457069 0.23645851 0.01801895
0.28488280 0.23780167 0.01909397
0.34179207 0.23943280 0.02039941
0.40577625 0.24118782 0.02200581
0.47614675 0.24255603 0.02409023
0.54594543 0.24140384 0.02738918
0.61303983 0.23861331 0.03164514
0.67674689 0.23509527 0.03604618
0.73619908 0.23153998 0.04014397
0.79050051 0.22851535 0.04376904
0.83876572 0.22659945 0.04711325
0.88021020 0.22648020 0.05076571
0.91409799 0.22919102 0.05597384
0.93973743 0.23624090 0.06488405
0.95584540 0.25037961 0.08202976
0.96469873 0.27094451 0.10646341
0.96994126 0.29697385 0.13583760
0.97395700 0.33017052 0.17239017
0.97878074 0.37356949 0.21994231
0.98609438 0.43106580 0.28358651
0.99734503 0.50683986 0.36934244
1.00000000 0.60182439 0.47795735
1.00000000 0.71393715 0.60063870
0.03571332 0.28531563 0.02296627
0.03571332 0.28531563 0.02296627
0.03571332 0.28531563 0.02296627
0.03605419 0.28533753 0.02293413
0.04842432 0.28611484 0.02154866
0.06711089 0.28671761 0.02107930
0.09256545 0.28714640 0.02093509
0.12227292 0.28740894 0.02089141
0.15611396 0.28777859 0.02114617
0.19460340 0.28837209 0.02169506
0.23838352 0.28926387 0.02251960
0.28817059 0.29045092 0.02357913
0.34461945 0.29176581 0.02473680
0.40842630 0.29309675 0.02603183
0.47922380 0.29380252 0.02755789
0.55110310 0.29132291 0.03004993
0.62122191 0.28643941 0.03410456
0.68806506 0.28031380 0.03927520
0.75039413 0.27386152 0.04491108
0.80710164 0.26789788 0.05064868
0.85711285 0.26329993 0.05666205
0.89929727 0.26122458 0.06391798
0.93227493 0.26344284 0.07467372
0.95402444 0.27274585 0.09300090
0.96547897 0.28918681 0.11760353
0.97098656 0.31001155 0.14469469
0.97377224 0.33492543 0.17452434
0.97620824 0.36572752 0.20976184
0.97996286 0.40581625 0.25486159
0.98634055 0.45947034 0.31547005
0.99662097 0.53118222 0.39792836
1.00000000 0.62224178 0.50311043
1.00000000 0.73132698 0.62313019
0.04334451 0.34527108 0.02635498
0.04334451 0.34527108 0.02635498
0.04334451 0.34527108 0.02635498
0.04372657 0.34528509 0.02635124
0.05723518 0.34581001 0.02581803
0.07670098 0.34622961 0.02596700
0.10140802 0.34656387 0.02603149
0.12970989 0.34678117 0.02600313
0.16232856 0.34710272 0.02618761
0.19979691 0.34761222 0.02661504
0.24273432 0.34836833 0.02726655
0.29186545 0.34938232 0.02811318
0.34792765 0.35054721 0.02905494
0.41149648 0.35153865 0.02994899
0.48260545 0.35177036 0.03084742
0.55655767 0.34836190 0.03215209
0.63021653 0.34171828 0.03536400
0.70116116 0.33305531 0.04082836
0.76740356 0.32359380 0.04812507
0.82731413 0.31456546 0.05690051
0.87929660 0.30742603 0.06762954
0.92139214 0.30424812 0.08239041
0.95074196 0.30820948 0.10428804
0.96671576 0.32048974 0.13263165
0.97440887 0.33724473 0.16155718
0.97761866 0.35669628 0.18992233
0.97881984 0.37939530 0.21949825
0.97980605 0.40752398 0.25365779
0.98206590 0.44439122 0.29690896
0.98686051 0.49422616 0.35493572
0.99605030 0.56138359 0.43374136
1.00000000 0.64800768 0.53505141
1.00000000 0.75344445 0.65186642
0.05092642 0.41162176 0.02919532
0.05092642 0.41162176 0.02919532
0.05092642 0.41162176 0.02919532
0.05134799 0.41163023 0.02921731
0.06605550 0.41196790 0.02953975
0.08633533 0.41224274 0.03036474
0.11009590 0.41248744 0.03081224
0.13713232 0.41266465 0.03087402
0.16853968 0.41295418 0.03102194
0.20493982 0.41340907 0.03135863
0.24695328 0.41407686 0.03187454
0.29530089 0.41496377 0.03254847
0.35075374 0.41599357 0.03329764
0.41404010 0.41693174 0.03399968
0.48520682 0.41694153 0.03440042
0.56088474 0.41312582 0.03434338
0.63825166 0.40531753 0.03584596
0.71426294 0.39444447 0.04039498
0.78589958 0.38190041 0.04853754
0.85048171 0.36946684 0.06062483
0.90519783 0.35958594 0.07838303
0.94656190 0.35571244 0.10428408
0.96857452 0.36348606 0.14263311
0.97939070 0.37693998 0.17943353
0.98388731 0.39291508 0.21226884
0.98514943 0.41051829 0.24210998
0.98498206 0.43077191 0.27174483
0.98465773 0.45601290 0.30502173
0.98540167 0.48952437 0.34662226
0.98834528 0.53545502 0.40227127
0.99628963 0.59783006 0.47731711
1.00000000 0.67955776 0.57435907
1.00000000 0.78082268 0.68753067
0.05843549 0.48305077 0.03132965
0.05843549 0.48305077 0.03132965
0.05843549 0.48305077 0.03132965
0.05889468 0.48305524 0.03137770
0.07484996 0.48325027 0.03264481
0.09546526 0.48341508 0.03426163
0.11835218 0.48359377 0.03525758
0.14409910 0.48376108 0.03552247
0.17412795 0.48405800 0.03569796
0.20921874 0.48452207 0.03599471
0.25002570 0.48519163 0.03643288
0.29728062 0.48607405 0.03700797
0.35176810 0.48710400 0.03764987
0.41428756 0.48809335 0.03824269
0.48520091 0.48834522 0.03847704
0.56186662 0.48471495 0.03726369
0.64234668 0.47664316 0.03661380
0.72364195 0.46445536 0.03889465
0.80192981 0.44930770 0.04617773
0.87305636 0.43337203 0.06071450
0.93192226 0.42041772 0.08748784
0.96931852 0.41792300 0.13357020
0.98647029 0.42632376 0.18527865
0.99325904 0.43926914 0.23001056
0.99510144 0.45372780 0.26707845
0.99458991 0.46930337 0.29902027
0.99310439 0.48717474 0.32934701
0.99148575 0.50967982 0.36230156
0.99062788 0.54000075 0.40272775
0.99173162 0.58204095 0.45616541
0.99811491 0.63966609 0.52760472
1.00000000 0.71636330 0.62032826
1.00000000 0.81317713 0.72968302
0.06594672 0.55023251 0.03196322
0.06594672 0.55023251 0.03196322
0.06594672 0.55023251 0.03196322
0.06642810 0.55023492 0.03203741
0.08327446 0.55034301 0.03438272
0.10326473 0.55046405 0.03688833
0.12489296 0.55064615 0.03860212
0.14883065 0.55089195 0.03925005
0.17679357 0.55130926 0.03962384
0.20976008 0.55194488 0.04006762
0.24844430 0.55283820 0.04065045
0.29360268 0.55401407 0.04139305
0.34604389 0.55543568 0.04224361
0.40661727 0.55695449 0.04308110
0.47587382 0.55796580 0.04350208
0.55206582 0.55559022 0.04182438
0.63382855 0.54860832 0.03933205
0.71897750 0.53683580 0.03862641
0.80365435 0.52075620 0.04309589
0.88255250 0.50232439 0.05765256
0.94796661 0.48612076 0.09219350
0.98469051 0.48264835 0.15845386
0.99956187 0.48960398 0.22370572
1.00000000 0.50072843 0.27684657
1.00000000 0.51319849 0.31903704
1.00000000 0.52669553 0.35394246
0.99946303 0.54236671 0.38575100
0.99666359 0.56244696 0.41910427
0.99441732 0.58992145 0.45893363
0.99423118 0.62836223 0.51044300
0.99924489 0.68173140 0.57880005
1.00000000 0.75384985 0.66770150
1.00000000 0.84652224 0.77365605
0.07428404 0.61330645 0.03171165
0.07428404 0.61330645 0.03171165
0.07428404 0.61330645 0.03171165
0.07477134 0.61330793 0.03180929
0.09178842 0.61336572 0.03519145
0.11066093 0.61347782 0.03856464
0.13074599 0.61369410 0.04104182
0.15251945 0.61404997 0.04213907
0.17793960 0.61463333 0.04278397
0.20817853 0.61550165 0.04345046
0.24403146 0.61670558 0.04427297
0.28629103 0.61829406 0.04531691
0.33579239 0.62026773 0.04658056
0.39341873 0.62253121 0.04798243
0.45982457 0.62456869 0.04909203
0.53377799 0.62373621 0.04774758
0.61481492 0.61883107 0.04471319
0.70133420 0.60889746 0.04190994
0.79033868 0.59381175 0.04322542
0.87641447 0.57471344 0.05576486
0.95023734 0.55583907 0.09456455
0.99221437 0.54861944 0.17607569
1.00000000 0.55224150 0.25521382
1.00000000 0.56058644 0.31812985
1.00000000 0.57070416 0.36680223
1.00000000 0.58208550 0.40579449
1.00000000 0.59571202 0.44001643
1.00000000 0.61350842 0.47429228
0.99727261 0.63827061 0.51375409
0.99618834 0.67345498 0.56372039
1.00000000 0.72304778 0.62952322
1.00000000 0.79106515 0.71513756
1.00000000 0.87995305 0.81813185
0.08412481 0.67290682 0.03118212
0.08412481 0.67290682 0.03118212
0.08412481 0.67290682 0.03118212
0.08459515 0.67290800 0.03129942
0.10082173 0.67294387 0.03552941
0.11832956 0.67306442 0.03966701
0.13670429 0.67332438 0.04286470
0.15613755 0.67379251 0.04440240
0.17875731 0.67455000 0.04532492
0.20589253 0.67565066 0.04621394
0.23843696 0.67717367 0.04728268
0.27722322 0.67918952 0.04864304
0.32312282 0.68173737 0.05037058
0.37704445 0.68477792 0.05246338
0.43970276 0.68788981 0.05454719
0.51015918 0.68866111 0.05418068
0.58849567 0.68592962 0.05165267
0.67408671 0.67871141 0.04835471
0.76463679 0.66600646 0.04752449
0.85578063 0.64811715 0.05708571
0.93842574 0.62791918 0.09520959
0.99199555 0.61529704 0.18288304
1.00000000 0.61423498 0.27726768
1.00000000 0.61900685 0.35226609
1.00000000 0.62644324 0.40951137
1.00000000 0.63559899 0.45405307
1.00000000 0.64708913 0.49142545
1.00000000 0.66264569 0.52712942
0.99972624 0.68487960 0.56666039
0.99795027 0.71711923 0.61553548
1.00000000 0.76331434 0.67922675
1.00000000 0.82763787 0.76202123
1.00000000 0.91305305 0.86240136
0.09524363 0.72879196 0.03069264
0.09524363 0.72879196 0.03069264
0.09524363 0.72879196 0.03069264
0.09567373 0.72879337 0.03082385
0.11060963 0.72882828 0.03567454
0.12657690 0.72896827 0.04042392
0.14317446 0.72927255 0.04426355
0.16022531 0.72984419 0.04620040
0.17994624 0.73076127 0.04737578
0.20378362 0.73207763 0.04846518
0.23271802 0.73389703 0.04975179
0.26762937 0.73631226 0.05139809
0.30943367 0.73939923 0.05356418
0.35906597 0.74317254 0.05634681
0.41727973 0.74730102 0.05948175
0.48330023 0.74959568 0.06042469
0.55755454 0.74898186 0.05915484
0.64002304 0.74447095 0.05649828
0.72957755 0.73498875 0.05498884
0.82291081 0.71970795 0.06146900
0.91298329 0.69995148 0.09360615
0.98263955 0.68212901 0.17433755
1.00000000 0.67553015 0.28631098
1.00000000 0.67596041 0.37666798
1.00000000 0.68022963 0.44524676
1.00000000 0.68686387 0.49711015
1.00000000 0.69612384 0.53881042
1.00000000 0.70947951 0.57672033
1.00000000 0.72932928 0.61687127
0.99964180 0.75887115 0.66512816
1.00000000 0.80199793 0.72716643
1.00000000 0.86296747 0.80751900
1.00000000 0.94518301 0.90551413
0.10731671 0.78039415 0.03039434
0.10731671 0.78039415 0.03039434
0.10731671 0.78039415 0.03039434
0.10770078 0.78039611 0.03053434
0.12116330 0.78044419 0.03579597
0.13552654 0.78060931 0.04100985
0.15038130 0.78095371 0.04541318
0.16512799 0.78161529 0.04770603
0.18199592 0.78267116 0.04910605
0.20250821 0.78418113 0.05037667
0.22770145 0.78625685 0.05185519
0.25850688 0.78902478 0.05375967
0.29588665 0.79259032 0.05633062
0.34081043 0.79701683 0.05977699
0.39406005 0.80205540 0.06396977
0.45493788 0.80571931 0.06636660
0.52408992 0.80704817 0.06679236
0.60188939 0.80511713 0.06561439
0.68796072 0.79880184 0.06446304
0.78058552 0.78707706 0.06861518
0.87485082 0.76953012 0.09172460
0.95946612 0.74912402 0.15408240
1.00000000 0.73621302 0.27856741
1.00000000 0.73144752 0.38781611
1.00000000 0.73185666 0.47119228
1.00000000 0.73559270 0.53305025
1.00000000 0.74246973 0.58086770
1.00000000 0.75360766 0.62209409
1.00000000 0.77117160 0.66360730
1.00000000 0.79819491 0.71176168
1.00000000 0.83849538 0.77253193
1.00000000 0.89636380 0.85065356
1.00000000 0.97553400 0.94609784
0.12017243 0.82710757 0.03043888
0.12017243 0.82710757 0.03043888
0.12017243 0.82710757 0.03043888
0.12051083 0.82711022 0.03058422
0.13249707 0.82717736 0.03611602
0.14531183 0.82736775 0.04169056
0.15855216 0.82774417 0.04660869
0.17117927 0.82847920 0.04923791
0.18537553 0.82964974 0.05085997
0.20268914 0.83132126 0.05231441
0.22419333 0.83361230 0.05400024
0.25085159 0.83667677 0.05618705
0.28367228 0.84064619 0.05920181
0.32366523 0.84562615 0.06337726
0.37163884 0.85143944 0.06874717
0.42690989 0.85627691 0.07284280
0.49023606 0.85930100 0.07541293
0.56221861 0.85969711 0.07645158
0.64298438 0.85639167 0.07674866
0.73184910 0.84821294 0.07993121
0.82626688 0.83432967 0.09598023
0.91859750 0.81506359 0.14327275
0.98868422 0.79630964 0.25027043
1.00000000 0.78559006 0.38097675
1.00000000 0.78137466 0.48393982
1.00000000 0.78169758 0.55965940
1.00000000 0.78591402 0.61617113
1.00000000 0.79473579 0.66231424
1.00000000 0.81003395 0.70615448
1.00000000 0.83464953 0.75480672
1.00000000 0.87228447 0.81462903
1.00000000 0.92716573 0.89035894
1.00000000 1.00000000 1.00000000
0.13402122 0.86848606 0.03129775
0.13402122 0.86848606 0.03129775
0.13402122 0.86848606 0.03129775
0.13431702 0.86848939 0.03144641
0.14491287 0.86857662 0.03716007
0.15630556 0.86878844 0.04303790
0.16812075 0.86918574 0.04846289
0.17892203 0.86997279 0.05147933
0.19076440 0.87122925 0.05339304
0.20518509 0.87302393 0.05512715
0.22327696 0.87548265 0.05716763
0.24600136 0.87877153 0.05983821
0.27440117 0.88305260 0.06357077
0.30952715 0.88846194 0.06885695
0.35222869 0.89487877 0.07597858
0.40179246 0.90064343 0.08263382
0.45895236 0.90504392 0.08835832
0.52433207 0.90741081 0.09272788
0.59832853 0.90680340 0.09568118
0.68101800 0.90205938 0.09917653
0.77141284 0.89203440 0.10924166
0.86588713 0.87623025 0.13911793
0.95332334 0.85582567 0.20999862
1.00000000 0.83884907 0.35153094
1.00000000 0.82915305 0.47940664
1.00000000 0.82536959 0.57438142
1.00000000 0.82650585 0.64334844
