Luts Download/Canon Luts/3dlut/33grid-3dlut/full-to-full-range/BT709_CanonLog3-to-BT709_WideDR_33_FF_Ver.2.0.cube
# Gamut : BT.709 to BT.709
# Gamma : Canon Log 3 to Wide DR
# Range : Full in / Full out
# Version : 2.0 2019/10/24
# Copyright(c) 2019 Canon Inc. All Rights Reserved.
LUT_3D_SIZE 33
# LUT_3D_INPUT_RANGE 0.0 1.0
0.00000000 0.00000000 0.00000000
0.00000000 0.00000000 0.00000000
0.00000000 0.00000000 0.00000000
0.00000000 0.00000000 0.00000000
0.00000000 0.00000000 0.00000000
0.04346448 0.00711087 0.00704684
0.09761445 0.01079169 0.01050808
0.15203387 0.01451602 0.01380440
0.20594730 0.01787304 0.01647293
0.25960144 0.02148353 0.01905280
0.31350563 0.02572728 0.02179941
0.36831564 0.03065653 0.02460804
0.42395829 0.03680668 0.02776559
0.47656339 0.04414287 0.03072407
0.52381819 0.05250832 0.03280158
0.56711227 0.06231547 0.03414060
0.60702204 0.07386406 0.03486140
0.64399977 0.08687579 0.03478119
0.67799182 0.10064180 0.03418554
0.70898185 0.11482027 0.03326162
0.73697224 0.12919082 0.03216999
0.76201019 0.14350017 0.03103795
0.78421654 0.15748298 0.02993657
0.80380212 0.17088842 0.02887330
0.82103946 0.18355210 0.02786593
0.83631788 0.19535570 0.02688445
0.85016734 0.20623115 0.02584774
0.86331161 0.21613330 0.02457282
0.87677350 0.22496107 0.02262802
0.89180573 0.23266915 0.01951459
0.90957790 0.23962168 0.01534408
0.93150984 0.24625921 0.01029955
0.95882759 0.25361329 0.00559231
0.00000000 0.00000000 0.00000000
0.00000000 0.00000000 0.00000000
0.00000000 0.00000000 0.00000000
0.00000000 0.00000000 0.00000000
0.00000000 0.00000000 0.00000000
0.04346448 0.00711087 0.00704684
0.09761445 0.01079169 0.01050808
0.15203387 0.01451602 0.01380440
0.20594730 0.01787304 0.01647293
0.25960144 0.02148353 0.01905280
0.31350563 0.02572728 0.02179941
0.36831564 0.03065653 0.02460804
0.42395829 0.03680668 0.02776559
0.47656339 0.04414287 0.03072407
0.52381819 0.05250832 0.03280158
0.56711227 0.06231547 0.03414060
0.60702204 0.07386406 0.03486140
0.64399977 0.08687579 0.03478119
0.67799182 0.10064180 0.03418554
0.70898185 0.11482027 0.03326162
0.73697224 0.12919082 0.03216999
0.76201019 0.14350017 0.03103795
0.78421654 0.15748298 0.02993657
0.80380212 0.17088842 0.02887330
0.82103946 0.18355210 0.02786593
0.83631788 0.19535570 0.02688445
0.85016734 0.20623115 0.02584774
0.86331161 0.21613330 0.02457282
0.87677350 0.22496107 0.02262802
0.89180573 0.23266915 0.01951459
0.90957790 0.23962168 0.01534408
0.93150984 0.24625921 0.01029955
0.95882759 0.25361329 0.00559231
0.00000000 0.00000000 0.00000000
0.00000000 0.00000000 0.00000000
0.00000000 0.00000000 0.00000000
0.00000000 0.00000000 0.00000000
0.00000000 0.00000000 0.00000000
0.04346448 0.00711087 0.00704684
0.09761445 0.01079169 0.01050808
0.15203387 0.01451602 0.01380440
0.20594730 0.01787304 0.01647293
0.25960144 0.02148353 0.01905280
0.31350563 0.02572728 0.02179941
0.36831564 0.03065653 0.02460804
0.42395829 0.03680668 0.02776559
0.47656339 0.04414287 0.03072407
0.52381819 0.05250832 0.03280158
0.56711227 0.06231547 0.03414060
0.60702204 0.07386406 0.03486140
0.64399977 0.08687579 0.03478119
0.67799182 0.10064180 0.03418554
0.70898185 0.11482027 0.03326162
0.73697224 0.12919082 0.03216999
0.76201019 0.14350017 0.03103795
0.78421654 0.15748298 0.02993657
0.80380212 0.17088842 0.02887330
0.82103946 0.18355210 0.02786593
0.83631788 0.19535570 0.02688445
0.85016734 0.20623115 0.02584774
0.86331161 0.21613330 0.02457282
0.87677350 0.22496107 0.02262802
0.89180573 0.23266915 0.01951459
0.90957790 0.23962168 0.01534408
0.93150984 0.24625921 0.01029955
0.95882759 0.25361329 0.00559231
0.00000000 0.00000000 0.00000000
0.00000000 0.00000000 0.00000000
0.00000000 0.00000000 0.00000000
0.00000000 0.00000000 0.00000000
0.00000000 0.00000000 0.00000000
0.04346448 0.00711087 0.00704684
0.09761445 0.01079169 0.01050808
0.15203387 0.01451602 0.01380440
0.20594730 0.01787304 0.01647293
0.25960144 0.02148353 0.01905280
0.31350563 0.02572728 0.02179941
0.36831564 0.03065653 0.02460804
0.42395829 0.03680668 0.02776559
0.47656339 0.04414287 0.03072407
0.52381819 0.05250832 0.03280158
0.56711227 0.06231547 0.03414060
0.60702204 0.07386406 0.03486140
0.64399977 0.08687579 0.03478119
0.67799182 0.10064180 0.03418554
0.70898185 0.11482027 0.03326162
0.73697224 0.12919082 0.03216999
0.76201019 0.14350017 0.03103795
0.78421654 0.15748298 0.02993657
0.80380212 0.17088842 0.02887330
0.82103946 0.18355210 0.02786593
0.83631788 0.19535570 0.02688445
0.85016734 0.20623115 0.02584774
0.86331161 0.21613330 0.02457282
0.87677350 0.22496107 0.02262802
0.89180573 0.23266915 0.01951459
0.90957790 0.23962168 0.01534408
0.93150984 0.24625921 0.01029955
0.95882759 0.25361329 0.00559231
0.00000000 0.00000000 0.00000000
0.00000000 0.00000000 0.00000000
0.00000000 0.00000000 0.00000000
0.00000000 0.00000000 0.00000000
0.00000000 0.00000000 0.00000000
0.04346448 0.00711087 0.00704684
0.09761445 0.01079169 0.01050808
0.15203387 0.01451602 0.01380440
0.20594730 0.01787304 0.01647293
0.25960144 0.02148353 0.01905280
0.31350563 0.02572728 0.02179941
0.36831564 0.03065653 0.02460804
0.42395829 0.03680668 0.02776559
0.47656339 0.04414287 0.03072407
0.52381819 0.05250832 0.03280158
0.56711227 0.06231547 0.03414060
0.60702204 0.07386406 0.03486140
0.64399977 0.08687579 0.03478119
0.67799182 0.10064180 0.03418554
0.70898185 0.11482027 0.03326162
0.73697224 0.12919082 0.03216999
0.76201019 0.14350017 0.03103795
0.78421654 0.15748298 0.02993657
0.80380212 0.17088842 0.02887330
0.82103946 0.18355210 0.02786593
0.83631788 0.19535570 0.02688445
0.85016734 0.20623115 0.02584774
0.86331161 0.21613330 0.02457282
0.87677350 0.22496107 0.02262802
0.89180573 0.23266915 0.01951459
0.90957790 0.23962168 0.01534408
0.93150984 0.24625921 0.01029955
0.95882759 0.25361329 0.00559231
0.02032604 0.05830918 0.01992215
0.02032604 0.05830918 0.01992215
0.02032604 0.05830918 0.01992215
0.02032604 0.05830918 0.01992215
0.02032604 0.05830918 0.01992215
0.06585345 0.06606880 0.01760440
0.12064595 0.06866824 0.01650732
0.17212783 0.07130703 0.01752457
0.22311352 0.07414956 0.01853296
0.27483587 0.07715354 0.01959904
0.32758519 0.08049732 0.02097539
0.38146989 0.08443491 0.02283307
0.43647649 0.08925488 0.02533495
0.48870455 0.09482315 0.02851719
0.53594430 0.10077866 0.03153196
0.57922968 0.10778546 0.03438699
0.61902902 0.11613475 0.03706319
0.65590554 0.12537219 0.03905769
0.68997224 0.13535585 0.04030149
0.72126037 0.14588952 0.04080742
0.74973208 0.15681255 0.04071630
0.77538374 0.16793258 0.04017960
0.79827144 0.17904559 0.03934079
0.81851820 0.18997129 0.03834365
0.83637727 0.20051781 0.03724374
0.85223188 0.21052127 0.03603158
0.86665519 0.21981442 0.03455582
0.88047915 0.22818901 0.03243130
0.89466133 0.23557190 0.02933784
0.91009874 0.24224081 0.02545480
0.92800979 0.24844613 0.02081106
0.94984709 0.25454241 0.01552223
0.97702477 0.26131522 0.01042224
0.02831344 0.11787251 0.02677232
0.02831344 0.11787251 0.02677232
0.02831344 0.11787251 0.02677232
0.02831344 0.11787251 0.02677232
0.02831344 0.11787251 0.02677232
0.07345324 0.12429382 0.02167542
0.12614867 0.12669018 0.01796540
0.17753667 0.12841863 0.01677595
0.22831505 0.13023123 0.01681285
0.27964915 0.13220666 0.01738721
0.33214959 0.13434911 0.01840154
0.38601832 0.13675107 0.01995151
0.44129721 0.13961004 0.02215698
0.49429409 0.14255301 0.02539675
0.54234128 0.14566946 0.02944590
0.58623650 0.14979863 0.03410972
0.62691765 0.15480804 0.03836130
0.66456365 0.16080769 0.04206410
0.69940803 0.16760819 0.04486714
0.73153744 0.17501932 0.04662473
0.76091393 0.18292253 0.04743102
0.78746362 0.19123485 0.04752666
0.81121528 0.19979952 0.04709020
0.83227586 0.20845430 0.04629484
0.85089318 0.21700286 0.04521384
0.86748638 0.22522211 0.04378282
0.88273438 0.23280780 0.04165815
0.89730576 0.23969539 0.03876732
0.91187893 0.24605961 0.03534495
0.92737300 0.25210243 0.03155533
0.94490415 0.25813543 0.02764207
0.96576040 0.26464401 0.02405931
0.99129179 0.27244273 0.02179480
0.03495247 0.17355704 0.03154203
0.03495247 0.17355704 0.03154203
0.03495247 0.17355704 0.03154203
0.03495247 0.17355704 0.03154203
0.03495247 0.17355704 0.03154203
0.08028115 0.17847338 0.02488723
0.13091782 0.18043395 0.02067903
0.18103473 0.18189150 0.01906859
0.23104068 0.18335445 0.01878876
0.28183949 0.18494066 0.01918994
0.33403719 0.18661437 0.02006637
0.38789745 0.18836407 0.02144227
0.44348127 0.19023844 0.02335492
0.49744259 0.19160635 0.02646620
0.54697112 0.19251510 0.03089045
0.59263867 0.19384864 0.03617014
0.63437919 0.19636161 0.04245506
0.67344387 0.19937214 0.04751975
0.70939197 0.20336233 0.05205473
0.74265007 0.20792515 0.05523462
0.77311315 0.21305910 0.05722890
0.80073069 0.21869896 0.05821418
0.82550045 0.22475603 0.05841087
0.84751876 0.23110350 0.05801038
0.86706715 0.23752431 0.05702669
0.88463961 0.24372177 0.05525695
0.90063189 0.24967224 0.05291165
0.91557649 0.25541861 0.05021584
0.93012012 0.26112519 0.04750452
0.94503415 0.26709978 0.04526570
0.96108620 0.27395502 0.04448025
0.97903984 0.28263683 0.04673788
0.99913578 0.29493769 0.05549594
0.04240383 0.22735236 0.03633634
0.04240383 0.22735236 0.03633634
0.04240383 0.22735236 0.03633634
0.04240383 0.22735236 0.03633634
0.04240383 0.22735236 0.03633634
0.08755460 0.23133013 0.02868149
0.13621575 0.23292840 0.02433136
0.18507833 0.23414578 0.02281100
0.23418738 0.23540262 0.02271959
0.28424610 0.23676259 0.02330275
0.33590832 0.23819872 0.02428186
0.38951075 0.23963212 0.02564525
0.44514491 0.24102999 0.02746237
0.49995260 0.24149484 0.03042529
0.55111886 0.24089524 0.03496135
0.59884540 0.24008686 0.04047441
0.64313585 0.23967296 0.04660132
0.68397490 0.24005423 0.05300926
0.72117094 0.24165224 0.05984357
0.75568007 0.24374522 0.06499450
0.78731258 0.24643702 0.06876403
0.81611794 0.24961920 0.07109710
0.84200205 0.25332291 0.07237414
0.86509584 0.25742338 0.07271119
0.88559784 0.26181045 0.07228371
0.90377677 0.26642292 0.07134573
0.91998360 0.27127220 0.07023750
0.93463926 0.27648753 0.06945216
0.94819515 0.28238487 0.06977312
0.96124929 0.28938433 0.07210772
0.97324292 0.29924226 0.08034730
0.98591991 0.31180888 0.09373433
1.00000000 0.32546351 0.10738189
0.05164216 0.28087804 0.04197322
0.05164216 0.28087804 0.04197322
0.05164216 0.28087804 0.04197322
0.05164216 0.28087804 0.04197322
0.05164216 0.28087804 0.04197322
0.09588246 0.28422180 0.03369436
0.14236953 0.28556928 0.02930133
0.18983915 0.28661243 0.02786871
0.23797497 0.28770789 0.02795726
0.28728843 0.28891969 0.02876200
0.33833892 0.29017267 0.02987584
0.39155802 0.29139400 0.03124031
0.44709244 0.29249254 0.03296313
0.50263665 0.29237046 0.03553117
0.55546576 0.29069121 0.03980309
0.60527821 0.28833795 0.04557234
0.65188854 0.28591780 0.05228836
0.69513708 0.28388847 0.05949752
0.73488978 0.28259251 0.06686881
0.77120355 0.28214868 0.07385224
0.80422649 0.28251715 0.07991428
0.83429982 0.28345418 0.08432484
0.86121568 0.28510864 0.08760764
0.88507290 0.28742327 0.08999186
0.90594691 0.29043057 0.09192012
0.92388571 0.29428421 0.09409875
0.93914451 0.29908104 0.09705518
0.95198452 0.30506443 0.10154597
0.96206962 0.31317398 0.10964481
0.97096373 0.32286760 0.12006791
0.97954819 0.33445602 0.13315677
0.98955792 0.34782541 0.14820673
1.00000000 0.36146350 0.16172903
0.06309452 0.33501418 0.04865569
0.06309452 0.33501418 0.04865569
0.06309452 0.33501418 0.04865569
0.06309452 0.33501418 0.04865569
0.06309452 0.33501418 0.04865569
0.10549389 0.33790639 0.03998960
0.14950404 0.33909319 0.03553635
0.19534270 0.34003089 0.03413666
0.24232944 0.34101562 0.03430623
0.29078207 0.34212251 0.03521973
0.34118216 0.34328451 0.03644942
0.39389689 0.34436336 0.03788086
0.44917358 0.34528107 0.03958078
0.50523494 0.34482742 0.04164508
0.55967557 0.34241402 0.04508665
0.61176025 0.33884602 0.05042512
0.66093153 0.33477543 0.05739169
0.70684370 0.33070853 0.06539778
0.74924053 0.32705819 0.07393821
0.78802400 0.32409038 0.08245840
0.82328112 0.32188667 0.09003667
0.85504678 0.32051058 0.09639838
0.88307135 0.32022818 0.10224529
0.90716195 0.32129811 0.10827261
0.92724117 0.32393248 0.11509728
0.94290685 0.32867587 0.12405550
0.95428130 0.33568890 0.13559892
0.96315813 0.34388455 0.14765354
0.97045540 0.35306750 0.16007940
0.97694561 0.36337195 0.17323673
0.98355715 0.37504814 0.18751279
0.99186936 0.38813668 0.20271439
1.00000000 0.40130440 0.21598044
0.07689071 0.39027595 0.05626532
0.07689071 0.39027595 0.05626532
0.07689071 0.39027595 0.05626532
0.07689071 0.39027595 0.05626532
0.07689071 0.39027595 0.05626532
0.11652995 0.39280577 0.04759912
0.15775757 0.39389933 0.04307751
0.20168784 0.39477659 0.04172789
0.24728345 0.39570423 0.04198761
0.29465614 0.39674741 0.04302527
0.34420518 0.39786759 0.04441477
0.39629152 0.39893419 0.04594072
0.45112644 0.39977338 0.04759398
0.50741715 0.39919789 0.04905749
0.56320625 0.39639944 0.05119185
0.61757223 0.39198309 0.05520934
0.66960620 0.38655746 0.06141548
0.71860346 0.38069886 0.06952864
0.76411810 0.37489069 0.07891936
0.80579246 0.36957346 0.08895495
0.84351937 0.36502629 0.09857867
0.87717302 0.36151159 0.10769017
0.90630395 0.35951297 0.11715114
0.93007769 0.35983210 0.12858308
0.94710136 0.36371880 0.14437681
0.95818521 0.37075923 0.16303504
0.96593767 0.37920244 0.18106225
0.97190290 0.38822721 0.19751623
0.97703815 0.39763528 0.21258712
0.98185450 0.40774336 0.22717184
0.98702475 0.41896362 0.24207075
0.99406659 0.43139158 0.25727972
1.00000000 0.44396861 0.27051738
0.09264269 0.44696497 0.06458908
0.09264269 0.44696497 0.06458908
0.09264269 0.44696497 0.06458908
0.09264269 0.44696497 0.06458908
0.09264269 0.44696497 0.06458908
0.12889692 0.44917805 0.05642776
0.16729685 0.45019981 0.05206476
0.20902818 0.45105091 0.05077425
0.25292912 0.45197029 0.05106019
0.29896122 0.45300278 0.05215095
0.34741490 0.45411632 0.05360396
0.39863770 0.45521268 0.05521598
0.45287166 0.45612242 0.05692732
0.50903625 0.45558962 0.05790918
0.56568903 0.45273238 0.05872173
0.62199145 0.44790221 0.06088736
0.67687081 0.44154825 0.06530751
0.72929711 0.43421423 0.07227105
0.77844683 0.42647011 0.08154810
0.82370244 0.41886936 0.09234285
0.86459790 0.41193474 0.10387705
0.90051961 0.40631244 0.11649636
0.93031522 0.40304473 0.13185578
0.95127257 0.40427057 0.15403047
0.96407436 0.40982049 0.18028182
0.97196268 0.41762802 0.20549445
0.97711707 0.42637020 0.22795538
0.98090599 0.43541973 0.24754668
0.98417669 0.44466764 0.26486256
0.98753073 0.45434323 0.28078054
0.99146770 0.46492819 0.29633629
0.99730910 0.47663385 0.31180239
1.00000000 0.48863175 0.32532090
0.10841860 0.50119183 0.07219302
0.10841860 0.50119183 0.07219302
0.10841860 0.50119183 0.07219302
0.10841860 0.50119183 0.07219302
0.10841860 0.50119183 0.07219302
0.14155816 0.50316692 0.06527077
0.17694171 0.50417849 0.06152449
0.21598135 0.50509566 0.06052392
0.25761948 0.50612638 0.06099159
0.30173753 0.50729614 0.06224389
0.34854348 0.50857724 0.06385789
0.39834531 0.50987986 0.06561787
0.45142361 0.51106756 0.06746960
0.50693196 0.51095441 0.06829176
0.56368052 0.50846848 0.06803730
0.62112788 0.50381609 0.06831338
0.67827254 0.49722279 0.07029652
0.73394486 0.48907581 0.07482567
0.78700347 0.47990697 0.08230406
0.83642465 0.47035558 0.09251259
0.88124691 0.46117240 0.10521007
0.92013667 0.45344238 0.12152137
0.95017869 0.44932934 0.14557637
0.96760387 0.45163816 0.18088138
0.97750068 0.45760467 0.21562717
0.98326360 0.46523624 0.24613244
0.98681708 0.47349253 0.27207095
0.98927077 0.48195955 0.29413339
0.99126308 0.49065104 0.31336232
0.99331981 0.49980576 0.33079211
0.99609153 0.50977084 0.34731418
1.00000000 0.52082720 0.36340859
1.00000000 0.53231608 0.37751780
0.12346239 0.55053406 0.07782054
0.12346239 0.55053406 0.07782054
0.12346239 0.55053406 0.07782054
0.12346239 0.55053406 0.07782054
0.12346239 0.55053406 0.07782054
0.15398933 0.55231830 0.07306226
0.18626505 0.55336893 0.07046241
0.22218744 0.55442909 0.07008011
0.26099379 0.55566980 0.07098532
0.30256195 0.55710690 0.07260204
0.34706827 0.55871282 0.07460190
0.39478226 0.56041038 0.07676338
0.44598509 0.56207380 0.07899366
0.50000822 0.56261358 0.08001206
0.55597795 0.56097269 0.07942151
0.61345380 0.55705134 0.07838609
0.67173388 0.55096012 0.07814434
0.72973138 0.54286744 0.07978669
0.78617966 0.53314253 0.08429836
0.83973284 0.52237398 0.09235150
0.88889026 0.51143337 0.10484589
0.93139908 0.50180552 0.12434024
0.96209441 0.49681770 0.15829170
0.97829839 0.49867425 0.20412351
0.98682715 0.50400883 0.24622712
0.99144405 0.51083542 0.28169940
0.99408487 0.51821390 0.31106430
0.99574012 0.52582954 0.33560980
0.99695517 0.53373420 0.35670840
0.99815518 0.54218542 0.37561154
0.99980773 0.55157932 0.39344148
1.00000000 0.56208420 0.41053544
1.00000000 0.57312389 0.42548018
0.13802858 0.59649890 0.08187924
0.13802858 0.59649890 0.08187924
0.13802858 0.59649890 0.08187924
0.13802858 0.59649890 0.08187924
0.13802858 0.59649890 0.08187924
0.16645886 0.59810945 0.07985343
0.19578992 0.59920532 0.07871706
0.22854050 0.60041889 0.07923134
0.26424682 0.60188327 0.08072230
0.30289970 0.60361746 0.08281358
0.34468294 0.60558961 0.08525720
0.38985000 0.60773443 0.08786747
0.43868023 0.60994036 0.09056421
0.49059159 0.61118655 0.09200981
0.54494667 0.61047464 0.09165553
0.60156683 0.60765924 0.09035191
0.65981415 0.60252975 0.08879447
0.71890566 0.59516173 0.08814166
0.77765988 0.58571068 0.08964999
0.83463057 0.57458968 0.09475805
0.88796959 0.56260275 0.10558883
0.93471631 0.55135895 0.12641272
0.96816969 0.54468446 0.16728543
0.98515795 0.54506332 0.22230201
0.99362666 0.54906550 0.27157492
0.99786280 0.55468637 0.31229316
1.00000000 0.56097944 0.34548714
1.00000000 0.56762471 0.37286502
1.00000000 0.57468521 0.39614811
1.00000000 0.58239892 0.41677532
1.00000000 0.59120101 0.43612996
1.00000000 0.60113038 0.45435975
1.00000000 0.61169848 0.47022421
0.15195900 0.63975919 0.08437411
0.15195900 0.63975919 0.08437411
0.15195900 0.63975919 0.08437411
0.15195900 0.63975919 0.08437411
0.15195900 0.63975919 0.08437411
0.17866376 0.64121681 0.08524616
0.20545174 0.64233665 0.08588330
0.23527768 0.64367050 0.08760218
0.26784144 0.64534418 0.08970632
0.30339735 0.64736629 0.09217895
0.34220114 0.64969792 0.09496486
0.38451595 0.65228427 0.09796767
0.43062181 0.65502999 0.10113937
0.47999383 0.65698033 0.10317369
0.53212624 0.65718011 0.10334554
0.58704391 0.65547933 0.10230506
0.64438544 0.65164401 0.10054509
0.70339846 0.64540532 0.09867933
0.76322210 0.63683990 0.09799246
0.82251540 0.62613766 0.10024638
0.87938153 0.61388326 0.10838044
0.93063940 0.60148263 0.12797913
0.96928863 0.59247012 0.17047844
0.98893059 0.59069060 0.23407559
0.99847989 0.59290127 0.29110389
1.00000000 0.59704496 0.33783177
1.00000000 0.60212457 0.37560102
1.00000000 0.60781182 0.40660232
1.00000000 0.61418021 0.43297687
1.00000000 0.62125428 0.45591966
1.00000000 0.62928682 0.47665283
1.00000000 0.63844811 0.49576659
1.00000000 0.64836854 0.51228780
0.16553050 0.68054719 0.08587093
0.16553050 0.68054719 0.08587093
0.16553050 0.68054719 0.08587093
0.16553050 0.68054719 0.08587093
0.16553050 0.68054719 0.08587093
0.19059517 0.68188963 0.08932866
0.21527745 0.68300635 0.09190399
0.24246153 0.68442989 0.09493267
0.27198191 0.68628567 0.09769956
0.30439700 0.68856975 0.10056703
0.34007799 0.69123612 0.10366591
0.37933098 0.69423824 0.10700446
0.42245691 0.69749469 0.11060072
0.46897137 0.70011255 0.11319591
0.51846210 0.70118462 0.11400233
0.57107014 0.70054917 0.11345786
0.62664345 0.69797075 0.11190804
0.68472729 0.69317493 0.10981576
0.74446816 0.68586379 0.10789957
0.80488428 0.67614758 0.10789481
0.86429323 0.66432981 0.11286671
0.91977889 0.65140419 0.12885537
0.96528433 0.64002873 0.16696159
0.98962540 0.63558391 0.23812079
1.00000000 0.63563402 0.30391244
1.00000000 0.63811579 0.35799648
1.00000000 0.64195127 0.40167281
1.00000000 0.64678780 0.43763102
1.00000000 0.65228546 0.46731329
1.00000000 0.65849921 0.49247228
1.00000000 0.66567892 0.51464934
1.00000000 0.67401826 0.53467947
1.00000000 0.68322680 0.55180600
0.17897331 0.71890382 0.08694368
0.17897331 0.71890382 0.08694368
0.17897331 0.71890382 0.08694368
0.17897331 0.71890382 0.08694368
0.17897331 0.71890382 0.08694368
0.20233719 0.72017403 0.09251890
0.22514214 0.72128500 0.09689089
0.24992955 0.72277967 0.10117718
0.27660955 0.72478932 0.10465618
0.30593658 0.72730429 0.10788652
0.33844515 0.73027650 0.11121524
0.37451073 0.73366345 0.11475858
0.41448825 0.73739270 0.11864862
0.45792548 0.74062753 0.12168177
0.50448062 0.74250830 0.12306455
0.55437156 0.74287805 0.12307837
0.60757875 0.74148936 0.12192138
0.66386310 0.73806463 0.11988824
0.72270078 0.73231378 0.11755020
0.78311701 0.72393242 0.11605251
0.84387678 0.71311305 0.11832477
0.90256357 0.70041996 0.13005549
0.95416756 0.68766780 0.16214252
0.98647991 0.67990801 0.23361507
1.00000000 0.67742080 0.30894245
1.00000000 0.67801749 0.37205340
1.00000000 0.68053114 0.42336553
1.00000000 0.68424114 0.46481573
1.00000000 0.68872620 0.49827725
1.00000000 0.69400731 0.52600420
1.00000000 0.70030300 0.54987592
1.00000000 0.70780476 0.57097605
1.00000000 0.71627609 0.58875049
0.19212740 0.75481406 0.08769615
0.19212740 0.75481406 0.08769615
0.19212740 0.75481406 0.08769615
0.19212740 0.75481406 0.08769615
0.19212740 0.75481406 0.08769615
0.21377034 0.75604609 0.09495087
0.23472936 0.75717282 0.10070653
0.25730185 0.75873455 0.10604885
0.28137453 0.76087684 0.11020167
0.30775026 0.76359429 0.11372865
0.33715277 0.76683958 0.11722572
0.37005397 0.77056765 0.12096369
0.40683139 0.77472219 0.12509168
0.44707795 0.77851435 0.12849219
0.49050154 0.78113217 0.13035400
0.53740093 0.78242389 0.13097003
0.58784029 0.78214957 0.13040872
0.64171478 0.78002108 0.12879855
0.69872395 0.77574061 0.12653039
0.75826636 0.76902152 0.12453004
0.81917604 0.75958374 0.12483917
0.87974111 0.74777721 0.13250235
0.93608802 0.73466855 0.15763299
0.97861991 0.72369529 0.21910696
1.00000000 0.71835227 0.30435359
1.00000000 0.71675758 0.37837859
1.00000000 0.71764623 0.43888718
1.00000000 0.72004049 0.48705034
1.00000000 0.72342033 0.52521029
1.00000000 0.72772386 0.55612932
1.00000000 0.73311746 0.58210287
1.00000000 0.73977452 0.60451703
1.00000000 0.74749250 0.62303114
0.20484496 0.78822386 0.08819419
0.20484496 0.78822386 0.08819419
0.20484496 0.78822386 0.08819419
0.20484496 0.78822386 0.08819419
0.20484496 0.78822386 0.08819419
0.22475558 0.78944789 0.09669342
0.24389124 0.79061132 0.10343101
0.26440017 0.79224114 0.10960115
0.28615512 0.79448873 0.11445464
0.30980574 0.79737761 0.11830515
0.33625713 0.80085863 0.12199108
0.36608054 0.80488510 0.12592733
0.39969045 0.80941350 0.13030883
0.43671459 0.81369948 0.13408157
0.47690337 0.81697483 0.13644992
0.52061577 0.81910023 0.13769801
0.56798311 0.81985031 0.13782500
0.61900439 0.81894205 0.13685467
0.67352928 0.81606384 0.13499191
0.73120280 0.81091125 0.13287766
0.79132043 0.80321830 0.13209520
0.85242004 0.79276300 0.13614833
0.91200556 0.78014669 0.15305288
0.96408930 0.76713837 0.19694170
0.99454988 0.75860445 0.28812587
1.00000000 0.75442701 0.37479554
1.00000000 0.75332266 0.44643580
1.00000000 0.75419617 0.50315445
1.00000000 0.75635848 0.54735988
1.00000000 0.75962941 0.58238549
1.00000000 0.76409817 0.61105125
1.00000000 0.76990101 0.63512768
1.00000000 0.77684934 0.65451848
0.21699681 0.81908084 0.08847154
0.21699681 0.81908084 0.08847154
0.21699681 0.81908084 0.08847154
0.21699681 0.81908084 0.08847154
0.21699681 0.81908084 0.08847154
0.23523924 0.82031575 0.09788797
0.25268077 0.82152110 0.10538949
0.27133785 0.82320998 0.11229270
0.29104311 0.82553982 0.11785636
0.31221065 0.82857151 0.12206043
0.33589748 0.83225382 0.12595627
0.36276642 0.83653981 0.13008524
0.39328165 0.84139548 0.13471023
0.42710578 0.84611535 0.13884591
0.46401870 0.84997221 0.14171282
0.50442889 0.85284157 0.14359793
0.54851753 0.85451727 0.14445713
0.59636136 0.85473139 0.14423842
0.64792747 0.85317587 0.14301600
0.70303186 0.84952759 0.14117122
0.76125952 0.84348665 0.13978054
0.82175851 0.83482597 0.14147103
0.88259454 0.82342300 0.15206343
0.93988231 0.81028449 0.18401506
0.98302414 0.79847861 0.25983018
1.00000000 0.79126459 0.35878545
1.00000000 0.78773516 0.44377632
