Luts Download/Canon Luts/3dlut/33grid-3dlut/full-to-full-range/CinemaGamut_CanonLog2-to-BT2020_HLGKnee_33_FF_Ver.2.0.cube
# Gamut : Cinema Gamut to BT.2020
# Gamma : Canon Log 2 to HLGKnee
# Range : Full in / Full out
# Version : 2.0 2019/10/24
# Copyright(c) 2019 Canon Inc. All Rights Reserved.
LUT_3D_SIZE 33
# LUT_3D_INPUT_RANGE 0.0 1.0
0.00000004 0.00000000 0.00000003
0.00000004 0.00000000 0.00000003
0.00000004 0.00000000 0.00000003
0.00811000 0.00811000 0.00811000
0.04747984 0.01731444 0.01933651
0.07718300 0.01929341 0.02404167
0.10687330 0.01858052 0.02731589
0.13748469 0.01557789 0.03012568
0.17031531 0.00981454 0.03328726
0.20638514 0.00000000 0.03717780
0.24674698 0.00000000 0.04179863
0.29239085 0.00000000 0.04721835
0.34428112 0.00000000 0.05368462
0.40354923 0.00000000 0.06125030
0.47151822 0.00000000 0.06977359
0.54564330 0.00000000 0.07938807
0.61356603 0.00000000 0.09002097
0.67656186 0.00000000 0.10182242
0.73623020 0.00000000 0.11499800
0.79353440 0.00000000 0.12985472
0.84907188 0.00000000 0.14685657
0.90262230 0.03173246 0.16655032
0.94250883 0.07336047 0.18323441
0.97024303 0.13514203 0.20121014
0.98860993 0.23489671 0.23451567
0.99669488 0.40476811 0.31633006
1.00000000 0.56061072 0.42133355
1.00000000 0.66348495 0.53730488
1.00000000 0.73680267 0.63280641
1.00000000 0.79404675 0.70949634
1.00000000 0.84104761 0.77357729
1.00000000 0.88065233 0.82736508
1.00000000 0.91426090 0.87043429
0.00000004 0.00000000 0.00000003
0.00000004 0.00000000 0.00000003
0.00000004 0.00000000 0.00000003
0.00811000 0.00811000 0.00811000
0.04747984 0.01731444 0.01933651
0.07718300 0.01929341 0.02404167
0.10687330 0.01858052 0.02731589
0.13748469 0.01557789 0.03012568
0.17031531 0.00981454 0.03328726
0.20638514 0.00000000 0.03717780
0.24674698 0.00000000 0.04179863
0.29239085 0.00000000 0.04721835
0.34428112 0.00000000 0.05368462
0.40354923 0.00000000 0.06125030
0.47151822 0.00000000 0.06977359
0.54564330 0.00000000 0.07938807
0.61356603 0.00000000 0.09002097
0.67656186 0.00000000 0.10182242
0.73623020 0.00000000 0.11499800
0.79353440 0.00000000 0.12985472
0.84907188 0.00000000 0.14685657
0.90262230 0.03173246 0.16655032
0.94250883 0.07336047 0.18323441
0.97024303 0.13514203 0.20121014
0.98860993 0.23489671 0.23451567
0.99669488 0.40476811 0.31633006
1.00000000 0.56061072 0.42133355
1.00000000 0.66348495 0.53730488
1.00000000 0.73680267 0.63280641
1.00000000 0.79404675 0.70949634
1.00000000 0.84104761 0.77357729
1.00000000 0.88065233 0.82736508
1.00000000 0.91426090 0.87043429
0.00000004 0.00000000 0.00000003
0.02787797 0.03466447 0.00000000
0.04565220 0.04874538 0.01981788
0.00811000 0.00811000 0.00811000
0.04747984 0.01731444 0.01933651
0.07718300 0.01929341 0.02404167
0.10687330 0.01858052 0.02731589
0.13748469 0.01557789 0.03012568
0.17031531 0.00981454 0.03328726
0.20638514 0.00000000 0.03717780
0.24674698 0.00000000 0.04179863
0.29239085 0.00000000 0.04721835
0.34428112 0.00000000 0.05368462
0.40354923 0.00000000 0.06125030
0.47151822 0.00000000 0.06977359
0.54564330 0.00000000 0.07938807
0.61356603 0.00000000 0.09002097
0.67656186 0.00000000 0.10182242
0.73623020 0.00000000 0.11499800
0.79353440 0.00000000 0.12985472
0.84907188 0.00000000 0.14685657
0.90262230 0.03173246 0.16655032
0.94250883 0.07336047 0.18323441
0.97024303 0.13514203 0.20121014
0.98860993 0.23489671 0.23451567
0.99669488 0.40476811 0.31633006
1.00000000 0.56061072 0.42133355
1.00000000 0.66348495 0.53730488
1.00000000 0.73680267 0.63280641
1.00000000 0.79404675 0.70949634
1.00000000 0.84104761 0.77357729
1.00000000 0.88065233 0.82736508
1.00000000 0.91426090 0.87043429
0.00811000 0.00811000 0.00811000
0.00811000 0.00811000 0.00811000
0.00811000 0.00811000 0.00811000
0.00811000 0.00811000 0.00811000
0.04747984 0.01731444 0.01933651
0.07776979 0.01989651 0.02430614
0.10712828 0.01924463 0.02732809
0.13762565 0.01638800 0.03001501
0.17040493 0.01078349 0.03309212
0.20645581 0.00000000 0.03691665
0.24681666 0.00000000 0.04147903
0.29261279 0.00000000 0.04582003
0.34436092 0.00000000 0.05330535
0.40363172 0.00000000 0.06087781
0.47160601 0.00000000 0.06941062
0.54572236 0.00000000 0.07904678
0.61363131 0.00000000 0.08970684
0.67661700 0.00000000 0.10153947
0.73627734 0.00000000 0.11474805
0.79357506 0.00000000 0.12963693
0.84910696 0.00000000 0.14666940
0.90265271 0.03131051 0.16639088
0.94253490 0.07322387 0.18310728
0.97026488 0.13510555 0.20111842
0.98862657 0.23492114 0.23446449
0.99670200 0.40484449 0.31633189
1.00000000 0.56066987 0.42135735
1.00000000 0.66352157 0.53733463
1.00000000 0.73682779 0.63283120
1.00000000 0.79406506 0.70951689
1.00000000 0.84106158 0.77359442
1.00000000 0.88066338 0.82737957
1.00000000 0.91427051 0.87044744
0.02894522 0.04544688 0.02475878
0.02894522 0.04544688 0.02475878
0.02894522 0.04544688 0.02475878
0.02894522 0.04544688 0.02475878
0.05277017 0.05498330 0.02474338
0.07937424 0.05905883 0.02369598
0.10767641 0.06053027 0.02277772
0.13806247 0.06034135 0.02249596
0.17113882 0.05889314 0.02327464
0.20763693 0.05634312 0.02538766
0.24853104 0.05240906 0.02847452
0.29478385 0.04658519 0.03247160
0.34708387 0.03949851 0.03857934
0.40660685 0.03110516 0.04654709
0.47483475 0.01862930 0.05562833
0.54863144 0.00000000 0.06612976
0.61606096 0.00000000 0.07787200
0.67868598 0.00000000 0.09089017
0.73805592 0.00000000 0.10533421
0.79511650 0.00000000 0.12141570
0.85044350 0.00000000 0.13958023
0.90381449 0.00000000 0.16033420
0.94352870 0.06629871 0.17827009
0.97108781 0.13306101 0.19764809
0.98923751 0.23564042 0.23256965
0.99696471 0.40752989 0.31637132
1.00000000 0.56277022 0.42220277
1.00000000 0.66483751 0.53840787
1.00000000 0.73773619 0.63373389
1.00000000 0.79472996 0.71026922
1.00000000 0.84156903 0.77422325
1.00000000 0.88106525 0.82791319
1.00000000 0.91461969 0.87093274
0.03861720 0.06976015 0.02932025
0.03861720 0.06976015 0.02932025
0.03861720 0.06976015 0.02932025
0.03938839 0.07077918 0.02989902
0.05753299 0.07932811 0.02563771
0.08069227 0.08469208 0.02176709
0.10711176 0.08798087 0.01878150
0.13657158 0.08972886 0.01687670
0.16932259 0.09016223 0.01640990
0.20593820 0.08936183 0.01731823
0.24720891 0.08722845 0.01925438
0.29398590 0.08350735 0.02214294
0.34718848 0.07789767 0.02635762
0.40793096 0.06981918 0.03186516
0.48243533 0.02439719 0.00000000
0.55161568 0.04423944 0.04830963
0.61872719 0.02851161 0.06238865
0.68106577 0.00000000 0.07699425
0.74016109 0.00000000 0.09309339
0.79696328 0.00000000 0.11081472
0.85206042 0.00000000 0.13049149
0.90522715 0.00000000 0.15262294
0.94473755 0.06072932 0.17219889
0.97206930 0.13269744 0.19347443
0.98990508 0.23837655 0.23066373
0.99724294 0.41162060 0.31670971
1.00000000 0.56566855 0.42344224
1.00000000 0.66660703 0.53986376
1.00000000 0.73894511 0.63493326
1.00000000 0.79561117 0.71126047
1.00000000 0.84224071 0.77504819
1.00000000 0.88159773 0.82861257
1.00000000 0.91508358 0.87157001
0.04712188 0.09520491 0.03056468
0.04712188 0.09520491 0.03056468
0.04712188 0.09520491 0.03056468
0.04746983 0.09573278 0.03058161
0.06261854 0.10289657 0.02431903
0.08300067 0.10852331 0.01909349
0.10731410 0.11291034 0.01505730
0.13526569 0.11614876 0.01231423
0.16710574 0.11828707 0.01102034
0.20329397 0.11926473 0.01118512
0.24445378 0.11896298 0.01266892
0.29139619 0.11717367 0.01490850
0.34506129 0.11358076 0.01781697
0.40649189 0.10772618 0.02183183
0.47691007 0.09885950 0.02716469
0.55248791 0.08591925 0.03408669
0.62462162 0.01712970 0.00000000
0.68345868 0.04795637 0.05917899
0.74252259 0.02113062 0.07704896
0.79916108 0.00000000 0.09679232
0.85404615 0.00000000 0.11845124
0.90699283 0.00000000 0.14242834
0.94625924 0.05671980 0.16425593
0.97326440 0.13459761 0.18831550
0.99048582 0.24557109 0.22945729
0.99751339 0.41774680 0.31755820
1.00000000 0.56963614 0.42524179
1.00000000 0.66898809 0.54184811
1.00000000 0.74056342 0.63654565
1.00000000 0.79678912 0.71258711
1.00000000 0.84313844 0.77615029
1.00000000 0.88230956 0.82954589
1.00000000 0.91570435 0.87242083
0.05486412 0.12145861 0.02869401
0.05486412 0.12145861 0.02869401
0.05486412 0.12145861 0.02869401
0.05512902 0.12177777 0.02856710
0.06857061 0.12768317 0.02193523
0.08672894 0.13311393 0.01623555
0.10893688 0.13800192 0.01171476
0.13512945 0.14228474 0.00823172
0.16556990 0.14579197 0.00613567
0.20077153 0.14838805 0.00587602
0.24136057 0.14987184 0.00687238
0.28803996 0.15000345 0.00920702
0.34171250 0.14849779 0.01193551
0.40342220 0.14493908 0.01501001
0.47438895 0.13872096 0.01865756
0.55107771 0.12902859 0.02391821
0.62061145 0.11454885 0.03097653
0.68469229 0.09379428 0.04107677
0.74475603 0.06569099 0.05563896
0.80153827 0.03802671 0.07850593
0.85637365 0.00000000 0.10251978
0.90915292 0.00000000 0.12887782
0.94816603 0.05678945 0.15375094
0.97476186 0.13911980 0.18168307
0.99114013 0.25629005 0.22835644
0.99780930 0.42628664 0.31894738
1.00000000 0.57495616 0.42777227
1.00000000 0.67217250 0.54453638
1.00000000 0.74272585 0.63871318
1.00000000 0.79836446 0.71436787
1.00000000 0.84433929 0.77762755
1.00000000 0.88326236 0.83079663
1.00000000 0.91653587 0.87356121
0.06340054 0.14966909 0.02524493
0.06340054 0.14966909 0.02524493
0.06340054 0.14966909 0.02524493
0.06366341 0.14988662 0.02509560
0.07588626 0.15477824 0.01887630
0.09217943 0.15977769 0.01340233
0.11236973 0.16478168 0.00858169
0.13664412 0.16966682 0.00388834
0.16540666 0.17421967 0.00000000
0.19918025 0.17816465 0.00000000
0.23865647 0.18127706 0.00000000
0.28461183 0.18327004 0.00255167
0.33786598 0.18381450 0.00666306
0.39944918 0.18253334 0.00995882
0.47055242 0.17892575 0.01329066
0.54823039 0.17226333 0.01663519
0.61884133 0.16158882 0.02191852
0.68394575 0.14546064 0.02955862
0.74524051 0.12186848 0.04015870
0.80350110 0.08914198 0.05631875
0.85879211 0.05621684 0.08198559
0.91163473 0.02276117 0.11107647
0.95047913 0.06626224 0.13993970
0.97662111 0.14762727 0.17313359
0.99191871 0.27105795 0.22726729
0.99814651 0.43788477 0.32102378
1.00000000 0.58198639 0.43128277
1.00000000 0.67640124 0.54815565
1.00000000 0.74560154 0.64161528
1.00000000 0.80046422 0.71675204
1.00000000 0.84594270 0.77960654
1.00000000 0.88453616 0.83247310
1.00000000 0.91764832 0.87508951
0.07359164 0.18073326 0.02113316
0.07359164 0.18073326 0.02113316
0.07359164 0.18073326 0.02113316
0.07385721 0.18089072 0.02100417
0.08501818 0.18495569 0.01581888
0.09963950 0.18945597 0.01109193
0.11790443 0.19435499 0.00610092
0.14020051 0.19950763 0.00000000
0.16705719 0.20473398 0.00000000
0.19911362 0.20976981 0.00000000
0.23705757 0.21427452 0.00000000
0.28174465 0.21796920 0.00000000
0.33410678 0.22050340 0.00000000
0.39511772 0.22145487 0.00458109
0.46595642 0.22035830 0.00868763
0.54432531 0.21662228 0.01232347
0.61601408 0.20940147 0.01570195
0.68204108 0.19756125 0.02111065
0.74422398 0.17946883 0.02948222
0.80359225 0.15272330 0.04089935
0.86053684 0.11540847 0.05863278
0.91410228 0.08116278 0.08866110
0.95308457 0.09112420 0.12229216
0.97883395 0.16285584 0.16241574
0.99281166 0.29116173 0.22639597
0.99851351 0.45351459 0.32410141
1.00000000 0.59116421 0.43613665
1.00000000 0.68197124 0.55299828
1.00000000 0.74939625 0.64547099
1.00000000 0.80325048 0.71993292
1.00000000 0.84807763 0.78225379
1.00000000 0.88623579 0.83471928
1.00000000 0.91913281 0.87713333
0.08596767 0.21551593 0.01710754
0.08596767 0.21551593 0.01710754
0.08596767 0.21551593 0.01710754
0.08622412 0.21563594 0.01701132
0.09631144 0.21903968 0.01314104
0.10937429 0.22308314 0.00908850
0.12581451 0.22772796 0.00398621
0.14613080 0.23287281 0.00000000
0.17096112 0.23844447 0.00000000
0.20103274 0.24422270 0.00000000
0.23715402 0.24990314 0.00000000
0.28015102 0.25508151 0.00000000
0.33105695 0.25943970 0.00000000
0.39098683 0.26256054 0.00000000
0.46108809 0.26393151 0.00239613
0.53977323 0.26299348 0.00810047
0.61236889 0.25904175 0.01206622
0.67924482 0.25111257 0.01571527
0.74223228 0.23789290 0.02148437
0.80240932 0.21758098 0.03090210
0.86037693 0.18782251 0.04424746
0.91562798 0.14879815 0.06568727
0.95554028 0.13601488 0.10174974
0.98122089 0.18943321 0.15004579
0.99372151 0.31863214 0.22639047
0.99885957 0.47451196 0.32872387
1.00000000 0.60298943 0.44285152
1.00000000 0.68923482 0.55943171
1.00000000 0.75438559 0.65059761
1.00000000 0.80693023 0.72416562
1.00000000 0.85091093 0.78579113
1.00000000 0.88851238 0.83774667
1.00000000 0.92111009 0.87986807
0.10082754 0.25492870 0.01358114
0.10082754 0.25492870 0.01358114
0.10082754 0.25492870 0.01358114
0.10106475 0.25502397 0.01351744
0.11006737 0.25790950 0.01100967
0.12165961 0.26153954 0.00726513
0.13638060 0.26576991 0.00444473
0.15476916 0.27080086 0.00000000
0.17753140 0.27645087 0.00000000
0.20545637 0.28262949 0.00000000
0.23944628 0.28913439 0.00000000
0.28046377 0.29561414 0.00000000
0.32947357 0.30158322 0.00000000
0.38772242 0.30669538 0.00000000
0.45652804 0.31046332 0.00000000
0.53497346 0.31227587 0.00000000
0.60822398 0.31146906 0.00788250
0.67577944 0.30722018 0.01250284
0.73946570 0.29843108 0.01676144
0.80034675 0.28366601 0.02350864
0.85905009 0.26118232 0.03518367
0.91526989 0.23009198 0.05337860
0.96129340 0.14175547 0.02401764
0.98354788 0.22897895 0.13654392
0.99444031 0.35623037 0.22864671
0.99907624 0.50256748 0.33575497
1.00000000 0.61805235 0.45224378
1.00000000 0.69865329 0.56800980
1.00000000 0.76091615 0.65742525
1.00000000 0.81176411 0.72978763
1.00000000 0.85465535 0.79051309
1.00000000 0.89171086 0.84199415
1.00000000 0.92373369 0.88351961
0.11842239 0.29994469 0.01067997
0.11842239 0.29994469 0.01067997
0.11842239 0.29994469 0.01067997
0.11863596 0.30002252 0.01064779
0.12657876 0.30249177 0.00937202
0.13682122 0.30566510 0.00706514
0.14991376 0.30958002 0.00368915
0.16646161 0.31425659 0.00000000
0.18716990 0.31981013 0.00000000
0.21289621 0.32617094 0.00000000
0.24455115 0.33313064 0.00000000
0.28322239 0.34053292 0.00000000
0.33005144 0.34797163 0.00000000
0.38614629 0.35486216 0.00000000
0.45300061 0.36083493 0.00000000
0.53045470 0.36532571 0.00000000
0.60391859 0.36761219 0.00000000
0.67189922 0.36691392 0.00826549
0.73611931 0.36228846 0.01390897
0.79759327 0.35254817 0.01966114
0.85692510 0.33630507 0.02891787
0.91382762 0.31283143 0.04654293
0.96043804 0.25260313 0.01041083
0.99288462 0.20457308 0.05400623
0.99476024 0.40709488 0.23561386
0.99927470 0.53755478 0.34682841
1.00000000 0.63716373 0.46576624
1.00000000 0.71089684 0.57962083
1.00000000 0.76950216 0.66662423
1.00000000 0.81820995 0.73739691
1.00000000 0.85982319 0.79706782
1.00000000 0.89591151 0.84761792
1.00000000 0.92718891 0.88835599
0.13905863 0.35162103 0.00828498
0.13905863 0.35162103 0.00828498
0.13905863 0.35162103 0.00828498
0.13924746 0.35168582 0.00827838
0.14620435 0.35381073 0.00813017
0.15521781 0.35657829 0.00720694
0.16681212 0.36014198 0.00385981
0.18162083 0.36444274 0.00222907
0.20033091 0.36971533 0.00000000
0.22381893 0.37596272 0.00000000
0.25307276 0.38317802 0.00000000
0.28916261 0.39110586 0.00000000
0.33337166 0.39958704 0.00000000
0.38703779 0.40816182 0.00000000
0.45142416 0.41611800 0.00000000
0.52697943 0.42307268 0.00000000
0.59991584 0.42837251 0.00000000
0.66791221 0.43117853 0.00000000
0.73241122 0.43058543 0.00986230
0.79432027 0.42556199 0.01739394
0.85416749 0.41497726 0.02642511
0.91166355 0.39806192 0.04256016
0.95506481 0.37829171 0.08191628
0.99248620 0.31121441 0.05689727
0.99478543 0.46844113 0.24646653
0.99933714 0.57656464 0.36238701
1.00000000 0.66053385 0.48469613
1.00000000 0.72659819 0.59516982
1.00000000 0.78086375 0.67914015
1.00000000 0.82682285 0.74772816
1.00000000 0.86658689 0.80573734
1.00000000 0.90136124 0.85496478
1.00000000 0.93169586 0.89469599
0.16315355 0.41112680 0.00635720
0.16315355 0.41112680 0.00635720
0.16315355 0.41112680 0.00635720
0.16331883 0.41118138 0.00637275
0.16937717 0.41301472 0.00719102
0.17726658 0.41542422 0.00722836
0.18750520 0.41856481 0.00614388
0.20067211 0.42259097 0.00000000
0.21749347 0.42740617 0.00106307
0.23877853 0.43340333 0.00000000
0.26557479 0.44051024 0.00000000
0.29899119 0.44874417 0.00000000
0.34030416 0.45783873 0.00000000
0.39100817 0.46759730 0.00000000
0.45267390 0.47750801 0.00000000
0.52552599 0.48669292 0.00000000
0.59689073 0.49476812 0.00000000
0.66423743 0.50098649 0.00000000
0.72863102 0.50435015 0.00000000
0.79072132 0.50392084 0.01421097
0.85093375 0.49868338 0.02527722
0.90892435 0.48776881 0.04202989
0.95336140 0.47029162 0.08351046
0.99219318 0.41026817 0.05414869
0.99476427 0.53665841 0.26042773
0.99936511 0.61781488 0.38268192
1.00000000 0.68749714 0.50938447
1.00000000 0.74560452 0.61466482
1.00000000 0.79492712 0.69499124
1.00000000 0.83763899 0.76091731
1.00000000 0.87516720 0.81685550
1.00000000 0.90832652 0.86440914
1.00000000 0.93749663 0.90287646
0.19120919 0.47977317 0.00485065
0.19120919 0.47977317 0.00485065
0.19120919 0.47977317 0.00485065
0.19135307 0.47981946 0.00488770
0.19660642 0.48140142 0.00649806
0.20348283 0.48349374 0.00719776
0.21247446 0.48624445 0.00721434
0.22414331 0.48983120 0.00526243
0.23916444 0.49435064 0.00000000
0.25835231 0.49985045 0.00000000
0.28270977 0.50666351 0.00000000
0.31337644 0.51447240 0.00000000
0.35167049 0.52329923 0.00000000
0.39909157 0.53277686 0.00000000
0.45738096 0.54263275 0.00000000
0.52702302 0.55233931 0.00000000
0.59570637 0.56103001 0.00000000
0.66149363 0.56850138 0.00000000
0.72516680 0.57418265 0.00000000
0.78707228 0.57734683 0.00760885
0.84739544 0.57730816 0.02397846
0.90573420 0.57333952 0.04300658
0.95128708 0.56133233 0.08715468
0.99199947 0.51106756 0.04275068
0.99475251 0.60027717 0.27741913
0.99946368 0.66047179 0.40822884
1.00000000 0.71747671 0.53858817
1.00000000 0.76773426 0.63806652
1.00000000 0.81186169 0.71455833
1.00000000 0.85095734 0.77744153
1.00000000 0.88584624 0.83084556
1.00000000 0.91709237 0.87638544
1.00000000 0.94487000 0.91332586
0.22380244 0.55361962 0.00339869
0.22380244 0.55361962 0.00339869
0.22380244 0.55361962 0.00339869
0.22392709 0.55365272 0.00345183
0.22846919 0.55477935 0.00581945
0.23444376 0.55626971 0.00701988
0.24230385 0.55822981 0.00769481
0.25258988 0.56078743 0.00746035
0.26594481 0.56409011 0.00404225
0.28314541 0.56814490 0.00000000
0.30511973 0.57307098 0.00000000
0.33306912 0.57917758 0.00000000
0.36824969 0.58615105 0.00000000
0.41223670 0.59410034 0.00000000
0.46677875 0.60270401 0.00000000
0.53199508 0.61170873 0.00000000
0.59718281 0.62064029 0.00000000
0.66046971 0.62864304 0.00000000
0.72259925 0.63558041 0.00000000
0.78373866 0.64093818 0.00000000
0.84381472 0.64412473 0.02231629
0.90223366 0.64451728 0.04541534
0.94896003 0.63660210 0.09128242
0.98128723 0.63173835 0.16679029
0.99478912 0.65933704 0.29826838
0.99964374 0.70418157 0.43999996
1.00000000 0.75010611 0.57176527
1.00000000 0.79275033 0.66552485
1.00000000 0.83158630 0.73793230
1.00000000 0.86686351 0.79758325
1.00000000 0.89891242 0.84823050
1.00000000 0.92796737 0.89139786
1.00000000 0.95408423 0.92646657
0.26161565 0.62116785 0.00166647
0.26161565 0.62116785 0.00166647
0.26161565 0.62116785 0.00166647
0.26172341 0.62119020 0.00174348
0.26564497 0.62196262 0.00524078
0.27082167 0.62298966 0.00682474
0.27766725 0.62434951 0.00797010
0.28668960 0.62613974 0.00870367
0.29850195 0.62847855 0.00834824
0.31382810 0.63150327 0.00299656
0.33355803 0.63518501 0.00300728
0.35880224 0.63974465 0.00000000
0.39091283 0.64539083 0.00000000
0.43134889 0.65184055 0.00000000
0.48195753 0.65923825 0.00000000
0.54154512 0.66729072 0.00000000
0.60172820 0.67575941 0.00000000
0.66191563 0.68420794 0.00000000
0.72166478 0.69177455 0.00000000
0.78127541 0.69840176 0.00000000
0.84054712 0.70367499 0.02493417
0.89868375 0.70698844 0.04982531
0.94640486 0.70215022 0.09726843
0.98038010 0.69698716 0.17849021
0.99507423 0.71475316 0.32338053
1.00000000 0.74829174 0.47925440
1.00000000 0.78490437 0.60865658
1.00000000 0.82042918 0.69717316
1.00000000 0.85396111 0.76536723
1.00000000 0.88526631 0.82142306
1.00000000 0.91433213 0.86908237
1.00000000 0.94109152 0.90970138
1.00000000 0.96543056 0.94273152
0.30546206 0.68422155 0.00248415
0.30546206 0.68422155 0.00248415
0.30546206 0.68422155 0.00248415
0.30555504 0.68423703 0.00254794
0.30893532 0.68477726 0.00568367
0.31341017 0.68549835 0.00734395
0.31935175 0.68645770 0.00871000
0.32722287 0.68772861 0.00989078
0.33759937 0.68940283 0.01064370
0.35117900 0.69159202 0.01003477
0.36878724 0.69442682 0.00275422
0.39145431 0.69785588 0.00564437
0.42050550 0.70217843 0.00000000
0.45744718 0.70751396 0.00000000
0.50395266 0.71361389 0.00000000
0.55627696 0.72064450 0.00000000
0.61043492 0.72833427 0.00000000
0.66615453 0.73645690 0.00000000
0.72307332 0.74460665 0.00000000
0.78038831 0.75191455 0.00000000
0.83814167 0.75844310 0.03049822
0.89545957 0.76372284 0.05916842
0.94386094 0.76138438 0.10584835
0.97947406 0.75657368 0.19294515
0.99564362 0.76761315 0.35364862
1.00000000 0.79224276 0.52606311
1.00000000 0.82104683 0.64880576
1.00000000 0.85023776 0.73272512
1.00000000 0.87869570 0.79686686
1.00000000 0.90602608 0.84915926
1.00000000 0.93198830 0.89343073
1.00000000 0.95635268 0.93117498
1.00000000 0.97887141 0.96193989
0.35630533 0.74425050 0.00692474
0.35630533 0.74425050 0.00692474
0.35630533 0.74425050 0.00692474
0.35638544 0.74426138 0.00695851
0.35929574 0.74464350 0.00869075
0.36315707 0.74515514 0.00998040
0.36829879 0.74583826 0.01120397
0.37513562 0.74674736 0.01241869
0.38419279 0.74795216 0.01350451
0.39612829 0.74954015 0.01410341
0.41174808 0.75161829 0.01324543
0.43199801 0.75431276 0.00628955
0.45809577 0.75758493 0.01005082
0.49152920 0.76171936 0.00697649
0.53215181 0.76683225 0.00000000
0.57641626 0.77268844 0.00000000
0.62393848 0.77946635 0.00000000
0.67430249 0.78691393 0.00000000
0.72708814 0.79481846 0.00000000
0.78177454 0.80281027 0.00000000
0.83729739 0.81003151 0.03648510
0.89313446 0.81651028 0.07245028
0.94162623 0.81621729 0.12077829
0.97864188 0.81224125 0.21288755
0.99650014 0.81860574 0.39196179
1.00000000 0.83608553 0.57631957
1.00000000 0.85801051 0.69262352
1.00000000 0.88141562 0.77191648
1.00000000 0.90516750 0.83199883
1.00000000 0.92871861 0.88046931
1.00000000 0.95162157 0.92105940
1.00000000 0.97354674 0.95543805
1.00000000 0.99415851 0.98337017
0.41535622 0.80215529 0.01455669
0.41535622 0.80215529 0.01455669
0.41535622 0.80215529 0.01455669
0.41542512 0.80216300 0.01457483
0.41792654 0.80243488 0.01552081
0.42125181 0.80279989 0.01635724
0.42569011 0.80328854 0.01725470
0.43160928 0.80394104 0.01825887
0.43948150 0.80480960 0.01933067
0.44990811 0.80596111 0.02031568
0.46364547 0.80747972 0.02086001
0.48161031 0.80946901 0.01993173
0.50484978 0.81205207 0.01420819
0.53294699 0.81521203 0.01790429
0.56531605 0.81920219 0.01588693
0.60195248 0.82414126 0.00000000
0.64260136 0.82982658 0.00000000
0.68705231 0.83642666 0.00000000
0.73489492 0.84371503 0.00000000
0.78566801 0.85149983 0.02174489
0.83873702 0.85947321 0.05067151
0.89243009 0.86660095 0.08971107
0.94029132 0.86784316 0.14325009
0.97820527 0.86486299 0.24254684
0.99760055 0.86809290 0.44449913
1.00000000 0.87964656 0.63132450
1.00000000 0.89537112 0.74074100
1.00000000 0.91333003 0.81498831
1.00000000 0.93263372 0.87042845
1.00000000 0.95259282 0.91457436
1.00000000 0.97265038 0.95106844
1.00000000 0.99220766 0.98115833
1.00000000 1.00000000 1.00000000
0.48371250 0.85794660 0.02785326
0.48371250 0.85794660 0.02785326
0.48371250 0.85794660 0.02785326
0.48377158 0.85795211 0.02786413
0.48591603 0.85814688 0.02842143
0.48876979 0.85840906 0.02895397
0.49258588 0.85876078 0.02957048
0.49768713 0.85923159 0.03031499
0.50445648 0.85986033 0.03119675
0.51322434 0.86069748 0.03217904
0.52443363 0.86180771 0.03315775
0.53855325 0.86327285 0.03378791
0.55602713 0.86519419 0.03322510
0.57725379 0.86771008 0.02973592
0.60255672 0.87078001 0.03289566
0.63216953 0.87466961 0.03232758
0.66621311 0.87948550 0.02584914
0.70451568 0.88505961 0.03102634
0.74692630 0.89154848 0.03579573
0.79304670 0.89875818 0.05054069
0.84236112 0.90653006 0.07690922
0.89382519 0.91448165 0.12020258
0.94025479 0.91682182 0.17885558
0.97846788 0.91472159 0.28634128
0.99937523 0.91548608 0.51596121
1.00000000 0.92209430 0.69195335
1.00000000 0.93228250 0.79387476
