Luts Download/Canon Luts/3dlut/33grid-3dlut/full-to-full-range/CinemaGamut_CanonLog2-to-BT2020_HLGKnee_33_FF_Ver.2.0.cube
# Gamut : Cinema Gamut to BT.2020
# Gamma : Canon Log 2 to HLGKnee
# Range : Full in / Full out
# Version : 2.0 2019/10/24
# Copyright(c) 2019 Canon Inc. All Rights Reserved.
LUT_3D_SIZE 5
# LUT_3D_INPUT_RANGE 0.0 1.0
0.00000004 0.00000000 0.00000003
0.17031531 0.00981454 0.03328726
0.61356603 0.00000000 0.09002097
0.98860993 0.23489671 0.23451567
1.00000000 0.91426090 0.87043429
0.06340054 0.14966909 0.02524493
0.16540666 0.17421967 0.00000000
0.61884133 0.16158882 0.02191852
0.99191871 0.27105795 0.22726729
1.00000000 0.91764832 0.87508951
0.22380244 0.55361962 0.00339869
0.26594481 0.56409011 0.00404225
0.59718281 0.62064029 0.00000000
0.99478912 0.65933704 0.29826838
1.00000000 0.95408423 0.92646657
0.64073440 0.95442773 0.15341475
0.64824519 0.95560582 0.15741719
0.72533952 0.96882549 0.20346551
0.98586581 1.00000000 0.83085489
1.00000000 1.00000000 1.00000000
1.00000000 1.00000000 1.00000000
1.00000000 1.00000000 1.00000000
1.00000000 1.00000000 1.00000000
1.00000000 1.00000000 1.00000000
1.00000000 1.00000000 1.00000000
0.04067415 0.01116719 0.13678551
0.15234914 0.00000000 0.15998908
0.60696070 0.00000000 0.22212328
0.98626378 0.23192586 0.25618374
1.00000000 0.91177958 0.86718707
0.03363285 0.16830730 0.16472204
0.16895397 0.16895397 0.16895397
0.62288284 0.12680398 0.17348941
0.99068464 0.25418501 0.24341824
1.00000000 0.91504266 0.87168117
0.19372099 0.59071059 0.02236272
0.24733801 0.59808080 0.00000000
0.60884277 0.63203704 0.00000000
0.99578909 0.65539981 0.30812024
1.00000000 0.95236261 0.92410530
0.64136709 0.95809318 0.16138857
0.64894133 0.95922244 0.16524542
0.72758931 0.97177364 0.21539040
0.98693552 1.00000000 0.84233876
1.00000000 1.00000000 1.00000000
1.00000000 1.00000000 1.00000000
1.00000000 1.00000000 1.00000000
1.00000000 1.00000000 1.00000000
1.00000000 1.00000000 1.00000000
1.00000000 1.00000000 1.00000000
0.13308197 0.01087366 0.51626585
0.16971745 0.02284296 0.46856136
0.58117741 0.00000000 0.58274263
0.97715935 0.19934910 0.62233519
1.00000000 0.91322793 0.87504556
0.08628936 0.06253286 0.56952096
0.13873841 0.00000000 0.53874279
0.58925026 0.00000000 0.59357261
0.98047325 0.21044301 0.61566048
1.00000000 0.91646930 0.87913818
0.09231722 0.60371661 0.59355540
0.13341463 0.60714537 0.59779394
0.60391133 0.60391133 0.60391133
0.98915638 0.62962738 0.63144882
1.00000000 0.95159842 0.92571612
0.70635776 0.99392538 0.41983906
0.71522206 0.99434435 0.42876213
0.79654612 0.99769344 0.53130554
1.00000000 1.00000000 1.00000000
1.00000000 1.00000000 1.00000000
1.00000000 1.00000000 1.00000000
1.00000000 1.00000000 1.00000000
1.00000000 1.00000000 1.00000000
1.00000000 1.00000000 1.00000000
1.00000000 1.00000000 1.00000000
0.33421457 0.04536434 0.92027034
0.34284276 0.05947562 0.91451081
0.43863790 0.00000000 0.85605370
0.93932314 0.13182919 0.93224987
1.00000000 0.89019994 0.91423113
0.32713008 0.02735237 0.92803756
0.33625525 0.04815891 0.92232104
0.43382315 0.00000000 0.86068500
0.93976087 0.13305384 0.93267265
1.00000000 0.89095944 0.91455653
0.18169293 0.34159923 0.96868685
0.19564302 0.31606342 0.97214938
0.36074238 0.09009341 0.94498480
0.95818036 0.25665844 0.95258367
1.00000000 0.92324064 0.93691189
0.68289751 0.98311779 0.97502199
0.69095877 0.98331527 0.97531069
0.78200136 0.98421263 0.97748069
1.00000000 1.00000000 1.00000000
1.00000000 1.00000000 1.00000000
1.00000000 1.00000000 1.00000000
1.00000000 1.00000000 1.00000000
1.00000000 1.00000000 1.00000000
1.00000000 1.00000000 1.00000000
1.00000000 1.00000000 1.00000000
0.63301857 0.69107769 1.00000000
0.63297668 0.68977956 1.00000000
0.63250101 0.67288546 1.00000000
0.70346859 0.53003567 1.00000000
1.00000000 0.85104828 0.99326796
0.63388241 0.69333922 1.00000000
0.63369524 0.69190437 1.00000000
0.63311077 0.67504362 1.00000000
0.70217343 0.52892981 1.00000000
1.00000000 0.85118633 0.99325172
0.64576903 0.72068976 1.00000000
0.64534574 0.71924820 1.00000000
0.64231629 0.70234545 1.00000000
0.68443932 0.51309912 1.00000000
1.00000000 0.85357680 0.99223704
0.77474244 0.87427698 1.00000000
0.77406928 0.87367516 1.00000000
0.76535846 0.86538914 1.00000000
0.85975422 0.89151614 0.98562014
1.00000000 1.00000000 1.00000000
1.00000000 1.00000000 1.00000000
1.00000000 1.00000000 1.00000000
1.00000000 1.00000000 1.00000000
1.00000000 1.00000000 1.00000000
1.00000000 1.00000000 1.00000000
