Luts Download/Canon Luts/3dlut/33grid-3dlut/full-to-full-range/CinemaGamut_CanonLog2-to-DCIP3_DCI_33_FF_Ver.2.0.cube
# Gamut : Cinema Gamut to DCI-P3
# Gamma : Canon Log 2 to DCI
# Range : Full in / Full out
# Version : 2.0 2019/10/24
# Copyright(c) 2019 Canon Inc. All Rights Reserved.
LUT_3D_SIZE 5
# LUT_3D_INPUT_RANGE 0.0 1.0
0.00000276 0.00000000 0.00000177
0.18311778 0.04445304 0.06706523
0.75241111 0.02643099 0.20966845
1.00000000 0.29168685 0.28322503
1.00000000 0.41565866 0.34174212
0.05458017 0.15601028 0.05971752
0.16923171 0.17703799 0.06686916
0.75392689 0.18849613 0.07622313
1.00000000 0.32395188 0.29022032
1.00000000 0.43531943 0.35852472
0.00000000 0.63667176 0.15583159
0.15827660 0.63999551 0.06119516
0.68301477 0.71376684 0.00000000
1.00000000 0.70095621 0.56802496
1.00000000 0.73101293 0.66697496
0.14945957 0.90034620 0.04124797
0.17880364 0.90322524 0.02691661
0.45005854 0.98976528 0.23357033
0.95428438 0.99627328 0.64384631
1.00000000 0.91930827 0.87396977
0.29587748 0.96328947 0.00000000
0.29840629 0.96631702 0.01162548
0.67586617 1.00000000 0.54703595
0.95144525 1.00000000 0.91787929
1.00000000 1.00000000 1.00000000
0.04732278 0.04043355 0.12827432
0.16612523 0.00000000 0.14977345
0.73973019 0.00000000 0.33263966
1.00000000 0.27930122 0.29012799
1.00000000 0.40578582 0.33416489
0.07476396 0.16541292 0.16081875
0.17241401 0.17241401 0.17241401
0.76838576 0.00000000 0.25628734
1.00000000 0.31037404 0.29482542
1.00000000 0.42430964 0.34956422
0.10711448 0.65006235 0.23048089
0.10411343 0.65513008 0.16119062
0.68823114 0.71935325 0.00000000
1.00000000 0.70294746 0.57705553
1.00000000 0.73295126 0.66985585
0.13223498 0.90798474 0.08683680
0.15792269 0.91099213 0.06933182
0.47189135 0.99209332 0.27451555
0.95673211 0.99674172 0.67462606
1.00000000 0.92186615 0.87885579
0.30205933 0.96940798 0.07369699
0.30714687 0.97220192 0.08826441
0.69830119 1.00000000 0.57534179
0.95850716 1.00000000 0.93016450
1.00000000 1.00000000 1.00000000
0.13576252 0.08459416 0.57146533
0.23976644 0.08030285 0.52896457
0.68038255 0.00000000 0.60262679
0.99822966 0.17804410 0.48411296
0.99886692 0.37586114 0.32906201
0.00000000 0.23700583 0.46716766
0.14333915 0.15155030 0.54674498
0.68680911 0.00000000 0.60846693
1.00000000 0.18982767 0.47837120
0.99858104 0.38221436 0.33243277
0.00000000 0.67297713 0.65092801
0.00000000 0.67748842 0.65544376
0.69019238 0.69019238 0.69019238
0.99190756 0.71235186 0.70940740
0.98934669 0.75961069 0.71072508
0.51491209 0.99566035 0.48003510
0.53217451 0.99491739 0.48875781
0.77533994 1.00000000 0.69144702
0.99819514 1.00000000 0.94711577
1.00000000 1.00000000 1.00000000
0.81172572 1.00000000 0.72653018
0.81947254 1.00000000 0.73725775
0.95613003 1.00000000 0.93218231
1.00000000 1.00000000 1.00000000
1.00000000 1.00000000 1.00000000
0.02956046 0.22870748 0.75845052
0.09266528 0.17777822 0.78709447
0.41878635 0.00000000 0.89165660
0.93305305 0.07980467 0.81097630
1.00000000 0.32484624 0.52885863
0.02654595 0.26994030 0.72575578
0.04899687 0.23197283 0.76018271
0.40667449 0.00000000 0.89759968
0.93442035 0.07245223 0.81218403
1.00000000 0.32865344 0.52933154
0.00000000 0.54072635 0.88647204
0.00000000 0.54070809 0.90098547
0.50236335 0.62370981 0.97110208
1.00000000 0.61369086 0.89329019
1.00000000 0.69458263 0.74516553
0.00000000 0.95660771 0.92372474
0.00000000 0.95828782 0.92545621
0.57827258 0.98264967 0.95843810
0.98320425 0.98320425 0.98320425
1.00000000 1.00000000 1.00000000
0.76539496 0.99921023 0.69908387
0.77192155 0.99894952 0.70646335
0.93316101 1.00000000 0.90757196
1.00000000 1.00000000 1.00000000
1.00000000 1.00000000 1.00000000
0.00000000 0.31607040 0.72841514
0.00000000 0.31417997 0.72533244
0.00000000 0.27378902 0.88469240
0.53375531 0.38016647 1.00000000
0.99292088 0.12985109 0.85372668
0.00000000 0.31872162 0.73561002
0.00000000 0.31677043 0.73251819
0.00000000 0.27815195 0.87714510
0.53267213 0.38147364 1.00000000
0.99350781 0.13376418 0.85423760
0.22547814 0.47833908 0.98929627
0.22311643 0.47478865 0.99062533
0.44085285 0.60856634 0.98515658
0.70499308 0.69405472 1.00000000
1.00000000 0.65167751 0.89215402
0.67057169 0.84756843 1.00000000
0.67493146 0.84942125 1.00000000
0.80770087 0.90894869 1.00000000
0.96230439 0.97600444 0.99952780
1.00000000 0.99620079 1.00000000
0.54572040 0.99702176 0.96989142
0.56046947 0.99686079 0.97021272
0.86710792 0.99891134 0.98790993
1.00000000 1.00000000 1.00000000
1.00000000 1.00000000 1.00000000
