Luts Download/Canon Luts/3dlut/33grid-3dlut/full-to-full-range/CinemaGamut_CanonLog2-to-BT2020_709WideDR_33_FF_Ver.2.0.cube
# Gamut : Cinema Gamut to BT.2020
# Gamma : Canon Log 2 to Wide DR
# Range : Full in / Full out
# Version : 2.0 2019/10/24
# Copyright(c) 2019 Canon Inc. All Rights Reserved.
LUT_3D_SIZE 5
# LUT_3D_INPUT_RANGE 0.0 1.0
0.00000000 0.00000000 0.00000000
0.14576050 0.00060866 0.00576125
0.62382369 0.00000000 0.02257855
0.95554784 0.04890317 0.01004498
1.00000000 0.67249634 0.54286819
0.02335374 0.11918021 0.00361217
0.14020399 0.15193207 0.00000000
0.64324099 0.13580233 0.00156491
0.97640331 0.15917094 0.05123302
1.00000000 0.70577962 0.58357556
0.19909282 0.54423847 0.00039739
0.24481103 0.56201872 0.00000000
0.60339893 0.63962702 0.00000000
1.00000000 0.60265132 0.36260144
1.00000000 0.93005487 0.87749597
0.38579150 0.85247347 0.00374871
0.39799758 0.86671316 0.00650183
0.52876453 0.97309615 0.06548447
0.93832927 0.99383056 0.41939267
1.00000000 1.00000000 1.00000000
1.00000000 1.00000000 1.00000000
1.00000000 1.00000000 1.00000000
1.00000000 1.00000000 1.00000000
1.00000000 1.00000000 1.00000000
1.00000000 1.00000000 1.00000000
0.00841375 0.00053931 0.09933728
0.11899561 0.00000000 0.12765952
0.60656993 0.00000000 0.17466128
0.95386092 0.02161758 0.01645538
1.00000000 0.65982727 0.52863578
0.00580728 0.14388304 0.13911612
0.14520997 0.14520997 0.14520997
0.64768458 0.09565340 0.13452222
0.96745457 0.15387161 0.06752203
1.00000000 0.69065488 0.56601234
0.17075425 0.60494180 0.00114374
0.23039141 0.61840224 0.00000000
0.62483178 0.66207894 0.00000000
1.00000000 0.61454210 0.38830584
1.00000000 0.92630322 0.87312299
0.39587313 0.88533227 0.00587385
0.40893273 0.89841248 0.01089809
0.56300250 0.98822258 0.14709836
0.94923440 0.99829917 0.56030966
1.00000000 1.00000000 1.00000000
1.00000000 1.00000000 1.00000000
1.00000000 1.00000000 1.00000000
1.00000000 1.00000000 1.00000000
1.00000000 1.00000000 1.00000000
1.00000000 1.00000000 1.00000000
0.06663421 0.00081651 0.49857834
0.10828316 0.00139427 0.43026955
0.54040009 0.00000000 0.53743417
0.92464829 0.00000000 0.33277179
1.00000000 0.64438266 0.52865613
0.02271078 0.02625038 0.57719773
0.07490338 0.00009720 0.53006886
0.56076212 0.00000000 0.56087612
0.95034747 0.00000000 0.33081224
1.00000000 0.66697672 0.55425266
0.00000000 0.61904105 0.60386909
0.04347186 0.62616959 0.61204463
0.61787795 0.61787795 0.61787795
0.97104823 0.62230332 0.59628896
1.00000000 0.94594227 0.90180452
0.54387155 0.98858229 0.29836600
0.56102591 0.99268447 0.31440145
0.77157565 0.99628785 0.58233401
0.99155554 1.00000000 0.88466469
1.00000000 1.00000000 1.00000000
1.00000000 1.00000000 1.00000000
1.00000000 1.00000000 1.00000000
1.00000000 1.00000000 1.00000000
1.00000000 1.00000000 1.00000000
1.00000000 1.00000000 1.00000000
0.10919983 0.01346514 0.79347499
0.11299786 0.02662062 0.75273828
0.30665006 0.00000000 0.89718995
0.82546664 0.00770254 0.80046352
1.00000000 0.59896905 0.68674800
0.11170515 0.00271042 0.85184414
0.11569022 0.02880423 0.79706531
0.29542428 0.00000000 0.90267453
0.83143494 0.00040923 0.80683656
1.00000000 0.60721611 0.69171226
0.19937186 0.41362651 1.00000000
0.23592903 0.43330807 0.98584237
0.47724203 0.54231956 0.96359126
0.96347958 0.49902102 0.91564828
1.00000000 0.89941890 0.92014300
0.24246919 0.95212532 0.92942142
0.28999237 0.95481464 0.93246628
0.64031034 0.96533641 0.94965973
0.97244176 0.97244176 0.97244176
1.00000000 1.00000000 1.00000000
1.00000000 1.00000000 1.00000000
1.00000000 1.00000000 1.00000000
1.00000000 1.00000000 1.00000000
1.00000000 1.00000000 1.00000000
1.00000000 1.00000000 1.00000000
0.26135184 0.29913324 1.00000000
0.25828133 0.29270863 1.00000000
0.22267877 0.20917643 1.00000000
0.43926211 0.26671477 1.00000000
1.00000000 0.53776236 0.99074972
0.26822346 0.31311217 1.00000000
0.26504625 0.30640654 1.00000000
0.22931657 0.22449544 1.00000000
0.43605019 0.26301653 1.00000000
1.00000000 0.54003062 0.99031505
0.35625583 0.45668901 1.00000000
0.35098304 0.44918352 1.00000000
0.30195845 0.36973527 1.00000000
0.50830274 0.42976600 1.00000000
1.00000000 0.70936996 0.98537810
0.50301636 0.69112405 1.00000000
0.49795686 0.68665091 1.00000000
0.60178890 0.75105079 1.00000000
0.78095152 0.83107530 0.98999736
1.00000000 1.00000000 1.00000000
1.00000000 1.00000000 1.00000000
1.00000000 1.00000000 1.00000000
1.00000000 1.00000000 1.00000000
1.00000000 1.00000000 1.00000000
1.00000000 1.00000000 1.00000000
