Luts Download/Canon Luts/3dlut/33grid-3dlut/full-to-full-range/CinemaGamut_CanonLog2-to-BT2020_PQ_33_FF_Ver.2.0.cube
# Gamut : Cinema Gamut to BT.2020
# Gamma : Canon Log 2 to PQ
# Range : Full in / Full out
# Version : 2.0 2019/10/24
# Copyright(c) 2019 Canon Inc. All Rights Reserved.
LUT_3D_SIZE 9
# LUT_3D_INPUT_RANGE 0.0 1.0
0.00000000 0.00000000 0.00000000
0.02480688 0.00173255 0.00236374
0.21066370 0.00043433 0.01021020
0.36077919 0.00000000 0.03394118
0.50679445 0.00000000 0.10006999
0.65296625 0.00000000 0.19096546
0.79591357 0.00243611 0.29392737
0.93188328 0.27411721 0.41944059
1.00000000 0.78193877 0.70587747
0.00711066 0.02230581 0.00466211
0.03058674 0.03358715 0.00440816
0.21068529 0.03895484 0.00374500
0.36102785 0.01580823 0.01521942
0.50654574 0.00000000 0.07561286
0.65288209 0.00000000 0.18044295
0.79599885 0.00000000 0.29027965
0.93197148 0.27131327 0.41836568
1.00000000 0.78201547 0.70586438
0.04596552 0.18445005 0.00491270
0.06649952 0.19087258 0.00219700
0.20371656 0.21398475 0.00000000
0.35399139 0.22472361 0.00012572
0.50429917 0.19930194 0.00348623
0.65258888 0.03139557 0.08059788
0.79664055 0.00000000 0.25940559
0.93264704 0.25568268 0.40969732
1.00000000 0.78274585 0.70582640
0.14059667 0.32806433 0.00052902
0.15285456 0.32995154 0.00038329
0.22883423 0.34238834 0.00000000
0.34936428 0.36112025 0.00000000
0.49647770 0.37329300 0.00000000
0.64967454 0.35256659 0.00423035
0.79823087 0.17033216 0.13664671
0.93468716 0.22523598 0.37996401
1.00000000 0.78553158 0.70616426
0.26585299 0.47070764 0.00009150
0.27022125 0.47134331 0.00017824
0.30284084 0.47643830 0.00018067
0.37505809 0.48841930 0.00000000
0.49419612 0.50699096 0.00000000
0.64213082 0.51931738 0.00000000
0.79536361 0.49917205 0.01564590
0.93888244 0.38604020 0.27558315
1.00000000 0.79572131 0.70905529
0.40230333 0.61650381 0.00009101
0.40374419 0.61670790 0.00019578
0.41550249 0.61842019 0.00082604
0.44828920 0.62358514 0.00000000
0.52106042 0.63560740 0.00000000
0.64079166 0.65413482 0.00000000
0.78775201 0.66615125 0.00000000
0.93594219 0.65443821 0.23049263
1.00000000 0.82617387 0.72192398
0.54494016 0.76220334 0.00144730
0.54539560 0.76226305 0.00169246
0.54923267 0.76277322 0.00317234
0.56117222 0.76441116 0.00770695
0.59431315 0.76939447 0.00209138
0.66713509 0.78104967 0.00000000
0.78606167 0.79946583 0.00000000
0.92851555 0.81329964 0.25234717
1.00000000 0.88918589 0.76043682
0.69455137 0.90403271 0.22554515
0.69468638 0.90404847 0.22571101
0.69583431 0.90418492 0.22680080
0.69954631 0.90463114 0.23017959
0.71110428 0.90607664 0.23971407
0.74315521 0.91055655 0.25286946
0.81330345 0.92147562 0.28840966
0.92718712 0.94055403 0.44001636
1.00000000 0.97610161 0.87083046
0.92753459 1.00000000 0.82336212
0.92756119 1.00000000 0.82340778
0.92778201 1.00000000 0.82377555
0.92850319 1.00000000 0.82497673
0.93084231 1.00000000 0.82891615
0.93795487 1.00000000 0.84102339
0.95689083 1.00000000 0.87495064
1.00000000 1.00000000 1.00000000
1.00000000 1.00000000 1.00000000
0.00082085 0.00007066 0.01656329
0.02260561 0.00000000 0.02691196
0.20865058 0.00000000 0.05300577
0.36153761 0.00000000 0.08025996
0.50917386 0.00000000 0.12054270
0.65368718 0.00000000 0.20038175
0.79600730 0.01602305 0.29752887
0.93184488 0.27685236 0.42054900
1.00000000 0.78191717 0.70594922
0.00318336 0.02984191 0.02867560
0.03227769 0.03227769 0.03227769
0.21479031 0.02446216 0.03769916
0.36288678 0.00641600 0.05480674
0.50878706 0.00000000 0.09873938
0.65356369 0.00000000 0.19074165
0.79608931 0.00127359 0.29397638
0.93193297 0.27412190 0.41948194
1.00000000 0.78198293 0.70592448
0.03287371 0.20725202 0.00846875
0.05668746 0.21147367 0.00293821
0.21116396 0.22153117 0.00000000
0.35928417 0.22045279 0.00011695
0.50634049 0.18657167 0.00593929
0.65313517 0.02419624 0.09655211
0.79671815 0.00000000 0.26374217
0.93260917 0.25877696 0.41086323
1.00000000 0.78270911 0.70588167
0.13413028 0.33472737 0.00082554
0.14763526 0.33639158 0.00051132
0.22893403 0.34743476 0.00000000
0.35154666 0.36332108 0.00000000
0.49800843 0.37249181 0.00000000
0.65030936 0.34929965 0.00496324
0.79834809 0.16411275 0.14308975
0.93465085 0.22812390 0.38127375
1.00000000 0.78548448 0.70620668
0.26379955 0.47274764 0.00005196
0.26832224 0.47336356 0.00013338
0.30188723 0.47830512 0.00019965
0.37528205 0.48991264 0.00000000
0.49487678 0.50767511 0.00000000
0.64259009 0.51910318 0.00000000
0.79555528 0.49819678 0.01611629
0.93889506 0.38498835 0.27717092
1.00000000 0.79566925 0.70908567
0.40163396 0.61712235 0.00001523
0.40309040 0.61732459 0.00009342
0.41496469 0.61902154 0.00067640
0.44803166 0.62414310 0.00000000
0.52114768 0.63605744 0.00000000
0.64099907 0.65434253 0.00000000
0.78788913 0.66608858 0.00000000
0.93599699 0.65417298 0.23064243
1.00000000 0.82613220 0.72194613
0.54473204 0.76239012 0.00125750
0.54518899 0.76244965 0.00149467
0.54903803 0.76295832 0.00294687
0.56101331 0.76459153 0.00749731
0.59424043 0.76956367 0.00191089
0.66716177 0.78118262 0.00000000
0.78612347 0.79952754 0.00000000
0.92855408 0.81328486 0.25249664
1.00000000 0.88917268 0.76046917
0.69450118 0.90408849 0.22565262
0.69463629 0.90410423 0.22581793
0.69578512 0.90424053 0.22690587
0.69950022 0.90468628 0.23028445
0.71106738 0.90612994 0.23982985
0.74314143 0.91060605 0.25298351
0.81331407 0.92151390 0.28852287
0.92720518 0.94057217 0.44010242
1.00000000 0.97610338 0.87086265
0.92757539 1.00000000 0.82347996
0.92760098 1.00000000 0.82352367
0.92782109 1.00000000 0.82388941
0.92854175 1.00000000 0.82508936
0.93087854 1.00000000 0.82902275
0.93798710 1.00000000 0.84112060
0.95691379 1.00000000 0.87502398
1.00000000 1.00000000 1.00000000
1.00000000 1.00000000 1.00000000
0.01833512 0.00066295 0.17333910
0.03297383 0.00000000 0.17133117
0.19427777 0.00000000 0.20438020
0.35520000 0.00000000 0.24406859
0.50768148 0.00000000 0.27292478
0.65475683 0.00983993 0.29469710
0.79726548 0.00000000 0.31979936
0.93162931 0.28753161 0.42877761
1.00000000 0.78167564 0.70650989
0.00663671 0.00952474 0.18889043
0.02048896 0.00000000 0.19038080
0.19929467 0.00000000 0.21067466
0.35827437 0.00000000 0.23959968
0.50782820 0.00271798 0.26619508
0.65462601 0.02150549 0.29017796
0.79729786 0.00000000 0.31717503
0.93171408 0.28532684 0.42778864
1.00000000 0.78173957 0.70648310
0.00984275 0.20784393 0.20359919
0.02437795 0.20936967 0.20546507
0.20768300 0.20768300 0.20768300
0.36344330 0.19024491 0.20542303
0.50786725 0.15548213 0.21527937
0.65438717 0.10904570 0.24562620
0.79766039 0.00000000 0.29315904
0.93237700 0.27258980 0.41969483
1.00000000 0.78234714 0.70631169
0.02812445 0.37832386 0.12961080
0.04452611 0.37799276 0.12023329
0.20565391 0.37635535 0.09112872
0.36207698 0.37300896 0.08833461
0.50858266 0.36168344 0.07002982
0.65577856 0.31483706 0.01853253
0.79930056 0.10277445 0.19065453
0.93443581 0.24123375 0.39143076
1.00000000 0.78503855 0.70653154
0.23614386 0.48986596 0.00421088
0.24223596 0.49034863 0.00305995
0.28713479 0.49418732 0.00000000
0.37513822 0.50263697 0.00000000
0.50051321 0.51333256 0.00000000
0.64659369 0.51689317 0.00000000
0.79720877 0.48929999 0.02188103
0.93902565 0.37424914 0.28953997
1.00000000 0.79518956 0.70931397
0.39493144 0.62244526 0.00000000
0.39655483 0.62263357 0.00000000
0.40960770 0.62420237 0.00000000
0.44536311 0.62894635 0.00005125
0.52172228 0.63992687 0.00000000
0.64277494 0.65612040 0.00000000
0.78907774 0.66552175 0.00000000
0.93647139 0.65183657 0.23197770
1.00000000 0.82575438 0.72211112
0.54287909 0.76400696 0.00026654
0.54334989 0.76406504 0.00043543
0.54730841 0.76456091 0.00168162
0.55959642 0.76615281 0.00627309
0.59356142 0.77101137 0.00155642
0.66738193 0.78233291 0.00000000
0.78665732 0.80006048 0.00000000
0.92888854 0.81315335 0.25370774
1.00000000 0.88904860 0.76071837
0.69406497 0.90457129 0.22667932
0.69420105 0.90458688 0.22684343
0.69535824 0.90472194 0.22792565
0.69910029 0.90516360 0.23129748
0.71074779 0.90659122 0.24093593
0.74301843 0.91103462 0.25394884
0.81340364 0.92184536 0.28943687
0.92736117 0.94072874 0.44077816
1.00000000 0.97611725 0.87111850
0.92790349 1.00000000 0.82442217
0.92792816 1.00000000 0.82446355
0.92813472 1.00000000 0.82480052
0.92884983 1.00000000 0.82598632
0.93116789 1.00000000 0.82987070
0.93824547 1.00000000 0.84189518
0.95709968 1.00000000 0.87560932
1.00000000 1.00000000 1.00000000
1.00000000 1.00000000 1.00000000
0.07434374 0.00061781 0.31991015
0.08995094 0.00055092 0.31558381
0.19621914 0.00000000 0.31402233
0.35416369 0.00000000 0.35988060
0.50705497 0.00314635 0.40015130
0.65372665 0.01640161 0.42237384
0.79594224 0.07777831 0.43450517
0.93149065 0.26134353 0.45356326
1.00000000 0.78057165 0.70802123
0.05998628 0.00153281 0.32769751
0.07662234 0.00065985 0.32361729
0.19030260 0.00000000 0.31739022
0.35528400 0.00000000 0.36123663
0.50820574 0.00000000 0.39921567
0.65427011 0.00386772 0.41995145
0.79595995 0.08887624 0.43324844
0.93155988 0.26046538 0.45257076
1.00000000 0.78064288 0.70800191
0.00000000 0.16049862 0.33176384
0.00000000 0.14973156 0.33821021
0.16881929 0.07549106 0.37266803
0.35131278 0.09727284 0.36495992
0.50450539 0.09501881 0.38066897
0.65282522 0.11379723 0.40254327
0.79622069 0.15067248 0.42186177
0.93212259 0.25763279 0.44403284
1.00000000 0.78128834 0.70786697
0.04258793 0.35392931 0.34892468
0.05022286 0.35430266 0.34941722
0.15700796 0.35694430 0.35308051
0.35244623 0.35244623 0.35244623
0.50673123 0.33629226 0.35033188
0.65396147 0.29538900 0.35490509
0.79778317 0.25467969 0.38048315
0.93396229 0.25083541 0.41905460
1.00000000 0.78356086 0.70760628
0.06514023 0.52244827 0.28107058
0.07989543 0.52232050 0.27892953
0.18669181 0.52141336 0.26421097
0.34488719 0.51966415 0.24478654
0.50464999 0.51576988 0.23937154
0.65456174 0.50458664 0.23530429
0.80179841 0.45634007 0.17195614
0.93915887 0.34556221 0.32901665
1.00000000 0.79357757 0.71005076
0.35777105 0.63927135 0.01420556
0.36010656 0.63941754 0.01301111
0.37897548 0.64067378 0.00422856
0.42821917 0.64439425 0.00000000
0.52083605 0.65234100 0.00000000
0.64827555 0.66161053 0.00000000
0.79304063 0.66319009 0.00000000
0.93802887 0.64362011 0.23695368
1.00000000 0.82448133 0.72263459
0.53539455 0.76928318 0.00000000
0.53592819 0.76933700 0.00000000
0.54038037 0.76979495 0.00000000
0.55392748 0.77125475 0.00055278
0.59065626 0.77569206 0.00135304
0.66789669 0.78609396 0.00000000
0.78839314 0.80179239 0.00000000
0.92999405 0.81268736 0.25736298
1.00000000 0.88862492 0.76150645
0.69252606 0.90615897 0.22964247
0.69266614 0.90617408 0.22981490
0.69385638 0.90630498 0.23095868
0.69769780 0.90673317 0.23442985
0.70961992 0.90810946 0.24428242
0.74254705 0.91243221 0.25771586
0.81368177 0.92293559 0.29221008
0.92787312 0.94124240 0.44289279
1.00000000 0.97616103 0.87194401
0.92896321 1.00000000 0.82745149
0.92898741 1.00000000 0.82749179
0.92918738 1.00000000 0.82781277
0.92984777 1.00000000 0.82888011
0.93209854 1.00000000 0.83258629
0.93907964 1.00000000 0.84438482
0.95770240 1.00000000 0.87749733
1.00000000 1.00000000 1.00000000
1.00000000 1.00000000 1.00000000
0.17222095 0.00063535 0.46048949
0.17873908 0.00294370 0.45841724
0.22582227 0.00383613 0.44657501
0.35515566 0.00000000 0.46323941
0.51351499 0.00000000 0.51511224
0.65502706 0.02188149 0.54753479
0.79396324 0.08745493 0.56278570
0.92944862 0.30008738 0.57280814
1.00000000 0.77592850 0.71549069
0.16616880 0.00000000 0.46371129
0.17308532 0.00071906 0.46161691
0.22200722 0.00246497 0.44899817
0.35348581 0.00000000 0.46363242
0.51381455 0.00000000 0.51543506
0.65533921 0.01876217 0.54730063
0.79412878 0.08222339 0.56214148
0.92949193 0.30151380 0.57246588
1.00000000 0.77600567 0.71543988
0.09212243 0.04539319 0.48207301
0.10449118 0.03726234 0.48142809
0.18004505 0.00000000 0.47155064
0.33343271 0.00000000 0.47153979
0.51547155 0.00000000 0.51840314
0.65746268 0.00000000 0.54373615
0.79472916 0.10717996 0.55673404
0.92987739 0.31268239 0.56944725
1.00000000 0.77668179 0.71500771
0.00000000 0.31201928 0.46725517
0.00000000 0.30941546 0.46935479
0.00000000 0.28404440 0.49003675
0.31701047 0.24292963 0.51612705
0.49548205 0.24294340 0.51026083
0.64985529 0.22918221 0.52191175
0.79505409 0.24269912 0.54042017
0.93120806 0.34233949 0.55904117
1.00000000 0.77891127 0.71359269
0.09281588 0.49764596 0.49216433
0.10044982 0.49773607 0.49229790
0.16204623 0.49851490 0.49344720
0.30668984 0.50011739 0.49618798
0.49554313 0.49554313 0.49554313
0.65266156 0.47914296 0.49339400
0.79964630 0.43393840 0.49582537
0.93531407 0.42643850 0.52227351
1.00000000 0.78744858 0.71178469
0.09269150 0.66787345 0.41928990
0.10758322 0.66785110 0.41874829
0.19467509 0.66766759 0.41452185
0.32154372 0.66712324 0.40267902
0.48786307 0.66575508 0.38790154
0.65055247 0.66181476 0.38264959
0.80152187 0.64785886 0.36351558
0.94210498 0.61413547 0.35531319
1.00000000 0.81980861 0.72389443
0.49314245 0.78594612 0.04226599
0.49393520 0.78598770 0.04119966
0.50064226 0.78634663 0.03226617
0.52091914 0.78751363 0.00737635
0.57244455 0.79089618 0.00000000
0.66675580 0.79821955 0.00000000
0.79379086 0.80715506 0.00000000
0.93371295 0.81070927 0.26287740
1.00000000 0.88707393 0.76378532
0.68622648 0.91136122 0.23501426
0.68638424 0.91137472 0.23525110
0.68772098 0.91149177 0.23689920
0.69201069 0.91187495 0.24174889
0.70505491 0.91311034 0.25281119
0.74038300 0.91697404 0.26979870
0.81440625 0.92650889 0.29883768
0.92954294 0.94291807 0.44985022
1.00000000 0.97628830 0.87454794
0.93223356 1.00000000 0.83666551
0.93225617 1.00000000 0.83670204
0.93244302 1.00000000 0.83699270
0.93305303 1.00000000 0.83794092
0.93505279 1.00000000 0.84110386
0.94170561 1.00000000 0.85212299
0.95962016 1.00000000 0.88345121
1.00000000 1.00000000 1.00000000
1.00000000 1.00000000 1.00000000
0.28332303 0.00104658 0.60233622
0.28554439 0.00435076 0.60154808
0.30350067 0.02493612 0.59576557
0.35437354 0.02264530 0.58251413
0.50694738 0.00000000 0.61056888
0.66218561 0.00000000 0.66103704
0.79279483 0.08499931 0.68585894
0.92552996 0.31028560 0.70011912
1.00000000 0.77517294 0.77578113
0.28135646 0.00000000 0.60347036
0.28361684 0.00112979 0.60268237
0.30178460 0.02063014 0.59683855
0.35310565 0.02114152 0.58325426
0.50640555 0.00000000 0.61062494
0.66227182 0.00000000 0.66112511
0.79288801 0.08420130 0.68579760
0.92558479 0.30984585 0.69993800
1.00000000 0.77527562 0.77577436
0.26239628 0.00000000 0.61212580
0.26507047 0.00000000 0.61139123
0.28614106 0.00285790 0.60557095
0.34172423 0.01296605 0.58983613
0.50126106 0.00000000 0.61127928
0.66295977 0.00000000 0.66190035
0.79371512 0.06282185 0.68521286
0.92609667 0.30293471 0.69828519
1.00000000 0.77611401 0.77568742
0.15966626 0.19165537 0.62700958
0.16439066 0.18279413 0.62753274
0.20645771 0.13229395 0.62706732
0.29389176 0.00000000 0.61562290
0.47435477 0.00000000 0.61699126
0.65985077 0.00000000 0.66153281
0.79497014 0.00000000 0.68112432
0.92730207 0.32401706 0.69396292
1.00000000 0.77864044 0.77527727
0.00000000 0.45558985 0.60664097
0.00000000 0.45484365 0.60731882
0.00000000 0.44790072 0.61302053
0.00000000 0.42352651 0.63725205
0.45964105 0.38609792 0.66217624
0.64092983 0.38080897 0.65612275
0.79355071 0.36039392 0.66484225
0.93108247 0.40830715 0.68123792
1.00000000 0.78670227 0.77392724
0.16957517 0.64300806 0.63729538
0.17382929 0.64304316 0.63734497
0.21011139 0.64332319 0.63775000
0.28696637 0.64432434 0.63914802
0.44924567 0.64595736 0.64197173
0.64131749 0.64131749 0.64131749
0.79892230 0.62466254 0.63913668
0.93994914 0.58974361 0.64412321
1.00000000 0.81305902 0.77178892
0.13857077 0.81254483 0.56055717
0.14859473 0.81254738 0.56040645
0.21494983 0.81256387 0.55922992
0.31993478 0.81260922 0.55548591
0.46072642 0.81265039 0.54501840
0.63352181 0.81187111 0.53165827
0.79683369 0.80797753 0.52630201
0.94433775 0.79416510 0.50680481
1.00000000 0.88037996 0.77759335
0.65069517 0.92780487 0.30440844
0.65091886 0.92781538 0.30432056
0.65282718 0.92790654 0.30345959
0.65901651 0.92820265 0.30119607
0.67778584 0.92914890 0.29494784
0.72571160 0.93184158 0.28633915
0.81450493 0.93816996 0.29704165
0.93487008 0.94827008 0.47372873
1.00000000 0.97655372 0.88247365
0.94181677 1.00000000 0.86262031
0.94183625 1.00000000 0.86265050
0.94199745 1.00000000 0.86289124
0.94252402 1.00000000 0.86367725
0.94422086 1.00000000 0.86621926
0.94953693 1.00000000 0.87440380
0.96551097 1.00000000 0.90119881
1.00000000 1.00000000 1.00000000
1.00000000 1.00000000 1.00000000
0.40634726 0.00168877 0.74394834
0.40704620 0.00551410 0.74365720
0.41296318 0.03410186 0.74139255
0.43123022 0.09892277 0.73440347
0.48304746 0.09829481 0.71699657
0.64457767 0.00000000 0.74472692
0.79417128 0.00000000 0.79126306
0.91887691 0.29628263 0.81500897
1.00000000 0.76384435 0.85106923
0.40574098 0.00000000 0.74434341
0.40644388 0.00170652 0.74405404
0.41239244 0.02911295 0.74178779
0.43071979 0.09563157 0.73477341
0.48266156 0.09730957 0.71725911
0.64440939 0.00000000 0.74473962
0.79419496 0.00000000 0.79128721
0.91890633 0.29625846 0.81499420
1.00000000 0.76389497 0.85104544
0.40029432 0.00000000 0.74746895
0.40103345 0.00000000 0.74718433
0.40727724 0.00250958 0.74494833
0.42617010 0.07450899 0.73777504
0.47929974 0.09545866 0.71942412
0.64291877 0.00000000 0.74484714
0.79439989 0.00000000 0.79149970
0.91916291 0.29590136 0.81486483
1.00000000 0.76430176 0.85083324
0.37955360 0.00000000 0.75697148
0.38043357 0.00000000 0.75671999
0.38779803 0.00000000 0.75462105
0.40997928 0.01240859 0.74771622
0.46773712 0.06947191 0.72742908
0.63747243 0.00000000 0.74555099
0.79507285 0.00000000 0.79229795
0.92009001 0.28556299 0.81441975
1.00000000 0.76547548 0.85009370
0.25593606 0.34237109 0.76917140
0.25789052 0.34012542 0.76933789
0.27359234 0.31634016 0.77107779
0.32272934 0.25664308 0.77119458
0.41847156 0.00000000 0.75754071
0.60883165 0.00000000 0.75219826
0.79251367 0.00000000 0.79324061
0.92319670 0.23459122 0.81245800
1.00000000 0.77368265 0.84986257
0.00000000 0.59760063 0.74579911
0.00000000 0.59739387 0.74600191
0.00000000 0.59557732 0.74770031
0.00000000 0.58870773 0.75388059
0.12139690 0.56613605 0.78188683
0.60482230 0.52981866 0.80833483
0.78993230 0.48390909 0.80778610
0.93169364 0.51519087 0.80697580
1.00000000 0.80171166 0.85144359
0.28332319 0.78819896 0.78246309
0.28496601 0.78821489 0.78248358
0.30050220 0.78834030 0.78264858
0.34055927 0.78876316 0.78320025
0.42316204 0.79017835 0.78502327
0.59423347 0.79228049 0.78832822
0.78767918 0.78767918 0.78767918
0.94183209 0.77113170 0.78551519
1.00000000 0.87103465 0.86065319
0.53854170 0.95148495 0.71738108
0.53887236 0.95148941 0.71734425
0.54194099 0.95152435 0.71705219
0.55181952 0.95163517 0.71611325
0.58093364 0.95197675 0.71309965
0.65540580 0.95277136 0.70490091
0.77993981 0.95430138 0.67787803
0.93981807 0.95055507 0.67246670
1.00000000 0.97596216 0.91800900
0.96767725 1.00000000 0.92641599
0.96768883 1.00000000 0.92643098
0.96778529 1.00000000 0.92655100
0.96810051 1.00000000 0.92694236
0.96912191 1.00000000 0.92821582
0.97236059 1.00000000 0.93238595
0.98095335 1.00000000 0.94548246
1.00000000 1.00000000 1.00000000
1.00000000 1.00000000 1.00000000
0.53778046 0.03569043 0.88231821
0.53798828 0.04046577 0.88221603
0.53978913 0.06684043 0.88141765
0.54555057 0.12930222 0.87881236
0.56326392 0.21506419 0.87039117
0.61199739 0.22491787 0.84690717
0.76645576 0.00000000 0.86272775
0.91061278 0.03847288 0.90639235
1.00000000 0.73036176 0.92541049
0.53760298 0.03098021 0.88245105
0.53781121 0.03578665 0.88234891
0.53961539 0.06250146 0.88155060
0.54538694 0.12672220 0.87894457
0.56311960 0.21401536 0.87051987
0.61189600 0.22462754 0.84700975
0.76640737 0.00000000 0.86273482
0.91061921 0.03847252 0.90639871
1.00000000 0.73040502 0.92540571
0.53603093 0.00546474 0.88351039
0.53624272 0.00965910 0.88340883
0.53807689 0.03688486 0.88261283
0.54393899 0.11075528 0.88000411
0.56184432 0.20795112 0.87155206
0.61100589 0.22437866 0.84783347
0.76598467 0.00000000 0.86278924
0.91067510 0.03803911 0.90645436
1.00000000 0.73075634 0.92536654
0.53058507 0.00000000 0.88690998
0.53080769 0.00000000 0.88680962
0.53275188 0.00000000 0.88603600
0.53894415 0.04400483 0.88345576
0.55747423 0.18541100 0.87494812
0.60804071 0.22240657 0.85061953
0.76455759 0.00000000 0.86299037
0.91086536 0.02715331 0.90664851
1.00000000 0.73187840 0.92524016
0.50983766 0.00000000 0.89748403
0.51009286 0.00000000 0.89739758
0.51238001 0.00000000 0.89673087
0.51990910 0.00000000 0.89439904
0.54172406 0.09300711 0.88600518
0.59770484 0.19550888 0.86059107
0.75948707 0.00000000 0.86425326
0.91162973 0.00000000 0.90753042
1.00000000 0.73509760 0.92486276
0.37050448 0.49204412 0.90772157
0.37123745 0.49148569 0.90775928
0.37736478 0.48617687 0.90815780
0.39545868 0.46181280 0.91028111
0.45019113 0.39696151 0.91103174
0.55066277 0.05483617 0.89525376
0.73711599 0.00000000 0.87793139
0.91416527 0.00000000 0.91368126
1.00000000 0.75296613 0.92525403
0.00000000 0.73821685 0.88048725
0.00000000 0.73816131 0.88054996
0.00000000 0.73768300 0.88105964
0.00000000 0.73603269 0.88284351
0.00000000 0.72978932 0.88935565
0.27650645 0.71124560 0.92145567
0.75135707 0.67601997 0.95089897
0.93315771 0.62950573 0.95037081
1.00000000 0.84119675 0.93403215
0.57821241 0.92804287 0.92248651
0.57836587 0.92804955 0.92249454
0.57988778 0.92810287 0.92255970
0.58478335 0.92827852 0.92277418
0.59954250 0.92886195 0.92348385
0.64107425 0.93070213 0.92572410
0.74077595 0.93542483 0.93160844
0.93098146 0.93098146 0.93098146
1.00000000 0.96849118 0.96838853
1.00000000 1.00000000 1.00000000
1.00000000 1.00000000 1.00000000
1.00000000 1.00000000 1.00000000
1.00000000 1.00000000 1.00000000
1.00000000 1.00000000 1.00000000
1.00000000 1.00000000 1.00000000
1.00000000 1.00000000 1.00000000
1.00000000 1.00000000 1.00000000
1.00000000 1.00000000 1.00000000
0.67144236 0.48467115 1.00000000
0.67150513 0.48463598 1.00000000
0.67205236 0.48414008 1.00000000
0.67383812 0.48241295 1.00000000
0.67953027 0.47624688 1.00000000
0.69680723 0.45627719 0.99617975
0.73921701 0.46982521 0.96482516
0.87627700 0.00000000 0.96680634
1.00000000 0.66446925 0.99680260
0.67139068 0.48480258 1.00000000
0.67145030 0.48475452 1.00000000
0.67199793 0.48424967 1.00000000
0.67378479 0.48252388 1.00000000
0.67948024 0.47636627 1.00000000
0.69676424 0.45638013 0.99620758
0.73919529 0.46976678 0.96486833
0.87626362 0.00000000 0.96680830
1.00000000 0.66448843 0.99680204
0.67093592 0.48617902 1.00000000
0.67099610 0.48612261 1.00000000
0.67151970 0.48544498 1.00000000
0.67331665 0.48368914 1.00000000
0.67904098 0.47760465 1.00000000
0.69638562 0.45753311 0.99642865
0.73899952 0.46954849 0.96521372
0.87614673 0.00000000 0.96682340
1.00000000 0.66464152 0.99679892
0.66940982 0.49078390 1.00000000
0.66947128 0.49072737 1.00000000
0.67000663 0.49001865 1.00000000
0.67174739 0.48773002 1.00000000
0.67757202 0.48168896 1.00000000
0.69512037 0.46136699 0.99715024
0.73834910 0.46882752 0.96635249
0.87575757 0.00000000 0.96687035
1.00000000 0.66513385 0.99679005
0.66407079 0.50659781 1.00000000
0.66413688 0.50653518 1.00000000
0.66471182 0.50579428 1.00000000
0.66658265 0.50331756 1.00000000
0.67248056 0.49562601 1.00000000
0.69076231 0.47383372 0.99949328
0.73615573 0.46594327 0.97015624
0.87445272 0.00000000 0.96705485
1.00000000 0.66665131 0.99677283
0.64270318 0.57238813 1.00000000
0.64278051 0.57225899 1.00000000
0.64344949 0.57105762 1.00000000
0.64572655 0.56701368 1.00000000
0.65327642 0.55541132 1.00000000
0.67471967 0.52461037 1.00000000
0.72796610 0.45846837 0.98244052
0.87012709 0.00000000 0.96870970
1.00000000 0.66988605 0.99694023
0.54977321 0.72467523 1.00000000
0.54987540 0.72460788 1.00000000
0.55076827 0.72402956 1.00000000
0.55363887 0.72205311 1.00000000
0.56287523 0.71516670 1.00000000
0.59670653 0.69086658 1.00000000
0.68196307 0.59227939 1.00000000
0.85759391 0.00000000 0.98860374
1.00000000 0.71896270 0.99831491
0.00000000 0.87601033 0.99552721
0.00000000 0.87599799 0.99553808
0.00000000 0.87589092 0.99562464
0.00000000 0.87553510 0.99591316
0.00000000 0.87432845 0.99691617
0.00000000 0.86996247 1.00000000
0.69060737 0.86832724 1.00000000
0.88866519 0.87927462 1.00000000
1.00000000 0.93442873 1.00000000
1.00000000 1.00000000 1.00000000
1.00000000 1.00000000 1.00000000
1.00000000 1.00000000 1.00000000
1.00000000 1.00000000 1.00000000
1.00000000 1.00000000 1.00000000
1.00000000 1.00000000 1.00000000
1.00000000 1.00000000 1.00000000
1.00000000 1.00000000 1.00000000
1.00000000 1.00000000 1.00000000
