Luts Download/Canon Luts/3dlut/33grid-3dlut/full-to-full-range/CinemaGamut_CanonLog3-to-BT2020_HLG_33_FF_Ver.2.0.cube
# Gamut : Cinema Gamut to BT.2020
# Gamma : Canon Log 3 to HLG
# Range : Full in / Full out
# Version : 2.0 2019/10/24
# Copyright(c) 2019 Canon Inc. All Rights Reserved.
LUT_3D_SIZE 33
# LUT_3D_INPUT_RANGE 0.0 1.0
0.00000000 0.00000004 0.00000002
0.00000000 0.00000004 0.00000002
0.00000000 0.00000004 0.00000002
0.00000000 0.00000004 0.00000002
0.00000000 0.00000004 0.00000002
0.09141775 0.03551451 0.03914919
0.14404479 0.03896103 0.04729490
0.19215300 0.03705476 0.05182884
0.23882734 0.03181022 0.05535469
0.28559323 0.02352606 0.05911240
0.33353586 0.00768139 0.06368011
0.38364891 0.00000000 0.06912451
0.43674134 0.00000000 0.07535585
0.49354669 0.00000000 0.08223702
0.55002359 0.00000000 0.08968508
0.60080928 0.00000000 0.09786571
0.64746387 0.00000000 0.10733129
0.69128792 0.00000000 0.11750484
0.73299062 0.00000000 0.12835793
0.77303957 0.00000000 0.13995005
0.81176053 0.00000000 0.15238100
0.84936473 0.00000000 0.16589165
0.88591558 0.00000000 0.18119020
0.92120723 0.05032436 0.20010289
0.95432646 0.12716479 0.22765658
0.98244184 0.24073602 0.27668022
0.99672555 0.43175767 0.37980322
1.00000000 0.59785025 0.50683743
1.00000000 0.69774245 0.61486727
1.00000000 0.76666061 0.69524616
1.00000000 0.81871026 0.75886846
1.00000000 0.85993443 0.81026141
1.00000000 0.89295040 0.85007870
0.00000000 0.00000004 0.00000002
0.00000000 0.00000004 0.00000002
0.00000000 0.00000004 0.00000002
0.00000000 0.00000004 0.00000002
0.00000000 0.00000004 0.00000002
0.09141775 0.03551451 0.03914919
0.14404479 0.03896103 0.04729490
0.19215300 0.03705476 0.05182884
0.23882734 0.03181022 0.05535469
0.28559323 0.02352606 0.05911240
0.33353586 0.00768139 0.06368011
0.38364891 0.00000000 0.06912451
0.43674134 0.00000000 0.07535585
0.49354669 0.00000000 0.08223702
0.55002359 0.00000000 0.08968508
0.60080928 0.00000000 0.09786571
0.64746387 0.00000000 0.10733129
0.69128792 0.00000000 0.11750484
0.73299062 0.00000000 0.12835793
0.77303957 0.00000000 0.13995005
0.81176053 0.00000000 0.15238100
0.84936473 0.00000000 0.16589165
0.88591558 0.00000000 0.18119020
0.92120723 0.05032436 0.20010289
0.95432646 0.12716479 0.22765658
0.98244184 0.24073602 0.27668022
0.99672555 0.43175767 0.37980322
1.00000000 0.59785025 0.50683743
1.00000000 0.69774245 0.61486727
1.00000000 0.76666061 0.69524616
1.00000000 0.81871026 0.75886846
1.00000000 0.85993443 0.81026141
1.00000000 0.89295040 0.85007870
0.00000000 0.00000004 0.00000002
0.00000000 0.00000004 0.00000002
0.00000000 0.00000004 0.00000002
0.00000000 0.00000004 0.00000002
0.03312561 0.02687449 0.00000000
0.09141775 0.03551451 0.03914919
0.14404479 0.03896103 0.04729490
0.19215300 0.03705476 0.05182884
0.23882734 0.03181022 0.05535469
0.28559323 0.02352606 0.05911240
0.33353586 0.00768139 0.06368011
0.38364891 0.00000000 0.06912451
0.43674134 0.00000000 0.07535585
0.49354669 0.00000000 0.08223702
0.55002359 0.00000000 0.08968508
0.60080928 0.00000000 0.09786571
0.64746387 0.00000000 0.10733129
0.69128792 0.00000000 0.11750484
0.73299062 0.00000000 0.12835793
0.77303957 0.00000000 0.13995005
0.81176053 0.00000000 0.15238100
0.84936473 0.00000000 0.16589165
0.88591558 0.00000000 0.18119020
0.92120723 0.05032436 0.20010289
0.95432646 0.12716479 0.22765658
0.98244184 0.24073602 0.27668022
0.99672555 0.43175767 0.37980322
1.00000000 0.59785025 0.50683743
1.00000000 0.69774245 0.61486727
1.00000000 0.76666061 0.69524616
1.00000000 0.81871026 0.75886846
1.00000000 0.85993443 0.81026141
1.00000000 0.89295040 0.85007870
0.07581944 0.09707740 0.05367839
0.10237321 0.11627784 0.07478508
0.12515043 0.13474050 0.09085096
0.14310778 0.14910179 0.10308378
0.08642565 0.08817124 0.02904838
0.09141775 0.03551451 0.03914919
0.14404479 0.03896103 0.04729490
0.19215300 0.03705476 0.05182884
0.23882734 0.03181022 0.05535469
0.28559323 0.02352606 0.05911240
0.33353586 0.00768139 0.06368011
0.38364891 0.00000000 0.06912451
0.43674134 0.00000000 0.07535585
0.49354669 0.00000000 0.08223702
0.55002359 0.00000000 0.08968508
0.60080928 0.00000000 0.09786571
0.64746387 0.00000000 0.10733129
0.69128792 0.00000000 0.11750484
0.73299062 0.00000000 0.12835793
0.77303957 0.00000000 0.13995005
0.81176053 0.00000000 0.15238100
0.84936473 0.00000000 0.16589165
0.88591558 0.00000000 0.18119020
0.92120723 0.05032436 0.20010289
0.95432646 0.12716479 0.22765658
0.98244184 0.24073602 0.27668022
0.99672555 0.43175767 0.37980322
1.00000000 0.59785025 0.50683743
1.00000000 0.69774245 0.61486727
1.00000000 0.76666061 0.69524616
1.00000000 0.81871026 0.75886846
1.00000000 0.85993443 0.81026141
1.00000000 0.89295040 0.85007870
0.11173580 0.13533709 0.08956895
0.11669243 0.13437092 0.08749583
0.12347119 0.13717958 0.08666072
0.12939481 0.13965764 0.08508810
0.08140797 0.08790757 0.00000000
0.09141775 0.03551451 0.03914919
0.14404479 0.03896103 0.04729490
0.19215300 0.03705476 0.05182884
0.23882734 0.03181022 0.05535469
0.28559323 0.02352606 0.05911240
0.33353586 0.00768139 0.06368011
0.38364891 0.00000000 0.06912451
0.43674134 0.00000000 0.07535585
0.49354669 0.00000000 0.08223702
0.55002359 0.00000000 0.08968508
0.60080928 0.00000000 0.09786571
0.64746387 0.00000000 0.10733129
0.69128792 0.00000000 0.11750484
0.73299062 0.00000000 0.12835793
0.77303957 0.00000000 0.13995005
0.81176053 0.00000000 0.15238100
0.84936473 0.00000000 0.16589165
0.88591558 0.00000000 0.18119020
0.92120723 0.05032436 0.20010289
0.95432646 0.12716479 0.22765658
0.98244184 0.24073602 0.27668022
0.99672555 0.43175767 0.37980322
1.00000000 0.59785025 0.50683743
1.00000000 0.69774245 0.61486727
1.00000000 0.76666061 0.69524616
1.00000000 0.81871026 0.75886846
1.00000000 0.85993443 0.81026141
1.00000000 0.89295040 0.85007870
0.05720533 0.08748741 0.04976872
0.05720533 0.08748741 0.04976872
0.05720533 0.08748741 0.04976872
0.05720533 0.08748741 0.04976872
0.05720533 0.08748741 0.04976872
0.10353342 0.10772380 0.05129077
0.14855530 0.11525999 0.04810412
0.19396597 0.11825019 0.04529527
0.23980347 0.11864184 0.04351275
0.28669494 0.11733658 0.04311435
0.33526917 0.11483064 0.04432603
0.38619925 0.11129031 0.04727882
0.44024957 0.10660186 0.05138784
0.49815273 0.10040705 0.05618885
0.55486216 0.09223808 0.06158768
0.61327694 0.01323577 0.00000000
0.65211970 0.07270015 0.07834666
0.69567087 0.06216437 0.08954929
0.73720711 0.04825286 0.10118403
0.77706701 0.03099754 0.11391824
0.81556597 0.00000000 0.12788122
0.85293674 0.00000000 0.14316617
0.88924235 0.00984704 0.16047391
0.92425023 0.06362055 0.18181930
0.95700308 0.13324908 0.21257330
0.98453159 0.24766700 0.26626341
0.99759572 0.44285374 0.37672079
1.00000000 0.60487563 0.50701878
1.00000000 0.70213942 0.61619871
1.00000000 0.76974291 0.69686732
1.00000000 0.82102872 0.76053057
1.00000000 0.86177853 0.81189113
1.00000000 0.89474990 0.85192289
0.07457065 0.13193452 0.05811548
0.07457065 0.13193452 0.05811548
0.07457065 0.13193452 0.05811548
0.07457065 0.13193452 0.05811548
0.07457065 0.13193452 0.05811548
0.11170303 0.14951672 0.05126799
0.15154168 0.15894935 0.04382865
0.19386346 0.16457650 0.03790232
0.23801675 0.16774899 0.03360541
0.28411100 0.16910031 0.03102622
0.33250186 0.16899204 0.03045551
0.38369260 0.16762052 0.03167650
0.43830266 0.16495452 0.03410747
0.49693800 0.16087997 0.03729701
0.55451397 0.15524832 0.04147690
0.60616729 0.14774263 0.04664383
0.65356485 0.13872607 0.05379044
0.69804762 0.12710619 0.06170391
0.74034154 0.11201128 0.07040684
0.78064586 0.09504877 0.08226587
0.81923936 0.07872213 0.09774349
0.85660904 0.06290745 0.11497362
0.89277228 0.05735101 0.13500957
0.92752921 0.07988309 0.15976087
0.95986779 0.14227024 0.19503841
0.98666840 0.25751625 0.25500396
0.99846277 0.45577102 0.37362731
1.00000000 0.61265279 0.50740699
1.00000000 0.70702325 0.61776225
1.00000000 0.77317935 0.69872527
1.00000000 0.82362446 0.76243002
1.00000000 0.86385417 0.81376347
1.00000000 0.89677586 0.85403290
0.08724352 0.17243040 0.05934681
0.08724352 0.17243040 0.05934681
0.08724352 0.17243040 0.05934681
0.08724352 0.17243040 0.05934681
0.08724352 0.17243040 0.05934681
0.11939021 0.18761066 0.04834469
0.15522122 0.19747704 0.03871715
0.19455719 0.20462164 0.03114431
0.23654257 0.20972779 0.02541148
0.28118401 0.21322034 0.02157864
0.32874500 0.21530333 0.01957216
0.37956445 0.21606516 0.01969328
0.43410222 0.21552426 0.02142036
0.49288431 0.21361411 0.02400259
0.55146207 0.21020712 0.02726788
0.60401971 0.20509187 0.03094310
0.65231899 0.19811769 0.03600799
0.69756017 0.18885896 0.04205443
0.74052471 0.17671647 0.04900421
0.78169390 0.16109510 0.05718613
0.82132145 0.14181878 0.06792084
0.86401108 0.01154884 0.00000000
0.89603068 0.10457610 0.10439761
0.93079809 0.11029932 0.13327833
0.96274421 0.16153421 0.17504270
0.98835503 0.27787870 0.24509705
0.99916854 0.47300445 0.37118634
1.00000000 0.62203942 0.50836154
1.00000000 0.71286637 0.61979030
1.00000000 0.77729259 0.70102896
1.00000000 0.82674898 0.76478062
1.00000000 0.86672907 0.81647548
1.00000000 0.89920785 0.85659421
0.09811708 0.21210036 0.05591481
0.09811708 0.21210036 0.05591481
0.09811708 0.21210036 0.05591481
0.09811708 0.21210036 0.05591481
0.09811708 0.21210036 0.05591481
0.12752018 0.22510268 0.04375068
0.16028032 0.23472710 0.03347061
0.19683270 0.24259468 0.02519494
0.23655342 0.24901650 0.01850129
0.27939284 0.25412230 0.01332362
0.32558501 0.25801412 0.01038824
0.37549076 0.26071691 0.00926852
0.42947919 0.26217721 0.01020386
0.48795815 0.26232820 0.01315572
0.54727430 0.26106087 0.01635537
0.60060877 0.25821838 0.01993434
0.64963679 0.25358201 0.02386441
0.69556169 0.24682018 0.02793835
0.73913215 0.23756015 0.03321124
0.78088503 0.22528456 0.03979168
0.82115169 0.20952316 0.04843997
0.86013101 0.18993077 0.05965817
0.89771544 0.16896147 0.07678967
0.93338680 0.15822391 0.10456378
0.96526225 0.19463865 0.15388785
0.98942332 0.30940665 0.23749200
0.99962735 0.49531995 0.36979354
1.00000000 0.63327068 0.51017511
1.00000000 0.71985647 0.62248085
1.00000000 0.78223528 0.70395582
1.00000000 0.83089800 0.76815425
1.00000000 0.87022135 0.81984822
1.00000000 0.90211410 0.85969028
0.10943445 0.25206324 0.05070392
0.10943445 0.25206324 0.05070392
0.10943445 0.25206324 0.05070392
0.10943445 0.25206324 0.05070392
0.10943445 0.25206324 0.05070392
0.13677341 0.26324052 0.03862402
0.16695660 0.27239076 0.02830914
0.20094564 0.28052158 0.01956707
0.23836776 0.28774812 0.01182654
0.27924799 0.29405851 0.00310581
0.32379332 0.29940093 0.00000000
0.37234907 0.30374430 0.00000000
0.42532507 0.30701793 0.00000000
0.48312307 0.30909846 0.00000000
0.54276055 0.30985709 0.00498444
0.59667676 0.30914765 0.01050264
0.64627435 0.30677741 0.01468247
0.69272961 0.30249513 0.01880312
0.73683279 0.29594830 0.02262731
0.77909290 0.28674229 0.02746555
0.81985368 0.27448518 0.03455368
0.85931853 0.25899336 0.04516724
0.89748190 0.24137428 0.06120514
0.93381843 0.22880839 0.08854674
0.96651324 0.24720972 0.13805987
0.98995347 0.34987078 0.23205509
0.99984550 0.52225363 0.36975041
1.00000000 0.64673122 0.51347158
1.00000000 0.72861060 0.62661388
1.00000000 0.78883985 0.70849554
1.00000000 0.83605715 0.77256064
1.00000000 0.87437261 0.82393304
1.00000000 0.90557337 0.86342560
0.12191831 0.29334019 0.04442334
0.12191831 0.29334019 0.04442334
0.12191831 0.29334019 0.04442334
0.12191831 0.29334019 0.04442334
0.12191831 0.29334019 0.04442334
0.14747284 0.30306340 0.03297669
0.17541444 0.31161835 0.02300695
0.20703591 0.31969197 0.01415218
0.24218343 0.32732179 0.00437229
0.28099056 0.33445218 0.00000000
0.32371331 0.34094072 0.00000000
0.37066691 0.34664746 0.00000000
0.42226820 0.35147954 0.00000000
0.47896391 0.35530958 0.00000000
0.53845402 0.35797173 0.00000000
0.59268154 0.35928909 0.00000000
0.64264262 0.35907769 0.00611030
0.68950891 0.35711132 0.01118957
0.73401606 0.35311709 0.01564384
0.77668617 0.34675410 0.02014286
0.81787153 0.33766457 0.02563468
0.85774640 0.32577434 0.03566092
0.89631521 0.31197551 0.05226168
0.93307742 0.30155393 0.08111650
0.96623784 0.31397808 0.13255510
0.99007891 0.39859499 0.22989299
1.00000000 0.55238864 0.37198645
1.00000000 0.66285994 0.51911229
1.00000000 0.73927309 0.63243769
1.00000000 0.79665551 0.71415992
1.00000000 0.84212980 0.77789685
1.00000000 0.87927162 0.82884834
1.00000000 0.90967239 0.86792383
0.13598513 0.33667371 0.03751801
0.13598513 0.33667371 0.03751801
0.13598513 0.33667371 0.03751801
0.13598513 0.33667371 0.03751801
0.13598513 0.33667371 0.03751801
0.15988613 0.34518395 0.02728568
0.18579385 0.35302354 0.01886344
0.21518221 0.36091443 0.01000563
0.24810894 0.36873006 0.00000000
0.28478817 0.37635482 0.00000000
0.32554494 0.38367875 0.00000000
0.37072676 0.39051146 0.00000000
0.42071241 0.39666945 0.00000000
0.47598423 0.40202901 0.00000000
0.53478634 0.40642318 0.00000000
0.58895158 0.40965540 0.00000000
0.63905958 0.41150802 0.00000000
0.68614737 0.41175759 0.00197025
0.73094896 0.41015727 0.00973348
0.77394104 0.40641755 0.01502898
0.81545032 0.40026668 0.02166391
0.85568237 0.39157640 0.03070780
0.89459814 0.38115869 0.04753748
0.93172608 0.37312675 0.07725361
0.96531466 0.38280277 0.13049423
0.98987294 0.45237569 0.22911716
1.00000000 0.58379852 0.37587801
1.00000000 0.68081764 0.52631550
1.00000000 0.75142183 0.63949294
1.00000000 0.80568263 0.72096749
1.00000000 0.84919027 0.78426536
1.00000000 0.88500918 0.83472806
1.00000000 0.91449996 0.87331970
0.15200545 0.38269197 0.03076532
0.15200545 0.38269197 0.03076532
0.15200545 0.38269197 0.03076532
0.15200545 0.38269197 0.03076532
0.15200545 0.38269197 0.03076532
0.17424277 0.39015124 0.02232596
0.19819450 0.39740504 0.01481717
0.22546468 0.40502137 0.00344203
0.25623047 0.41273020 0.00000000
0.29078219 0.42061402 0.00000000
0.32947349 0.42847883 0.00000000
0.37272771 0.43617920 0.00000000
0.42094391 0.44347465 0.00000000
0.47455078 0.45015813 0.00000000
0.53218402 0.45609175 0.00000000
0.58582687 0.46107530 0.00000000
0.63574943 0.46488567 0.00000000
0.68287511 0.46726771 0.00000000
0.72780930 0.46796643 0.00155116
0.77101391 0.46671893 0.01112954
0.81278853 0.46326804 0.01836847
0.85329354 0.45754908 0.02909494
0.89252255 0.45016101 0.04587183
0.92999940 0.44442446 0.07578303
0.96406384 0.45251715 0.12939151
0.98949848 0.50995064 0.22859882
1.00000000 0.61565678 0.38074608
1.00000000 0.70035853 0.53508748
1.00000000 0.76505507 0.64795833
1.00000000 0.81595491 0.72900243
1.00000000 0.85732989 0.79183215
1.00000000 0.89168327 0.84174517
1.00000000 0.92014402 0.87975951
0.17011352 0.43200707 0.02450968
0.17011352 0.43200707 0.02450968
0.17011352 0.43200707 0.02450968
0.17011352 0.43200707 0.02450968
0.17011352 0.43200707 0.02450968
0.19065791 0.43860306 0.01792505
0.21273350 0.44533191 0.01060870
0.23800094 0.45244025 0.00291233
0.26667335 0.46005796 0.00000000
0.29911260 0.46799652 0.00000000
0.33570314 0.47614536 0.00000000
0.37689299 0.48441256 0.00000000
0.42316670 0.49261278 0.00000000
0.47497380 0.50047709 0.00000000
0.53100436 0.50765356 0.00000000
0.58365896 0.51396585 0.00000000
0.63301208 0.51925337 0.00000000
0.67987980 0.52334338 0.00000000
0.72477606 0.52602165 0.00000000
0.76805250 0.52707659 0.00661835
0.80998278 0.52630220 0.01633327
0.85071270 0.52359419 0.02761204
0.89019994 0.51937166 0.04562467
0.92801071 0.51606504 0.07579214
0.96258347 0.52285607 0.12913799
0.98902489 0.56398433 0.22793251
1.00000000 0.64763692 0.38642217
1.00000000 0.72129049 0.54523115
1.00000000 0.78014708 0.65794470
1.00000000 0.82754860 0.73854811
1.00000000 0.86661803 0.80076329
1.00000000 0.89936669 0.85004844
1.00000000 0.92668911 0.88740588
0.19040701 0.48521205 0.01900473
0.19040701 0.48521205 0.01900473
0.19040701 0.48521205 0.01900473
0.19040701 0.48521205 0.01900473
0.19040701 0.48521205 0.01900473
0.20927209 0.49108563 0.01434578
0.22955183 0.49730152 0.00674003
0.25290457 0.50391515 0.00086079
0.27956414 0.51106991 0.00000000
0.30992528 0.51847461 0.00000000
0.34442773 0.52618541 0.00000000
0.38349061 0.53388342 0.00000000
0.42765645 0.54158428 0.00000000
0.47746433 0.54909715 0.00000000
0.53157175 0.55618931 0.00000000
0.58274966 0.56264954 0.00000000
0.63115261 0.56841594 0.00000000
0.67742753 0.57332421 0.00000000
0.72202030 0.57721118 0.00000000
0.76520498 0.57987482 0.00000000
0.80716561 0.58114304 0.01387705
0.84801684 0.58093635 0.02681498
0.88771663 0.57952907 0.04526823
0.92583018 0.57852277 0.07614820
0.96091215 0.58385759 0.12962873
0.98845623 0.61248498 0.22734085
0.99994216 0.67961828 0.39321122
1.00000000 0.74345005 0.55676396
1.00000000 0.79662207 0.66947367
1.00000000 0.84047037 0.74971908
1.00000000 0.87711461 0.81130691
1.00000000 0.90811684 0.85979731
1.00000000 0.93420787 0.89643025
0.21298121 0.53993142 0.01432011
0.21298121 0.53993142 0.01432011
0.21298121 0.53993142 0.01432011
0.21298121 0.53993142 0.01432011
0.21298121 0.53993142 0.01432011
0.23022081 0.54446300 0.01162634
0.24882902 0.54925162 0.00690566
0.27033220 0.55449980 0.00000000
0.29506686 0.56014495 0.00000000
0.32340513 0.56633502 0.00000000
0.35581121 0.57273958 0.00000000
0.39275695 0.57951534 0.00000000
0.43473817 0.58637539 0.00000000
0.48235371 0.59329942 0.00000000
0.53406444 0.60012982 0.00000000
0.58339734 0.60664397 0.00000000
0.63043947 0.61262000 0.00000000
0.67579576 0.61801274 0.00000000
0.71978319 0.62266141 0.00000000
0.76263472 0.62641537 0.00000000
0.80446622 0.62909867 0.01209221
0.84532549 0.63061636 0.02549559
0.88513827 0.63114062 0.04530077
0.92350907 0.63173388 0.07648845
0.95908381 0.63639502 0.13019143
0.98775794 0.65709352 0.22722818
0.99978248 0.71153551 0.40162425
1.00000000 0.76667850 0.57005272
1.00000000 0.81439978 0.68264544
1.00000000 0.85466094 0.76258328
1.00000000 0.88881019 0.82354800
1.00000000 0.91799843 0.87124798
1.00000000 0.94275453 0.90700568
0.23797643 0.58992258 0.01050245
0.23797643 0.58992258 0.01050245
0.23797643 0.58992258 0.01050245
0.23797643 0.58992258 0.01050245
0.23797643 0.58992258 0.01050245
0.25367001 0.59336383 0.00970329
0.27070421 0.59705583 0.00765092
0.29046583 0.60128807 0.00000000
0.31337411 0.60580088 0.00000000
0.33975722 0.61084400 0.00000000
0.37009899 0.61634624 0.00000000
0.40489587 0.62215342 0.00000000
0.44468315 0.62829819 0.00000000
0.49002546 0.63459406 0.00000000
0.53877901 0.64098659 0.00000000
0.58574505 0.64734604 0.00000000
0.63115245 0.65345812 0.00000000
0.67522988 0.65908970 0.00000000
0.71832297 0.66421727 0.00000000
0.76056145 0.66868539 0.00000000
0.80204221 0.67236336 0.01263168
0.84275171 0.67513194 0.02518697
0.88257437 0.67706641 0.04497231
0.92110067 0.67888688 0.07734531
0.95710404 0.68334119 0.13129378
0.98687611 0.69888168 0.22760899
0.99951012 0.74336540 0.41245843
1.00000000 0.79084760 0.58554683
1.00000000 0.83339415 0.69791746
1.00000000 0.87009128 0.77739680
1.00000000 0.90169674 0.83773009
1.00000000 0.92900616 0.88456898
1.00000000 0.95239427 0.91942179
0.26559425 0.63635532 0.00798831
0.26559425 0.63635532 0.00798831
0.26559425 0.63635532 0.00798831
0.26559425 0.63635532 0.00798831
0.26559425 0.63635532 0.00798831
0.27985323 0.63901833 0.00916088
0.29540331 0.64190868 0.00894442
0.31355480 0.64526207 0.00481627
0.33468392 0.64901104 0.00000000
0.35918955 0.65312851 0.00263558
0.38751096 0.65775630 0.00000000
0.42020261 0.66279463 0.00000000
0.45775644 0.66817828 0.00000000
0.50078551 0.67387893 0.00000000
0.54597489 0.67977568 0.00000000
0.59009404 0.68578951 0.00000000
0.63340283 0.69181214 0.00000000
0.67599643 0.69763679 0.00000000
0.71786960 0.70301611 0.00000000
0.75923446 0.70795011 0.00000000
0.80009998 0.71229832 0.01354685
0.84045208 0.71597169 0.02621521
0.88012479 0.71897506 0.04591539
0.91869539 0.72178414 0.07865833
0.95496876 0.72635842 0.13430949
0.98546079 0.73896872 0.23254317
0.99908101 0.77507034 0.42621166
1.00000000 0.81578398 0.60369841
1.00000000 0.85344528 0.71556502
1.00000000 0.88663636 0.79444926
1.00000000 0.91566717 0.85395447
1.00000000 0.94107597 0.89989024
1.00000000 0.96307902 0.93379741
0.29605265 0.68021475 0.00688131
0.29605265 0.68021475 0.00688131
0.29605265 0.68021475 0.00688131
0.29605265 0.68021475 0.00688131
0.29605265 0.68021475 0.00688131
0.30897755 0.68230327 0.00922588
0.32314863 0.68458958 0.01008463
0.33978620 0.68726705 0.00876696
0.35925248 0.69037972 0.00000000
0.38197554 0.69377470 0.00562056
0.40835451 0.69761371 0.00572099
0.43894097 0.70196392 0.00000000
0.47427401 0.70665404 0.00000000
0.51455962 0.71173094 0.00000000
0.55575741 0.71710794 0.00000000
0.59671511 0.72271281 0.00000000
0.63750446 0.72844965 0.00000000
0.67817697 0.73422585 0.00000000
0.71867939 0.73984081 0.00000000
0.75886809 0.74503156 0.00000000
0.79887720 0.74983157 0.01129724
0.83861847 0.75412838 0.02814723
0.87794123 0.75792812 0.04844279
0.91639399 0.76153103 0.08188003
0.95280362 0.76635815 0.13910084
0.98376826 0.77716512 0.24150384
0.99853612 0.80650031 0.44380681
1.00000000 0.84127062 0.62453671
1.00000000 0.87438372 0.73603295
1.00000000 0.90417375 0.81415967
1.00000000 0.93063644 0.87262936
1.00000000 0.95409780 0.91736366
1.00000000 0.97470389 0.95014948
0.32965344 0.72214822 0.00810605
0.32965344 0.72214822 0.00810605
0.32965344 0.72214822 0.00810605
0.32965344 0.72214822 0.00810605
0.32965344 0.72214822 0.00810605
0.34136356 0.72380081 0.01077457
0.35426803 0.72562185 0.01227695
0.36949363 0.72777037 0.01236832
0.38740798 0.73028943 0.01023404
0.40839086 0.73317823 0.00543395
0.43289295 0.73635610 0.00991781
0.46140774 0.73999666 0.00813910
0.49454894 0.74414151 0.00000000
0.53108042 0.74857026 0.00000000
0.56817641 0.75341734 0.00000000
0.60573636 0.75855209 0.00000000
0.64372905 0.76393947 0.00000000
0.68209969 0.76947003 0.00000000
0.72080548 0.77506369 0.00000000
0.75971306 0.78052708 0.00000000
0.79858004 0.78558451 0.01351048
0.83748239 0.79031253 0.02968743
0.87621200 0.79466767 0.05259932
0.91435439 0.79887939 0.08723476
0.95073742 0.80397095 0.14672820
0.98206546 0.81353978 0.25357887
0.99795661 0.83752926 0.46629527
1.00000000 0.86708943 0.64862202
1.00000000 0.89595257 0.75945300
1.00000000 0.92244444 0.83670357
1.00000000 0.94637990 0.89386094
1.00000000 0.96791431 0.93709741
1.00000000 0.98709335 0.96833919
0.36679689 0.76259900 0.01268391
0.36679689 0.76259900 0.01268391
0.36679689 0.76259900 0.01268391
0.36679689 0.76259900 0.01268391
0.36679689 0.76259900 0.01268391
0.37738954 0.76391511 0.01469803
0.38911000 0.76537311 0.01604596
0.40300508 0.76710333 0.01659055
0.41943736 0.76914584 0.01603894
0.43878639 0.77154356 0.01294400
0.46147735 0.77423884 0.01260677
0.48798869 0.77727169 0.01435588
0.51833921 0.78077828 0.01235482
0.55022362 0.78474619 0.00000000
0.58321834 0.78898222 0.00690566
0.61726050 0.79365420 0.00000000
0.65223033 0.79860523 0.00000000
0.68805108 0.80382842 0.00000000
0.72460557 0.80920485 0.00000000
0.76180543 0.81466630 0.00822837
0.79946410 0.82002993 0.02170680
0.83725047 0.82500837 0.03595963
0.87516474 0.82975563 0.05848222
0.91275588 0.83439442 0.09570984
0.94892583 0.83970129 0.15800829
0.98046851 0.84836413 0.27044535
0.99739892 0.86811295 0.49565977
1.00000000 0.89306961 0.67697062
1.00000000 0.91792683 0.78669953
1.00000000 0.94119222 0.86249571
1.00000000 0.96262682 0.91778133
1.00000000 0.98221967 0.95862406
1.00000000 1.00000000 1.00000000
0.40797623 0.80187934 0.02052372
0.40797623 0.80187934 0.02052372
0.40797623 0.80187934 0.02052372
0.40797623 0.80187934 0.02052372
0.40797623 0.80187934 0.02052372
0.41754205 0.80293212 0.02183059
0.42817346 0.80410297 0.02291354
0.44082475 0.80549917 0.02355147
0.45585799 0.80715626 0.02372055
0.47365777 0.80911364 0.02296503
0.49461781 0.81141438 0.01976617
0.51860388 0.81395634 0.02208513
0.54438334 0.81689637 0.02349982
0.57185227 0.82028109 0.02225435
0.60089198 0.82409337 0.01791196
0.63136111 0.82819735 0.02118672
0.66319225 0.83273381 0.01844424
0.69623958 0.83754398 0.02117185
0.73041335 0.84264356 0.02264272
0.76556338 0.84790864 0.02861996
0.80156586 0.85328361 0.03596670
0.83819984 0.85860287 0.05000880
0.87501453 0.86358007 0.07181837
0.91182157 0.86852446 0.10952522
0.94752627 0.87396296 0.17569095
0.97908135 0.88191532 0.29494314
0.99685117 0.89821334 0.53447545
