Luts Download/Canon Luts/3dlut/33grid-3dlut/full-to-full-range/CinemaGamut_CanonLog2-to-BT2020_PQ_33_FF_Ver.2.0.cube
# Gamut : Cinema Gamut to BT.2020
# Gamma : Canon Log 2 to PQ
# Range : Full in / Full out
# Version : 2.0 2019/10/24
# Copyright(c) 2019 Canon Inc. All Rights Reserved.
LUT_3D_SIZE 5
# LUT_3D_INPUT_RANGE 0.0 1.0
0.00000000 0.00000000 0.00000000
0.21066370 0.00043433 0.01021020
0.50679445 0.00000000 0.10006999
0.79591357 0.00243611 0.29392737
1.00000000 0.78193877 0.70587747
0.04596552 0.18445005 0.00491270
0.20371656 0.21398475 0.00000000
0.50429917 0.19930194 0.00348623
0.79664055 0.00000000 0.25940559
1.00000000 0.78274585 0.70582640
0.26585299 0.47070764 0.00009150
0.30284084 0.47643830 0.00018067
0.49419612 0.50699096 0.00000000
0.79536361 0.49917205 0.01564590
1.00000000 0.79572131 0.70905529
0.54494016 0.76220334 0.00144730
0.54923267 0.76277322 0.00317234
0.59431315 0.76939447 0.00209138
0.78606167 0.79946583 0.00000000
1.00000000 0.88918589 0.76043682
0.92753459 1.00000000 0.82336212
0.92778201 1.00000000 0.82377555
0.93084231 1.00000000 0.82891615
0.95689083 1.00000000 0.87495064
1.00000000 1.00000000 1.00000000
0.01833512 0.00066295 0.17333910
0.19427777 0.00000000 0.20438020
0.50768148 0.00000000 0.27292478
0.79726548 0.00000000 0.31979936
1.00000000 0.78167564 0.70650989
0.00984275 0.20784393 0.20359919
0.20768300 0.20768300 0.20768300
0.50786725 0.15548213 0.21527937
0.79766039 0.00000000 0.29315904
1.00000000 0.78234714 0.70631169
0.23614386 0.48986596 0.00421088
0.28713479 0.49418732 0.00000000
0.50051321 0.51333256 0.00000000
0.79720877 0.48929999 0.02188103
1.00000000 0.79518956 0.70931397
0.54287909 0.76400696 0.00026654
0.54730841 0.76456091 0.00168162
0.59356142 0.77101137 0.00155642
0.78665732 0.80006048 0.00000000
1.00000000 0.88904860 0.76071837
0.92790349 1.00000000 0.82442217
0.92813472 1.00000000 0.82480052
0.93116789 1.00000000 0.82987070
0.95709968 1.00000000 0.87560932
1.00000000 1.00000000 1.00000000
0.17222095 0.00063535 0.46048949
0.22582227 0.00383613 0.44657501
0.51351499 0.00000000 0.51511224
0.79396324 0.08745493 0.56278570
1.00000000 0.77592850 0.71549069
0.09212243 0.04539319 0.48207301
0.18004505 0.00000000 0.47155064
0.51547155 0.00000000 0.51840314
0.79472916 0.10717996 0.55673404
1.00000000 0.77668179 0.71500771
0.09281588 0.49764596 0.49216433
0.16204623 0.49851490 0.49344720
0.49554313 0.49554313 0.49554313
0.79964630 0.43393840 0.49582537
1.00000000 0.78744858 0.71178469
0.49314245 0.78594612 0.04226599
0.50064226 0.78634663 0.03226617
0.57244455 0.79089618 0.00000000
0.79379086 0.80715506 0.00000000
1.00000000 0.88707393 0.76378532
0.93223356 1.00000000 0.83666551
0.93244302 1.00000000 0.83699270
0.93505279 1.00000000 0.84110386
0.95962016 1.00000000 0.88345121
1.00000000 1.00000000 1.00000000
0.40634726 0.00168877 0.74394834
0.41296318 0.03410186 0.74139255
0.48304746 0.09829481 0.71699657
0.79417128 0.00000000 0.79126306
1.00000000 0.76384435 0.85106923
0.40029432 0.00000000 0.74746895
0.40727724 0.00250958 0.74494833
0.47929974 0.09545866 0.71942412
0.79439989 0.00000000 0.79149970
1.00000000 0.76430176 0.85083324
0.25593606 0.34237109 0.76917140
0.27359234 0.31634016 0.77107779
0.41847156 0.00000000 0.75754071
0.79251367 0.00000000 0.79324061
1.00000000 0.77368265 0.84986257
0.28332319 0.78819896 0.78246309
0.30050220 0.78834030 0.78264858
0.42316204 0.79017835 0.78502327
0.78767918 0.78767918 0.78767918
1.00000000 0.87103465 0.86065319
0.96767725 1.00000000 0.92641599
0.96778529 1.00000000 0.92655100
0.96912191 1.00000000 0.92821582
0.98095335 1.00000000 0.94548246
1.00000000 1.00000000 1.00000000
0.67144236 0.48467115 1.00000000
0.67205236 0.48414008 1.00000000
0.67953027 0.47624688 1.00000000
0.73921701 0.46982521 0.96482516
1.00000000 0.66446925 0.99680260
0.67093592 0.48617902 1.00000000
0.67151970 0.48544498 1.00000000
0.67904098 0.47760465 1.00000000
0.73899952 0.46954849 0.96521372
1.00000000 0.66464152 0.99679892
0.66407079 0.50659781 1.00000000
0.66471182 0.50579428 1.00000000
0.67248056 0.49562601 1.00000000
0.73615573 0.46594327 0.97015624
1.00000000 0.66665131 0.99677283
0.54977321 0.72467523 1.00000000
0.55076827 0.72402956 1.00000000
0.56287523 0.71516670 1.00000000
0.68196307 0.59227939 1.00000000
1.00000000 0.71896270 0.99831491
1.00000000 1.00000000 1.00000000
1.00000000 1.00000000 1.00000000
1.00000000 1.00000000 1.00000000
1.00000000 1.00000000 1.00000000
1.00000000 1.00000000 1.00000000
