Luts Download/Canon Luts/3dlut/33grid-3dlut/full-to-full-range/CinemaGamut_CanonLog2-to-BT2020_HLG_33_FF_Ver.2.0.cube
# Gamut : Cinema Gamut to BT.2020
# Gamma : Canon Log 2 to HLG
# Range : Full in / Full out
# Version : 2.0 2019/10/24
# Copyright(c) 2019 Canon Inc. All Rights Reserved.
LUT_3D_SIZE 9
# LUT_3D_INPUT_RANGE 0.0 1.0
0.00000004 0.00000000 0.00000003
0.04747984 0.01731444 0.01933651
0.17031531 0.00981457 0.03328726
0.34428082 0.00000000 0.05368535
0.61354948 0.00000000 0.09007298
0.84822214 0.05068994 0.15047425
1.00000000 0.59255617 0.47129326
1.00000000 0.92211674 0.88899288
1.00000000 1.00000000 1.00000000
0.02894522 0.04544688 0.02475878
0.05277017 0.05498330 0.02474338
0.17113882 0.05889315 0.02327465
0.34708357 0.03950001 0.03858036
0.61604409 0.00000000 0.07793121
0.84957223 0.04190823 0.14341898
1.00000000 0.59409647 0.47091100
1.00000000 0.92242028 0.88932661
1.00000000 1.00000000 1.00000000
0.06340055 0.14966909 0.02524495
0.07588626 0.15477824 0.01887633
0.16540666 0.17421968 0.00000000
0.33786569 0.18381478 0.00667189
0.61882126 0.16165315 0.02215229
0.85778671 0.08040881 0.08867489
1.00000000 0.60827205 0.46917172
1.00000000 0.92499621 0.89213532
1.00000000 1.00000000 1.00000000
0.11842313 0.29994466 0.01068600
0.12657944 0.30249175 0.00937903
0.18717035 0.31981012 0.00000000
0.33005166 0.34797188 0.00000000
0.60390126 0.36764136 0.00000000
0.85578841 0.34192126 0.04835732
1.00000000 0.65823786 0.47930503
1.00000000 0.93342972 0.90185800
1.00000000 1.00000000 1.00000000
0.22386453 0.55362028 0.00520014
0.22853019 0.55478005 0.00703546
0.26599819 0.56409117 0.00575254
0.36828875 0.58615378 0.00000000
0.59719965 0.62065960 0.00000000
0.84304789 0.64550460 0.05164541
1.00000000 0.76985938 0.54075659
1.00000000 0.96250103 0.93825905
1.00000000 1.00000000 1.00000000
0.42024466 0.80205319 0.04683570
0.42279382 0.80233274 0.04723376
0.44417077 0.80470750 0.04931135
0.50895912 0.81195225 0.04974038
0.64456482 0.82978472 0.05330226
0.83903610 0.85991599 0.10360761
1.00000000 0.91787823 0.68765733
1.00000000 1.00000000 1.00000000
1.00000000 1.00000000 1.00000000
0.82895020 0.99626460 0.63256064
0.82938940 0.99629128 0.63319707
0.83300167 0.99656005 0.63823135
0.84419204 0.99743719 0.65389928
0.87608976 1.00000000 0.70043077
0.94560007 1.00000000 0.81868212
1.00000000 1.00000000 1.00000000
1.00000000 1.00000000 1.00000000
1.00000000 1.00000000 1.00000000
1.00000000 1.00000000 1.00000000
1.00000000 1.00000000 1.00000000
1.00000000 1.00000000 1.00000000
1.00000000 1.00000000 1.00000000
1.00000000 1.00000000 1.00000000
1.00000000 1.00000000 1.00000000
1.00000000 1.00000000 1.00000000
1.00000000 1.00000000 1.00000000
1.00000000 1.00000000 1.00000000
1.00000000 1.00000000 1.00000000
1.00000000 1.00000000 1.00000000
1.00000000 1.00000000 1.00000000
1.00000000 1.00000000 1.00000000
1.00000000 1.00000000 1.00000000
1.00000000 1.00000000 1.00000000
1.00000000 1.00000000 1.00000000
1.00000000 1.00000000 1.00000000
1.00000000 1.00000000 1.00000000
0.01306001 0.00482208 0.03990981
0.04612466 0.00000000 0.04965647
0.16804201 0.00000000 0.06728940
0.34365246 0.00000000 0.08142264
0.61512226 0.00000000 0.10069542
0.84790241 0.05415508 0.15703656
1.00000000 0.59195922 0.47266672
1.00000000 0.92188538 0.88876886
1.00000000 1.00000000 1.00000000
0.02210313 0.05229152 0.05139776
0.05426708 0.05426708 0.05426708
0.17454515 0.04802907 0.05795873
0.34833483 0.02739618 0.06779190
0.61741122 0.00000000 0.08929032
0.84919848 0.04777639 0.15037205
1.00000000 0.59352330 0.47230390
1.00000000 0.92219015 0.88910438
1.00000000 1.00000000 1.00000000
0.05428213 0.16805081 0.03086983
0.07011732 0.17184253 0.02091991
0.17176310 0.18093269 0.00000000
0.34599364 0.17994663 0.00638619
0.62234408 0.15132756 0.02688658
0.85775609 0.07666290 0.09618739
1.00000000 0.60771219 0.47051984
1.00000000 0.92477283 0.89191794
1.00000000 1.00000000 1.00000000
0.11426940 0.30917938 0.01264266
0.12305360 0.31149156 0.01051786
0.18724851 0.32716193 0.00000000
0.33330665 0.35140821 0.00000000
0.60672908 0.36634726 0.00000000
0.85675735 0.33715263 0.04905787
1.00000000 0.65740024 0.47990807
1.00000000 0.93315546 0.90155607
1.00000000 1.00000000 1.00000000
0.22167223 0.55766231 0.00242429
0.22646563 0.55877444 0.00548180
0.26482749 0.56771822 0.00585509
0.36864727 0.58893764 0.00000000
0.59845145 0.62188389 0.00000000
0.84375520 0.64516025 0.05182065
1.00000000 0.76958865 0.54142988
1.00000000 0.96230086 0.93801559
1.00000000 1.00000000 1.00000000
0.41915112 0.80305377 0.04676764
0.42172126 0.80332997 0.04717483
0.44326002 0.80567725 0.04931292
0.50850448 0.81283895 0.05004396
0.64473029 0.83047583 0.05348599
0.83935794 0.86023773 0.10412105
1.00000000 0.91793243 0.68847274
1.00000000 1.00000000 1.00000000
1.00000000 1.00000000 1.00000000
0.82953090 0.99636582 0.63434878
0.82996716 0.99639263 0.63497674
0.83356090 0.99666098 0.63996023
0.84469985 0.99753570 0.65548784
0.87646253 1.00000000 0.70162898
0.94586236 1.00000000 0.81968352
1.00000000 1.00000000 1.00000000
1.00000000 1.00000000 1.00000000
1.00000000 1.00000000 1.00000000
1.00000000 1.00000000 1.00000000
1.00000000 1.00000000 1.00000000
1.00000000 1.00000000 1.00000000
1.00000000 1.00000000 1.00000000
1.00000000 1.00000000 1.00000000
1.00000000 1.00000000 1.00000000
1.00000000 1.00000000 1.00000000
1.00000000 1.00000000 1.00000000
1.00000000 1.00000000 1.00000000
1.00000000 1.00000000 1.00000000
1.00000000 1.00000000 1.00000000
1.00000000 1.00000000 1.00000000
1.00000000 1.00000000 1.00000000
1.00000000 1.00000000 1.00000000
1.00000000 1.00000000 1.00000000
1.00000000 1.00000000 1.00000000
1.00000000 1.00000000 1.00000000
1.00000000 1.00000000 1.00000000
0.04067415 0.01116719 0.13678551
0.05149980 0.00000000 0.13325967
0.15234914 0.00000000 0.15998908
0.32833024 0.00000000 0.19532692
0.60694538 0.00000000 0.22214668
0.84523133 0.06164841 0.24516501
1.00000000 0.58194994 0.47988668
1.00000000 0.91984254 0.88679253
1.00000000 1.00000000 1.00000000
0.02724958 0.03205558 0.15042335
0.04268175 0.00000000 0.15005534
0.15771122 0.00000000 0.16676037
0.33496325 0.00000000 0.19222029
0.60926747 0.01632524 0.21603532
0.84603826 0.06871398 0.24075809
1.00000000 0.58401546 0.47991721
1.00000000 0.92015745 0.88714160
1.00000000 1.00000000 1.00000000
0.03363288 0.16830730 0.16472204
0.04825882 0.17000867 0.16668167
0.16895397 0.16895397 0.16895397
0.35300322 0.15455754 0.16703079
0.62286389 0.12688146 0.17352277
0.85340060 0.11159212 0.19966985
1.00000000 0.60036518 0.47954174
1.00000000 0.92281047 0.89002876
1.00000000 1.00000000 1.00000000
0.04876530 0.37369197 0.10980085
0.06095107 0.37395040 0.10442767
0.16691189 0.37323404 0.08924933
0.35031285 0.36782011 0.08791984
0.62667177 0.34959193 0.07792249
0.86491797 0.29017058 0.05882486
1.00000000 0.64971363 0.48493172
1.00000000 0.93121984 0.89952628
1.00000000 1.00000000 1.00000000
0.19381338 0.59071074 0.02276759
0.19968625 0.59156173 0.02006804
0.24741091 0.59808141 0.00000000
0.36848331 0.61245106 0.00000000
0.60885981 0.63205674 0.00000000
0.84995354 0.64156270 0.05197153
1.00000000 0.76689599 0.54632751
1.00000000 0.96054811 0.93592573
1.00000000 1.00000000 1.00000000
0.40828600 0.81165737 0.04622026
0.41107635 0.81190525 0.04680036
0.43418632 0.81401784 0.04953307
0.50359196 0.82047127 0.05224091
0.64587766 0.83643301 0.05420242
0.84211577 0.86299252 0.10785893
1.00000000 0.91832405 0.69473658
1.00000000 1.00000000 1.00000000
1.00000000 1.00000000 1.00000000
0.83410762 0.99734268 0.64820981
0.83452907 0.99736819 0.64879704
0.83799794 0.99762661 0.65344808
0.84873999 0.99847844 0.66790626
0.87943885 1.00000000 0.71107241
0.94800565 1.00000000 0.82760079
1.00000000 1.00000000 1.00000000
1.00000000 1.00000000 1.00000000
1.00000000 1.00000000 1.00000000
1.00000000 1.00000000 1.00000000
1.00000000 1.00000000 1.00000000
1.00000000 1.00000000 1.00000000
1.00000000 1.00000000 1.00000000
1.00000000 1.00000000 1.00000000
1.00000000 1.00000000 1.00000000
1.00000000 1.00000000 1.00000000
1.00000000 1.00000000 1.00000000
1.00000000 1.00000000 1.00000000
1.00000000 1.00000000 1.00000000
1.00000000 1.00000000 1.00000000
1.00000000 1.00000000 1.00000000
1.00000000 1.00000000 1.00000000
1.00000000 1.00000000 1.00000000
1.00000000 1.00000000 1.00000000
1.00000000 1.00000000 1.00000000
1.00000000 1.00000000 1.00000000
1.00000000 1.00000000 1.00000000
0.07618213 0.01160079 0.27868016
0.08357244 0.01142466 0.27034862
0.14554787 0.00000000 0.25648498
0.31449331 0.00000000 0.32143480
0.59386927 0.01389387 0.38663625
0.83851747 0.06209661 0.42865932
1.00000000 0.57320433 0.58750379
1.00000000 0.91433779 0.88310526
1.00000000 1.00000000 1.00000000
0.06878174 0.01609592 0.29137107
0.07735846 0.01182656 0.28344419
0.14133270 0.00000000 0.26132834
0.31651735 0.00000000 0.32388563
0.59658906 0.00000000 0.38552533
0.83973033 0.05390086 0.42461338
1.00000000 0.57543724 0.58730579
1.00000000 0.91460279 0.88334833
1.00000000 1.00000000 1.00000000
0.00000000 0.12947323 0.29737710
0.00000000 0.12249454 0.30710128
0.13820152 0.08112044 0.36782230
0.33036992 0.09140006 0.35108070
0.60863202 0.08746024 0.37077847
0.84584882 0.10995049 0.40260967
1.00000000 0.59265826 0.58490934
1.00000000 0.91682564 0.88533963
1.00000000 1.00000000 1.00000000
0.06188565 0.33572454 0.32823688
0.06659257 0.33674351 0.32941295
0.12977449 0.34287703 0.33697687
0.33601674 0.33601674 0.33601674
0.62427797 0.31234534 0.33283320
0.86115757 0.26341934 0.33972044
1.00000000 0.64074486 0.57708079
1.00000000 0.92515120 0.89400263
1.00000000 1.00000000 1.00000000
0.07274278 0.64709645 0.23829869
0.08096714 0.64724275 0.23608155
0.14989755 0.64798894 0.22133703
0.32475472 0.64727067 0.20314439
0.62052471 0.64040464 0.19783412
0.86386994 0.62191509 0.20268415
1.00000000 0.75519918 0.56903265
1.00000000 0.95444015 0.92891747
1.00000000 1.00000000 1.00000000
0.35185833 0.83874643 0.06674686
0.35533201 0.83894105 0.06609230
0.38457374 0.84058545 0.06066904
0.47169494 0.84526000 0.05143839
0.64554646 0.85583397 0.04292788
0.85085237 0.87169633 0.11273559
1.00000000 0.91918208 0.71212496
1.00000000 1.00000000 1.00000000
1.00000000 1.00000000 1.00000000
0.84785447 1.00000000 0.68753475
0.84823472 1.00000000 0.68802045
0.85136412 1.00000000 0.69186456
0.86103805 1.00000000 0.70375125
0.88890257 1.00000000 0.74017523
0.95481661 1.00000000 0.85185556
1.00000000 1.00000000 1.00000000
1.00000000 1.00000000 1.00000000
1.00000000 1.00000000 1.00000000
1.00000000 1.00000000 1.00000000
1.00000000 1.00000000 1.00000000
1.00000000 1.00000000 1.00000000
1.00000000 1.00000000 1.00000000
1.00000000 1.00000000 1.00000000
1.00000000 1.00000000 1.00000000
1.00000000 1.00000000 1.00000000
1.00000000 1.00000000 1.00000000
1.00000000 1.00000000 1.00000000
1.00000000 1.00000000 1.00000000
1.00000000 1.00000000 1.00000000
1.00000000 1.00000000 1.00000000
1.00000000 1.00000000 1.00000000
1.00000000 1.00000000 1.00000000
1.00000000 1.00000000 1.00000000
1.00000000 1.00000000 1.00000000
1.00000000 1.00000000 1.00000000
1.00000000 1.00000000 1.00000000
0.13308229 0.01094350 0.51625779
0.13725318 0.02025818 0.50993047
0.16971744 0.02286346 0.46855631
0.29821606 0.00000000 0.47537233
0.58117282 0.00000000 0.58273354
0.82561321 0.06191492 0.65094055
0.99729837 0.55138929 0.72206144
1.00000000 0.92208299 0.91050509
1.00000000 1.00000000 1.00000000
0.12931205 0.00000000 0.52472510
0.13368829 0.01193103 0.51852029
0.16714923 0.01962520 0.47562553
0.29606797 0.00000000 0.47641659
0.58179631 0.00000000 0.58340994
0.82622062 0.06042760 0.65067863
0.99741688 0.55223538 0.72157237
1.00000000 0.92239677 0.91077285
1.00000000 1.00000000 1.00000000
0.08629117 0.06255134 0.56951085
0.09283646 0.05713700 0.56757411
0.13873870 0.00000000 0.53873473
0.27402639 0.00000000 0.50220410
0.58924465 0.00000000 0.59356084
0.83274234 0.00000000 0.64800303
0.99857181 0.56442793 0.71925388
1.00000000 0.92505255 0.91303596
1.00000000 1.00000000 1.00000000
0.00000000 0.26997840 0.53094280
0.00000000 0.26702839 0.53575086
0.00000000 0.24100639 0.58379588
0.28597274 0.20131051 0.64103635
0.59958321 0.19893119 0.62646831
0.84717214 0.18988533 0.63914680
1.00000000 0.61731117 0.71930032
1.00000000 0.93343494 0.92038538
1.00000000 1.00000000 1.00000000
0.09300213 0.60369194 0.59353116
0.09683820 0.60408240 0.59400730
0.13385349 0.60712236 0.59777122
0.27265141 0.61229575 0.60509832
0.60391133 0.60391133 0.60391133
0.86319843 0.57311892 0.59994310
1.00000000 0.73743760 0.72517919
1.00000000 0.95729281 0.94317276
1.00000000 1.00000000 1.00000000
0.16557437 0.88051261 0.45560116
0.16989643 0.88058855 0.45468191
0.20810217 0.88115190 0.44755762
0.31993201 0.88244298 0.42843990
0.58964118 0.88328341 0.39348558
0.85995148 0.87725171 0.38446608
1.00000000 0.91515389 0.78077626
1.00000000 1.00000000 1.00000000
1.00000000 1.00000000 1.00000000
0.89279360 1.00000000 0.79988409
0.89306089 1.00000000 0.80016147
0.89527365 1.00000000 0.80237830
0.90227358 1.00000000 0.80956823
0.92256888 1.00000000 0.83267555
0.97287247 1.00000000 0.90682395
1.00000000 1.00000000 1.00000000
1.00000000 1.00000000 1.00000000
1.00000000 1.00000000 1.00000000
1.00000000 1.00000000 1.00000000
1.00000000 1.00000000 1.00000000
1.00000000 1.00000000 1.00000000
1.00000000 1.00000000 1.00000000
1.00000000 1.00000000 1.00000000
1.00000000 1.00000000 1.00000000
1.00000000 1.00000000 1.00000000
1.00000000 1.00000000 1.00000000
1.00000000 1.00000000 1.00000000
1.00000000 1.00000000 1.00000000
1.00000000 1.00000000 1.00000000
1.00000000 1.00000000 1.00000000
1.00000000 1.00000000 1.00000000
1.00000000 1.00000000 1.00000000
1.00000000 1.00000000 1.00000000
1.00000000 1.00000000 1.00000000
1.00000000 1.00000000 1.00000000
1.00000000 1.00000000 1.00000000
0.23155975 0.02103144 0.76662736
0.23370661 0.02841882 0.76482673
0.25162578 0.04922065 0.75109903
0.30560456 0.04669947 0.71265923
0.54187439 0.00000000 0.72347541
0.80902582 0.00742291 0.80593471
0.99028721 0.49531832 0.84961155
1.00000000 0.91943417 0.93477843
1.00000000 1.00000000 1.00000000
0.22970135 0.00860297 0.76898089
0.23188016 0.02120675 0.76718201
0.24994588 0.04585473 0.75339964
0.30436882 0.04570881 0.71459880
0.54089117 0.00000000 0.72365311
0.80916090 0.00166938 0.80607340
0.99033653 0.49615947 0.84954790
1.00000000 0.91952578 0.93479604
1.00000000 1.00000000 1.00000000
0.21169659 0.00000000 0.78650918
0.21420230 0.00000000 0.78490935
0.23462775 0.02538573 0.77173431
0.29294289 0.04008078 0.73106578
0.53181079 0.00000000 0.72585739
0.81050562 0.00000000 0.80756644
0.99092299 0.50242102 0.84904342
1.00000000 0.92033581 0.93495336
1.00000000 1.00000000 1.00000000
0.12652400 0.15587794 0.81387105
0.12986512 0.14893560 0.81490381
0.16180983 0.11378315 0.81357956
0.24352017 0.00000000 0.78778343
0.49678492 0.00000000 0.75342054
0.81716557 0.00000000 0.81869319
0.99419959 0.52975638 0.84900928
1.00000000 0.92831866 0.94015265
1.00000000 1.00000000 1.00000000
0.00000000 0.50404145 0.77101633
0.00000000 0.50267235 0.77226231
0.00000000 0.48973999 0.78268532
0.01989774 0.45252560 0.83076489
0.53473127 0.39036737 0.87780548
0.84920625 0.31907896 0.87695499
1.00000000 0.68424359 0.85931631
1.00000000 0.95855767 0.96295333
1.00000000 1.00000000 1.00000000
0.21923296 0.84274965 0.83391376
0.22115905 0.84286993 0.83405662
0.24014444 0.84383101 0.83521298
0.29869885 0.84686135 0.83886324
0.51330342 0.85286522 0.84670493
0.84569243 0.84569243 0.84569243
1.00000000 0.89544782 0.89677003
1.00000000 1.00000000 1.00000000
1.00000000 1.00000000 1.00000000
0.95875628 1.00000000 0.95131897
0.95882121 1.00000000 0.95133340
0.95937253 1.00000000 0.95145073
1.00000000 1.00000000 1.00000000
1.00000000 1.00000000 1.00000000
1.00000000 1.00000000 1.00000000
1.00000000 1.00000000 1.00000000
1.00000000 1.00000000 1.00000000
1.00000000 1.00000000 1.00000000
1.00000000 1.00000000 1.00000000
1.00000000 1.00000000 1.00000000
1.00000000 1.00000000 1.00000000
1.00000000 1.00000000 1.00000000
1.00000000 1.00000000 1.00000000
1.00000000 1.00000000 1.00000000
1.00000000 1.00000000 1.00000000
1.00000000 1.00000000 1.00000000
1.00000000 1.00000000 1.00000000
1.00000000 1.00000000 1.00000000
1.00000000 1.00000000 1.00000000
1.00000000 1.00000000 1.00000000
1.00000000 1.00000000 1.00000000
1.00000000 1.00000000 1.00000000
1.00000000 1.00000000 1.00000000
1.00000000 1.00000000 1.00000000
1.00000000 1.00000000 1.00000000
1.00000000 1.00000000 1.00000000
0.40145692 0.19118120 0.96649649
0.40253589 0.19144820 0.96599420
0.41177478 0.19157333 0.96203339
0.44098913 0.18902302 0.94934879
0.52527729 0.15188868 0.91038920
0.76042990 0.00000000 0.91205838
0.97689981 0.39671015 0.96568178
1.00000000 0.89567090 0.95247408
1.00000000 1.00000000 1.00000000
0.40053545 0.19116555 0.96712320
0.40161983 0.19143260 0.96662149
0.41090188 0.19156746 0.96266272
0.44018776 0.18905074 0.94996019
0.52477562 0.15209155 0.91096954
0.76019356 0.00000000 0.91210111
0.97691120 0.39696126 0.96568701
1.00000000 0.89572949 0.95248003
1.00000000 1.00000000 1.00000000
0.39221314 0.19364468 0.97204121
0.39334614 0.19385584 0.97155381
0.40302328 0.19375058 0.96766953
0.43296517 0.19110736 0.95488838
0.52022675 0.15547514 0.91572197
0.75809909 0.00000000 0.91247091
0.97703686 0.39883736 0.96576726
1.00000000 0.89622398 0.95254243
1.00000000 1.00000000 1.00000000
0.36097445 0.23049857 0.98278869
0.36225861 0.22928798 0.98257017
0.37316319 0.21946443 0.98044665
0.40748584 0.20540483 0.97021088
0.50322066 0.16667206 0.93152295
0.75091346 0.00000000 0.91471299
0.97764576 0.40285825 0.96628414
1.00000000 0.89793176 0.95270174
1.00000000 1.00000000 1.00000000
0.24694839 0.45791700 0.97725079
0.24794629 0.45596392 0.97762736
0.25733748 0.43973611 0.98024199
0.29739967 0.39431707 0.98359923
0.42148573 0.25186623 0.97528957
0.72968404 0.00000000 0.94413362
0.98113591 0.45664509 0.97154490
1.00000000 0.91450500 0.95826981
1.00000000 1.00000000 1.00000000
0.00000000 0.75748135 0.96161901
0.00000000 0.75724186 0.96186850
0.00000000 0.75511830 0.96390111
0.00000000 0.74735599 0.97069701
0.36571629 0.74008166 0.99115325
0.78040026 0.75090755 0.99665380
0.98377314 0.83855315 0.98353548
1.00000000 1.00000000 1.00000000
1.00000000 1.00000000 1.00000000
0.95366321 1.00000000 1.00000000
0.95383353 1.00000000 1.00000000
0.95527190 1.00000000 1.00000000
0.96001650 1.00000000 1.00000000
1.00000000 1.00000000 1.00000000
1.00000000 1.00000000 1.00000000
1.00000000 1.00000000 1.00000000
1.00000000 1.00000000 1.00000000
1.00000000 1.00000000 1.00000000
1.00000000 1.00000000 1.00000000
1.00000000 1.00000000 1.00000000
1.00000000 1.00000000 1.00000000
1.00000000 1.00000000 1.00000000
1.00000000 1.00000000 1.00000000
1.00000000 1.00000000 1.00000000
1.00000000 1.00000000 1.00000000
1.00000000 1.00000000 1.00000000
1.00000000 1.00000000 1.00000000
1.00000000 1.00000000 1.00000000
1.00000000 1.00000000 1.00000000
1.00000000 1.00000000 1.00000000
1.00000000 1.00000000 1.00000000
1.00000000 1.00000000 1.00000000
1.00000000 1.00000000 1.00000000
1.00000000 1.00000000 1.00000000
1.00000000 1.00000000 1.00000000
1.00000000 1.00000000 1.00000000
0.65576962 0.70646342 1.00000000
0.65593098 0.70631323 1.00000000
0.65732091 0.70499674 1.00000000
0.66184184 0.70052616 1.00000000
0.67686338 0.68489874 1.00000000
0.72356321 0.61349480 0.99388550
0.89594051 0.57996366 0.99618223
1.00000000 0.86391444 0.98380513
1.00000000 1.00000000 1.00000000
0.65566934 0.70668536 1.00000000
0.65583075 0.70653538 1.00000000
0.65722110 0.70522079 1.00000000
0.66174339 0.70075685 1.00000000
0.67675441 0.68513815 1.00000000
0.72346989 0.61385422 0.99391229
0.89587155 0.57994171 0.99616835
1.00000000 0.86392677 0.98380363
1.00000000 1.00000000 1.00000000
0.65479818 0.70859365 1.00000000
0.65495972 0.70844496 1.00000000
0.65635251 0.70714417 1.00000000
0.66088570 0.70273358 1.00000000
0.67580709 0.68719297 1.00000000
0.72266004 0.61694526 0.99414119
0.89527381 0.57973437 0.99605363
1.00000000 0.86402944 0.98379653
1.00000000 1.00000000 1.00000000
0.65207012 0.71495055 1.00000000
0.65221398 0.71478754 1.00000000
0.65357642 0.71348750 1.00000000
0.65809091 0.70918106 1.00000000
0.67267150 0.69388639 1.00000000
0.71996663 0.62689933 0.99481203
0.89326543 0.57898302 0.99568187
1.00000000 0.86437369 0.98376352
1.00000000 1.00000000 1.00000000
0.64917599 0.73926464 1.00000000
0.64923706 0.73907539 1.00000000
0.64990472 0.73748682 1.00000000
0.65265200 0.73234619 1.00000000
0.66383080 0.71584734 1.00000000
0.71077153 0.65686366 0.99650460
0.88593433 0.57692122 0.99401520
1.00000000 0.86581710 0.98319863
1.00000000 1.00000000 1.00000000
0.66406997 0.80566877 0.99694108
0.66404303 0.80553997 0.99694515
0.66383723 0.80441783 0.99694977
0.66320244 0.80061723 0.99692401
0.66508157 0.78810034 0.99672448
0.68298039 0.73689250 0.98927848
0.85758799 0.65691674 0.97699363
0.99667556 0.89737180 0.98122063
1.00000000 1.00000000 1.00000000
0.85505960 0.93890734 0.99033575
0.85501277 0.93885759 0.99030511
0.85460388 0.93842470 0.99003916
0.85323361 0.93696866 0.98913841
0.84856980 0.93180527 0.98578137
0.89227662 0.94335909 0.99411821
0.99336364 0.99415485 1.00000000
1.00000000 1.00000000 1.00000000
1.00000000 1.00000000 1.00000000
1.00000000 1.00000000 1.00000000
1.00000000 1.00000000 1.00000000
1.00000000 1.00000000 1.00000000
1.00000000 1.00000000 1.00000000
1.00000000 1.00000000 1.00000000
1.00000000 1.00000000 1.00000000
1.00000000 1.00000000 1.00000000
1.00000000 1.00000000 1.00000000
1.00000000 1.00000000 1.00000000
1.00000000 1.00000000 1.00000000
1.00000000 1.00000000 1.00000000
1.00000000 1.00000000 1.00000000
1.00000000 1.00000000 1.00000000
1.00000000 1.00000000 1.00000000
1.00000000 1.00000000 1.00000000
1.00000000 1.00000000 1.00000000
1.00000000 1.00000000 1.00000000
1.00000000 1.00000000 1.00000000
0.87859301 0.91507721 1.00000000
0.87859248 0.91505350 1.00000000
0.87859816 0.91484877 1.00000000
0.87861701 0.91416592 1.00000000
0.87866568 0.91183352 1.00000000
0.87931149 0.90359501 1.00000000
0.88250351 0.86415601 1.00000000
0.95589854 0.84280852 0.99911828
1.00000000 0.99049197 1.00000000
0.87862769 0.91512860 1.00000000
0.87860877 0.91508795 1.00000000
0.87861306 0.91488308 1.00000000
0.87863177 0.91420065 1.00000000
0.87868009 0.91186961 1.00000000
0.87932100 0.90363311 1.00000000
0.88250932 0.86421663 1.00000000
0.95588408 0.84280111 0.99911348
1.00000000 0.99049260 1.00000000
0.87892874 0.91557277 1.00000000
0.87890907 0.91553274 1.00000000
0.87874455 0.91518136 1.00000000
0.87875696 0.91450269 1.00000000
0.87880230 0.91218338 1.00000000
0.87940206 0.90396347 1.00000000
0.88256363 0.86473800 1.00000000
0.95575908 0.84273655 0.99907253
1.00000000 0.99049765 1.00000000
0.87995321 0.91700870 1.00000000
0.87993200 0.91697013 1.00000000
0.87975441 0.91663127 1.00000000
0.87919647 0.91548505 1.00000000
0.87921057 0.91320805 1.00000000
0.87967236 0.90504342 1.00000000
0.88274708 0.86644152 1.00000000
0.95534357 0.84252269 0.99893550
1.00000000 0.99051465 1.00000000
0.88346290 0.92157402 1.00000000
0.88344049 0.92153781 1.00000000
0.88325161 0.92122017 1.00000000
0.88263580 0.92015743 1.00000000
0.88069413 0.91646495 1.00000000
0.88060892 0.90850136 1.00000000
0.88338542 0.87190991 1.00000000
0.95389076 0.84182883 0.99839159
1.00000000 0.99059011 1.00000000
0.89593064 0.93540290 1.00000000
0.89590011 0.93536879 1.00000000
0.89564183 0.93506879 1.00000000
0.89486922 0.93411991 1.00000000
0.89265211 0.93108661 1.00000000
0.88559800 0.91954027 1.00000000
0.88573488 0.88829927 1.00000000
0.94742092 0.84003960 0.99434627
1.00000000 0.99120025 1.00000000
0.94814094 0.97465425 1.00000000
0.94810359 0.97462942 1.00000000
0.94778700 0.97440905 1.00000000
0.94674025 0.97367540 1.00000000
0.94324658 0.97117875 1.00000000
0.93333066 0.96341828 1.00000000
0.90199057 0.92734377 1.00000000
0.93043420 0.88398026 0.96663036
1.00000000 1.00000000 1.00000000
1.00000000 1.00000000 1.00000000
1.00000000 1.00000000 1.00000000
1.00000000 1.00000000 1.00000000
1.00000000 1.00000000 1.00000000
1.00000000 1.00000000 1.00000000
1.00000000 1.00000000 1.00000000
1.00000000 1.00000000 1.00000000
1.00000000 1.00000000 1.00000000
1.00000000 1.00000000 1.00000000
1.00000000 1.00000000 1.00000000
1.00000000 1.00000000 1.00000000
1.00000000 1.00000000 1.00000000
1.00000000 1.00000000 1.00000000
1.00000000 1.00000000 1.00000000
1.00000000 1.00000000 1.00000000
1.00000000 1.00000000 1.00000000
1.00000000 1.00000000 1.00000000
1.00000000 1.00000000 1.00000000
