Luts Download/Canon Luts/3dlut/33grid-3dlut/full-to-full-range/CinemaGamut_CanonLog3-to-BT2020_HLG_33_FF_Ver.2.0.cube
# Gamut : Cinema Gamut to BT.2020
# Gamma : Canon Log 3 to HLG
# Range : Full in / Full out
# Version : 2.0 2019/10/24
# Copyright(c) 2019 Canon Inc. All Rights Reserved.
LUT_3D_SIZE 5
# LUT_3D_INPUT_RANGE 0.0 1.0
0.00000000 0.00000004 0.00000002
0.23882734 0.03181022 0.05535469
0.64746387 0.00000000 0.10733129
0.95432646 0.12716479 0.22765658
1.00000000 0.89295040 0.85007870
0.09811708 0.21210036 0.05591481
0.23655342 0.24901650 0.01850129
0.64963679 0.25358201 0.02386441
0.96526225 0.19463865 0.15388785
1.00000000 0.90211410 0.85969028
0.23797643 0.58992258 0.01050245
0.31337411 0.60580088 0.00000000
0.63115245 0.65345812 0.00000000
0.95710404 0.68334119 0.13129378
1.00000000 0.95239427 0.91942179
0.56511325 0.91411078 0.10562540
0.59199915 0.91686078 0.10942323
0.71643561 0.93255618 0.13279832
0.94913968 0.96998965 0.38557078
1.00000000 1.00000000 1.00000000
1.00000000 1.00000000 1.00000000
1.00000000 1.00000000 1.00000000
1.00000000 1.00000000 1.00000000
1.00000000 1.00000000 1.00000000
1.00000000 1.00000000 1.00000000
0.05823521 0.01666268 0.18954408
0.21428440 0.00000000 0.22817851
0.63339980 0.00000000 0.29567540
0.94998399 0.12650597 0.35449050
1.00000000 0.88709902 0.84546690
0.04928541 0.24020412 0.23524866
0.24181371 0.24181371 0.24181371
0.66346678 0.19034505 0.23534648
0.95948625 0.21007020 0.30007265
1.00000000 0.89521207 0.85334915
0.16655577 0.65041459 0.06247468
0.27979065 0.65879905 0.00000000
0.65042133 0.67240420 0.00000000
0.96461809 0.67123557 0.14793479
1.00000000 0.94835707 0.91478908
0.55338137 0.92445399 0.11300114
0.58369287 0.92683511 0.11806802
0.71816979 0.94040487 0.15269540
0.95229319 0.97318724 0.42178865
1.00000000 1.00000000 1.00000000
1.00000000 1.00000000 1.00000000
1.00000000 1.00000000 1.00000000
1.00000000 1.00000000 1.00000000
1.00000000 1.00000000 1.00000000
1.00000000 1.00000000 1.00000000
0.15009820 0.01439901 0.55032583
0.20761301 0.00000000 0.48321954
0.59570941 0.00000000 0.60404362
0.93342372 0.11477239 0.69746626
1.00000000 0.88851369 0.88487139
0.05054872 0.14093903 0.60474410
0.16001838 0.00000000 0.59401362
0.61199334 0.00000000 0.62841986
0.94229420 0.15187651 0.69018935
1.00000000 0.89652398 0.89037555
0.13159520 0.63745951 0.62783761
0.18743566 0.64400735 0.63557741
0.63952564 0.63952564 0.63952564
0.97798793 0.58244050 0.63261350
1.00000000 0.94214327 0.92700200
0.45348063 0.98467833 0.36353311
0.48809301 0.98675257 0.33953364
0.71292814 0.99071013 0.31890544
0.97147924 0.99203413 0.58698175
1.00000000 1.00000000 1.00000000
1.00000000 1.00000000 1.00000000
1.00000000 1.00000000 1.00000000
1.00000000 1.00000000 1.00000000
1.00000000 1.00000000 1.00000000
1.00000000 1.00000000 1.00000000
0.31152081 0.03116520 0.87698020
0.34041788 0.05498804 0.86045530
0.52783690 0.00000000 0.79248977
0.90256523 0.07672661 0.89965505
1.00000000 0.86940915 0.93208718
0.28205630 0.00000000 0.89872543
0.31602011 0.03445625 0.88260471
0.49958544 0.00000000 0.79644053
0.90397259 0.07186711 0.90107598
1.00000000 0.87149601 0.93218450
0.00000000 0.51520229 0.87826735
0.00000000 0.47850378 0.89388359
0.48165801 0.25177893 0.94374410
0.93420939 0.30478549 0.94958292
1.00000000 0.92058916 0.95309584
0.46526819 0.94998315 0.94151284
0.49361872 0.95110221 0.94286868
0.65454330 0.95650467 0.94982728
0.95845399 0.95845399 0.95845399
1.00000000 1.00000000 1.00000000
1.00000000 1.00000000 1.00000000
1.00000000 1.00000000 1.00000000
1.00000000 1.00000000 1.00000000
1.00000000 1.00000000 1.00000000
1.00000000 1.00000000 1.00000000
0.61202185 0.64030672 1.00000000
0.61737112 0.63479397 1.00000000
0.65314584 0.59191642 1.00000000
0.81139752 0.26114568 1.00000000
1.00000000 0.82573097 0.99343701
0.60913617 0.64925611 1.00000000
0.61353317 0.64278232 1.00000000
0.64942589 0.60129882 1.00000000
0.80745895 0.25816293 1.00000000
1.00000000 0.82612893 0.99339267
0.59288952 0.70383205 1.00000000
0.59632182 0.69866769 1.00000000
0.62374743 0.65890732 1.00000000
0.77397669 0.23762519 1.00000000
1.00000000 0.82949376 0.99243104
0.67021236 0.86299004 1.00000000
0.66918632 0.86110597 1.00000000
0.66258976 0.84650173 1.00000000
0.82790804 0.83875861 0.98981683
1.00000000 1.00000000 1.00000000
1.00000000 1.00000000 1.00000000
1.00000000 1.00000000 1.00000000
1.00000000 1.00000000 1.00000000
1.00000000 1.00000000 1.00000000
1.00000000 1.00000000 1.00000000
