Luts Download/Canon Luts/3dlut/33grid-3dlut/full-to-full-range/CinemaGamut_CanonLog2-to-BT709_WideDR_33_FF_Ver.2.0.cube
# Gamut : Cinema Gamut to BT.709
# Gamma : Canon Log 2 to Wide DR
# Range : Full in / Full out
# Version : 2.0 2019/10/24
# Copyright(c) 2019 Canon Inc. All Rights Reserved.
LUT_3D_SIZE 5
# LUT_3D_INPUT_RANGE 0.0 1.0
0.00000000 0.00000000 0.00000000
0.18346380 0.00000000 0.01208935
0.70506683 0.00000000 0.08557720
1.00000000 0.15149985 0.15523204
1.00000000 0.66415720 0.59794575
0.00279641 0.11905981 0.01704377
0.14097168 0.15376231 0.00000000
0.76082224 0.05933344 0.01310350
1.00000000 0.24882886 0.20974242
1.00000000 0.69685513 0.63432263
0.00000000 0.55364326 0.05559495
0.01643124 0.57598096 0.00655155
0.60484242 0.65035017 0.00000000
1.00000000 0.62449076 0.48105088
1.00000000 0.91720678 0.88871737
0.03289514 0.86346886 0.00649380
0.05136381 0.87747081 0.00628636
0.31744185 0.97791243 0.09888700
0.92930479 0.99149961 0.51073427
1.00000000 1.00000000 1.00000000
1.00000000 1.00000000 1.00000000
1.00000000 1.00000000 1.00000000
1.00000000 1.00000000 1.00000000
1.00000000 1.00000000 1.00000000
1.00000000 1.00000000 1.00000000
0.00748914 0.00300749 0.08455547
0.15030645 0.00000000 0.12017737
0.68470882 0.00000000 0.21347183
0.99757332 0.13588319 0.16150251
1.00000000 0.65140092 0.58459663
0.00000000 0.13951148 0.12894482
0.14520997 0.14520997 0.14520997
0.75836695 0.02195788 0.16368044
0.99791629 0.23680870 0.21377458
1.00000000 0.68127977 0.61763040
0.00825099 0.60636903 0.13245437
0.00000000 0.62758098 0.06321289
0.62597113 0.67286851 0.00000000
1.00000000 0.63430044 0.50038054
1.00000000 0.91305106 0.88424014
0.03078511 0.89436363 0.02052948
0.04604673 0.90764204 0.01797455
0.38374121 0.99059755 0.19785984
0.94164618 0.99540161 0.62141258
1.00000000 1.00000000 1.00000000
1.00000000 1.00000000 1.00000000
1.00000000 1.00000000 1.00000000
1.00000000 1.00000000 1.00000000
1.00000000 1.00000000 1.00000000
1.00000000 1.00000000 1.00000000
0.02595642 0.00926917 0.49240234
0.11112995 0.00273940 0.42579331
0.62454877 0.00000000 0.50736450
0.99423809 0.04936777 0.37898856
1.00000000 0.63633117 0.58116572
0.00000000 0.13137391 0.38142417
0.03213202 0.03810491 0.48107676
0.65397000 0.00000000 0.53230126
1.00000000 0.09592222 0.38500911
1.00000000 0.65828251 0.60410603
0.00000000 0.59814073 0.56583838
0.00000000 0.61098484 0.57816067
0.61787795 0.61787795 0.61787795
0.99273215 0.63933643 0.64377167
1.00000000 0.93762356 0.91525566
0.34815937 0.98816614 0.34933861
0.39194828 0.98971921 0.37559275
0.68433592 1.00000000 0.59940981
0.98916492 1.00000000 0.90284807
1.00000000 1.00000000 1.00000000
1.00000000 1.00000000 1.00000000
1.00000000 1.00000000 1.00000000
1.00000000 1.00000000 1.00000000
1.00000000 1.00000000 1.00000000
1.00000000 1.00000000 1.00000000
0.00000000 0.14438943 0.64881588
0.00000000 0.09605349 0.69231293
0.31700520 0.00650604 0.87858495
0.92807947 0.01113080 0.74312295
1.00000000 0.59983188 0.69064905
0.00024833 0.17846939 0.63907500
0.00000000 0.14538414 0.67079935
0.30100169 0.00000000 0.88564136
0.93378913 0.00751788 0.74782835
1.00000000 0.60708915 0.69505182
0.00000000 0.45920332 0.81878512
0.01024307 0.47044158 0.84764265
0.38130382 0.54917695 0.97400147
1.00000000 0.53109839 0.85213039
1.00000000 0.89504240 0.91926631
0.00000000 0.93565286 0.88655143
0.00000000 0.94258834 0.89349521
0.43554496 0.97813808 0.93977638
0.97244176 0.97244176 0.97244176
1.00000000 1.00000000 1.00000000
1.00000000 1.00000000 1.00000000
1.00000000 1.00000000 1.00000000
1.00000000 1.00000000 1.00000000
1.00000000 1.00000000 1.00000000
1.00000000 1.00000000 1.00000000
0.03336144 0.34023402 1.00000000
0.03241187 0.33433472 1.00000000
0.01502129 0.24628861 0.98675452
0.43789001 0.26422755 1.00000000
1.00000000 0.54962894 0.89215747
0.03837835 0.35000045 1.00000000
0.03707386 0.34401890 1.00000000
0.02002201 0.25970808 0.99095506
0.43419469 0.26071721 1.00000000
1.00000000 0.55134821 0.89218183
0.15653853 0.47327631 1.00000000
0.14867805 0.46593168 1.00000000
0.09288435 0.38639983 1.00000000
0.49077720 0.43018818 1.00000000
1.00000000 0.70873463 0.91994205
0.30981020 0.70869034 1.00000000
0.30221072 0.70430330 1.00000000
0.47439862 0.76486011 1.00000000
0.74301249 0.83665751 0.98972441
1.00000000 1.00000000 1.00000000
1.00000000 1.00000000 1.00000000
1.00000000 1.00000000 1.00000000
1.00000000 1.00000000 1.00000000
1.00000000 1.00000000 1.00000000
1.00000000 1.00000000 1.00000000
