Luts Download/Canon Luts/3dlut/33grid-3dlut/full-to-full-range/CinemaGamut_CanonLog2-to-BT709_WideDR_33_FF_Ver.2.0.cube
# Gamut : Cinema Gamut to BT.709
# Gamma : Canon Log 2 to Wide DR
# Range : Full in / Full out
# Version : 2.0 2019/10/24
# Copyright(c) 2019 Canon Inc. All Rights Reserved.
LUT_3D_SIZE 33
# LUT_3D_INPUT_RANGE 0.0 1.0
0.00000000 0.00000000 0.00000000
0.00000000 0.00000000 0.00000000
0.00000000 0.00000000 0.00000000
0.00044378 0.00044378 0.00044378
0.01979051 0.00150129 0.00302507
0.05064250 0.00101278 0.00507379
0.09258130 0.00000000 0.00700866
0.13663917 0.00000000 0.00915164
0.18346380 0.00000000 0.01208935
0.23383584 0.00000000 0.01636898
0.28894591 0.00000000 0.02229996
0.34967230 0.00000000 0.03009956
0.41640486 0.00000000 0.03994203
0.48926752 0.00000000 0.05182597
0.56672936 0.00000000 0.06513273
0.63850298 0.00000000 0.07658507
0.70506683 0.00000000 0.08557720
0.76733473 0.00000000 0.09199027
0.82513113 0.00000000 0.09624417
0.87775241 0.00000000 0.09892189
0.92410604 0.00000000 0.10094672
0.96242948 0.00997147 0.10415452
0.98904688 0.03772198 0.11275161
0.99870612 0.09660441 0.13256030
1.00000000 0.15149985 0.15523204
0.99945933 0.19802720 0.17913796
0.99695404 0.24193886 0.20600307
0.99448899 0.28833997 0.23903239
0.99336806 0.34150746 0.28197792
0.99525377 0.40479538 0.33850818
1.00000000 0.48027404 0.41128119
1.00000000 0.56801308 0.50018291
1.00000000 0.66415720 0.59794575
0.00000000 0.00000000 0.00000000
0.00000000 0.00000000 0.00000000
0.00000000 0.00000000 0.00000000
0.00044378 0.00044378 0.00044378
0.01979051 0.00150129 0.00302507
0.05064250 0.00101278 0.00507379
0.09258130 0.00000000 0.00700866
0.13663917 0.00000000 0.00915164
0.18346380 0.00000000 0.01208935
0.23383584 0.00000000 0.01636898
0.28894591 0.00000000 0.02229996
0.34967230 0.00000000 0.03009956
0.41640486 0.00000000 0.03994203
0.48926752 0.00000000 0.05182597
0.56672936 0.00000000 0.06513273
0.63850298 0.00000000 0.07658507
0.70506683 0.00000000 0.08557720
0.76733473 0.00000000 0.09199027
0.82513113 0.00000000 0.09624417
0.87775241 0.00000000 0.09892189
0.92410604 0.00000000 0.10094672
0.96242948 0.00997147 0.10415452
0.98904688 0.03772198 0.11275161
0.99870612 0.09660441 0.13256030
1.00000000 0.15149985 0.15523204
0.99945933 0.19802720 0.17913796
0.99695404 0.24193886 0.20600307
0.99448899 0.28833997 0.23903239
0.99336806 0.34150746 0.28197792
0.99525377 0.40479538 0.33850818
1.00000000 0.48027404 0.41128119
1.00000000 0.56801308 0.50018291
1.00000000 0.66415720 0.59794575
0.00000000 0.00000000 0.00000000
0.00000000 0.00000000 0.00000000
0.00000000 0.00000000 0.00000000
0.00044378 0.00044378 0.00044378
0.01979051 0.00150129 0.00302507
0.05064250 0.00101278 0.00507379
0.09258130 0.00000000 0.00700866
0.13663917 0.00000000 0.00915164
0.18346380 0.00000000 0.01208935
0.23383584 0.00000000 0.01636898
0.28894591 0.00000000 0.02229996
0.34967230 0.00000000 0.03009956
0.41640486 0.00000000 0.03994203
0.48926752 0.00000000 0.05182597
0.56672936 0.00000000 0.06513273
0.63850298 0.00000000 0.07658507
0.70506683 0.00000000 0.08557720
0.76733473 0.00000000 0.09199027
0.82513113 0.00000000 0.09624417
0.87775241 0.00000000 0.09892189
0.92410604 0.00000000 0.10094672
0.96242948 0.00997147 0.10415452
0.98904688 0.03772198 0.11275161
0.99870612 0.09660441 0.13256030
1.00000000 0.15149985 0.15523204
0.99945933 0.19802720 0.17913796
0.99695404 0.24193886 0.20600307
0.99448899 0.28833997 0.23903239
0.99336806 0.34150746 0.28197792
0.99525377 0.40479538 0.33850818
1.00000000 0.48027404 0.41128119
1.00000000 0.56801308 0.50018291
1.00000000 0.66415720 0.59794575
0.00044378 0.00044378 0.00044378
0.00044378 0.00044378 0.00044378
0.00044378 0.00044378 0.00044378
0.00044378 0.00044378 0.00044378
0.01979051 0.00150129 0.00302507
0.05097736 0.00116302 0.00513807
0.09292906 0.00000000 0.00702122
0.13697136 0.00000000 0.00911908
0.18374828 0.00000000 0.01201134
0.23409273 0.00000000 0.01625652
0.28920111 0.00000000 0.02214964
0.34993492 0.00000000 0.02990944
0.41667227 0.00000000 0.03971675
0.48953536 0.00000000 0.05157389
0.56699714 0.00000000 0.06486399
0.63876588 0.00000000 0.07632637
0.70532373 0.00000000 0.08534564
0.76758498 0.00000000 0.09180034
0.82537313 0.00000000 0.09609629
0.87798304 0.00000000 0.09881556
0.92431844 0.00000000 0.10088554
0.96260577 0.01012381 0.10415394
0.98913351 0.03809676 0.11286206
0.99873618 0.09707409 0.13273451
1.00000000 0.15188775 0.15542891
0.99945671 0.19835367 0.17933918
0.99694868 0.24221749 0.20620044
0.99448377 0.28857819 0.23922075
0.99336366 0.34171070 0.28215421
0.99525059 0.40496786 0.33867024
1.00000000 0.48042019 0.41142816
1.00000000 0.56813786 0.50031544
1.00000000 0.66426651 0.59806642
0.00326756 0.01378013 0.00489393
0.00326756 0.01378013 0.00489393
0.00326756 0.01378013 0.00489393
0.00326756 0.01378013 0.00489393
0.01815597 0.01965160 0.00464959
0.04916876 0.02094199 0.00443605
0.09310706 0.01962831 0.00505442
0.13976555 0.01680333 0.00623202
0.18927903 0.01278013 0.00776611
0.24170598 0.00837720 0.01063597
0.29811655 0.00396975 0.01522448
0.35987044 0.00000000 0.02158034
0.42713521 0.00000000 0.03018432
0.50019765 0.00000000 0.04112553
0.57768868 0.00000000 0.05389896
0.64926051 0.00000000 0.06581302
0.71554460 0.00000000 0.07592205
0.77747882 0.00000000 0.08400524
0.83487906 0.00000000 0.08994199
0.88696191 0.00000000 0.09429722
0.93245253 0.00017817 0.09819844
0.96908153 0.01538721 0.10402529
0.99184958 0.05273938 0.11722956
0.99969022 0.11348059 0.13907196
1.00000000 0.16550021 0.16249397
0.99931863 0.20991600 0.18656684
0.99669727 0.25216085 0.21331096
0.99422485 0.29712672 0.24602459
0.99311582 0.34903992 0.28854221
0.99503794 0.41120447 0.34455235
1.00000000 0.48572046 0.41677775
1.00000000 0.57266816 0.50514778
1.00000000 0.66823821 0.60247500
0.00439779 0.03108193 0.00830048
0.00439779 0.03108193 0.00830048
0.00439779 0.03108193 0.00830048
0.00449015 0.03129440 0.00837747
0.01468345 0.04045252 0.00553607
0.04086492 0.04508375 0.00329488
0.08369073 0.04575681 0.00212838
0.13314630 0.04377450 0.00269994
0.18450367 0.04031957 0.00403208
0.24004784 0.03503411 0.00565718
0.30075797 0.02777331 0.00797077
0.36700114 0.01857457 0.01143140
0.43677594 0.01025326 0.01814698
0.51149392 0.00257227 0.02756344
0.58993009 0.00000000 0.03938803
0.66186821 0.00000000 0.05163513
0.72811659 0.00000000 0.06297185
0.78981854 0.00000000 0.07276734
0.84678049 0.00000000 0.08093197
0.89813437 0.00000000 0.08776619
0.94237950 0.00303586 0.09444823
0.97670416 0.02343362 0.10393849
0.99474928 0.07261153 0.12284400
1.00000000 0.13255951 0.14684221
1.00000000 0.18150891 0.17104050
0.99925507 0.22364711 0.19530052
0.99653640 0.26406196 0.22191856
0.99404302 0.30746037 0.25431089
0.99296042 0.35795339 0.29634595
0.99491585 0.41884110 0.35177052
1.00000000 0.49224991 0.42337041
1.00000000 0.57827023 0.51111580
1.00000000 0.67316466 0.60792843
0.00427715 0.05394378 0.01110724
0.00427715 0.05394378 0.01110724
0.00427715 0.05394378 0.01110724
0.00435954 0.05437515 0.01113927
0.01098491 0.06550165 0.00647894
0.03198380 0.07302079 0.00325854
0.06916723 0.07695633 0.00113172
0.11957601 0.07743578 0.00010160
0.17305663 0.07581093 0.00054291
0.23043017 0.07208701 0.00171276
0.29329626 0.06552742 0.00315542
0.36242826 0.05548109 0.00506317
0.43772515 0.04200883 0.00809870
0.51860492 0.02592027 0.01306197
0.60072366 0.01208818 0.02241534
0.67487761 0.00214086 0.03405279
0.74224749 0.00000000 0.04614442
0.80439414 0.00000000 0.05760896
0.86120097 0.00000000 0.06811066
0.91175709 0.00000000 0.07808404
0.95426175 0.00761527 0.08898416
0.98516578 0.03593906 0.10403107
0.99775940 0.09785471 0.12969912
1.00000000 0.15432972 0.15613626
1.00000000 0.20006706 0.18121417
0.99914244 0.23975806 0.20572301
0.99631153 0.27818903 0.23225576
0.99379363 0.31984082 0.26431956
0.99273869 0.36871813 0.30582341
0.99472246 0.42812973 0.36058404
1.00000000 0.50022824 0.43144671
1.00000000 0.58514634 0.51845566
1.00000000 0.67923721 0.61466241
0.00365121 0.08349226 0.01384322
0.00365121 0.08349226 0.01384322
0.00365121 0.08349226 0.01384322
0.00368095 0.08393392 0.01378215
0.00765039 0.09562915 0.00794194
0.02419916 0.10438048 0.00384248
0.05573612 0.11024790 0.00140901
0.10314509 0.11357539 0.00000000
0.15682255 0.11506972 0.00000000
0.21515342 0.11466737 0.00000000
0.27928570 0.11175390 0.00006552
0.35012835 0.10526533 0.00111253
0.42805166 0.09385047 0.00269591
0.51278402 0.07586920 0.00516958
0.60198573 0.05227365 0.00917511
0.68378504 0.02849274 0.01603045
0.75521553 0.01267055 0.02719868
0.81971323 0.00217507 0.03931281
0.87739906 0.00000000 0.05191499
0.92746964 0.00087394 0.06540652
0.96742438 0.01754388 0.08226621
0.99158356 0.06224900 0.10752761
1.00000000 0.12751350 0.13866078
1.00000000 0.17951719 0.16748522
1.00000000 0.22179507 0.19351502
0.99883110 0.25883278 0.21833353
0.99591060 0.29507786 0.24480738
0.99338419 0.33477214 0.27652783
0.99233760 0.38182971 0.31746412
0.99435352 0.43952546 0.37146362
1.00000000 0.51006445 0.44144847
1.00000000 0.59366768 0.52758625
1.00000000 0.68681393 0.62310076
0.00279641 0.11905981 0.01704377
0.00279641 0.11905981 0.01704377
0.00279641 0.11905981 0.01704377
0.00279997 0.11948200 0.01692592
0.00508380 0.12963434 0.01038223
0.01750134 0.13837544 0.00486857
0.04456692 0.14496735 0.00189561
0.08793931 0.14986305 0.00011287
0.14097168 0.15376231 0.00000000
0.19882370 0.15628209 0.00000000
0.26286794 0.15698267 0.00000000
0.33419090 0.15496743 0.00000000
0.41330824 0.14902410 0.00014489
0.50022394 0.13770979 0.00137103
0.59311000 0.11904151 0.00336706
0.68056063 0.09199722 0.00728864
0.76082224 0.05933344 0.01310350
0.83264516 0.03177565 0.02187273
0.89369031 0.01769310 0.03524327
0.94406544 0.01825905 0.05247221
0.98043774 0.04247624 0.07765623
0.99642513 0.10533502 0.11578307
1.00000000 0.16401791 0.15183061
1.00000000 0.21055484 0.18282081
1.00000000 0.24882886 0.20974242
0.99821733 0.28282281 0.23485618
0.99527011 0.31652181 0.26122578
0.99279003 0.35389166 0.29250491
0.99181480 0.39874121 0.33271572
0.99389242 0.45434149 0.38576465
1.00000000 0.52296388 0.45466572
1.00000000 0.60490697 0.53969002
1.00000000 0.69685513 0.63432263
0.00196699 0.15884158 0.02103791
0.00196699 0.15884158 0.02103791
0.00196699 0.15884158 0.02103791
0.00195860 0.15916009 0.02088723
0.00289749 0.16787138 0.01372981
0.01150848 0.17619540 0.00664992
0.03462793 0.18299470 0.00276641
0.07358484 0.18866164 0.00059276
0.12600943 0.19399140 0.00000000
0.18327809 0.19874329 0.00000000
0.24652525 0.20219823 0.00000000
0.31723074 0.20376069 0.00000000
0.39635026 0.20233164 0.00000000
0.48412359 0.19651881 0.00000000
0.57904614 0.18447589 0.00053793
0.67056306 0.16414810 0.00337660
0.75652069 0.13643658 0.00762429
0.83581771 0.10261586 0.01345126
0.90546623 0.06889028 0.02293038
0.95871634 0.06005569 0.04254613
0.98759366 0.10064575 0.08300784
0.99892520 0.15762633 0.13016682
1.00000000 0.20712472 0.17004963
1.00000000 0.24771909 0.20295453
0.99997727 0.28175403 0.23078889
0.99723579 0.31247375 0.25624156
0.99431332 0.34338324 0.28252191
0.99189914 0.37816478 0.31333450
0.99104407 0.42044529 0.35268001
0.99323144 0.47352290 0.40454402
1.00000000 0.53976477 0.47204682
1.00000000 0.61966373 0.55568724
1.00000000 0.71011176 0.64920331
0.00127655 0.20337558 0.02597108
0.00127655 0.20337558 0.02597108
0.00127655 0.20337558 0.02597108
0.00125975 0.20362328 0.02579914
0.00117795 0.21099022 0.01818063
0.00680672 0.21863348 0.00993345
0.02531115 0.22551856 0.00419731
0.06017715 0.23144247 0.00131698
0.11130904 0.23752600 0.00000000
0.16814240 0.24365604 0.00000000
0.23079933 0.24934010 0.00000000
0.30053325 0.25359003 0.00000000
0.37881013 0.25570746 0.00000000
0.46639499 0.25441496 0.00000000
0.56223789 0.24776692 0.00000000
0.65687214 0.23269878 0.00103591
0.74736262 0.21023658 0.00507770
0.83195051 0.18207551 0.01099481
0.90736791 0.15250650 0.02089339
0.96622352 0.13673360 0.04239645
0.99079670 0.17062521 0.09763586
0.99963174 0.21522893 0.15067283
1.00000000 0.25598521 0.19357197
1.00000000 0.29069994 0.22827377
0.99879202 0.32051609 0.25712058
0.99602745 0.34792965 0.28303787
0.99316587 0.37595175 0.30930545
0.99084908 0.40797364 0.33965358
0.99008434 0.44749822 0.37811525
0.99238656 0.49777587 0.42867710
1.00000000 0.56132614 0.49461824
1.00000000 0.63873360 0.57652352
1.00000000 0.72737264 0.66869914
0.00072980 0.25322319 0.03182079
0.00072980 0.25322319 0.03182079
0.00072980 0.25322319 0.03182079
0.00070432 0.25342051 0.03163366
0.00000000 0.25963628 0.02368148
0.00313644 0.26651862 0.01456522
0.01650100 0.27315785 0.00651922
0.04719100 0.27918095 0.00240422
0.09606748 0.28556734 0.00039447
0.15294563 0.29243126 0.00000000
0.21499051 0.29951796 0.00000000
0.28406419 0.30614268 0.00000000
0.36121279 0.31099206 0.00000000
0.44786144 0.31329918 0.00000000
0.54368827 0.31115958 0.00000000
0.64086257 0.30047060 0.00000000
0.73548402 0.28209837 0.00254319
0.82495392 0.25792517 0.00957623
0.90521867 0.23203366 0.02220048
0.96747725 0.21698558 0.05019567
0.99186141 0.24164035 0.11782580
0.99999532 0.27672721 0.17661956
1.00000000 0.31027106 0.22279117
0.99995092 0.33949159 0.25931647
0.99747962 0.36507883 0.28919782
0.99472767 0.38915269 0.31565068
0.99199513 0.41429333 0.34202318
0.98981711 0.44349371 0.37195323
0.98917878 0.48010495 0.40947714
0.99150665 0.52743859 0.45870619
0.99920693 0.58809374 0.52299690
1.00000000 0.66307493 0.60334045
1.00000000 0.74937860 0.69372299
0.00024472 0.30870885 0.03838902
0.00024472 0.30870885 0.03838902
0.00024472 0.30870885 0.03838902
0.00021039 0.30886895 0.03819137
0.00000000 0.31411850 0.03002174
0.00021008 0.32015789 0.02035204
0.00897357 0.32645624 0.01027013
0.03437037 0.33239313 0.00409801
0.07946224 0.33875663 0.00116147
0.13706531 0.34601933 0.00000000
0.19881121 0.35385740 0.00000000
0.26698304 0.36197854 0.00000000
0.34336688 0.36948663 0.00000000
0.42870576 0.37467904 0.00000000
0.52369792 0.37626963 0.00000000
0.62244713 0.36957565 0.00000000
0.72107628 0.35470259 0.00000000
0.81580646 0.33338572 0.00630258
0.90143876 0.30957100 0.02227074
0.96802778 0.29410469 0.05841150
0.99341992 0.31205733 0.13882858
1.00000000 0.34009792 0.20486931
1.00000000 0.36798770 0.25584569
1.00000000 0.39290475 0.29532612
0.99742171 0.41505377 0.32700164
0.99441568 0.43603657 0.35433767
0.99157019 0.45824894 0.38085529
0.98934184 0.48462361 0.41043239
0.98867341 0.51835881 0.44711937
0.99097374 0.56273450 0.49506384
0.99866521 0.62047173 0.55774189
1.00000000 0.69271418 0.63630305
1.00000000 0.77671706 0.72503279
0.00000000 0.36991000 0.04527728
0.00000000 0.36991000 0.04527728
0.00000000 0.36991000 0.04527728
0.00000000 0.37004193 0.04507382
0.00000000 0.37449265 0.03682770
0.00000000 0.37972582 0.02691043
0.00310219 0.38558724 0.01556906
0.02178270 0.39135362 0.00639845
0.06193150 0.39759113 0.00214160
0.11981231 0.40475939 0.00010433
0.18178969 0.41304336 0.00000000
0.24919638 0.42200578 0.00000000
0.32429709 0.43116786 0.00000000
0.40875724 0.43943900 0.00000000
0.50234722 0.44416584 0.00000000
0.60149267 0.44116953 0.00000000
0.70318048 0.42982421 0.00000000
0.80331034 0.41112470 0.00096538
0.89567741 0.38833686 0.01843453
0.96899636 0.37088734 0.06170483
0.99726575 0.38260706 0.15725357
1.00000000 0.40483872 0.23283970
1.00000000 0.42802582 0.29036457
1.00000000 0.44922590 0.33419643
0.99967292 0.46841578 0.36853275
0.99627738 0.48683057 0.39739242
0.99315737 0.50663197 0.42470386
0.99068361 0.53057920 0.45440823
0.98968419 0.56176472 0.49065160
0.99161334 0.60336996 0.53755813
0.99886965 0.65816689 0.59866232
1.00000000 0.72754317 0.67535584
1.00000000 0.80931308 0.76259905
0.00000000 0.43546388 0.05160751
0.00000000 0.43546388 0.05160751
0.00000000 0.43546388 0.05160751
0.00000000 0.43557445 0.05140442
0.00000000 0.43938040 0.04328884
0.00000000 0.44392842 0.03339974
0.00000000 0.44917332 0.02157290
0.01049726 0.45486021 0.00960005
0.04433588 0.46084123 0.00343274
0.10008719 0.46786245 0.00032358
0.16298430 0.47614075 0.00000000
0.22988389 0.48563158 0.00000000
0.30354457 0.49582840 0.00000000
0.38616355 0.50602298 0.00000000
0.47875802 0.51445297 0.00000000
0.57708647 0.51495624 0.00000000
0.68031160 0.50735889 0.00000000
0.78485464 0.49176717 0.00000000
0.88437453 0.47029182 0.01160779
0.96664112 0.45055097 0.05911787
1.00000000 0.45432203 0.16899650
1.00000000 0.47031388 0.25685205
1.00000000 0.48909034 0.32309283
1.00000000 0.50689985 0.37287442
1.00000000 0.52334410 0.41111216
1.00000000 0.53948113 0.44233196
0.99760854 0.55718873 0.47095460
0.99461476 0.57900145 0.50124370
0.99298043 0.60796255 0.53746860
0.99411301 0.64720913 0.58383658
1.00000000 0.69956337 0.64396211
1.00000000 0.76646098 0.71925884
1.00000000 0.84615938 0.80525709
0.00000000 0.49663864 0.05512123
0.00000000 0.49663864 0.05512123
0.00000000 0.49663864 0.05512123
0.00000000 0.49673436 0.05493074
0.00000000 0.50007202 0.04737242
0.00000000 0.50411013 0.03807475
0.00000000 0.50886249 0.02665640
0.00366071 0.51430573 0.01402434
0.02883130 0.52032470 0.00506903
0.07822215 0.52718010 0.00136880
0.14103119 0.53558587 0.00000000
0.20679132 0.54536720 0.00000000
0.27823871 0.55644477 0.00000000
0.35780352 0.56821299 0.00000000
0.44713830 0.57930072 0.00000000
0.54404891 0.58471438 0.00000000
0.64624792 0.58145829 0.00000000
0.75277069 0.57014891 0.00000000
0.85798483 0.55149399 0.00613619
0.95030476 0.53064003 0.05173266
1.00000000 0.52478252 0.16763156
1.00000000 0.53347684 0.27030466
1.00000000 0.54719836 0.34789870
1.00000000 0.56147675 0.40539975
1.00000000 0.57513118 0.44872196
1.00000000 0.58893781 0.48321766
1.00000000 0.60463546 0.51376966
0.99804145 0.62455254 0.54508288
0.99574165 0.65155486 0.58170708
0.99605709 0.68878520 0.62795864
1.00000000 0.73910075 0.68755869
1.00000000 0.80418414 0.76222031
1.00000000 0.88241984 0.84768144
0.00000000 0.55364326 0.05559495
0.00000000 0.55364326 0.05559495
0.00000000 0.55364326 0.05559495
0.00000000 0.55372813 0.05542395
0.00000000 0.55671186 0.04866697
0.00000000 0.56035702 0.04028879
0.00000000 0.56471148 0.02980302
0.00000000 0.56983197 0.01762033
0.01643124 0.57598096 0.00655155
0.05795333 0.58271031 0.00221646
0.11789824 0.59100744 0.00007641
0.18194686 0.60114157 0.00000000
0.25036408 0.61293905 0.00000000
0.32638207 0.62588073 0.00000000
0.41141537 0.63898181 0.00000000
0.50426319 0.64771380 0.00000000
0.60484242 0.65035017 0.00000000
0.71028291 0.64393576 0.00000000
0.81841953 0.62956235 0.00432055
0.91986077 0.60960111 0.04193748
0.99185485 0.59502958 0.14961536
1.00000000 0.59581899 0.27091024
1.00000000 0.60370180 0.36321679
1.00000000 0.61384576 0.43105828
1.00000000 0.62449076 0.48105088
1.00000000 0.63580595 0.51975926
1.00000000 0.64930618 0.55289379
1.00000000 0.66724245 0.58560467
0.99800237 0.69234973 0.62285038
0.99757938 0.72771159 0.66927566
1.00000000 0.77626350 0.72872613
1.00000000 0.83981552 0.80308690
1.00000000 0.91720678 0.88871737
0.00000000 0.60714993 0.05328411
0.00000000 0.60714993 0.05328411
0.00000000 0.60714993 0.05328411
0.00000000 0.60722649 0.05313530
0.00000000 0.60993160 0.04727332
0.00000000 0.61326020 0.03997010
0.00000000 0.61728046 0.03069482
0.00000000 0.62209647 0.01955819
0.00874713 0.62811535 0.00827011
0.04155790 0.63490994 0.00274564
0.09549923 0.64313232 0.00059612
0.15632130 0.65349620 0.00000000
0.22212923 0.66557927 0.00000000
0.29371032 0.67957963 0.00000000
0.37410532 0.69422174 0.00061944
0.46197515 0.70541088 0.00076374
0.55793861 0.71180849 0.00000000
0.66184040 0.71202909 0.00014660
0.76952306 0.70267331 0.00555212
0.87694768 0.68577858 0.03158407
0.96957219 0.66605679 0.11296325
1.00000000 0.65879394 0.25605831
1.00000000 0.66004507 0.36717743
1.00000000 0.66529531 0.44866714
1.00000000 0.67232359 0.50771838
1.00000000 0.68087788 0.55199987
1.00000000 0.69197324 0.58845984
1.00000000 0.70771818 0.62308979
0.99996434 0.73082405 0.66126143
0.99892167 0.76429038 0.70795864
1.00000000 0.81113001 0.76742373
1.00000000 0.87332017 0.84170639
1.00000000 0.95003697 0.92765296
0.00005367 0.65702381 0.04852164
0.00005367 0.65702381 0.04852164
0.00005367 0.65702381 0.04852164
0.00001832 0.65709381 0.04839532
0.00000000 0.65957444 0.04343695
0.00000000 0.66264296 0.03724702
0.00000000 0.66637732 0.02931150
0.00000000 0.67090682 0.01959417
0.00489717 0.67667297 0.00931628
0.02907832 0.68358083 0.00286301
0.07501434 0.69168534 0.00069863
0.13261894 0.70192615 0.00000000
0.19386196 0.71450217 0.00000000
0.26146277 0.72908915 0.00000000
0.33656547 0.74493286 0.00152216
0.41903631 0.75812403 0.00233675
0.50944094 0.76738605 0.00274055
0.60830431 0.77168578 0.00366477
0.71487220 0.76952270 0.00870355
0.82338761 0.75734278 0.02726719
0.92648413 0.73872717 0.09019151
0.99780571 0.72293722 0.22318817
1.00000000 0.71697226 0.35642072
1.00000000 0.71658751 0.45596400
1.00000000 0.71936180 0.52741317
1.00000000 0.72459283 0.57942114
1.00000000 0.73300862 0.62034962
1.00000000 0.74633535 0.65747548
1.00000000 0.76718794 0.69692110
1.00000000 0.79863301 0.74410674
1.00000000 0.84365607 0.80354804
1.00000000 0.90444886 0.87770551
1.00000000 0.98042200 0.96366133
0.00053360 0.70283845 0.04172415
0.00053360 0.70283845 0.04172415
0.00053360 0.70283845 0.04172415
0.00050459 0.70290316 0.04161971
0.00000000 0.70520055 0.03752242
0.00000000 0.70805361 0.03240848
0.00000000 0.71154301 0.02582471
0.00000000 0.71581086 0.01767356
0.00337214 0.72131226 0.00888646
0.02151973 0.72815316 0.00264745
0.05871772 0.73624566 0.00058850
0.11160966 0.74639865 0.00000000
0.16745224 0.75922640 0.00000000
0.23012511 0.77417735 0.00014491
0.30011926 0.79096544 0.00165474
0.37664383 0.80566920 0.00345486
0.46109134 0.81723138 0.00487523
0.55385737 0.82476233 0.00661571
0.65511353 0.82689608 0.01141982
0.76344223 0.82226723 0.02578006
0.87103814 0.80737849 0.06762041
0.96638231 0.78760824 0.16564352
1.00000000 0.77453170 0.32533824
1.00000000 0.76809203 0.44913474
1.00000000 0.76602373 0.53788556
1.00000000 0.76742557 0.60088237
1.00000000 0.77267794 0.64820498
1.00000000 0.78331513 0.68872743
1.00000000 0.80167598 0.72985052
1.00000000 0.83081578 0.77769723
1.00000000 0.87383760 0.83712266
1.00000000 0.93292885 0.91061520
1.00000000 1.00000000 1.00000000
0.00116642 0.74414576 0.03333018
0.00116642 0.74414576 0.03333018
0.00116642 0.74414576 0.03333018
0.00114422 0.74420616 0.03324605
0.00000000 0.74635174 0.02995281
0.00000000 0.74902355 0.02585898
0.00000000 0.75229977 0.02060869
0.00000000 0.75632732 0.01410189
0.00399619 0.76156433 0.00709273
0.01893084 0.76817250 0.00223062
0.04844529 0.77630077 0.00028332
0.09349748 0.78640786 0.00000000
0.14508454 0.79912168 0.00000000
0.20154749 0.81452112 0.00020691
0.26526760 0.83202963 0.00199863
0.33640254 0.84782752 0.00445221
0.41417882 0.86130525 0.00675308
0.50054406 0.87134325 0.01024565
0.59524310 0.87700463 0.01538466
0.69813465 0.87679600 0.02763431
0.80700486 0.86963685 0.05877745
0.91117034 0.85230669 0.13370538
0.99045031 0.83297191 0.27083566
1.00000000 0.81991583 0.42304620
1.00000000 0.81254340 0.53574112
1.00000000 0.80966497 0.61469842
1.00000000 0.81136053 0.67135429
1.00000000 0.81888159 0.71681951
1.00000000 0.83450994 0.76030174
1.00000000 0.86108998 0.80899652
1.00000000 0.90179245 0.86831478
1.00000000 0.95886972 0.94066718
1.00000000 1.00000000 1.00000000
0.00244125 0.78064778 0.02397182
0.00244125 0.78064778 0.02397182
0.00244125 0.78064778 0.02397182
0.00242768 0.78070458 0.02390689
0.00165799 0.78272103 0.02137588
0.00125991 0.78523613 0.01826450
0.00134733 0.78832357 0.01432063
0.00267917 0.79212446 0.00954520
0.00744966 0.79709172 0.00461725
0.02101852 0.80343339 0.00170627
0.04430737 0.81155741 0.00006148
0.08107333 0.82159584 0.00000000
0.12641605 0.83432670 0.00000000
0.17730422 0.84988793 0.00048906
0.23477842 0.86777265 0.00329579
0.29904590 0.88460844 0.00638549
0.37115699 0.89934000 0.01066034
0.45054728 0.91146993 0.01660007
0.53841505 0.91983702 0.02508737
0.63429073 0.92332445 0.03829451
0.73753870 0.92066620 0.06384342
0.84515262 0.91109938 0.11692624
0.94331579 0.89167493 0.20922546
1.00000000 0.87231261 0.37165523
1.00000000 0.85901778 0.51657072
1.00000000 0.85147259 0.61864259
1.00000000 0.84929457 0.68908965
