Luts Download/Canon Luts/3dlut/33grid-3dlut/full-to-full-range/CinemaGamut_CanonLog2-to-BT2020_HLG-Vivid_33_FF_Ver.2.0.cube
# Gamut : Cinema Gamut to BT.2020
# Gamma : Canon Log 2 to HLG-Vivid
# Range : Full in / Full out
# Version : 2.0 2019/10/24
# Copyright(c) 2019 Canon Inc. All Rights Reserved.
LUT_3D_SIZE 33
# LUT_3D_INPUT_RANGE 0.0 1.0
0.00000004 0.00000000 0.00000003
0.00000004 0.00000000 0.00000003
0.00000004 0.00000000 0.00000003
0.00811000 0.00811000 0.00811000
0.05209623 0.01548140 0.01768768
0.08557946 0.01609932 0.02101982
0.11902315 0.01439646 0.02302567
0.15341760 0.01098213 0.02466622
0.19018942 0.00584480 0.02669106
0.23045248 0.00000000 0.02934971
0.27541578 0.00000000 0.03260339
0.32626524 0.00000000 0.03647773
0.38406313 0.00000000 0.04120726
0.45008846 0.00000000 0.04674750
0.52466410 0.00000000 0.05296815
0.59499258 0.00000000 0.05993685
0.65954983 0.00000000 0.06765649
0.72028218 0.00000000 0.07624725
0.77827660 0.00000000 0.08609485
0.83406419 0.01583522 0.09800412
0.88760121 0.04477617 0.11396591
0.93770537 0.09685825 0.13937684
0.97991354 0.20089801 0.18932154
0.99903451 0.41013364 0.30858378
1.00000000 0.60064945 0.46210394
1.00000000 0.71555570 0.61009820
1.00000000 0.79478142 0.71547451
1.00000000 0.85527805 0.79751440
1.00000000 0.90451479 0.86506111
1.00000000 0.94641940 0.92244150
1.00000000 0.98338042 0.97166493
1.00000000 1.00000000 1.00000000
1.00000000 1.00000000 1.00000000
0.00000004 0.00000000 0.00000003
0.00000004 0.00000000 0.00000003
0.00000004 0.00000000 0.00000003
0.00811000 0.00811000 0.00811000
0.05209623 0.01548140 0.01768768
0.08557946 0.01609932 0.02101982
0.11902315 0.01439646 0.02302567
0.15341760 0.01098213 0.02466622
0.19018942 0.00584480 0.02669106
0.23045248 0.00000000 0.02934971
0.27541578 0.00000000 0.03260339
0.32626524 0.00000000 0.03647773
0.38406313 0.00000000 0.04120726
0.45008846 0.00000000 0.04674750
0.52466410 0.00000000 0.05296815
0.59499258 0.00000000 0.05993685
0.65954983 0.00000000 0.06765649
0.72028218 0.00000000 0.07624725
0.77827660 0.00000000 0.08609485
0.83406419 0.01583522 0.09800412
0.88760121 0.04477617 0.11396591
0.93770537 0.09685825 0.13937684
0.97991354 0.20089801 0.18932154
0.99903451 0.41013364 0.30858378
1.00000000 0.60064945 0.46210394
1.00000000 0.71555570 0.61009820
1.00000000 0.79478142 0.71547451
1.00000000 0.85527805 0.79751440
1.00000000 0.90451479 0.86506111
1.00000000 0.94641940 0.92244150
1.00000000 0.98338042 0.97166493
1.00000000 1.00000000 1.00000000
1.00000000 1.00000000 1.00000000
0.00000004 0.00000000 0.00000003
0.02646151 0.03459994 0.00000000
0.04529230 0.04900146 0.01661731
0.00811000 0.00811000 0.00811000
0.05209623 0.01548140 0.01768768
0.08557946 0.01609932 0.02101982
0.11902315 0.01439646 0.02302567
0.15341760 0.01098213 0.02466622
0.19018942 0.00584480 0.02669106
0.23045248 0.00000000 0.02934971
0.27541578 0.00000000 0.03260339
0.32626524 0.00000000 0.03647773
0.38406313 0.00000000 0.04120726
0.45008846 0.00000000 0.04674750
0.52466410 0.00000000 0.05296815
0.59499258 0.00000000 0.05993685
0.65954983 0.00000000 0.06765649
0.72028218 0.00000000 0.07624725
0.77827660 0.00000000 0.08609485
0.83406419 0.01583522 0.09800412
0.88760121 0.04477617 0.11396591
0.93770537 0.09685825 0.13937684
0.97991354 0.20089801 0.18932154
0.99903451 0.41013364 0.30858378
1.00000000 0.60064945 0.46210394
1.00000000 0.71555570 0.61009820
1.00000000 0.79478142 0.71547451
1.00000000 0.85527805 0.79751440
1.00000000 0.90451479 0.86506111
1.00000000 0.94641940 0.92244150
1.00000000 0.98338042 0.97166493
1.00000000 1.00000000 1.00000000
1.00000000 1.00000000 1.00000000
0.00811000 0.00811000 0.00811000
0.00811000 0.00811000 0.00811000
0.00811000 0.00811000 0.00811000
0.00811000 0.00811000 0.00811000
0.05209623 0.01548140 0.01768768
0.08616773 0.01670638 0.02124536
0.11923385 0.01508225 0.02300784
0.15350359 0.01180247 0.02453935
0.19022962 0.00678281 0.02649362
0.23048537 0.00000000 0.02909999
0.27546440 0.00000000 0.03230794
0.32652514 0.00000000 0.03541865
0.38415241 0.00000000 0.04086637
0.45018931 0.00000000 0.04641370
0.52476899 0.00000000 0.05264379
0.59507940 0.00000000 0.05963174
0.65962195 0.00000000 0.06737617
0.72034308 0.00000000 0.07599576
0.77832869 0.00000000 0.08587354
0.83410945 0.01569870 0.09781332
0.88764002 0.04468855 0.11380573
0.93773784 0.09680966 0.13924854
0.97993874 0.20089035 0.18922975
0.99904705 0.41017905 0.30854589
1.00000000 0.60068638 0.46209585
1.00000000 0.71557973 0.61010528
1.00000000 0.79479825 0.71548527
1.00000000 0.85529025 0.79752523
1.00000000 0.90452383 0.86507084
1.00000000 0.94642618 0.92244973
1.00000000 0.98338554 0.97167146
1.00000000 1.00000000 1.00000000
1.00000000 1.00000000 1.00000000
0.02699401 0.04639224 0.02237747
0.02699401 0.04639224 0.02237747
0.02699401 0.04639224 0.02237747
0.02699401 0.04639224 0.02237747
0.05268010 0.05534285 0.02122263
0.08283359 0.05808764 0.01939696
0.11542283 0.05781294 0.01785927
0.15043818 0.05570744 0.01700772
0.18836447 0.05236092 0.01714607
0.22995589 0.04806918 0.01842381
0.27631060 0.04267564 0.02046970
0.33445026 0.01779521 0.00000000
0.38724055 0.02856962 0.02769248
0.45386203 0.02082498 0.03362527
0.52855961 0.01092323 0.04034852
0.59825640 0.00000000 0.04814583
0.66228907 0.00000000 0.05686527
0.72261211 0.00000000 0.06657078
0.78028217 0.00000000 0.07756340
0.83582198 0.00672091 0.09063328
0.88911461 0.04019631 0.10776652
0.93897161 0.09434042 0.13441094
0.98089410 0.20025542 0.18577389
0.99953392 0.41164895 0.30708106
1.00000000 0.60196200 0.46174786
1.00000000 0.71643118 0.61034357
1.00000000 0.79540226 0.71587184
1.00000000 0.85573060 0.79791990
1.00000000 0.90485063 0.86542694
1.00000000 0.94667116 0.92275091
1.00000000 0.98357006 0.97191044
1.00000000 1.00000000 1.00000000
1.00000000 1.00000000 1.00000000
0.03513574 0.07145731 0.02524096
0.03513574 0.07145731 0.02524096
0.03513574 0.07145731 0.02524096
0.03587665 0.07249249 0.02576594
0.05494141 0.08078476 0.02082230
0.08051436 0.08532720 0.01670982
0.11052125 0.08727739 0.01367538
0.14443541 0.08724847 0.01174376
0.18227986 0.08556989 0.01107371
0.22451046 0.08244088 0.01149040
0.27189540 0.07789752 0.01268420
0.32531206 0.07185007 0.01458553
0.38574350 0.06420084 0.01745936
0.45440754 0.05465889 0.02127830
0.53665861 0.01518928 0.00000000
0.60119835 0.02985782 0.03327320
0.66513786 0.01753671 0.04362919
0.72524031 0.00000000 0.05463298
0.78260144 0.00000000 0.06703033
0.83785284 0.00240682 0.08156023
0.89087621 0.03756929 0.10017895
0.94044417 0.09297132 0.12840517
0.98201912 0.20053703 0.18157871
1.00000000 0.41406619 0.30539270
1.00000000 0.60378335 0.46142519
1.00000000 0.71759588 0.61070302
1.00000000 0.79621358 0.71639387
1.00000000 0.85631797 0.79844205
1.00000000 0.90528584 0.86589517
1.00000000 0.94699791 0.92314669
1.00000000 0.98381701 0.97222549
1.00000000 1.00000000 1.00000000
1.00000000 1.00000000 1.00000000
0.04201425 0.09772227 0.02499397
0.04201425 0.09772227 0.02499397
0.04201425 0.09772227 0.02499397
0.04234166 0.09826215 0.02496867
0.05800579 0.10527613 0.01863355
0.08000064 0.11036454 0.01370944
0.10705623 0.11379010 0.01014285
0.13880592 0.11561171 0.00783129
0.17540537 0.11587410 0.00673156
0.21721453 0.11454352 0.00670845
0.26477526 0.11156911 0.00758095
0.31884448 0.10686619 0.00901347
0.38038217 0.10026562 0.01084494
0.45046103 0.09154668 0.01346004
0.52885249 0.08028497 0.01701558
0.60138021 0.06596427 0.02174128
0.67137267 0.00953623 0.00000000
0.72772111 0.03194356 0.03999041
0.78516822 0.01699352 0.05370970
0.84023935 0.01365138 0.06991635
0.89300131 0.03823800 0.09043601
0.94222491 0.09326579 0.12080461
0.98330997 0.20249061 0.17656540
1.00000000 0.41789620 0.30350094
1.00000000 0.60636290 0.46118617
1.00000000 0.71919050 0.61124784
1.00000000 0.79730869 0.71711189
1.00000000 0.85710661 0.79914647
1.00000000 0.90586923 0.86652285
1.00000000 0.94743607 0.92367641
1.00000000 0.98414854 0.97264729
1.00000000 1.00000000 1.00000000
1.00000000 1.00000000 1.00000000
0.04809674 0.12483652 0.02209721
0.04809674 0.12483652 0.02209721
0.04809674 0.12483652 0.02209721
0.04835277 0.12516170 0.02195447
0.06210254 0.13095035 0.01580762
0.08133525 0.13600521 0.01088009
0.10555875 0.14019991 0.00726205
0.13479447 0.14340429 0.00469346
0.16935321 0.14537744 0.00325216
0.20976068 0.14593786 0.00306314
0.25662155 0.14486686 0.00360705
0.31057958 0.14196681 0.00504060
0.37250910 0.13703676 0.00665876
0.44343221 0.12982956 0.00853227
0.52357757 0.11998292 0.01080534
0.59842753 0.10705555 0.01421628
0.66600963 0.09035954 0.01896042
0.72865533 0.06961142 0.02607369
0.78744388 0.04652657 0.03711461
0.84275175 0.03479163 0.05542997
0.89542775 0.04604916 0.07814285
0.94426832 0.09737787 0.11145433
0.98444282 0.20933563 0.17165209
1.00000000 0.42407490 0.30165627
1.00000000 0.61000850 0.46115989
1.00000000 0.72136991 0.61206943
1.00000000 0.79878575 0.71810249
1.00000000 0.85816605 0.80010152
1.00000000 0.90665177 0.86736815
1.00000000 0.94802408 0.92438896
1.00000000 0.98459376 0.97321444
1.00000000 1.00000000 1.00000000
1.00000000 1.00000000 1.00000000
0.05490782 0.15395217 0.01816777
0.05490782 0.15395217 0.01816777
0.05490782 0.15395217 0.01816777
0.05516738 0.15417189 0.01802385
0.06758384 0.15895655 0.01272621
0.08459314 0.16367673 0.00836105
0.10622825 0.16817116 0.00484221
0.13284306 0.17224475 0.00185399
0.16498957 0.17559397 0.00000000
0.20330891 0.17784806 0.00000000
0.24857342 0.17870906 0.00000000
0.30158800 0.17784436 0.00120101
0.36315318 0.17493360 0.00330022
0.43426193 0.16968370 0.00519536
0.51563889 0.16175661 0.00717855
0.59312337 0.15068969 0.00921947
0.66264178 0.13597074 0.01264575
0.72695393 0.11695070 0.01791752
0.78747215 0.09342270 0.02585679
0.84464529 0.06901829 0.03926248
0.89783612 0.06601636 0.06345624
0.94646251 0.10821120 0.10027510
0.98542616 0.22194496 0.16668276
1.00000000 0.43339326 0.29992105
1.00000000 0.61505812 0.46146143
1.00000000 0.72433025 0.61328571
1.00000000 0.80077415 0.71947119
1.00000000 0.85958770 0.80139894
1.00000000 0.90770077 0.86850911
1.00000000 0.94881267 0.92534924
1.00000000 0.98519127 0.97397804
1.00000000 1.00000000 1.00000000
1.00000000 1.00000000 1.00000000
0.06326215 0.18598192 0.01412909
0.06326215 0.18598192 0.01412909
0.06326215 0.18598192 0.01412909
0.06352659 0.18613934 0.01401783
0.07480635 0.19010248 0.00994026
0.08990582 0.19438447 0.00645884
0.10918502 0.19890170 0.00311532
0.13322633 0.20344238 0.00000000
0.16275383 0.20774050 0.00000000
0.19860421 0.21142625 0.00000000
0.24163246 0.21404156 0.00000000
0.29282793 0.21521324 0.00000000
0.35319635 0.21451839 0.00000000
0.42371496 0.21152763 0.00208197
0.50548196 0.20584653 0.00433967
0.58575016 0.19705015 0.00645516
0.65740843 0.18461634 0.00863763
0.72342487 0.16799643 0.01247248
0.78542205 0.14678842 0.01900578
0.84414737 0.12208824 0.02952459
0.89930554 0.10375078 0.04893019
0.94843546 0.13029444 0.08797300
0.98622000 0.24148948 0.16160659
1.00000000 0.44686873 0.29840767
1.00000000 0.62195125 0.46229801
1.00000000 0.72832668 0.61506856
1.00000000 0.80344267 0.72136368
1.00000000 0.86149213 0.80316541
1.00000000 0.90910608 0.87005498
1.00000000 0.94986917 0.92664575
1.00000000 0.98599221 0.97500677
1.00000000 1.00000000 1.00000000
1.00000000 1.00000000 1.00000000
0.07362355 0.22181655 0.01059875
0.07362355 0.22181655 0.01059875
0.07362355 0.22181655 0.01059875
0.07387946 0.22193544 0.01052341
0.08403917 0.22524301 0.00771649
0.09741188 0.22911248 0.00493607
0.11455047 0.23346526 0.00176609
0.13613773 0.23814291 0.00000000
0.16301179 0.24300250 0.00000000
0.19612964 0.24772308 0.00000000
0.23653870 0.25187887 0.00000000
0.28527543 0.25492438 0.00000000
0.34355738 0.25642832 0.00000000
0.41261179 0.25587938 0.00000000
0.49362052 0.25273595 0.00105266
0.57661692 0.24651062 0.00402395
0.65043899 0.23669962 0.00653825
0.71825839 0.22275802 0.00937792
0.78178152 0.20433549 0.01460048
0.84185294 0.18218392 0.02442430
0.89836640 0.16231179 0.04232047
0.94918915 0.17076476 0.07822871
0.98649796 0.27070851 0.15728952
1.00000000 0.46605804 0.29752268
1.00000000 0.63123874 0.46402993
1.00000000 0.73368883 0.61767759
1.00000000 0.80701122 0.72398801
1.00000000 0.86403857 0.80558075
1.00000000 0.91098553 0.87215555
1.00000000 0.95128259 0.92840083
1.00000000 0.98706417 0.97639397
1.00000000 1.00000000 1.00000000
1.00000000 1.00000000 1.00000000
0.08621248 0.26239987 0.00777217
0.08621248 0.26239987 0.00777217
0.08621248 0.26239987 0.00777217
0.08644963 0.26249355 0.00772761
0.09549472 0.26529059 0.00603270
0.10728163 0.26877987 0.00360548
0.12249015 0.27277758 0.00194293
0.14177938 0.27745031 0.00000000
0.16606636 0.28255139 0.00000000
0.19636370 0.28790819 0.00000000
0.23383267 0.29320625 0.00000000
0.27972454 0.29795378 0.00000000
0.33525702 0.30149862 0.00000000
0.40190989 0.30336286 0.00000000
0.48115381 0.30294095 0.00000000
0.56606981 0.29958229 0.00031721
0.64197233 0.29269792 0.00443510
0.71157616 0.28175410 0.00785238
0.77666907 0.26638238 0.01255813
0.83811656 0.24715966 0.02154691
0.89584876 0.22874355 0.03951437
0.94786935 0.23089468 0.07545560
0.98629109 0.31193259 0.15500597
1.00000000 0.49332844 0.29823771
1.00000000 0.64372335 0.46744761
1.00000000 0.74084295 0.62152883
1.00000000 0.81176653 0.72765481
1.00000000 0.86743769 0.80890995
1.00000000 0.91349544 0.87502808
1.00000000 0.95317140 0.93079158
1.00000000 0.98849754 0.97827728
1.00000000 1.00000000 1.00000000
1.00000000 1.00000000 1.00000000
0.10121235 0.30873675 0.00558348
0.10121235 0.30873675 0.00558348
0.10121235 0.30873675 0.00558348
0.10142569 0.30881288 0.00556204
0.10939435 0.31120221 0.00473804
0.11977414 0.31425564 0.00334875
0.13319929 0.31798606 0.00152912
0.15038873 0.32237914 0.00000000
0.17220051 0.32750575 0.00000000
0.19971619 0.33323079 0.00000000
0.23410882 0.33924403 0.00000000
0.27676878 0.34526593 0.00000000
0.32916732 0.35072901 0.00000000
0.39270898 0.35484980 0.00000000
0.46917575 0.35711051 0.00000000
0.55467192 0.35680515 0.00000000
0.63230567 0.35316923 0.00114208
0.70355816 0.34555290 0.00620313
0.77019469 0.33353525 0.01164964
0.83306562 0.31750433 0.02057385
0.89211463 0.30108066 0.03807364
0.94542887 0.29984657 0.07428684
0.98560103 0.36351042 0.15352462
1.00000000 0.52857762 0.30092717
1.00000000 0.66099200 0.47461846
1.00000000 0.75137126 0.62852816
1.00000000 0.81873780 0.73360749
1.00000000 0.87230168 0.81391766
1.00000000 0.91704037 0.87920771
1.00000000 0.95591362 0.93431076
1.00000000 0.99079717 0.98125109
1.00000000 1.00000000 1.00000000
1.00000000 1.00000000 1.00000000
0.11890205 0.36191469 0.00404314
0.11890205 0.36191469 0.00404314
0.11890205 0.36191469 0.00404314
0.11909094 0.36197782 0.00403979
0.12606453 0.36403123 0.00393107
0.13516082 0.36669639 0.00333046
0.14697234 0.37011096 0.00147588
0.16222708 0.37418425 0.00053911
0.18173618 0.37911999 0.00000000
0.20655250 0.38486859 0.00000000
0.23789402 0.39134740 0.00000000
0.27714507 0.39818622 0.00000000
0.32593339 0.40508529 0.00000000
0.38598418 0.41140055 0.00000000
0.45889974 0.41618205 0.00000000
0.54331368 0.41888266 0.00000000
0.62194362 0.41869428 0.00000000
0.69448157 0.41475627 0.00371676
0.76250154 0.40646799 0.01051190
0.82678096 0.39396655 0.02018211
0.88723519 0.37999886 0.03777254
0.94209026 0.37665568 0.07331052
0.98453587 0.42496470 0.15128930
1.00000000 0.56778137 0.30486712
1.00000000 0.68208189 0.48476400
1.00000000 0.76500741 0.63833405
1.00000000 0.82840975 0.74245842
1.00000000 0.87947002 0.82162577
1.00000000 0.92247207 0.88572820
1.00000000 0.96005962 0.93963179
1.00000000 0.99396420 0.98535336
1.00000000 1.00000000 1.00000000
1.00000000 1.00000000 1.00000000
0.13960059 0.42313911 0.00291717
0.13960059 0.42313911 0.00291717
0.13960059 0.42313911 0.00291717
0.13976599 0.42319214 0.00292582
0.14583746 0.42496192 0.00334577
0.15378586 0.42728277 0.00333352
0.16416679 0.43029749 0.00266819
0.17763469 0.43414259 0.00000000
0.19502714 0.43868436 0.00015908
0.21727693 0.44428510 0.00000000
0.24563984 0.45081424 0.00000000
0.28148537 0.45819639 0.00000000
0.32644692 0.46603788 0.00000000
0.38242317 0.47398239 0.00000000
0.45142276 0.48130317 0.00000000
0.53322028 0.48684349 0.00000000
0.61169426 0.49004436 0.00000000
0.68480713 0.49000712 0.00115734
0.75384725 0.48585276 0.00876275
0.81936773 0.47735933 0.01953439
0.88123673 0.46642462 0.03766731
0.93779884 0.46223401 0.07282272
0.98302413 0.49724463 0.14799844
1.00000000 0.60997415 0.30959467
1.00000000 0.70695411 0.49830123
1.00000000 0.78175729 0.65111791
1.00000000 0.84055793 0.75400196
1.00000000 0.88861513 0.83175146
1.00000000 0.92947370 0.89430683
1.00000000 0.96543986 0.94658883
1.00000000 0.99539204 0.98792046
1.00000000 1.00000000 1.00000000
1.00000000 1.00000000 1.00000000
0.16374090 0.49375776 0.00216191
0.16374090 0.49375776 0.00216191
0.16374090 0.49375776 0.00216191
0.16388484 0.49380263 0.00217817
0.16915096 0.49532834 0.00296160
0.17607151 0.49734359 0.00331478
0.18516466 0.49998654 0.00329492
0.19704815 0.50339955 0.00238140
0.21246552 0.50761589 0.00000000
0.23235230 0.51260947 0.00050254
0.25784316 0.51869542 0.00000000
0.29034072 0.52557014 0.00000000
0.33146146 0.53319102 0.00000000
0.38310415 0.54110911 0.00000000
0.44746197 0.54894033 0.00000000
0.52567672 0.55601234 0.00000000
0.60264951 0.56123903 0.00000000
0.67528509 0.56429122 0.00000000
0.74465967 0.56448614 0.00778915
0.81106160 0.56130323 0.01852511
0.87416867 0.55550284 0.03754940
0.93243557 0.55257705 0.07275321
0.98064229 0.57244583 0.14520027
1.00000000 0.65469623 0.31595208
1.00000000 0.73545692 0.51520154
1.00000000 0.80176627 0.66725072
1.00000000 0.85545188 0.76879511
1.00000000 0.90003737 0.84479690
1.00000000 0.93833789 0.90537872
1.00000000 0.97231174 0.95546035
1.00000000 1.00000000 1.00000000
1.00000000 1.00000000 1.00000000
1.00000000 1.00000000 1.00000000
0.19185818 0.56678210 0.00212645
0.19185818 0.56678210 0.00212645
0.19185818 0.56678210 0.00212645
0.19198307 0.56681271 0.00214660
0.19654179 0.56785070 0.00308612
0.20255283 0.56922336 0.00364762
0.21049032 0.57102656 0.00399634
0.22093054 0.57337551 0.00396534
0.23455352 0.57640222 0.00261829
0.25223643 0.58009437 0.00177194
0.27503190 0.58454476 0.00119779
0.30431657 0.59003643 0.00000000
0.34164414 0.59620632 0.00000000
0.38891605 0.60310380 0.00000000
0.44832516 0.61032632 0.00000000
0.52157788 0.61751701 0.00000000
0.59594193 0.62406668 0.00000000
0.66692021 0.62891365 0.00000000
0.73564632 0.63185790 0.00749037
0.80225995 0.63244651 0.01869839
0.86622284 0.63087615 0.03788957
0.92586105 0.63027295 0.07454007
0.97614744 0.64321292 0.14896146
0.99996446 0.70150269 0.32602455
1.00000000 0.76734034 0.53598288
1.00000000 0.82500570 0.68701451
1.00000000 0.87326064 0.78740242
1.00000000 0.91400017 0.86137207
1.00000000 0.94934326 0.91943623
1.00000000 0.98097819 0.96669744
1.00000000 1.00000000 1.00000000
1.00000000 1.00000000 1.00000000
1.00000000 1.00000000 1.00000000
0.22460156 0.63338367 0.00339287
0.22460156 0.63338367 0.00339287
0.22460156 0.63338367 0.00339287
0.22470963 0.63340441 0.00340908
0.22864597 0.63411890 0.00418682
0.23385150 0.63506891 0.00474752
0.24075397 0.63632570 0.00522215
0.24988232 0.63797802 0.00555932
0.26187727 0.64013302 0.00539815
0.27752742 0.64291408 0.00377850
0.29783561 0.64627406 0.00367986
0.32405176 0.65041289 0.00302390
0.35773071 0.65550927 0.00000000
0.40067089 0.66123415 0.00000000
0.45507473 0.66767483 0.00000000
0.52256517 0.67446088 0.00000000
0.59228507 0.68125586 0.00000000
0.66075711 0.68750098 0.00000000
0.72775785 0.69214947 0.00616480
0.79364992 0.69518953 0.02003623
0.85781550 0.69661509 0.04002961
0.91845014 0.69814916 0.07780619
0.97058408 0.70782080 0.15559925
0.99806795 0.74907831 0.33920864
1.00000000 0.80200957 0.56144892
1.00000000 0.85127644 0.71120817
1.00000000 0.89390122 0.81020401
1.00000000 0.93059664 0.88200028
1.00000000 0.96274021 0.93703790
1.00000000 0.99169719 0.98061758
1.00000000 1.00000000 1.00000000
1.00000000 1.00000000 1.00000000
1.00000000 1.00000000 1.00000000
0.26282851 0.69580559 0.00658809
0.26282851 0.69580559 0.00658809
0.26282851 0.69580559 0.00658809
0.26292177 0.69581998 0.00659892
0.26631442 0.69632065 0.00714000
0.27081175 0.69698911 0.00759213
0.27679518 0.69787795 0.00804546
0.28474009 0.69905429 0.00848264
0.29524066 0.70060197 0.00876006
0.30904251 0.70262232 0.00857035
0.32703503 0.70523328 0.00694957
0.35038678 0.70836566 0.00740250
0.38057432 0.71230455 0.00688318
0.41933457 0.71713315 0.00000000
0.46875888 0.72256087 0.00000000
0.52977860 0.72870025 0.00000000
0.59327046 0.73520611 0.00000000
0.65740531 0.74176242 0.00000000
0.72200355 0.74786310 0.00943356
0.78615495 0.75249315 0.02231784
0.84962581 0.75597758 0.04442176
0.91065027 0.75927817 0.08391781
0.96440393 0.76737536 0.16479630
0.99584832 0.79666996 0.35580538
1.00000000 0.83874852 0.59182928
1.00000000 0.88012293 0.74082871
1.00000000 0.91711873 0.83796982
1.00000000 0.94963686 0.90692293
1.00000000 0.97848960 0.95816029
1.00000000 1.00000000 1.00000000
1.00000000 1.00000000 1.00000000
1.00000000 1.00000000 1.00000000
1.00000000 1.00000000 1.00000000
0.30791543 0.75536968 0.01336753
0.30791543 0.75536968 0.01336753
0.30791543 0.75536968 0.01336753
0.30799567 0.75537980 0.01337472
0.31091307 0.75573406 0.01373863
0.31478780 0.75620867 0.01407658
0.31995341 0.75684218 0.01444133
0.32683478 0.75768469 0.01484642
0.33597346 0.75880018 0.01525508
0.34805680 0.76026860 0.01555783
0.36392824 0.76218747 0.01542611
0.38461611 0.76467086 0.01410693
0.41149538 0.76766744 0.01498624
0.44621772 0.77144302 0.01472361
0.49081654 0.77608102 0.01144049
0.54406496 0.78130561 0.01203567
0.60013539 0.78724524 0.01086135
0.65855855 0.79357972 0.01273846
0.71897851 0.80002177 0.01857855
0.78082510 0.80614602 0.03085870
0.84258224 0.81101606 0.05281884
0.90310666 0.81562605 0.09492686
0.95795146 0.82299167 0.17944613
0.99338227 0.84393690 0.37821527
1.00000000 0.87686298 0.62875996
1.00000000 0.91083041 0.77680438
1.00000000 0.94234220 0.87144961
1.00000000 0.97072088 0.93628087
1.00000000 0.99516266 0.98106684
1.00000000 1.00000000 1.00000000
1.00000000 1.00000000 1.00000000
1.00000000 1.00000000 1.00000000
1.00000000 1.00000000 1.00000000
0.36255096 0.81283184 0.02734603
0.36255096 0.81283184 0.02734603
0.36255096 0.81283184 0.02734603
0.36261961 0.81283900 0.02735114
0.36511591 0.81309076 0.02760640
0.36843518 0.81342909 0.02786147
0.37286955 0.81388203 0.02815873
0.37879272 0.81448655 0.02851938
0.38668803 0.81529065 0.02894841
0.39717402 0.81635575 0.02941466
0.41103482 0.81775887 0.02982160
0.42924210 0.81959440 0.02991803
0.45296611 0.82197417 0.02909723
0.48384748 0.82487825 0.03044685
0.52276203 0.82853092 0.03079765
0.56650856 0.83302408 0.02937555
0.61429583 0.83811629 0.03121796
0.66585359 0.84393127 0.03295039
0.72075023 0.85018534 0.03865497
0.77841326 0.85664533 0.05062898
0.83793376 0.86303911 0.07384259
0.89679100 0.86857233 0.11722900
0.95173698 0.87555961 0.20613549
0.99071949 0.89061033 0.41386828
1.00000000 0.91561508 0.67599251
1.00000000 0.94244579 0.82098390
1.00000000 0.96857367 0.91066707
1.00000000 0.99308222 0.96878869
1.00000000 1.00000000 1.00000000
1.00000000 1.00000000 1.00000000
1.00000000 1.00000000 1.00000000
1.00000000 1.00000000 1.00000000
1.00000000 1.00000000 1.00000000
0.43300872 0.86845421 0.05625268
0.43300872 0.86845421 0.05625268
0.43300872 0.86845421 0.05625268
0.43306695 0.86845928 0.05625730
0.43518378 0.86863793 0.05646926
0.43799987 0.86887880 0.05669929
0.44176692 0.86920207 0.05698181
0.44680860 0.86963472 0.05734193
0.45354666 0.87021225 0.05780018
0.46252840 0.87098074 0.05836833
0.47446131 0.87199914 0.05904466
0.49023808 0.87334186 0.05977156
0.51076024 0.87510057 0.06038296
0.53569041 0.87741530 0.06055056
0.56518782 0.88022952 0.06273113
0.59939749 0.88378531 0.06449822
0.63839342 0.88816866 0.06572293
0.68201826 0.89316767 0.07076867
0.73006954 0.89890610 0.07841365
0.78204001 0.90515129 0.09376343
0.83703717 0.91179129 0.12138944
0.89354097 0.91885526 0.17047347
0.94681082 0.92559509 0.26436034
0.98801803 0.93633060 0.48265571
1.00000000 0.95383626 0.74052099
1.00000000 0.97358807 0.87562374
1.00000000 0.99457465 0.95418800
