Luts Download/Canon Luts/3dlut/33grid-3dlut/full-to-full-range/CinemaGamut_CanonLog3-to-BT2020_HLG-Vivid_33_FF_Ver.2.0.cube
# Gamut : Cinema Gamut to BT.2020
# Gamma : Canon Log 3 to HLG-Vivid
# Range : Full in / Full out
# Version : 2.0 2019/10/24
# Copyright(c) 2019 Canon Inc. All Rights Reserved.
LUT_3D_SIZE 9
# LUT_3D_INPUT_RANGE 0.0 1.0
0.00000000 0.00000004 0.00000001
0.00000000 0.00000004 0.00000001
0.26623844 0.02360105 0.04599573
0.48743563 0.00000000 0.05908649
0.69249016 0.00000000 0.08224235
0.85280476 0.00000000 0.11571957
0.98579330 0.16526024 0.20058950
1.00000000 0.69590104 0.60579690
1.00000000 0.87668617 0.82817497
0.10635466 0.13396562 0.08140393
0.08065017 0.08844606 0.00000000
0.26623844 0.02360105 0.04599573
0.48743563 0.00000000 0.05908649
0.69249016 0.00000000 0.08224235
0.85280476 0.00000000 0.11571957
0.98579330 0.16526024 0.20058950
1.00000000 0.69590104 0.60579690
1.00000000 0.87668617 0.82817497
0.08639935 0.21792749 0.04398859
0.08639935 0.21792749 0.04398859
0.23597506 0.25097157 0.01110374
0.45733820 0.25294459 0.00513990
0.68848624 0.22769341 0.01338733
0.86143717 0.16939301 0.03087680
0.99105593 0.25053433 0.16903137
1.00000000 0.71727685 0.61468956
1.00000000 0.88672518 0.83865928
0.13007754 0.39389592 0.01911957
0.13007754 0.39389592 0.01911957
0.23825974 0.42217448 0.00000000
0.41986598 0.44697601 0.00000000
0.65720089 0.45431583 0.00000000
0.84505885 0.42904020 0.01323371
0.98909687 0.44463764 0.15261998
1.00000000 0.76171483 0.64220602
1.00000000 0.90647743 0.86054970
0.20323242 0.60266859 0.00485725
0.20323242 0.60266859 0.00485725
0.28000355 0.61724611 0.00000000
0.41931001 0.63708918 0.00000000
0.63000772 0.65675130 0.00000000
0.81972996 0.66459966 0.01023695
0.97975585 0.66869757 0.13853990
1.00000000 0.82976252 0.69320231
1.00000000 0.94158130 0.90319871
0.31407448 0.77377819 0.00575148
0.31407448 0.77377819 0.00575148
0.36723948 0.77985314 0.00743118
0.47019768 0.79048311 0.00640833
0.62961163 0.80618967 0.00060810
0.79838218 0.82305821 0.01377386
0.96220332 0.83541032 0.14077364
1.00000000 0.91470101 0.77898285
1.00000000 0.99321420 0.97674754
0.49729360 0.92439513 0.06966960
0.49729360 0.92439513 0.06966960
0.53143659 0.92692124 0.07302811
0.59137757 0.93191970 0.08101535
0.68332896 0.94099723 0.10074656
0.80531859 0.95508167 0.14024680
0.94769045 0.97276301 0.32495704
1.00000000 0.99920840 0.94248727
1.00000000 1.00000000 1.00000000
0.90344401 1.00000000 0.79936267
0.90344401 1.00000000 0.79936267
0.90834551 1.00000000 0.80672787
0.91870085 1.00000000 0.82312891
0.93997689 1.00000000 0.85924413
0.97413199 1.00000000 0.92169051
1.00000000 1.00000000 1.00000000
1.00000000 1.00000000 1.00000000
1.00000000 1.00000000 1.00000000
1.00000000 1.00000000 1.00000000
1.00000000 1.00000000 1.00000000
1.00000000 1.00000000 1.00000000
1.00000000 1.00000000 1.00000000
1.00000000 1.00000000 1.00000000
1.00000000 1.00000000 1.00000000
1.00000000 1.00000000 1.00000000
1.00000000 1.00000000 1.00000000
1.00000000 1.00000000 1.00000000
0.00000000 0.00000004 0.00000001
0.00000000 0.00000004 0.00000001
0.26623844 0.02360105 0.04599573
0.48743563 0.00000000 0.05908649
0.69249016 0.00000000 0.08224235
0.85280476 0.00000000 0.11571957
0.98579330 0.16526024 0.20058950
1.00000000 0.69590104 0.60579690
1.00000000 0.87668617 0.82817497
0.00000000 0.00000004 0.00000001
0.00000000 0.00000004 0.00000001
0.26623844 0.02360105 0.04599573
0.48743563 0.00000000 0.05908649
0.69249016 0.00000000 0.08224235
0.85280476 0.00000000 0.11571957
0.98579330 0.16526024 0.20058950
1.00000000 0.69590104 0.60579690
1.00000000 0.87668617 0.82817497
0.08639935 0.21792749 0.04398859
0.08639935 0.21792749 0.04398859
0.23597506 0.25097157 0.01110374
0.45733820 0.25294459 0.00513990
0.68848624 0.22769341 0.01338733
0.86143717 0.16939301 0.03087680
0.99105593 0.25053433 0.16903137
1.00000000 0.71727685 0.61468956
1.00000000 0.88672518 0.83865928
0.13007754 0.39389592 0.01911957
0.13007754 0.39389592 0.01911957
0.23825974 0.42217448 0.00000000
0.41986598 0.44697601 0.00000000
0.65720089 0.45431583 0.00000000
0.84505885 0.42904020 0.01323371
0.98909687 0.44463764 0.15261998
1.00000000 0.76171483 0.64220602
1.00000000 0.90647743 0.86054970
0.20323242 0.60266859 0.00485725
0.20323242 0.60266859 0.00485725
0.28000355 0.61724611 0.00000000
0.41931001 0.63708918 0.00000000
0.63000772 0.65675130 0.00000000
0.81972996 0.66459966 0.01023695
0.97975585 0.66869757 0.13853990
1.00000000 0.82976252 0.69320231
1.00000000 0.94158130 0.90319871
0.31407448 0.77377819 0.00575148
0.31407448 0.77377819 0.00575148
0.36723948 0.77985314 0.00743118
0.47019768 0.79048311 0.00640833
0.62961163 0.80618967 0.00060810
0.79838218 0.82305821 0.01377386
0.96220332 0.83541032 0.14077364
1.00000000 0.91470101 0.77898285
1.00000000 0.99321420 0.97674754
0.49729360 0.92439513 0.06966960
0.49729360 0.92439513 0.06966960
0.53143659 0.92692124 0.07302811
0.59137757 0.93191970 0.08101535
0.68332896 0.94099723 0.10074656
0.80531859 0.95508167 0.14024680
0.94769045 0.97276301 0.32495704
1.00000000 0.99920840 0.94248727
1.00000000 1.00000000 1.00000000
0.90344401 1.00000000 0.79936267
0.90344401 1.00000000 0.79936267
0.90834551 1.00000000 0.80672787
0.91870085 1.00000000 0.82312891
0.93997689 1.00000000 0.85924413
0.97413199 1.00000000 0.92169051
1.00000000 1.00000000 1.00000000
1.00000000 1.00000000 1.00000000
1.00000000 1.00000000 1.00000000
1.00000000 1.00000000 1.00000000
1.00000000 1.00000000 1.00000000
1.00000000 1.00000000 1.00000000
1.00000000 1.00000000 1.00000000
1.00000000 1.00000000 1.00000000
1.00000000 1.00000000 1.00000000
1.00000000 1.00000000 1.00000000
1.00000000 1.00000000 1.00000000
1.00000000 1.00000000 1.00000000
0.05648226 0.01212526 0.23365942
0.05648226 0.01212526 0.23365942
0.23334937 0.00000000 0.25157587
0.45379211 0.00000000 0.26997031
0.67733007 0.00000000 0.27891029
0.84527978 0.00000000 0.28232801
0.98170694 0.15667071 0.31341783
1.00000000 0.68561799 0.62189216
1.00000000 0.87016207 0.82302458
0.05648226 0.01212526 0.23365942
0.05648226 0.01212526 0.23365942
0.23334937 0.00000000 0.25157587
0.45379211 0.00000000 0.26997031
0.67733007 0.00000000 0.27891029
0.84527978 0.00000000 0.28232801
0.98170694 0.15667071 0.31341783
1.00000000 0.68561799 0.62189216
1.00000000 0.87016207 0.82302458
0.03699036 0.24626183 0.24017916
0.03699036 0.24626183 0.24017916
0.24181371 0.24181371 0.24181371
0.48477629 0.21330921 0.22790489
0.70506739 0.16154795 0.20840147
0.86109486 0.13239968 0.21413201
0.98706321 0.24189706 0.27586329
1.00000000 0.70647492 0.62327408
1.00000000 0.87894431 0.83146369
0.06163568 0.48461994 0.16860467
0.06163568 0.48461994 0.16860467
0.20933454 0.48651054 0.13316489
0.44517651 0.46989081 0.12811490
0.68552231 0.43688143 0.12337378
0.86302338 0.37728729 0.10815453
0.99185247 0.41078929 0.20510989
1.00000000 0.75037572 0.64053355
1.00000000 0.89983384 0.85380031
0.12907453 0.66342264 0.03977508
0.12907453 0.66342264 0.03977508
0.23900884 0.67076522 0.00000000
0.41891138 0.67614225 0.00000000
0.64929080 0.67564976 0.00000000
0.83619814 0.66277127 0.00000000
0.98663322 0.65769139 0.15846824
1.00000000 0.82488383 0.69541292
1.00000000 0.93704108 0.89802387
0.27587056 0.79829696 0.00945170
0.27587056 0.79829696 0.00945170
0.33978048 0.80289665 0.00591031
0.45824301 0.81051827 0.00000000
0.63311994 0.82105316 0.00000000
0.80614234 0.83076805 0.01352127
0.96769474 0.83656623 0.15636396
1.00000000 0.91418175 0.78453561
1.00000000 0.99123259 0.97407680
0.48422928 0.93466353 0.08222426
0.48422928 0.93466353 0.08222426
0.52272394 0.93677800 0.08766963
0.58775378 0.94103327 0.09675517
0.68390029 0.94890305 0.11440811
0.80836776 0.96097287 0.15297645
0.95081336 0.97591132 0.35598043
1.00000000 1.00000000 0.94815989
1.00000000 1.00000000 1.00000000
0.91209477 1.00000000 0.81991923
0.91209477 1.00000000 0.81991923
0.91684567 1.00000000 0.82720460
0.92634040 1.00000000 0.84205626
0.94587054 1.00000000 0.87428995
0.97821488 1.00000000 0.93239526
1.00000000 1.00000000 1.00000000
1.00000000 1.00000000 1.00000000
1.00000000 1.00000000 1.00000000
1.00000000 1.00000000 1.00000000
1.00000000 1.00000000 1.00000000
1.00000000 1.00000000 1.00000000
1.00000000 1.00000000 1.00000000
1.00000000 1.00000000 1.00000000
1.00000000 1.00000000 1.00000000
1.00000000 1.00000000 1.00000000
1.00000000 1.00000000 1.00000000
1.00000000 1.00000000 1.00000000
0.09559350 0.01319677 0.42977721
0.09559350 0.01319677 0.42977721
0.20908784 0.00000000 0.38290192
0.41840602 0.00000000 0.43799732
0.65579268 0.00000000 0.47620386
0.83270941 0.00000000 0.49296206
0.97582878 0.14460186 0.50786823
1.00000000 0.68080615 0.68632272
1.00000000 0.87093983 0.84011977
0.09559350 0.01319677 0.42977721
0.09559350 0.01319677 0.42977721
0.20908784 0.00000000 0.38290192
0.41840602 0.00000000 0.43799732
0.65579268 0.00000000 0.47620386
0.83270941 0.00000000 0.49296206
0.97582878 0.14460186 0.50786823
1.00000000 0.68080615 0.68632272
1.00000000 0.87093983 0.84011977
0.00000000 0.18759400 0.44528508
0.00000000 0.18759400 0.44528508
0.21028755 0.15121211 0.54373870
0.47068986 0.11745548 0.51289962
0.68604804 0.11422821 0.47002183
0.85034089 0.10276895 0.45604942
0.98328820 0.21281142 0.47723359
1.00000000 0.70319960 0.68997991
1.00000000 0.87864658 0.84567474
0.06888950 0.43815360 0.42681372
0.06888950 0.43815360 0.42681372
0.17710705 0.44724895 0.43879071
0.42987279 0.42987279 0.42987279
0.68259423 0.39383933 0.41189594
0.86380826 0.32667023 0.38380973
0.98701945 0.39270543 0.43660010
1.00000000 0.74376353 0.69748821
1.00000000 0.89386932 0.85736552
0.09979030 0.68400490 0.33917923
0.09979030 0.68400490 0.33917923
0.17352797 0.68830181 0.30969130
0.38513120 0.68522994 0.29464196
0.65252576 0.67246636 0.28722476
0.84804720 0.64401696 0.27185650
0.98643990 0.64393109 0.35870083
1.00000000 0.81380012 0.72000424
1.00000000 0.92768284 0.88989678
0.11577054 0.84686106 0.08859579
0.11577054 0.84686106 0.08859579
0.20563856 0.85046841 0.04297582
0.38359392 0.85334136 0.00000000
0.62744651 0.85292676 0.00000000
0.82168682 0.84612672 0.00000000
0.98020005 0.83682814 0.17991052
1.00000000 0.91185268 0.79260241
1.00000000 0.98639005 0.96778872
0.44456248 0.95575441 0.11813760
0.44456248 0.95575441 0.11813760
0.49080460 0.95738474 0.12072535
0.57211458 0.96038547 0.12786230
0.68284409 0.96552521 0.14643359
0.81630075 0.97281997 0.20379539
0.95733093 0.98241615 0.41423739
1.00000000 1.00000000 0.95763782
1.00000000 1.00000000 1.00000000
0.92930708 1.00000000 0.85912519
0.92930708 1.00000000 0.85912519
0.93333665 1.00000000 0.86505547
0.94122094 1.00000000 0.87679043
0.95720999 1.00000000 0.90178814
0.98556855 1.00000000 0.95190884
1.00000000 1.00000000 1.00000000
1.00000000 1.00000000 1.00000000
1.00000000 1.00000000 1.00000000
1.00000000 1.00000000 1.00000000
1.00000000 1.00000000 1.00000000
1.00000000 1.00000000 1.00000000
1.00000000 1.00000000 1.00000000
1.00000000 1.00000000 1.00000000
1.00000000 1.00000000 1.00000000
1.00000000 1.00000000 1.00000000
1.00000000 1.00000000 1.00000000
1.00000000 1.00000000 1.00000000
0.14231300 0.00876891 0.64406596
0.14231300 0.00876891 0.64406596
0.20888071 0.00000000 0.56762889
0.38762643 0.00000000 0.58528986
0.63233396 0.00000000 0.64167723
0.81602417 0.00371043 0.67469382
0.96560197 0.12728152 0.68859464
1.00000000 0.66881428 0.75758969
1.00000000 0.87242802 0.86790970
0.14231300 0.00876891 0.64406596
0.14231300 0.00876891 0.64406596
0.20888071 0.00000000 0.56762889
0.38762643 0.00000000 0.58528986
0.63233396 0.00000000 0.64167723
0.81602417 0.00371043 0.67469382
0.96560197 0.12728152 0.68859464
1.00000000 0.66881428 0.75758969
1.00000000 0.87242802 0.86790970
0.03670060 0.12924721 0.69156299
0.03670060 0.12924721 0.69156299
0.15076506 0.00000000 0.68426274
0.38751706 0.00000000 0.65456188
0.64935367 0.00000000 0.66825938
0.83033983 0.03216100 0.67635704
0.97360049 0.16389506 0.67958311
1.00000000 0.68890855 0.75894482
1.00000000 0.88108360 0.87383220
0.00000000 0.36219490 0.63201640
0.00000000 0.36219490 0.63201640
0.11250113 0.35064485 0.70598502
0.39238765 0.32571805 0.72105470
0.67180847 0.28607207 0.70304803
0.86006898 0.20912521 0.67591859
0.98403844 0.32247263 0.66537110
1.00000000 0.73339514 0.76798982
1.00000000 0.89843552 0.88649334
0.09752653 0.64797164 0.63652159
0.09752653 0.64797164 0.63652159
0.14824557 0.65420659 0.64417052
0.34646485 0.65422364 0.64719076
0.63952564 0.63952564 0.63952564
0.84418866 0.60649349 0.62339288
0.98510734 0.60813130 0.63584173
1.00000000 0.80539637 0.78813595
1.00000000 0.93025760 0.91273976
0.12438502 0.84591074 0.54267735
0.12438502 0.84591074 0.54267735
0.17907583 0.84819977 0.52815454
0.29573494 0.85172950 0.49518151
0.59666152 0.84694065 0.49045824
0.81828954 0.83569131 0.47943883
0.98059199 0.82367612 0.55189203
1.00000000 0.90549145 0.84025552
1.00000000 0.98430441 0.97118866
0.43483649 0.99239535 0.32272046
0.43483649 0.99239535 0.32272046
0.48374165 0.99343696 0.31748773
0.57329002 0.99529070 0.30785372
0.69429307 0.99608834 0.30815642
0.83023238 0.99480162 0.34747889
0.96992225 0.99451229 0.51548768
1.00000000 1.00000000 1.00000000
1.00000000 1.00000000 1.00000000
0.95988576 1.00000000 0.92271865
0.95988576 1.00000000 0.92271865
0.96268326 1.00000000 0.92652955
0.96827966 1.00000000 0.93424219
0.97911952 1.00000000 0.95008497
1.00000000 1.00000000 1.00000000
1.00000000 1.00000000 1.00000000
1.00000000 1.00000000 1.00000000
1.00000000 1.00000000 1.00000000
1.00000000 1.00000000 1.00000000
1.00000000 1.00000000 1.00000000
1.00000000 1.00000000 1.00000000
1.00000000 1.00000000 1.00000000
1.00000000 1.00000000 1.00000000
1.00000000 1.00000000 1.00000000
1.00000000 1.00000000 1.00000000
1.00000000 1.00000000 1.00000000
1.00000000 1.00000000 1.00000000
0.20440309 0.00793659 0.80969148
0.20440309 0.00793659 0.80969148
0.25443492 0.02481968 0.77043684
0.34592137 0.00000000 0.71211269
0.60001303 0.00000000 0.75051211
0.79642050 0.00249248 0.79791985
0.95051070 0.10040380 0.82222283
1.00000000 0.64491832 0.82884749
1.00000000 0.86730929 0.89528259
0.20440309 0.00793659 0.80969148
0.20440309 0.00793659 0.80969148
0.25443492 0.02481968 0.77043684
0.34592137 0.00000000 0.71211269
0.60001303 0.00000000 0.75051211
0.79642050 0.00249248 0.79791985
0.95051070 0.10040380 0.82222283
1.00000000 0.64491832 0.82884749
1.00000000 0.86730929 0.89528259
0.14540543 0.03529713 0.85569038
0.14540543 0.03529713 0.85569038
0.21074633 0.01127114 0.82250360
0.31688821 0.00000000 0.74918287
0.59004651 0.00000000 0.75986366
0.80116286 0.00000000 0.80356159
0.95588371 0.09034545 0.82218196
1.00000000 0.65348814 0.82716719
1.00000000 0.87182857 0.89660665
0.00000000 0.29910026 0.81539979
0.00000000 0.29910026 0.81539979
0.03531362 0.20506989 0.86404148
0.27655978 0.07015665 0.86841568
0.61190777 0.10017028 0.84689231
0.82033591 0.10146430 0.84044278
0.97049218 0.20352159 0.83006929
1.00000000 0.70298581 0.83433549
1.00000000 0.89164676 0.90847195
0.00000000 0.57557811 0.79027284
0.00000000 0.57557811 0.79027284
0.06138765 0.57438002 0.82243366
0.24321452 0.55732833 0.88418147
0.60569386 0.53507782 0.87699515
0.83465629 0.48278109 0.86219394
0.98206057 0.51150272 0.83016255
1.00000000 0.78572356 0.85205760
1.00000000 0.92900452 0.93383667
0.12593471 0.81454824 0.80394049
0.12593471 0.81454824 0.80394049
0.16515989 0.81727988 0.80728992
0.26226298 0.82175977 0.81302578
0.55591840 0.81975071 0.81367509
0.80706646 0.80706646 0.80706646
0.97861332 0.79330027 0.80363077
1.00000000 0.89533953 0.89266165
1.00000000 0.98814872 0.98500011
0.47607667 0.98287034 0.75622799
0.47607667 0.98287034 0.75622799
0.50488138 0.98375094 0.75414813
0.56965755 0.98479223 0.75159709
0.67948853 0.98529044 0.75026339
0.81799195 0.98469907 0.75123371
0.96901810 0.98546357 0.67737708
1.00000000 1.00000000 1.00000000
1.00000000 1.00000000 1.00000000
1.00000000 1.00000000 1.00000000
1.00000000 1.00000000 1.00000000
1.00000000 1.00000000 1.00000000
1.00000000 1.00000000 1.00000000
1.00000000 1.00000000 1.00000000
1.00000000 1.00000000 1.00000000
1.00000000 1.00000000 1.00000000
1.00000000 1.00000000 1.00000000
1.00000000 1.00000000 1.00000000
1.00000000 1.00000000 1.00000000
1.00000000 1.00000000 1.00000000
1.00000000 1.00000000 1.00000000
1.00000000 1.00000000 1.00000000
1.00000000 1.00000000 1.00000000
1.00000000 1.00000000 1.00000000
1.00000000 1.00000000 1.00000000
1.00000000 1.00000000 1.00000000
1.00000000 1.00000000 1.00000000
0.29179581 0.05279504 0.95264837
0.29179581 0.05279504 0.95264837
0.32529135 0.05677219 0.93493668
0.39046105 0.05134632 0.89666402
0.53941763 0.00000000 0.84900253
0.76289019 0.00000000 0.88676671
0.93033790 0.07706752 0.92610599
1.00000000 0.60444672 0.90169357
1.00000000 0.85088702 0.92036788
0.29179581 0.05279504 0.95264837
0.29179581 0.05279504 0.95264837
0.32529135 0.05677219 0.93493668
0.39046105 0.05134632 0.89666402
0.53941763 0.00000000 0.84900253
0.76289019 0.00000000 0.88676671
0.93033790 0.07706752 0.92610599
1.00000000 0.60444672 0.90169357
1.00000000 0.85088702 0.92036788
0.25762602 0.06580670 0.97287933
0.25762602 0.06580670 0.97287933
0.29592982 0.05957553 0.95732520
0.36811280 0.05275121 0.91945750
0.50677079 0.00000000 0.85433293
0.75912193 0.00000000 0.88855809
0.93162782 0.07717503 0.92736083
1.00000000 0.61079723 0.90096812
1.00000000 0.85300904 0.92040328
0.16759217 0.20615291 0.98646384
0.16759217 0.20615291 0.98646384
0.21429762 0.15477083 0.98644948
0.30455631 0.08038326 0.96540767
0.46213353 0.00000000 0.89663555
0.75236507 0.00000000 0.90406658
0.93794429 0.00000000 0.93535767
1.00000000 0.62757974 0.90021129
1.00000000 0.86275890 0.92297522
0.00000000 0.51176279 0.92820317
0.00000000 0.51176279 0.92820317
0.00000000 0.47613142 0.94455516
0.07963280 0.36694059 0.98448509
0.46567080 0.29815324 0.98390378
0.77680056 0.28087496 0.98241048
0.95705838 0.31793197 0.97156136
1.00000000 0.73488818 0.91264520
1.00000000 0.90648459 0.94336324
0.00000000 0.75081241 0.93354379
0.00000000 0.75081241 0.93354379
0.06549442 0.75158231 0.94663863
0.19038807 0.75118498 0.97384902
0.50926700 0.74726614 0.98399407
0.77660706 0.73890052 0.98635723
0.95942070 0.73453722 0.97603145
1.00000000 0.86868238 0.93828471
1.00000000 0.97803105 0.98628016
0.42413059 0.95685841 0.94678977
0.42413059 0.95685841 0.94678977
0.45242696 0.95777513 0.94799430
0.51741547 0.95935850 0.95019232
0.62964325 0.96171695 0.95383800
0.73706870 0.97039065 0.96467112
0.95845399 0.95845399 0.95845399
1.00000000 1.00000000 1.00000000
1.00000000 1.00000000 1.00000000
1.00000000 1.00000000 1.00000000
1.00000000 1.00000000 1.00000000
1.00000000 1.00000000 1.00000000
1.00000000 1.00000000 1.00000000
1.00000000 1.00000000 1.00000000
1.00000000 1.00000000 1.00000000
1.00000000 1.00000000 1.00000000
1.00000000 1.00000000 1.00000000
1.00000000 1.00000000 1.00000000
1.00000000 1.00000000 1.00000000
1.00000000 1.00000000 1.00000000
1.00000000 1.00000000 1.00000000
1.00000000 1.00000000 1.00000000
1.00000000 1.00000000 1.00000000
1.00000000 1.00000000 1.00000000
1.00000000 1.00000000 1.00000000
1.00000000 1.00000000 1.00000000
1.00000000 1.00000000 1.00000000
0.41544258 0.37338523 1.00000000
0.41544258 0.37338523 1.00000000
0.43365317 0.35634417 0.99984519
0.47369502 0.31848874 0.99686344
0.55382416 0.22643236 0.98552615
0.70075578 0.00000000 0.96453319
0.88823982 0.14274084 0.99308922
0.99594102 0.56127874 0.97600086
1.00000000 0.82477216 0.94961236
0.41544258 0.37338523 1.00000000
0.41544258 0.37338523 1.00000000
0.43365317 0.35634417 0.99984519
0.47369502 0.31848874 0.99686344
0.55382416 0.22643236 0.98552615
0.70075578 0.00000000 0.96453319
0.88823982 0.14274084 0.99308922
0.99594102 0.56127874 0.97600086
1.00000000 0.82477216 0.94961236
0.39984789 0.39724204 1.00000000
0.39984789 0.39724204 1.00000000
0.41834889 0.38040479 1.00000000
0.45820013 0.34230921 0.99835734
0.54239541 0.25106289 0.98898143
0.68994237 0.00000000 0.96581949
0.88653294 0.14392137 0.99330974
0.99587853 0.56401955 0.97584920
1.00000000 0.82596485 0.94953776
0.37062569 0.45468878 1.00000000
0.37062569 0.45468878 1.00000000
0.38604321 0.43505616 1.00000000
0.42462486 0.39547009 0.99983178
0.51368731 0.30550633 0.99427705
0.66146527 0.00000000 0.96790382
0.88280846 0.14175597 0.99436487
0.99577679 0.56964832 0.97556437
1.00000000 0.82867259 0.94929298
0.31465866 0.56730750 0.99932570
0.31465866 0.56730750 0.99932570
0.32770823 0.55321780 0.99980855
0.36039569 0.51924263 1.00000000
0.43814882 0.42571206 0.99853597
0.61989381 0.12625429 0.99405158
0.87455684 0.19709834 0.99966842
0.99445279 0.61034029 0.97519974
1.00000000 0.84811721 0.95173848
0.25529322 0.71442264 0.99700453
0.25529322 0.71442264 0.99700453
0.26038079 0.70813289 0.99798749
0.27276737 0.69295085 0.99974350
0.32045168 0.65270691 0.99968227
0.65909964 0.64259969 1.00000000
0.87579442 0.69103164 1.00000000
0.99215428 0.80434525 0.98365873
1.00000000 0.93637755 0.97972527
0.58079515 0.88856605 0.99771494
0.58079515 0.88856605 0.99771494
0.60513961 0.88911511 0.99802480
0.64939803 0.89032981 0.99854598
0.72100601 0.89315622 0.99920850
0.81809418 0.90013601 0.99951333
0.92573126 0.92099335 0.99897205
1.00000000 0.97667955 1.00000000
1.00000000 1.00000000 1.00000000
1.00000000 1.00000000 1.00000000
1.00000000 1.00000000 1.00000000
1.00000000 1.00000000 1.00000000
1.00000000 1.00000000 1.00000000
1.00000000 1.00000000 1.00000000
1.00000000 1.00000000 1.00000000
1.00000000 1.00000000 1.00000000
1.00000000 1.00000000 1.00000000
1.00000000 1.00000000 1.00000000
1.00000000 1.00000000 1.00000000
1.00000000 1.00000000 1.00000000
1.00000000 1.00000000 1.00000000
1.00000000 1.00000000 1.00000000
1.00000000 1.00000000 1.00000000
1.00000000 1.00000000 1.00000000
1.00000000 1.00000000 1.00000000
1.00000000 1.00000000 1.00000000
1.00000000 1.00000000 1.00000000
0.59256330 0.65086206 1.00000000
0.59256330 0.65086206 1.00000000
0.59774172 0.64625228 1.00000000
0.60875785 0.63577514 1.00000000
0.63341637 0.61070754 1.00000000
0.68316388 0.53196474 1.00000000
0.80376822 0.36317764 1.00000000
0.94483511 0.59178048 1.00000000
1.00000000 0.80026916 0.98927383
0.59256330 0.65086206 1.00000000
0.59256330 0.65086206 1.00000000
0.59774172 0.64625228 1.00000000
0.60875785 0.63577514 1.00000000
0.63341637 0.61070754 1.00000000
0.68316388 0.53196474 1.00000000
0.80376822 0.36317764 1.00000000
0.94483511 0.59178048 1.00000000
1.00000000 0.80026916 0.98927383
0.59037945 0.65860562 1.00000000
0.59037945 0.65860562 1.00000000
0.59415570 0.65278278 1.00000000
0.60517514 0.64258470 1.00000000
0.62966887 0.61820770 1.00000000
0.67983837 0.54327705 1.00000000
0.79947215 0.36179547 1.00000000
0.94411391 0.59173041 1.00000000
1.00000000 0.80064901 0.98923268
0.58592178 0.67460530 1.00000000
0.58592178 0.67460530 1.00000000
0.58960110 0.66918799 1.00000000
0.59755947 0.65685118 1.00000000
0.62143179 0.63359340 1.00000000
0.67252858 0.56596723 1.00000000
0.78944628 0.35864120 1.00000000
0.94250716 0.59155387 1.00000000
1.00000000 0.80147837 0.98913039
0.57965878 0.70677651 1.00000000
0.57965878 0.70677651 1.00000000
0.58227312 0.70199794 1.00000000
0.58832204 0.69113068 1.00000000
0.60482936 0.66536550 1.00000000
0.65578037 0.60860517 1.00000000
0.76289858 0.35197155 1.00000000
0.93834096 0.59207420 1.00000000
1.00000000 0.80393866 0.98822443
0.58156467 0.76520091 1.00000000
0.58156467 0.76520091 1.00000000
0.58211352 0.76161561 1.00000000
0.58456675 0.75373820 1.00000000
0.59398554 0.73528823 1.00000000
0.62040854 0.68298739 1.00000000
0.72150724 0.52253919 0.99637809
0.92495888 0.66309979 0.99304535
1.00000000 0.84212632 0.98314565
0.66721082 0.85841245 1.00000000
0.66721082 0.85841245 1.00000000
0.66607996 0.85648895 1.00000000
0.66358190 0.85214220 1.00000000
0.65825771 0.84159538 1.00000000
0.65563832 0.81433117 0.99161208
0.81851663 0.83203842 0.98885237
0.94936543 0.90077455 0.99106820
1.00000000 0.98845814 1.00000000
0.94885196 0.98699343 1.00000000
0.94885196 0.98699343 1.00000000
0.95165889 0.98793650 1.00000000
0.95747108 0.98999201 1.00000000
0.96895164 0.99462076 1.00000000
1.00000000 1.00000000 1.00000000
1.00000000 1.00000000 1.00000000
1.00000000 1.00000000 1.00000000
1.00000000 1.00000000 1.00000000
1.00000000 1.00000000 1.00000000
1.00000000 1.00000000 1.00000000
1.00000000 1.00000000 1.00000000
1.00000000 1.00000000 1.00000000
1.00000000 1.00000000 1.00000000
1.00000000 1.00000000 1.00000000
1.00000000 1.00000000 1.00000000
1.00000000 1.00000000 1.00000000
1.00000000 1.00000000 1.00000000
