Luts Download/Canon Luts/3dlut/33grid-3dlut/full-to-full-range/CinemaGamut_CanonLog2-to-BT2020_HLG_33_FF_Ver.2.0.cube
# Gamut : Cinema Gamut to BT.2020
# Gamma : Canon Log 2 to HLG
# Range : Full in / Full out
# Version : 2.0 2019/10/24
# Copyright(c) 2019 Canon Inc. All Rights Reserved.
LUT_3D_SIZE 5
# LUT_3D_INPUT_RANGE 0.0 1.0
0.00000004 0.00000000 0.00000003
0.17031531 0.00981457 0.03328726
0.61354948 0.00000000 0.09007298
1.00000000 0.59255617 0.47129326
1.00000000 1.00000000 1.00000000
0.06340055 0.14966909 0.02524495
0.16540666 0.17421968 0.00000000
0.61882126 0.16165315 0.02215229
1.00000000 0.60827205 0.46917172
1.00000000 1.00000000 1.00000000
0.22386453 0.55362028 0.00520014
0.26599819 0.56409117 0.00575254
0.59719965 0.62065960 0.00000000
1.00000000 0.76985938 0.54075659
1.00000000 1.00000000 1.00000000
0.82895020 0.99626460 0.63256064
0.83300167 0.99656005 0.63823135
0.87608976 1.00000000 0.70043077
1.00000000 1.00000000 1.00000000
1.00000000 1.00000000 1.00000000
1.00000000 1.00000000 1.00000000
1.00000000 1.00000000 1.00000000
1.00000000 1.00000000 1.00000000
1.00000000 1.00000000 1.00000000
1.00000000 1.00000000 1.00000000
0.04067415 0.01116719 0.13678551
0.15234914 0.00000000 0.15998908
0.60694538 0.00000000 0.22214668
1.00000000 0.58194994 0.47988668
1.00000000 1.00000000 1.00000000
0.03363288 0.16830730 0.16472204
0.16895397 0.16895397 0.16895397
0.62286389 0.12688146 0.17352277
1.00000000 0.60036518 0.47954174
1.00000000 1.00000000 1.00000000
0.19381338 0.59071074 0.02276759
0.24741091 0.59808141 0.00000000
0.60885981 0.63205674 0.00000000
1.00000000 0.76689599 0.54632751
1.00000000 1.00000000 1.00000000
0.83410762 0.99734268 0.64820981
0.83799794 0.99762661 0.65344808
0.87943885 1.00000000 0.71107241
1.00000000 1.00000000 1.00000000
1.00000000 1.00000000 1.00000000
1.00000000 1.00000000 1.00000000
1.00000000 1.00000000 1.00000000
1.00000000 1.00000000 1.00000000
1.00000000 1.00000000 1.00000000
1.00000000 1.00000000 1.00000000
0.13308229 0.01094350 0.51625779
0.16971744 0.02286346 0.46855631
0.58117282 0.00000000 0.58273354
0.99729837 0.55138929 0.72206144
1.00000000 1.00000000 1.00000000
0.08629117 0.06255134 0.56951085
0.13873870 0.00000000 0.53873473
0.58924465 0.00000000 0.59356084
0.99857181 0.56442793 0.71925388
1.00000000 1.00000000 1.00000000
0.09300213 0.60369194 0.59353116
0.13385349 0.60712236 0.59777122
0.60391133 0.60391133 0.60391133
1.00000000 0.73743760 0.72517919
1.00000000 1.00000000 1.00000000
0.89279360 1.00000000 0.79988409
0.89527365 1.00000000 0.80237830
0.92256888 1.00000000 0.83267555
1.00000000 1.00000000 1.00000000
1.00000000 1.00000000 1.00000000
1.00000000 1.00000000 1.00000000
1.00000000 1.00000000 1.00000000
1.00000000 1.00000000 1.00000000
1.00000000 1.00000000 1.00000000
1.00000000 1.00000000 1.00000000
0.40145692 0.19118120 0.96649649
0.41177478 0.19157333 0.96203339
0.52527729 0.15188868 0.91038920
0.97689981 0.39671015 0.96568178
1.00000000 1.00000000 1.00000000
0.39221314 0.19364468 0.97204121
0.40302328 0.19375058 0.96766953
0.52022675 0.15547514 0.91572197
0.97703686 0.39883736 0.96576726
1.00000000 1.00000000 1.00000000
0.24694839 0.45791700 0.97725079
0.25733748 0.43973611 0.98024199
0.42148573 0.25186623 0.97528957
0.98113591 0.45664509 0.97154490
1.00000000 1.00000000 1.00000000
0.95366321 1.00000000 1.00000000
0.95527190 1.00000000 1.00000000
1.00000000 1.00000000 1.00000000
1.00000000 1.00000000 1.00000000
1.00000000 1.00000000 1.00000000
1.00000000 1.00000000 1.00000000
1.00000000 1.00000000 1.00000000
1.00000000 1.00000000 1.00000000
1.00000000 1.00000000 1.00000000
1.00000000 1.00000000 1.00000000
0.87859301 0.91507721 1.00000000
0.87859816 0.91484877 1.00000000
0.87866568 0.91183352 1.00000000
0.88250351 0.86415601 1.00000000
1.00000000 0.99049197 1.00000000
0.87892874 0.91557277 1.00000000
0.87874455 0.91518136 1.00000000
0.87880230 0.91218338 1.00000000
0.88256363 0.86473800 1.00000000
1.00000000 0.99049765 1.00000000
0.88346290 0.92157402 1.00000000
0.88325161 0.92122017 1.00000000
0.88069413 0.91646495 1.00000000
0.88338542 0.87190991 1.00000000
1.00000000 0.99059011 1.00000000
0.94814094 0.97465425 1.00000000
0.94778700 0.97440905 1.00000000
0.94324658 0.97117875 1.00000000
0.90199057 0.92734377 1.00000000
1.00000000 1.00000000 1.00000000
1.00000000 1.00000000 1.00000000
1.00000000 1.00000000 1.00000000
1.00000000 1.00000000 1.00000000
1.00000000 1.00000000 1.00000000
1.00000000 1.00000000 1.00000000
