Luts Download/Canon Luts/3dlut/33grid-3dlut/full-to-full-range/CinemaGamut_CanonLog3-to-BT2020_HLG_33_FF_Ver.2.0.cube
# Gamut : Cinema Gamut to BT.2020
# Gamma : Canon Log 3 to HLG
# Range : Full in / Full out
# Version : 2.0 2019/10/24
# Copyright(c) 2019 Canon Inc. All Rights Reserved.
LUT_3D_SIZE 9
# LUT_3D_INPUT_RANGE 0.0 1.0
0.00000000 0.00000004 0.00000002
0.00000000 0.00000004 0.00000002
0.23882734 0.03181022 0.05535469
0.43674134 0.00000000 0.07535585
0.64746387 0.00000000 0.10733129
0.81176053 0.00000000 0.15238100
0.95432646 0.12716479 0.22765658
1.00000000 0.69774245 0.61486727
1.00000000 0.89295040 0.85007870
0.11173580 0.13533709 0.08956895
0.08140797 0.08790757 0.00000000
0.23882734 0.03181022 0.05535469
0.43674134 0.00000000 0.07535585
0.64746387 0.00000000 0.10733129
0.81176053 0.00000000 0.15238100
0.95432646 0.12716479 0.22765658
1.00000000 0.69774245 0.61486727
1.00000000 0.89295040 0.85007870
0.09811708 0.21210036 0.05591481
0.09811708 0.21210036 0.05591481
0.23655342 0.24901650 0.01850129
0.42947919 0.26217721 0.01020386
0.64963679 0.25358201 0.02386441
0.82115169 0.20952316 0.04843997
0.96526225 0.19463865 0.15388785
1.00000000 0.71985647 0.62248085
1.00000000 0.90211410 0.85969028
0.15200545 0.38269197 0.03076532
0.15200545 0.38269197 0.03076532
0.25623047 0.41273020 0.00000000
0.42094391 0.44347465 0.00000000
0.63574943 0.46488567 0.00000000
0.81278853 0.46326804 0.01836847
0.96406384 0.45251715 0.12939151
1.00000000 0.76505507 0.64795833
1.00000000 0.92014402 0.87975951
0.23797643 0.58992258 0.01050245
0.23797643 0.58992258 0.01050245
0.31337411 0.60580088 0.00000000
0.44468315 0.62829819 0.00000000
0.63115245 0.65345812 0.00000000
0.80204221 0.67236336 0.01263168
0.95710404 0.68334119 0.13129378
1.00000000 0.83339415 0.69791746
1.00000000 0.95239427 0.91942179
0.36679689 0.76259900 0.01268391
0.36679689 0.76259900 0.01268391
0.41943736 0.76914584 0.01603894
0.51833921 0.78077828 0.01235482
0.65223033 0.79860523 0.00000000
0.79946410 0.82002993 0.02170680
0.94892583 0.83970129 0.15800829
1.00000000 0.91792683 0.78669953
1.00000000 1.00000000 1.00000000
0.56511325 0.91411078 0.10562540
0.56511325 0.91411078 0.10562540
0.59199915 0.91686078 0.10942323
0.63987699 0.92240644 0.11488975
0.71643561 0.93255618 0.13279832
0.82293600 0.94846560 0.19103264
0.94913968 0.96998965 0.38557078
1.00000000 1.00000000 0.95061144
1.00000000 1.00000000 1.00000000
0.91423611 1.00000000 0.82171626
0.91423611 1.00000000 0.82171626
0.91889857 1.00000000 0.82877994
0.92839420 1.00000000 0.84352969
0.94748724 1.00000000 0.87481008
0.97956646 1.00000000 0.93390915
1.00000000 1.00000000 1.00000000
1.00000000 1.00000000 1.00000000
1.00000000 1.00000000 1.00000000
1.00000000 1.00000000 1.00000000
1.00000000 1.00000000 1.00000000
1.00000000 1.00000000 1.00000000
1.00000000 1.00000000 1.00000000
1.00000000 1.00000000 1.00000000
1.00000000 1.00000000 1.00000000
1.00000000 1.00000000 1.00000000
1.00000000 1.00000000 1.00000000
1.00000000 1.00000000 1.00000000
0.00000000 0.00000004 0.00000002
0.00000000 0.00000004 0.00000002
0.23882734 0.03181022 0.05535469
0.43674134 0.00000000 0.07535585
0.64746387 0.00000000 0.10733129
0.81176053 0.00000000 0.15238100
0.95432646 0.12716479 0.22765658
1.00000000 0.69774245 0.61486727
1.00000000 0.89295040 0.85007870
0.00000000 0.00000004 0.00000002
0.00000000 0.00000004 0.00000002
0.23882734 0.03181022 0.05535469
0.43674134 0.00000000 0.07535585
0.64746387 0.00000000 0.10733129
0.81176053 0.00000000 0.15238100
0.95432646 0.12716479 0.22765658
1.00000000 0.69774245 0.61486727
1.00000000 0.89295040 0.85007870
0.09811708 0.21210036 0.05591481
0.09811708 0.21210036 0.05591481
0.23655342 0.24901650 0.01850129
0.42947919 0.26217721 0.01020386
0.64963679 0.25358201 0.02386441
0.82115169 0.20952316 0.04843997
0.96526225 0.19463865 0.15388785
1.00000000 0.71985647 0.62248085
1.00000000 0.90211410 0.85969028
0.15200545 0.38269197 0.03076532
0.15200545 0.38269197 0.03076532
0.25623047 0.41273020 0.00000000
0.42094391 0.44347465 0.00000000
0.63574943 0.46488567 0.00000000
0.81278853 0.46326804 0.01836847
0.96406384 0.45251715 0.12939151
1.00000000 0.76505507 0.64795833
1.00000000 0.92014402 0.87975951
0.23797643 0.58992258 0.01050245
0.23797643 0.58992258 0.01050245
0.31337411 0.60580088 0.00000000
0.44468315 0.62829819 0.00000000
0.63115245 0.65345812 0.00000000
0.80204221 0.67236336 0.01263168
0.95710404 0.68334119 0.13129378
1.00000000 0.83339415 0.69791746
1.00000000 0.95239427 0.91942179
0.36679689 0.76259900 0.01268391
0.36679689 0.76259900 0.01268391
0.41943736 0.76914584 0.01603894
0.51833921 0.78077828 0.01235482
0.65223033 0.79860523 0.00000000
0.79946410 0.82002993 0.02170680
0.94892583 0.83970129 0.15800829
1.00000000 0.91792683 0.78669953
1.00000000 1.00000000 1.00000000
0.56511325 0.91411078 0.10562540
0.56511325 0.91411078 0.10562540
0.59199915 0.91686078 0.10942323
0.63987699 0.92240644 0.11488975
0.71643561 0.93255618 0.13279832
0.82293600 0.94846560 0.19103264
0.94913968 0.96998965 0.38557078
1.00000000 1.00000000 0.95061144
1.00000000 1.00000000 1.00000000
0.91423611 1.00000000 0.82171626
0.91423611 1.00000000 0.82171626
0.91889857 1.00000000 0.82877994
0.92839420 1.00000000 0.84352969
0.94748724 1.00000000 0.87481008
0.97956646 1.00000000 0.93390915
1.00000000 1.00000000 1.00000000
1.00000000 1.00000000 1.00000000
1.00000000 1.00000000 1.00000000
1.00000000 1.00000000 1.00000000
1.00000000 1.00000000 1.00000000
1.00000000 1.00000000 1.00000000
1.00000000 1.00000000 1.00000000
1.00000000 1.00000000 1.00000000
1.00000000 1.00000000 1.00000000
1.00000000 1.00000000 1.00000000
1.00000000 1.00000000 1.00000000
1.00000000 1.00000000 1.00000000
0.05823521 0.01666268 0.18954408
0.05823521 0.01666268 0.18954408
0.21428440 0.00000000 0.22817851
0.40997521 0.00000000 0.26597419
0.63339980 0.00000000 0.29567540
0.80505108 0.00000000 0.32050470
0.94998399 0.12650597 0.35449050
1.00000000 0.68734048 0.63248626
1.00000000 0.88709902 0.84546690
0.05823521 0.01666268 0.18954408
0.05823521 0.01666268 0.18954408
0.21428440 0.00000000 0.22817851
0.40997521 0.00000000 0.26597419
0.63339980 0.00000000 0.29567540
0.80505108 0.00000000 0.32050470
0.94998399 0.12650597 0.35449050
1.00000000 0.68734048 0.63248626
1.00000000 0.88709902 0.84546690
0.04928541 0.24020412 0.23524866
0.04928541 0.24020412 0.23524866
0.24181371 0.24181371 0.24181371
0.44979474 0.22693661 0.23980483
0.66346678 0.19034505 0.23534648
0.82070260 0.17044157 0.25575631
0.95948625 0.21007020 0.30007265
1.00000000 0.70931135 0.63286075
1.00000000 0.89521207 0.85334915
0.08425320 0.46993473 0.19495285
0.08425320 0.46993473 0.19495285
0.23471804 0.47397554 0.16100418
0.44602017 0.46656100 0.15797099
0.66099285 0.45128006 0.15732840
0.82839434 0.41639859 0.14587780
0.97106620 0.38852198 0.18094187
1.00000000 0.75447950 0.64821055
1.00000000 0.91424318 0.87377680
0.16655577 0.65041459 0.06247468
0.16655577 0.65041459 0.06247468
0.27979065 0.65879905 0.00000000
0.45048010 0.66685597 0.00000000
0.65042133 0.67240420 0.00000000
0.81703606 0.67205468 0.00000000
0.96461809 0.67123557 0.14793479
1.00000000 0.82897737 0.70103579
1.00000000 0.94835707 0.91478908
0.33221183 0.78680651 0.01850921
0.33221183 0.78680651 0.01850921
0.39654174 0.79187555 0.01161124
0.51164129 0.80052307 0.00000000
0.65750125 0.81325631 0.00000000
0.80722202 0.82774455 0.01917270
0.95467969 0.84069187 0.16696479
1.00000000 0.91753491 0.79206739
1.00000000 1.00000000 1.00000000
0.55338137 0.92445399 0.11300114
0.55338137 0.92445399 0.11300114
0.58369287 0.92683511 0.11806802
0.63639121 0.93162391 0.12707435
0.71816979 0.94040487 0.15269540
0.82636524 0.95433325 0.20698178
0.95229319 0.97318724 0.42178865
1.00000000 1.00000000 0.95538663
1.00000000 1.00000000 1.00000000
0.92189473 1.00000000 0.83938898
0.92189473 1.00000000 0.83938898
0.92624730 1.00000000 0.84589884
0.93499796 1.00000000 0.85930008
0.95314671 1.00000000 0.88903885
0.98347835 1.00000000 0.94396393
1.00000000 1.00000000 1.00000000
1.00000000 1.00000000 1.00000000
1.00000000 1.00000000 1.00000000
1.00000000 1.00000000 1.00000000
1.00000000 1.00000000 1.00000000
1.00000000 1.00000000 1.00000000
1.00000000 1.00000000 1.00000000
1.00000000 1.00000000 1.00000000
1.00000000 1.00000000 1.00000000
1.00000000 1.00000000 1.00000000
1.00000000 1.00000000 1.00000000
1.00000000 1.00000000 1.00000000
0.09980619 0.01952056 0.34815587
0.09980619 0.01952056 0.34815587
0.19925823 0.00000000 0.33008539
0.38373805 0.00000000 0.39883314
0.61422368 0.00000000 0.46113580
0.79377307 0.00000000 0.50898983
0.94383899 0.11906217 0.54386583
1.00000000 0.68095507 0.69688013
1.00000000 0.88750773 0.86034906
0.09980619 0.01952056 0.34815587
0.09980619 0.01952056 0.34815587
0.19925823 0.00000000 0.33008539
0.38373805 0.00000000 0.39883314
0.61422368 0.00000000 0.46113580
0.79377307 0.00000000 0.50898983
0.94383899 0.11906217 0.54386583
1.00000000 0.68095507 0.69688013
1.00000000 0.88750773 0.86034906
0.00000000 0.18856452 0.38787941
0.00000000 0.18856452 0.38787941
0.21054807 0.15995413 0.46723619
0.43378789 0.13642463 0.46619968
0.64497742 0.14195162 0.46113591
0.81069670 0.13744925 0.47959486
0.95303875 0.19967081 0.51460230
1.00000000 0.70461201 0.69959308
1.00000000 0.89469206 0.86564670
0.09125553 0.42741722 0.41817828
0.09125553 0.42741722 0.41817828
0.20235903 0.43790896 0.43099667
0.42987279 0.42987279 0.42987279
0.65629964 0.41173004 0.42740171
0.82779665 0.36890345 0.42194068
0.96634558 0.36886652 0.45373681
1.00000000 0.74709445 0.70585324
1.00000000 0.90885201 0.87677774
0.13576578 0.67165602 0.37618334
0.13576578 0.67165602 0.37618334
0.21570645 0.67623598 0.34953222
0.42117352 0.67562531 0.33692454
0.65318332 0.66981307 0.33376601
0.82660862 0.65638629 0.32674373
0.97018043 0.64715254 0.36471159
1.00000000 0.81849494 0.72709073
1.00000000 0.94002524 0.90742731
0.16323908 0.83483993 0.13076795
0.16323908 0.83483993 0.13076795
0.26537723 0.83867943 0.07133243
0.44833941 0.84248915 0.00000000
0.65786131 0.84447518 0.00000000
0.82274872 0.84311228 0.00000000
0.96690871 0.84128694 0.18880398
1.00000000 0.91559418 0.80035951
1.00000000 0.99397634 0.97970352
0.51747860 0.94553943 0.15514789
0.51747860 0.94553943 0.15514789
0.55911080 0.94738613 0.15872678
0.62586664 0.95085516 0.16860242
0.71899630 0.95703275 0.19099804
0.83332128 0.96661679 0.24723931
0.95886214 0.97978464 0.48855319
1.00000000 1.00000000 1.00000000
1.00000000 1.00000000 1.00000000
0.93787543 1.00000000 0.87505234
0.93787543 1.00000000 0.87505234
0.94166804 1.00000000 0.88061590
0.94910491 1.00000000 0.89168583
0.96424742 1.00000000 0.91563740
1.00000000 1.00000000 1.00000000
1.00000000 1.00000000 1.00000000
1.00000000 1.00000000 1.00000000
1.00000000 1.00000000 1.00000000
1.00000000 1.00000000 1.00000000
1.00000000 1.00000000 1.00000000
1.00000000 1.00000000 1.00000000
1.00000000 1.00000000 1.00000000
1.00000000 1.00000000 1.00000000
1.00000000 1.00000000 1.00000000
1.00000000 1.00000000 1.00000000
1.00000000 1.00000000 1.00000000
1.00000000 1.00000000 1.00000000
0.15009820 0.01439901 0.55032583
0.15009820 0.01439901 0.55032583
0.20761301 0.00000000 0.48321954
0.36454578 0.00000000 0.52388490
0.59570941 0.00000000 0.60404362
0.77983691 0.00000000 0.66048533
0.93342372 0.11477239 0.69746626
1.00000000 0.66709173 0.76790557
1.00000000 0.88851369 0.88487139
0.15009820 0.01439901 0.55032583
0.15009820 0.01439901 0.55032583
0.20761301 0.00000000 0.48321954
0.36454578 0.00000000 0.52388490
0.59570941 0.00000000 0.60404362
0.77983691 0.00000000 0.66048533
0.93342372 0.11477239 0.69746626
1.00000000 0.66709173 0.76790557
1.00000000 0.88851369 0.88487139
0.05054872 0.14093903 0.60474410
0.05054872 0.14093903 0.60474410
0.16001838 0.00000000 0.59401362
0.36614056 0.00000000 0.58751675
0.61199334 0.00000000 0.62841986
0.79315779 0.05088820 0.66317821
0.94229420 0.15187651 0.69018935
1.00000000 0.68869909 0.76865654
1.00000000 0.89652398 0.89037555
0.00000000 0.35964205 0.58489102
0.00000000 0.35964205 0.58489102
0.13617394 0.35120097 0.65048284
0.39220313 0.33582767 0.67034640
0.64288697 0.31226789 0.66952734
0.82277396 0.25313901 0.66772078
0.95901923 0.30776770 0.67627124
1.00000000 0.73504154 0.77597071
1.00000000 0.91253473 0.90213405
0.13159520 0.63745951 0.62783761
0.13159520 0.63745951 0.62783761
0.18743566 0.64400735 0.63557741
0.38264842 0.64639017 0.64049390
0.63952564 0.63952564 0.63952564
0.82155198 0.62350687 0.63738711
0.97798793 0.58244050 0.63261350
1.00000000 0.80895268 0.79420285
1.00000000 0.94214327 0.92700200
0.17281169 0.83456922 0.58510313
0.17281169 0.83456922 0.58510313
0.23539210 0.83693274 0.57412569
0.36084578 0.84074836 0.54980375
0.63193758 0.83846235 0.54819306
0.81884691 0.83335264 0.54461491
0.97686498 0.82162729 0.53652113
1.00000000 0.90900587 0.84589975
1.00000000 0.99225873 0.98211671
0.45348063 0.98467833 0.36353311
0.45348063 0.98467833 0.36353311
0.48809301 0.98675257 0.33953364
0.58383386 0.98934949 0.31708981
0.71292814 0.99071013 0.31890544
0.84485875 0.98992357 0.38315684
0.97147924 0.99203413 0.58698175
1.00000000 1.00000000 1.00000000
1.00000000 1.00000000 1.00000000
0.96696072 1.00000000 0.93455684
0.96696072 1.00000000 0.93455684
0.96962390 1.00000000 0.93823777
0.97494279 1.00000000 0.94567571
0.98512168 1.00000000 0.96073289
1.00000000 1.00000000 1.00000000
1.00000000 1.00000000 1.00000000
1.00000000 1.00000000 1.00000000
1.00000000 1.00000000 1.00000000
1.00000000 1.00000000 1.00000000
1.00000000 1.00000000 1.00000000
1.00000000 1.00000000 1.00000000
1.00000000 1.00000000 1.00000000
1.00000000 1.00000000 1.00000000
1.00000000 1.00000000 1.00000000
1.00000000 1.00000000 1.00000000
1.00000000 1.00000000 1.00000000
1.00000000 1.00000000 1.00000000
0.21716672 0.01284190 0.72631337
0.21716672 0.01284190 0.72631337
0.25999785 0.03656581 0.69180620
0.34047590 0.00000000 0.64748898
0.57210294 0.00000000 0.70192229
0.76487463 0.00000000 0.76637870
0.91938103 0.09733928 0.81124366
1.00000000 0.64098441 0.83857051
1.00000000 0.88380566 0.90936524
0.21716672 0.01284190 0.72631337
0.21716672 0.01284190 0.72631337
0.25999785 0.03656581 0.69180620
0.34047590 0.00000000 0.64748898
0.57210294 0.00000000 0.70192229
0.76487463 0.00000000 0.76637870
0.91938103 0.09733928 0.81124366
1.00000000 0.64098441 0.83857051
1.00000000 0.88380566 0.90936524
0.16521547 0.04906025 0.76982173
0.16521547 0.04906025 0.76982173
0.22400272 0.01710703 0.73966853
0.31605727 0.00000000 0.67883147
0.56363611 0.00000000 0.70998236
0.76978963 0.00000000 0.77204737
0.92491774 0.06262784 0.81207595
1.00000000 0.65084406 0.83704807
1.00000000 0.88809653 0.91067865
0.00000000 0.30871140 0.74839851
0.00000000 0.30871140 0.74839851
0.05242272 0.22236629 0.78586219
0.28693373 0.09026659 0.78837475
0.58624917 0.12828905 0.78728118
0.78703283 0.13658997 0.80411108
0.94056523 0.20521227 0.82105755
1.00000000 0.70316781 0.84271612
1.00000000 0.90628694 0.92152441
0.00000000 0.57077635 0.75262893
0.00000000 0.57077635 0.75262893
0.08651949 0.57040631 0.78046657
0.28038543 0.55832834 0.83414795
0.60539010 0.54695475 0.83382066
0.80995425 0.51919590 0.83310196
0.97324320 0.44391890 0.83151819
1.00000000 0.78817081 0.85777628
1.00000000 0.94077722 0.94506362
0.17288038 0.80499053 0.79612063
0.17288038 0.80499053 0.79612063
0.21782303 0.80782673 0.79947397
0.32167430 0.81273524 0.80543324
0.59616436 0.81297201 0.80789753
0.80706646 0.80706646 0.80706646
0.97208997 0.79341194 0.80523320
1.00000000 0.89814963 0.89602197
1.00000000 0.99398420 0.99155538
0.53515322 0.97437841 0.78133373
0.53515322 0.97437841 0.78133373
0.55868516 0.97547101 0.77939194
0.60443411 0.97760191 0.77518967
0.69775734 0.97994879 0.77049661
0.80057585 0.98808733 0.73190690
0.96953866 0.98324493 0.72910846
1.00000000 1.00000000 1.00000000
1.00000000 1.00000000 1.00000000
1.00000000 1.00000000 1.00000000
1.00000000 1.00000000 1.00000000
1.00000000 1.00000000 1.00000000
1.00000000 1.00000000 1.00000000
1.00000000 1.00000000 1.00000000
1.00000000 1.00000000 1.00000000
1.00000000 1.00000000 1.00000000
1.00000000 1.00000000 1.00000000
1.00000000 1.00000000 1.00000000
1.00000000 1.00000000 1.00000000
1.00000000 1.00000000 1.00000000
1.00000000 1.00000000 1.00000000
1.00000000 1.00000000 1.00000000
1.00000000 1.00000000 1.00000000
1.00000000 1.00000000 1.00000000
1.00000000 1.00000000 1.00000000
1.00000000 1.00000000 1.00000000
1.00000000 1.00000000 1.00000000
0.31152081 0.03116520 0.87698020
0.31152081 0.03116520 0.87698020
0.34041788 0.05498804 0.86045530
0.39546940 0.06001934 0.82632845
0.52783690 0.00000000 0.79248977
0.73906252 0.00000000 0.84411015
0.90256523 0.07672661 0.89965505
1.00000000 0.59606569 0.90911747
1.00000000 0.86940915 0.93208718
0.31152081 0.03116520 0.87698020
0.31152081 0.03116520 0.87698020
0.34041788 0.05498804 0.86045530
0.39546940 0.06001934 0.82632845
0.52783690 0.00000000 0.79248977
0.73906252 0.00000000 0.84411015
0.90256523 0.07672661 0.89965505
1.00000000 0.59606569 0.90911747
1.00000000 0.86940915 0.93208718
0.28205630 0.00000000 0.89872543
0.28205630 0.00000000 0.89872543
0.31602011 0.03445625 0.88260471
0.37771880 0.05283752 0.84748290
0.49958544 0.00000000 0.79644053
0.73567058 0.00000000 0.84544868
0.90397259 0.07186711 0.90107598
1.00000000 0.60398979 0.90853424
1.00000000 0.87149601 0.93218450
0.19076481 0.14376165 0.93164579
0.19076481 0.14376165 0.93164579
0.24159087 0.09609822 0.92385315
0.32551085 0.03701388 0.89436562
0.46249175 0.00000000 0.83307941
0.73098539 0.00000000 0.85962554
0.91051086 0.00000000 0.90926187
1.00000000 0.62307215 0.90809255
1.00000000 0.88059480 0.93459683
0.00000000 0.51520229 0.87826735
0.00000000 0.51520229 0.87826735
0.00000000 0.47850378 0.89388359
0.03649792 0.34433216 0.93793042
0.48165801 0.25177893 0.94374410
0.76165303 0.26449041 0.94375362
0.93420939 0.30478549 0.94958292
1.00000000 0.73602723 0.91863098
1.00000000 0.92058916 0.95309584
0.00000000 0.74621039 0.90041605
0.00000000 0.74621039 0.90041605
0.07386428 0.74719460 0.91205954
0.20854096 0.74762193 0.93985257
0.51814683 0.74387796 0.96483135
0.77750793 0.73891010 0.96798204
0.94914683 0.73721181 0.96611420
1.00000000 0.87146458 0.94109338
1.00000000 0.98648157 0.99314547
0.46526819 0.94998315 0.94151284
0.46526819 0.94998315 0.94151284
0.49361872 0.95110221 0.94286868
0.54923370 0.95335743 0.94562020
0.65454330 0.95650467 0.94982728
0.77054163 0.96400536 0.95923456
0.95845399 0.95845399 0.95845399
1.00000000 1.00000000 1.00000000
1.00000000 1.00000000 1.00000000
1.00000000 1.00000000 1.00000000
1.00000000 1.00000000 1.00000000
1.00000000 1.00000000 1.00000000
1.00000000 1.00000000 1.00000000
1.00000000 1.00000000 1.00000000
1.00000000 1.00000000 1.00000000
1.00000000 1.00000000 1.00000000
1.00000000 1.00000000 1.00000000
1.00000000 1.00000000 1.00000000
1.00000000 1.00000000 1.00000000
1.00000000 1.00000000 1.00000000
1.00000000 1.00000000 1.00000000
1.00000000 1.00000000 1.00000000
1.00000000 1.00000000 1.00000000
1.00000000 1.00000000 1.00000000
1.00000000 1.00000000 1.00000000
1.00000000 1.00000000 1.00000000
1.00000000 1.00000000 1.00000000
0.44312392 0.25980038 0.99121176
0.44312392 0.25980038 0.99121176
0.46192503 0.23980868 0.98797352
0.50095452 0.20067662 0.97907051
0.56578215 0.15408438 0.94798538
0.69078863 0.00000000 0.91679685
0.87131756 0.06651739 0.96384451
0.99297030 0.54028011 0.97927296
1.00000000 0.84669513 0.95842667
0.44312392 0.25980038 0.99121176
0.44312392 0.25980038 0.99121176
0.46192503 0.23980868 0.98797352
0.50095452 0.20067662 0.97907051
0.56578215 0.15408438 0.94798538
0.69078863 0.00000000 0.91679685
0.87131756 0.06651739 0.96384451
0.99297030 0.54028011 0.97927296
1.00000000 0.84669513 0.95842667
0.42595939 0.28831244 0.99488064
0.42595939 0.28831244 0.99488064
0.44585794 0.26907113 0.99192009
0.48642372 0.22426503 0.98475794
0.55779240 0.16655660 0.95632989
0.68136445 0.00000000 0.91811341
0.86985825 0.06433593 0.96415534
0.99298681 0.54411666 0.97917888
1.00000000 0.84789392 0.95837669
0.38822423 0.36485315 0.99848037
0.38822423 0.36485315 0.99848037
0.40773159 0.33982310 0.99720992
0.45166719 0.29086716 0.99265874
0.53655328 0.19907932 0.97327657
0.65693150 0.00000000 0.92149341
0.86670879 0.02663812 0.96545499
0.99309344 0.55162967 0.97906683
1.00000000 0.85059510 0.95819876
0.30375793 0.52762165 0.99477994
0.30375793 0.52762165 0.99477994
0.32288654 0.50622327 0.99610071
0.36828351 0.45650737 0.99740112
0.46422784 0.33823311 0.99260690
0.62537011 0.00000000 0.95821952
0.86468024 0.00000000 0.98136024
0.99282536 0.59985804 0.97938214
1.00000000 0.86862653 0.96036614
0.17711703 0.70988425 0.98537882
0.17711703 0.70988425 0.98537882
0.18448647 0.70276586 0.98742560
0.20139407 0.68491990 0.99231632
0.28529662 0.63722842 0.99631495
0.66983017 0.62678313 0.99814704
0.87759950 0.68139930 1.00000000
0.99179601 0.80924310 0.98574436
1.00000000 0.94917453 0.98576943
0.55162628 0.88933632 0.99547957
0.55162628 0.88933632 0.99547957
0.58265379 0.88995581 0.99611761
0.63579810 0.89130709 0.99732488
0.71749112 0.89421738 0.99842343
0.82007871 0.90129563 0.99892427
0.92738874 0.92226564 0.99862795
1.00000000 0.97899288 1.00000000
1.00000000 1.00000000 1.00000000
1.00000000 1.00000000 1.00000000
1.00000000 1.00000000 1.00000000
1.00000000 1.00000000 1.00000000
1.00000000 1.00000000 1.00000000
1.00000000 1.00000000 1.00000000
1.00000000 1.00000000 1.00000000
1.00000000 1.00000000 1.00000000
1.00000000 1.00000000 1.00000000
1.00000000 1.00000000 1.00000000
1.00000000 1.00000000 1.00000000
1.00000000 1.00000000 1.00000000
1.00000000 1.00000000 1.00000000
1.00000000 1.00000000 1.00000000
1.00000000 1.00000000 1.00000000
1.00000000 1.00000000 1.00000000
1.00000000 1.00000000 1.00000000
1.00000000 1.00000000 1.00000000
1.00000000 1.00000000 1.00000000
0.61202185 0.64030672 1.00000000
0.61202185 0.64030672 1.00000000
0.61737112 0.63479397 1.00000000
0.62862084 0.62222469 1.00000000
0.65314584 0.59191642 1.00000000
0.70023261 0.49295979 1.00000000
0.81139752 0.26114568 1.00000000
0.94688861 0.59826322 1.00000000
1.00000000 0.82573097 0.99343701
0.61202185 0.64030672 1.00000000
0.61202185 0.64030672 1.00000000
0.61737112 0.63479397 1.00000000
0.62862084 0.62222469 1.00000000
0.65314584 0.59191642 1.00000000
0.70023261 0.49295979 1.00000000
0.81139752 0.26114568 1.00000000
0.94688861 0.59826322 1.00000000
1.00000000 0.82573097 0.99343701
0.60913617 0.64925611 1.00000000
0.60913617 0.64925611 1.00000000
0.61353317 0.64278232 1.00000000
0.62488252 0.63061469 1.00000000
0.64942589 0.60129882 1.00000000
0.69727184 0.50779081 1.00000000
0.80745895 0.25816293 1.00000000
0.94622854 0.59822335 1.00000000
1.00000000 0.82612893 0.99339267
0.60303208 0.66762168 1.00000000
0.60303208 0.66762168 1.00000000
0.60743053 0.66164021 1.00000000
0.61677486 0.64801899 1.00000000
0.64114297 0.62038659 1.00000000
0.69060942 0.53743778 1.00000000
0.79821560 0.25233795 1.00000000
0.94476109 0.59802977 1.00000000
1.00000000 0.82699219 0.99328835
0.59288952 0.70383205 1.00000000
0.59288952 0.70383205 1.00000000
0.59632182 0.69866769 1.00000000
0.60407651 0.68689669 1.00000000
0.62374743 0.65890732 1.00000000
0.67475798 0.59147054 1.00000000
0.77397669 0.23762519 1.00000000
0.94099714 0.59857371 1.00000000
1.00000000 0.82949376 0.99243104
0.58684500 0.76701242 1.00000000
0.58684500 0.76701242 1.00000000
0.58807862 0.76329830 1.00000000
0.59213206 0.75511973 1.00000000
0.60530584 0.73590345 1.00000000
0.63873847 0.68108567 1.00000000
0.73673847 0.48985666 0.99581199
0.92905304 0.67552868 0.99392975
1.00000000 0.86473941 0.98736505
0.67021236 0.86299004 1.00000000
0.67021236 0.86299004 1.00000000
0.66918632 0.86110597 1.00000000
0.66696082 0.85684491 1.00000000
0.66258976 0.84650173 1.00000000
0.66369745 0.81993443 0.99238204
0.82790804 0.83875861 0.98981683
0.95357191 0.90861189 0.99190561
1.00000000 1.00000000 1.00000000
0.95494502 0.98978276 1.00000000
0.95494502 0.98978276 1.00000000
0.95762534 0.99070189 1.00000000
0.96301939 0.99276478 1.00000000
0.97398192 0.99729021 1.00000000
1.00000000 1.00000000 1.00000000
1.00000000 1.00000000 1.00000000
1.00000000 1.00000000 1.00000000
1.00000000 1.00000000 1.00000000
1.00000000 1.00000000 1.00000000
1.00000000 1.00000000 1.00000000
1.00000000 1.00000000 1.00000000
1.00000000 1.00000000 1.00000000
1.00000000 1.00000000 1.00000000
1.00000000 1.00000000 1.00000000
1.00000000 1.00000000 1.00000000
1.00000000 1.00000000 1.00000000
1.00000000 1.00000000 1.00000000
