Luts Download/Canon Luts/3dlut/33grid-3dlut/full-to-full-range/CinemaGamut_CanonLog2-to-BT2020_PQ_33_FF_Ver.2.0.cube
# Gamut : Cinema Gamut to BT.2020
# Gamma : Canon Log 2 to PQ
# Range : Full in / Full out
# Version : 2.0 2019/10/24
# Copyright(c) 2019 Canon Inc. All Rights Reserved.
LUT_3D_SIZE 33
# LUT_3D_INPUT_RANGE 0.0 1.0
0.00000000 0.00000000 0.00000000
0.00000000 0.00000000 0.00000000
0.00000000 0.00000000 0.00000000
0.00020689 0.00020689 0.00020689
0.02480688 0.00173255 0.00236374
0.06988590 0.00231371 0.00424952
0.12255756 0.00210445 0.00598279
0.16894787 0.00134475 0.00782469
0.21066370 0.00043433 0.01021020
0.24973140 0.00000000 0.01360438
0.28736129 0.00000000 0.01839782
0.32425867 0.00000000 0.02491947
0.36077919 0.00000000 0.03394118
0.39719977 0.00000000 0.04576530
0.43365898 0.00000000 0.06054422
0.47019136 0.00000000 0.07871206
0.50679445 0.00000000 0.10006999
0.54343378 0.00000000 0.12215411
0.58005092 0.00000000 0.14459099
0.61658255 0.00000000 0.16747380
0.65296625 0.00000000 0.19096546
0.68914229 0.00000000 0.21528707
0.72505585 0.00000000 0.24057515
0.76066082 0.00000000 0.26678297
0.79591357 0.00243611 0.29392737
0.83076836 0.01325366 0.32210483
0.86516252 0.05311883 0.35162032
0.89897224 0.15120725 0.38332835
0.93188328 0.27411721 0.41944059
0.96301025 0.41128279 0.46517590
0.98974403 0.55757577 0.53097563
1.00000000 0.70561062 0.63258494
1.00000000 0.78193877 0.70587747
0.00000000 0.00000000 0.00000000
0.00000000 0.00000000 0.00000000
0.00000000 0.00000000 0.00000000
0.00020689 0.00020689 0.00020689
0.02480688 0.00173255 0.00236374
0.06988590 0.00231371 0.00424952
0.12255756 0.00210445 0.00598279
0.16894787 0.00134475 0.00782469
0.21066370 0.00043433 0.01021020
0.24973140 0.00000000 0.01360438
0.28736129 0.00000000 0.01839782
0.32425867 0.00000000 0.02491947
0.36077919 0.00000000 0.03394118
0.39719977 0.00000000 0.04576530
0.43365898 0.00000000 0.06054422
0.47019136 0.00000000 0.07871206
0.50679445 0.00000000 0.10006999
0.54343378 0.00000000 0.12215411
0.58005092 0.00000000 0.14459099
0.61658255 0.00000000 0.16747380
0.65296625 0.00000000 0.19096546
0.68914229 0.00000000 0.21528707
0.72505585 0.00000000 0.24057515
0.76066082 0.00000000 0.26678297
0.79591357 0.00243611 0.29392737
0.83076836 0.01325366 0.32210483
0.86516252 0.05311883 0.35162032
0.89897224 0.15120725 0.38332835
0.93188328 0.27411721 0.41944059
0.96301025 0.41128279 0.46517590
0.98974403 0.55757577 0.53097563
1.00000000 0.70561062 0.63258494
1.00000000 0.78193877 0.70587747
0.01583914 0.03234596 0.00528276
0.03174368 0.04200945 0.01037522
0.04923433 0.05471721 0.01629745
0.00020689 0.00020689 0.00020689
0.02480688 0.00173255 0.00236374
0.06988590 0.00231371 0.00424952
0.12255756 0.00210445 0.00598279
0.16894787 0.00134475 0.00782469
0.21066370 0.00043433 0.01021020
0.24973140 0.00000000 0.01360438
0.28736129 0.00000000 0.01839782
0.32425867 0.00000000 0.02491947
0.36077919 0.00000000 0.03394118
0.39719977 0.00000000 0.04576530
0.43365898 0.00000000 0.06054422
0.47019136 0.00000000 0.07871206
0.50679445 0.00000000 0.10006999
0.54343378 0.00000000 0.12215411
0.58005092 0.00000000 0.14459099
0.61658255 0.00000000 0.16747380
0.65296625 0.00000000 0.19096546
0.68914229 0.00000000 0.21528707
0.72505585 0.00000000 0.24057515
0.76066082 0.00000000 0.26678297
0.79591357 0.00243611 0.29392737
0.83076836 0.01325366 0.32210483
0.86516252 0.05311883 0.35162032
0.89897224 0.15120725 0.38332835
0.93188328 0.27411721 0.41944059
0.96301025 0.41128279 0.46517590
0.98974403 0.55757577 0.53097563
1.00000000 0.70561062 0.63258494
1.00000000 0.78193877 0.70587747
0.00020689 0.00020689 0.00020689
0.00020689 0.00020689 0.00020689
0.00020689 0.00020689 0.00020689
0.00020689 0.00020689 0.00020689
0.02480688 0.00173255 0.00236374
0.07037765 0.00255233 0.00431365
0.12299882 0.00258718 0.00598555
0.16915370 0.00200100 0.00775337
0.21075618 0.00119236 0.01007457
0.24978051 0.00060897 0.01339984
0.28739234 0.00000000 0.01811055
0.32435969 0.00000000 0.02423830
0.36079131 0.00000000 0.03346837
0.39720400 0.00000000 0.04521679
0.43365786 0.00000000 0.05993146
0.47018646 0.00000000 0.07806749
0.50678771 0.00000000 0.09943379
0.54342681 0.00000000 0.12161841
0.58004494 0.00000000 0.14415800
0.61657820 0.00000000 0.16712903
0.65296369 0.00000000 0.19069503
0.68914137 0.00000000 0.21507760
0.72505626 0.00000000 0.24041452
0.76066221 0.00000000 0.26666071
0.79591558 0.00225438 0.29383489
0.83077070 0.01294364 0.32203530
0.86516496 0.05276926 0.35156847
0.89897462 0.15103368 0.38329023
0.93188547 0.27406306 0.41941345
0.96301217 0.41126843 0.46515807
0.98974554 0.55757433 0.53096613
1.00000000 0.70561304 0.63258256
1.00000000 0.78194100 0.70587728
0.00711066 0.02230581 0.00466211
0.00711066 0.02230581 0.00466211
0.00711066 0.02230581 0.00466211
0.00711066 0.02230581 0.00466211
0.03058674 0.03358715 0.00440816
0.07261923 0.03910696 0.00386824
0.12324385 0.04126208 0.00346805
0.16896787 0.04102310 0.00336920
0.21068529 0.03895484 0.00374500
0.24988517 0.03537529 0.00481621
0.28764986 0.03013715 0.00667858
0.32461584 0.02308076 0.00961702
0.36102785 0.01580823 0.01521942
0.39726611 0.00893410 0.02427610
0.43357796 0.00260507 0.03679951
0.46999855 0.00000000 0.05383629
0.50654574 0.00000000 0.07561286
0.54318327 0.00000000 0.10144766
0.57983927 0.00000000 0.12783446
0.61643184 0.00000000 0.15410315
0.65288209 0.00000000 0.18044295
0.68911926 0.00000000 0.20710501
0.72508242 0.00000000 0.23427628
0.76072334 0.00000000 0.26197285
0.79599885 0.00000000 0.29027965
0.83086519 0.00000000 0.31935754
0.86526215 0.03504795 0.34956889
0.89906836 0.14215676 0.38181897
0.93197148 0.27131327 0.41836568
0.96308704 0.41051708 0.46446960
0.98980458 0.55746041 0.53059810
1.00000000 0.70568580 0.63248535
1.00000000 0.78201547 0.70586438
0.01506104 0.05780017 0.00743601
0.01506104 0.05780017 0.00743601
0.01506104 0.05780017 0.00743601
0.01522311 0.05813854 0.00750927
0.03700555 0.07261937 0.00489468
0.07489279 0.08222994 0.00307921
0.12220676 0.08830492 0.00201056
0.16672518 0.09157820 0.00147186
0.20831373 0.09239457 0.00136248
0.24786119 0.09090776 0.00160646
0.28609698 0.08692804 0.00221535
0.32349100 0.08010479 0.00336013
0.36035664 0.07009363 0.00552211
0.39696118 0.05634240 0.00926423
0.43468632 0.00542088 0.00019683
0.46990321 0.02051411 0.02767361
0.50636808 0.00724324 0.04753961
0.54297099 0.00000000 0.07378922
0.57963764 0.00000000 0.10520488
0.61627595 0.00000000 0.13643376
0.65278950 0.00000000 0.16677812
0.68909168 0.00000000 0.19661919
0.72511113 0.00000000 0.22628685
0.76079471 0.00000000 0.25591928
0.79609832 0.00000000 0.28571621
0.83097962 0.00000000 0.31593635
0.86538097 0.01770826 0.34702363
0.89918373 0.13276069 0.37995201
0.93207786 0.26858350 0.41703974
0.96318001 0.40980676 0.46360059
0.98987819 0.55738552 0.53013495
1.00000000 0.70579860 0.63236675
1.00000000 0.78212162 0.70585354
0.02362093 0.10219293 0.00801368
0.02362093 0.10219293 0.00801368
0.02362093 0.10219293 0.00801368
0.02394891 0.10298022 0.00802487
0.04457284 0.11527689 0.00429597
0.07911708 0.12459718 0.00216667
0.12256054 0.13164348 0.00108639
0.16488965 0.13672497 0.00059826
0.20565168 0.14003132 0.00042810
0.24511514 0.14153926 0.00044996
0.28359288 0.14109839 0.00066002
0.32138937 0.13838224 0.00108949
0.35873881 0.13279979 0.00184767
0.39578267 0.12339735 0.00331100
0.43264281 0.10839876 0.00606027
0.46942165 0.08485147 0.01111908
0.50694809 0.00340929 0.00034221
0.54278698 0.02555187 0.04239161
0.57946354 0.00365813 0.07355902
0.61613456 0.00000000 0.11131955
0.65270512 0.00000000 0.14764833
0.68907436 0.00000000 0.18213275
0.72515688 0.00000000 0.21536412
0.76089084 0.00000000 0.24771043
0.79622882 0.00000000 0.27956722
0.83112890 0.00000000 0.31134983
0.86553587 0.00073439 0.34362577
0.89933426 0.12068600 0.37746861
0.93221682 0.26532428 0.41528157
0.96330164 0.40898765 0.46245167
0.98997453 0.55732178 0.52952490
1.00000000 0.70595896 0.63221396
1.00000000 0.78226845 0.70584328
0.03350834 0.14511494 0.00687017
0.03350834 0.14511494 0.00687017
0.03350834 0.14511494 0.00687017
0.03385077 0.14568464 0.00677832
0.05406127 0.15429908 0.00327857
0.08607738 0.16199286 0.00139794
0.12527715 0.16873367 0.00054481
0.16473498 0.17450064 0.00019410
0.20385018 0.17913091 0.00008099
0.24255722 0.18251194 0.00007004
0.28087965 0.18443583 0.00011247
0.31883136 0.18463135 0.00027559
0.35650180 0.18272361 0.00059326
0.39395165 0.17811215 0.00115938
0.43123633 0.16980774 0.00216122
0.46838633 0.15626764 0.00432126
0.50544052 0.13465879 0.00876647
0.54241938 0.10007760 0.01810738
0.57927678 0.05362712 0.03895077
0.61601278 0.01391348 0.07558422
0.65264265 0.00000000 0.12021706
0.68908091 0.00000000 0.16166350
0.72523260 0.00000000 0.20012024
0.76102486 0.00000000 0.23636528
0.79640419 0.00000000 0.27113220
0.83132741 0.00000000 0.30509473
0.86574137 0.00000000 0.33901273
0.89953398 0.10361233 0.37411000
0.93240126 0.26115048 0.41291285
0.96346301 0.40797590 0.46091083
0.99010215 0.55726455 0.52871164
1.00000000 0.70618194 0.63201393
1.00000000 0.78246965 0.70583347
0.04596552 0.18445005 0.00491270
0.04596552 0.18445005 0.00491270
0.04596552 0.18445005 0.00491270
0.04636090 0.18476001 0.00481822
0.06649952 0.19087258 0.00219700
0.09632137 0.19700796 0.00083845
0.13088566 0.20301836 0.00024180
0.16689711 0.20875433 0.00003094
0.20371656 0.21398475 0.00000000
0.24098218 0.21843254 0.00000000
0.27853679 0.22189448 0.00000000
0.31625280 0.22410295 0.00001154
0.35399139 0.22472361 0.00012572
0.39169846 0.22334836 0.00037729
0.42933198 0.21937747 0.00084914
0.46688213 0.21184447 0.00160448
0.50429917 0.19930194 0.00348623
0.54159977 0.17911135 0.00783496
0.57879819 0.14617241 0.01702396
0.61583832 0.09083250 0.03723149
0.65258888 0.03139557 0.08059788
0.68911654 0.00000000 0.13220764
0.72534949 0.00000000 0.17848903
0.76121101 0.00000000 0.22044639
0.79664055 0.00000000 0.25940559
0.83159250 0.00000000 0.29646252
0.86601520 0.00000000 0.33268416
0.89980009 0.07798571 0.36952626
0.93264704 0.25568268 0.40969732
0.96367775 0.40670929 0.45883288
0.99027125 0.55722427 0.52762520
1.00000000 0.70649276 0.63175325
1.00000000 0.78274585 0.70582640
0.06260989 0.22152849 0.00305037
0.06260989 0.22152849 0.00305037
0.06260989 0.22152849 0.00305037
0.06305812 0.22171493 0.00298973
0.08301197 0.22612711 0.00136661
0.10972110 0.23095493 0.00051352
0.13964367 0.23612101 0.00011053
0.17184106 0.24144227 0.00000000
0.20576457 0.24672147 0.00000000
0.24100786 0.25170115 0.00000000
0.27720562 0.25607470 0.00000000
0.31412885 0.25961419 0.00000000
0.35156221 0.26202435 0.00000000
0.38927101 0.26293747 0.00005661
0.42710412 0.26192594 0.00026887
0.46495276 0.25839345 0.00069884
0.50275020 0.25140786 0.00139849
0.54041771 0.23952292 0.00319553
0.57792850 0.22015273 0.00769160
0.61528410 0.18816745 0.01723189
0.65242334 0.13348776 0.03896943
0.68914612 0.05820492 0.08949607
0.72550283 0.00000000 0.14733101
0.76145707 0.00000000 0.19782839
0.79695288 0.00000000 0.24292208
0.83194315 0.00000000 0.28443610
0.86637804 0.00000000 0.32393580
0.90015340 0.04348694 0.36323399
0.93297346 0.24862630 0.40531663
0.96396209 0.40518935 0.45603103
0.99049315 0.55724780 0.52618348
1.00000000 0.70693501 0.63142219
1.00000000 0.78312863 0.70582973
0.08484456 0.25743340 0.00173060
0.08484456 0.25743340 0.00173060
0.08484456 0.25743340 0.00173060
0.08531868 0.25755448 0.00170033
0.10391665 0.26079202 0.00084366
0.12618157 0.26460598 0.00031985
0.15162949 0.26892452 0.00005363
0.17983770 0.27361863 0.00000000
0.21044708 0.27859479 0.00000000
0.24309885 0.28364319 0.00000000
0.27742630 0.28850246 0.00000000
0.31302846 0.29284986 0.00000000
0.34963743 0.29645377 0.00000000
0.38698151 0.29901091 0.00000000
0.42476050 0.30013813 0.00001877
0.46275791 0.29939244 0.00023257
0.50082183 0.29616426 0.00067812
0.53883988 0.28954311 0.00142475
0.57671483 0.27805621 0.00325993
0.61439147 0.25916415 0.00814134
0.65185134 0.22792918 0.01896991
0.68900354 0.17503435 0.04442405
0.72563359 0.09464600 0.10227564
0.76174846 0.00000000 0.16519421
0.79734632 0.00000000 0.21946765
0.83239544 0.00000000 0.26752205
0.86685223 0.00000000 0.31174481
0.90061807 0.00486449 0.35454816
0.93340339 0.24001987 0.39933580
0.96433389 0.40358567 0.45227187
0.99077637 0.55748689 0.52431197
1.00000000 0.70759617 0.63103381
1.00000000 0.78366754 0.70586219
0.11188059 0.29281708 0.00094529
0.11188059 0.29281708 0.00094529
0.11188059 0.29281708 0.00094529
0.11229314 0.29290022 0.00093317
0.12735561 0.29531845 0.00054439
0.14549622 0.29833857 0.00019854
0.16677375 0.30181306 0.00007288
0.19101821 0.30587942 0.00000000
0.21808157 0.31035485 0.00000000
0.24771785 0.31514350 0.00000000
0.27963025 0.32007440 0.00000000
0.31345032 0.32487943 0.00000000
0.34874563 0.32921897 0.00000000
0.38523210 0.33287509 0.00000000
0.42259632 0.33554524 0.00000000
0.46049537 0.33682801 0.00000000
0.49866696 0.33626148 0.00021684
0.53692401 0.33323909 0.00072902
0.57512364 0.32684107 0.00158006
0.61315159 0.31559477 0.00360224
0.65093303 0.29698257 0.00927610
0.68843033 0.26632052 0.02247856
0.72554066 0.21470877 0.05321443
0.76202087 0.13312644 0.11810303
0.79780290 0.00646963 0.18557072
0.83295265 0.00000000 0.24340984
0.86745528 0.00000000 0.29460543
0.90121932 0.00000000 0.34247896
0.93396198 0.23097106 0.39115717
0.96480902 0.40248609 0.44728753
0.99111202 0.55841454 0.52203004
1.00000000 0.70869624 0.63070562
1.00000000 0.78443765 0.70595978
0.14059667 0.32806433 0.00052902
0.14059667 0.32806433 0.00052902
0.14059667 0.32806433 0.00052902
0.14092709 0.32812359 0.00052510
0.15285456 0.32995154 0.00038329
0.16743875 0.33228375 0.00020414
0.18491806 0.33512986 0.00007069
0.20538098 0.33847939 0.00000695
0.22883423 0.34238834 0.00000000
0.25522150 0.34677351 0.00000000
0.28429521 0.35146310 0.00000000
0.31579796 0.35633620 0.00000000
0.34936428 0.36112025 0.00000000
0.38452926 0.36545877 0.00000000
0.42100301 0.36915697 0.00000000
0.45844368 0.37190642 0.00000000
0.49647770 0.37329300 0.00000000
0.53480665 0.37284835 0.00021125
0.57321990 0.36995882 0.00084959
0.61155169 0.36368968 0.00188451
0.64967454 0.35256659 0.00423035
0.68749590 0.33414015 0.01133627
0.72496433 0.30389347 0.02819052
0.76196922 0.25281599 0.06536742
0.79823087 0.17033216 0.13664671
0.83361890 0.02893462 0.20858775
0.86821955 0.00000000 0.27023077
0.90199530 0.00000000 0.32560908
0.93468716 0.22523598 0.37996401
0.96541464 0.40326867 0.44082251
0.99145954 0.56165522 0.51987885
1.00000000 0.71039646 0.63046728
1.00000000 0.78553158 0.70616426
0.17053489 0.36339343 0.00031592
0.17053489 0.36339343 0.00031592
0.17053489 0.36339343 0.00031592
0.17079369 0.36343666 0.00031531
0.18011198 0.36482778 0.00029580
0.19168923 0.36662623 0.00022163
0.20584354 0.36892081 0.00007781
0.22283378 0.37165248 0.00004260
0.24278991 0.37495011 0.00000000
0.26580272 0.37878536 0.00000000
0.29179705 0.38311882 0.00000000
0.32056243 0.38776374 0.00000000
0.35186431 0.39261088 0.00000000
0.38533446 0.39739155 0.00000000
0.42047177 0.40173091 0.00000000
0.45698789 0.40545390 0.00000000
0.49452326 0.40825443 0.00000000
0.53267965 0.40971261 0.00000000
0.57113297 0.40934852 0.00025302
0.60965700 0.40653032 0.00107638
0.64806565 0.40032647 0.00240776
0.68622119 0.38927254 0.00535958
0.72401749 0.37098082 0.01479878
0.76139674 0.34088100 0.03629323
0.79822810 0.29007391 0.08162079
0.83418861 0.20819463 0.15822033
0.86907378 0.08523084 0.23500236
0.90295919 0.03336546 0.30174918
0.93563127 0.23060653 0.36456367
0.96620588 0.40695412 0.43230657
0.99185073 0.56700787 0.51749383
1.00000000 0.71282979 0.63030546
1.00000000 0.78704833 0.70650700
0.20146750 0.39891860 0.00019970
0.20146750 0.39891860 0.00019970
0.20146750 0.39891860 0.00019970
0.20166764 0.39895058 0.00020037
0.20887829 0.40001206 0.00023786
0.21797125 0.40139662 0.00022912
0.22930623 0.40318746 0.00015709
0.24319249 0.40545916 0.00002187
0.25989913 0.40813496 0.00004725
0.27958174 0.41141524 0.00000000
0.30234607 0.41521921 0.00000000
0.32812770 0.41952471 0.00000000
0.35675033 0.42415522 0.00000000
0.38798231 0.42899406 0.00000000
0.42144947 0.43378109 0.00000000
0.45660871 0.43811399 0.00000000
0.49318622 0.44184824 0.00000000
0.53080825 0.44467831 0.00000000
0.56905894 0.44617548 0.00000000
0.60759567 0.44584557 0.00030054
0.64617788 0.44305632 0.00137720
0.68460398 0.43688258 0.00320291
0.72272774 0.42588390 0.00729045
0.76043792 0.40764063 0.01992651
0.79766315 0.37763310 0.04769785
0.83424483 0.32744751 0.10334178
0.86979704 0.25059358 0.18442620
0.90399042 0.18567649 0.26758861
0.93673532 0.25779023 0.34313638
0.96716470 0.41530450 0.42092743
0.99230758 0.57462204 0.51461142
1.00000000 0.71618694 0.63022727
1.00000000 0.78912002 0.70703655
0.23325921 0.43468759 0.00012408
0.23325921 0.43468759 0.00012408
0.23325921 0.43468759 0.00012408
0.23341288 0.43471144 0.00012523
0.23895846 0.43552152 0.00018917
0.24604148 0.43658488 0.00022377
0.25502297 0.43797448 0.00022419
0.26624355 0.43977226 0.00014501
0.27999746 0.44200844 0.00005923
0.29653918 0.44468363 0.00008475
0.31608675 0.44797741 0.00000000
0.33871710 0.45175934 0.00000000
0.36440794 0.45605406 0.00000000
0.39299077 0.46068267 0.00000000
0.42422811 0.46552165 0.00000000
0.45773882 0.47031683 0.00000000
0.49293825 0.47463728 0.00000000
0.52957089 0.47836656 0.00000000
0.56725570 0.48120149 0.00000000
0.60556318 0.48270729 0.00000000
0.64413459 0.48238607 0.00033209
0.68271774 0.47961019 0.00185078
0.72110014 0.47345752 0.00457689
0.75913112 0.46248541 0.01035437
0.79669105 0.44429840 0.02770950
0.83368853 0.41461338 0.06491774
0.86991640 0.36663295 0.13198448
0.90486432 0.30559445 0.21998865
0.93790501 0.31188377 0.31359549
0.96826839 0.43138277 0.40590141
0.99282102 0.58519085 0.51121985
1.00000000 0.72076847 0.63031332
1.00000000 0.79193079 0.70784028
0.26585299 0.47070764 0.00009150
0.26585299 0.47070764 0.00009150
0.26585299 0.47070764 0.00009150
0.26597046 0.47072550 0.00009282
0.27022125 0.47134331 0.00017824
0.27570563 0.47215790 0.00025274
0.28275064 0.47323001 0.00031778
0.29168794 0.47463031 0.00032802
0.30284084 0.47643830 0.00018067
0.31651459 0.47865102 0.00013314
0.33296743 0.48132985 0.00011563
0.35247218 0.48464760 0.00000000
0.37505809 0.48841930 0.00000000
0.40073626 0.49271203 0.00000000
0.42933923 0.49734403 0.00000000
0.46062435 0.50218814 0.00000000
0.49419612 0.50699096 0.00000000
0.52942885 0.51128711 0.00000000
0.56609603 0.51499459 0.00000000
0.60381071 0.51781589 0.00000000
0.64213082 0.51931738 0.00000000
0.68068401 0.51899789 0.00042751
0.71921093 0.51622533 0.00269028
0.75748888 0.51009483 0.00698633
0.79536361 0.49917205 0.01564590
0.83270062 0.48120036 0.04105631
0.86936493 0.45270685 0.09524373
0.90503560 0.41155507 0.17518916
0.93888244 0.38604020 0.27558315
0.96940821 0.45895791 0.38694674
0.99333666 0.59970336 0.50759505
1.00000000 0.72697759 0.63073604
1.00000000 0.79572131 0.70905529
0.29917362 0.50695434 0.00011082
0.29917362 0.50695434 0.00011082
0.29917362 0.50695434 0.00011082
0.29926314 0.50696774 0.00011251
0.30250112 0.50743668 0.00021361
0.30671292 0.50805706 0.00031252
0.31218166 0.50887805 0.00042123
0.31920956 0.50995815 0.00050498
0.32812566 0.51136769 0.00048083
0.33925389 0.51318562 0.00020105
0.35289256 0.51538091 0.00019939
0.36934019 0.51808129 0.00012004
0.38884431 0.52141117 0.00000000
0.41143946 0.52517745 0.00000000
0.43715434 0.52947273 0.00000000
0.46581630 0.53411340 0.00000000
0.49715962 0.53896186 0.00000000
0.53078370 0.54376423 0.00000000
0.56603046 0.54802425 0.00000000
0.60270511 0.55170076 0.00000000
0.64041211 0.55450355 0.00000000
0.67869776 0.55599477 0.00000000
0.71718032 0.55566874 0.00059181
0.75559201 0.55290944 0.00429549
0.79370376 0.54682238 0.01147440
0.83134841 0.53607622 0.02648037
0.86835412 0.51888570 0.06946090
0.90447257 0.49408543 0.14847238
0.93905266 0.47070642 0.24633459
0.97030212 0.50069732 0.36630722
0.99373516 0.61920358 0.50451007
1.00000000 0.73526971 0.63176143
1.00000000 0.80077752 0.71086968
0.33308025 0.54337586 0.00013685
0.33308025 0.54337586 0.00013685
0.33308025 0.54337586 0.00013685
0.33314814 0.54338589 0.00013878
0.33560561 0.54374008 0.00025133
0.33882287 0.54420989 0.00036820
0.34303234 0.54483381 0.00050208
0.34849972 0.54565929 0.00063642
0.35553055 0.54674528 0.00072019
0.36445496 0.54816214 0.00062830
0.37559137 0.54998758 0.00016020
0.38923004 0.55216819 0.00021815
0.40571630 0.55489163 0.00006837
0.42526147 0.55823236 0.00000000
0.44790295 0.56199652 0.00000000
0.47368503 0.56629843 0.00000000
0.50240236 0.57094273 0.00000000
0.53378787 0.57578631 0.00000000
0.56744747 0.58058125 0.00000000
0.60268695 0.58480255 0.00000000
0.63933862 0.58844931 0.00000000
0.67699705 0.59123100 0.00000000
0.71520033 0.59270985 0.00000000
0.75355748 0.59238879 0.00111737
0.79179358 0.58966726 0.00790254
0.82966636 0.58372031 0.02203297
0.86697182 0.57353091 0.05429379
0.90342559 0.55867403 0.13269116
0.93843580 0.54388651 0.23450933
0.97030823 0.55651073 0.35625337
0.99384049 0.64416995 0.50330497
1.00000000 0.74605139 0.63371967
1.00000000 0.80739373 0.71350135
0.36748138 0.57991312 0.00013903
0.36748138 0.57991312 0.00013903
0.36748138 0.57991312 0.00013903
0.36753273 0.57992061 0.00014109
0.36939196 0.58018662 0.00025636
0.37183656 0.58054002 0.00037702
0.37505498 0.58101070 0.00051974
0.37927070 0.58163614 0.00068171
0.38475181 0.58246409 0.00084193
0.39180584 0.58355371 0.00092866
0.40075843 0.58497463 0.00073996
0.41191902 0.58680275 0.00004752
0.42560516 0.58898563 0.00020767
0.44213763 0.59171494 0.00000000
0.46175300 0.59506443 0.00000000
0.48446114 0.59882878 0.00000000
0.51028974 0.60312775 0.00000000
0.53904326 0.60776632 0.00000000
0.57045670 0.61260087 0.00000000
0.60413438 0.61738881 0.00000000
0.63934177 0.62157591 0.00000000
0.67593527 0.62519497 0.00000000
0.71350257 0.62796087 0.00000000
0.75157320 0.62943977 0.00000000
0.78974778 0.62914714 0.00330834
0.82773880 0.62653154 0.01804571
0.86526516 0.62098779 0.05168492
0.90201169 0.61235614 0.12484116
0.93735151 0.60366303 0.23045537
0.96962791 0.61112577 0.35568447
0.99367542 0.67281065 0.50433762
1.00000000 0.75946697 0.63681046
1.00000000 0.81580993 0.71714294
0.40230333 0.61650381 0.00009101
0.40230333 0.61650381 0.00009101
0.40230333 0.61650381 0.00009101
0.40234204 0.61650937 0.00009287
0.40374419 0.61670790 0.00019578
0.40559413 0.61697204 0.00030720
0.40804146 0.61732462 0.00044417
0.41126915 0.61779480 0.00061649
0.41550249 0.61842019 0.00082604
0.42101137 0.61924859 0.00104945
0.42809783 0.62033831 0.00114899
0.43708550 0.62175841 0.00081997
0.44828920 0.62358514 0.00000000
0.46204107 0.62577192 0.00023849
0.47864267 0.62850432 0.00000000
0.49831649 0.63184950 0.00000000
0.52106042 0.63560740 0.00000000
0.54691779 0.63989550 0.00000000
0.57569362 0.64452427 0.00000000
0.60711891 0.64935027 0.00000000
0.64079166 0.65413482 0.00000000
0.67593672 0.65829366 0.00000000
0.71243504 0.66189405 0.00000000
0.74986643 0.66465373 0.00000000
0.78775201 0.66615125 0.00000000
0.82567896 0.66593754 0.01201041
0.86332234 0.66361016 0.04923382
0.90029236 0.65912020 0.12702763
0.93594219 0.65443821 0.23049263
0.96862094 0.65977044 0.35733367
0.99335923 0.70321734 0.50652798
1.00000000 0.77542311 0.64129056
1.00000000 0.82617387 0.72192398
0.43749398 0.65308668 0.00001687
0.43749398 0.65308668 0.00001687
0.43749398 0.65308668 0.00001687
0.43752310 0.65309079 0.00001820
0.43857795 0.65323808 0.00009368
0.43997338 0.65343432 0.00018588
0.44182717 0.65369683 0.00031151
0.44428590 0.65404795 0.00049170
0.44753185 0.65451655 0.00074069
0.45178986 0.65513994 0.00105876
0.45732754 0.65596536 0.00139040
0.46445302 0.65705152 0.00157281
0.47348938 0.65846726 0.00115220
0.48475886 0.66029815 0.00000000
0.49855621 0.66247529 0.00057157
0.51519350 0.66519849 0.00004481
0.53489527 0.66852781 0.00000000
0.55766031 0.67227174 0.00000000
0.58353135 0.67654421 0.00000000
0.61231179 0.68116140 0.00000000
0.64372529 0.68597988 0.00000000
0.67736579 0.69076682 0.00000000
0.71241452 0.69490503 0.00000000
0.74877817 0.69849596 0.00000000
0.78602721 0.70126624 0.00000000
0.82366820 0.70282115 0.00230879
0.86125315 0.70281283 0.04397362
