Luts Download/Canon Luts/3dlut/33grid-3dlut/full-to-full-range/CinemaGamut_CanonLog3-to-BT2020_HLGKnee_33_FF_Ver.2.0.cube
# Gamut : Cinema Gamut to BT.2020
# Gamma : Canon Log 3 to HLGKnee
# Range : Full in / Full out
# Version : 2.0 2019/10/24
# Copyright(c) 2019 Canon Inc. All Rights Reserved.
LUT_3D_SIZE 9
# LUT_3D_INPUT_RANGE 0.0 1.0
0.00000000 0.00000004 0.00000002
0.00000000 0.00000004 0.00000002
0.23882734 0.03181022 0.05535469
0.43674139 0.00000000 0.07535576
0.64746564 0.00000000 0.10732529
0.81183650 0.00000000 0.15203435
0.94433773 0.00000000 0.19642908
0.99742069 0.33379200 0.28457236
1.00000000 0.67853554 0.56012229
0.11173580 0.13533709 0.08956895
0.08140797 0.08790757 0.00000000
0.23882734 0.03181022 0.05535469
0.43674139 0.00000000 0.07535576
0.64746564 0.00000000 0.10732529
0.81183650 0.00000000 0.15203435
0.94433773 0.00000000 0.19642908
0.99742069 0.33379200 0.28457236
1.00000000 0.67853554 0.56012229
0.09811708 0.21210036 0.05591481
0.09811708 0.21210036 0.05591481
0.23655342 0.24901650 0.01850128
0.42947922 0.26217719 0.01020259
0.64963891 0.25357768 0.02382443
0.82125441 0.20889125 0.04693016
0.95699782 0.11990593 0.10251850
0.99902357 0.41994866 0.29889055
1.00000000 0.70496219 0.58506952
0.15200540 0.38269198 0.03076508
0.15200540 0.38269198 0.03076508
0.25623044 0.41273020 0.00000000
0.42094390 0.44347464 0.00000000
0.63575110 0.46488361 0.00000000
0.81290014 0.46295498 0.01091499
0.95688818 0.41639352 0.06021223
0.99972753 0.56884742 0.34273286
1.00000000 0.75053638 0.63075865
0.23797268 0.58992285 0.01043756
0.23797268 0.58992285 0.01043756
0.31337115 0.60580111 0.00000000
0.44468105 0.62829830 0.00000000
0.63115173 0.65345734 0.00000000
0.80210397 0.67228768 0.00000000
0.95071925 0.66759685 0.06271830
1.00000000 0.71412402 0.42582755
1.00000000 0.81799803 0.70470908
0.36654482 0.76260917 0.00676127
0.36654482 0.76260917 0.00676127
0.41920366 0.76915606 0.01134020
0.51814434 0.78078803 0.00000000
0.65212556 0.79861030 0.00000000
0.79943945 0.81999543 0.00000000
0.94386534 0.83064437 0.07732010
1.00000000 0.84477882 0.56087969
1.00000000 0.90054545 0.80784034
0.53879188 0.90052500 0.02300363
0.53879188 0.90052500 0.02300363
0.56738578 0.90366842 0.02642065
0.61796669 0.90997649 0.02262629
0.69779460 0.92136706 0.02754221
0.80774725 0.93903951 0.05680199
0.93574118 0.95620052 0.15748180
1.00000000 0.95638592 0.71931741
1.00000000 0.97878185 0.93165103
0.66526126 0.97178741 0.15400987
0.66526126 0.97178741 0.15400987
0.67754407 0.97402716 0.16316766
0.70234633 0.97857844 0.18408597
0.75385497 0.98648352 0.25880490
0.84414908 0.99665146 0.48726715
0.94641555 1.00000000 0.79375383
1.00000000 1.00000000 1.00000000
1.00000000 1.00000000 1.00000000
0.89839928 1.00000000 0.77132728
0.89839928 1.00000000 0.77132728
0.90429995 1.00000000 0.78354624
0.91597450 1.00000000 0.80765530
0.93792548 1.00000000 0.85346501
0.97323596 1.00000000 0.92874430
1.00000000 1.00000000 1.00000000
1.00000000 1.00000000 1.00000000
1.00000000 1.00000000 1.00000000
0.00000000 0.00000004 0.00000002
0.00000000 0.00000004 0.00000002
0.23882734 0.03181022 0.05535469
0.43674139 0.00000000 0.07535576
0.64746564 0.00000000 0.10732529
0.81183650 0.00000000 0.15203435
0.94433773 0.00000000 0.19642908
0.99742069 0.33379200 0.28457236
1.00000000 0.67853554 0.56012229
0.00000000 0.00000004 0.00000002
0.00000000 0.00000004 0.00000002
0.23882734 0.03181022 0.05535469
0.43674139 0.00000000 0.07535576
0.64746564 0.00000000 0.10732529
0.81183650 0.00000000 0.15203435
0.94433773 0.00000000 0.19642908
0.99742069 0.33379200 0.28457236
1.00000000 0.67853554 0.56012229
0.09811708 0.21210036 0.05591481
0.09811708 0.21210036 0.05591481
0.23655342 0.24901650 0.01850128
0.42947922 0.26217719 0.01020259
0.64963891 0.25357768 0.02382443
0.82125441 0.20889125 0.04693016
0.95699782 0.11990593 0.10251850
0.99902357 0.41994866 0.29889055
1.00000000 0.70496219 0.58506952
0.15200540 0.38269198 0.03076508
0.15200540 0.38269198 0.03076508
0.25623044 0.41273020 0.00000000
0.42094390 0.44347464 0.00000000
0.63575110 0.46488361 0.00000000
0.81290014 0.46295498 0.01091499
0.95688818 0.41639352 0.06021223
0.99972753 0.56884742 0.34273286
1.00000000 0.75053638 0.63075865
0.23797268 0.58992285 0.01043756
0.23797268 0.58992285 0.01043756
0.31337115 0.60580111 0.00000000
0.44468105 0.62829830 0.00000000
0.63115173 0.65345734 0.00000000
0.80210397 0.67228768 0.00000000
0.95071925 0.66759685 0.06271830
1.00000000 0.71412402 0.42582755
1.00000000 0.81799803 0.70470908
0.36654482 0.76260917 0.00676127
0.36654482 0.76260917 0.00676127
0.41920366 0.76915606 0.01134020
0.51814434 0.78078803 0.00000000
0.65212556 0.79861030 0.00000000
0.79943945 0.81999543 0.00000000
0.94386534 0.83064437 0.07732010
1.00000000 0.84477882 0.56087969
1.00000000 0.90054545 0.80784034
0.53879188 0.90052500 0.02300363
0.53879188 0.90052500 0.02300363
0.56738578 0.90366842 0.02642065
0.61796669 0.90997649 0.02262629
0.69779460 0.92136706 0.02754221
0.80774725 0.93903951 0.05680199
0.93574118 0.95620052 0.15748180
1.00000000 0.95638592 0.71931741
1.00000000 0.97878185 0.93165103
0.66526126 0.97178741 0.15400987
0.66526126 0.97178741 0.15400987
0.67754407 0.97402716 0.16316766
0.70234633 0.97857844 0.18408597
0.75385497 0.98648352 0.25880490
0.84414908 0.99665146 0.48726715
0.94641555 1.00000000 0.79375383
1.00000000 1.00000000 1.00000000
1.00000000 1.00000000 1.00000000
0.89839928 1.00000000 0.77132728
0.89839928 1.00000000 0.77132728
0.90429995 1.00000000 0.78354624
0.91597450 1.00000000 0.80765530
0.93792548 1.00000000 0.85346501
0.97323596 1.00000000 0.92874430
1.00000000 1.00000000 1.00000000
1.00000000 1.00000000 1.00000000
1.00000000 1.00000000 1.00000000
0.05823521 0.01666268 0.18954408
0.05823521 0.01666268 0.18954408
0.21428440 0.00000000 0.22817851
0.40997525 0.00000000 0.26597420
0.63340141 0.00000000 0.29567404
0.80512095 0.00000000 0.32034945
0.94001367 0.00000000 0.32796959
0.99635781 0.31008381 0.33403022
1.00000000 0.66815572 0.55904960
0.05823521 0.01666268 0.18954408
0.05823521 0.01666268 0.18954408
0.21428440 0.00000000 0.22817851
0.40997525 0.00000000 0.26597420
0.63340141 0.00000000 0.29567404
0.80512095 0.00000000 0.32034945
0.94001367 0.00000000 0.32796959
0.99635781 0.31008381 0.33403022
1.00000000 0.66815572 0.55904960
0.04928541 0.24020412 0.23524866
0.04928541 0.24020412 0.23524866
0.24181371 0.24181371 0.24181371
0.44979474 0.22693661 0.23980483
0.66346678 0.19034505 0.23534648
0.82079605 0.16972768 0.25548192
0.95050149 0.15608638 0.27193830
0.99686020 0.40641371 0.33985728
1.00000000 0.69275259 0.57939087
0.08425297 0.46993474 0.19495279
0.08425297 0.46993474 0.19495279
0.23471804 0.47397554 0.16100418
0.44602017 0.46656100 0.15797099
0.66099483 0.45127762 0.15731755
0.82851948 0.41599852 0.14507042
0.96777076 0.32249287 0.10366447
0.99996907 0.54848209 0.35660713
1.00000000 0.74073804 0.62492413
0.16654620 0.65041494 0.06245861
0.16654620 0.65041494 0.06245861
0.27978505 0.65879934 0.00000000
0.45047682 0.66685614 0.00000000
0.65042051 0.67240328 0.00000000
0.81711289 0.67195762 0.00000000
0.95949758 0.65331136 0.07574717
1.00000000 0.71132739 0.44812423
1.00000000 0.81433452 0.70458137
0.33183064 0.78681969 0.01406825
0.33183064 0.78681969 0.01406825
0.39621716 0.79188838 0.00000000
0.51137180 0.80053624 0.00000000
0.65736629 0.81326432 0.00000000
0.80719650 0.82770806 0.00000000
0.95002476 0.83194183 0.09363298
1.00000000 0.84701892 0.58601308
1.00000000 0.90060149 0.81141786
0.52372552 0.91176835 0.01769556
0.52372552 0.91176835 0.01769556
0.55687546 0.91447804 0.03164078
0.61272437 0.91997768 0.03346226
0.69771881 0.92998564 0.03765967
0.81076237 0.94536408 0.06924300
0.93931022 0.95980450 0.17664620
1.00000000 0.95878840 0.74103479
1.00000000 0.97989899 0.93614850
0.66887109 0.97831102 0.17841228
0.66887109 0.97831102 0.17841228
0.68246807 0.98024747 0.19226956
0.71073756 0.98398795 0.22785041
0.76243417 0.99103905 0.30291416
0.85604011 0.99810503 0.56002526
0.95175521 1.00000000 0.81928745
1.00000000 1.00000000 1.00000000
1.00000000 1.00000000 1.00000000
0.90901363 1.00000000 0.79770020
0.90901363 1.00000000 0.79770020
0.91429746 1.00000000 0.80840839
0.92508244 1.00000000 0.83029366
0.94536880 1.00000000 0.87195515
0.97828405 1.00000000 0.94114493
1.00000000 1.00000000 1.00000000
1.00000000 1.00000000 1.00000000
1.00000000 1.00000000 1.00000000
0.09980619 0.01952054 0.34815588
0.09980619 0.01952054 0.34815588
0.19925823 0.00000000 0.33008538
0.38373806 0.00000000 0.39883316
0.61422486 0.00000000 0.46113630
0.79382441 0.00000000 0.50894951
0.93342491 0.00000000 0.52095265
0.99536266 0.27693034 0.47771483
1.00000000 0.66313358 0.60931566
0.09980619 0.01952054 0.34815588
0.09980619 0.01952054 0.34815588
0.19925823 0.00000000 0.33008538
0.38373806 0.00000000 0.39883316
0.61422486 0.00000000 0.46113630
0.79382441 0.00000000 0.50894951
0.93342491 0.00000000 0.52095265
0.99536266 0.27693034 0.47771483
1.00000000 0.66313358 0.60931566
0.00000000 0.18856452 0.38787943
0.00000000 0.18856452 0.38787943
0.21054807 0.15995413 0.46723619
0.43378789 0.13642463 0.46619968
0.64497903 0.14194437 0.46113625
0.81077351 0.13669962 0.47950928
0.94356090 0.14893197 0.48931891
0.99575285 0.37980138 0.48559645
1.00000000 0.68991621 0.62493550
0.09125505 0.42741726 0.41817831
0.09125505 0.42741726 0.41817831
0.20235903 0.43790896 0.43099667
0.42987279 0.42987279 0.42987279
0.65629964 0.41173004 0.42740171
0.82779665 0.36890345 0.42194068
0.95927557 0.32968733 0.42654393
0.99556323 0.54461604 0.50795986
1.00000000 0.73625414 0.65507535
0.13573778 0.67165720 0.37617795
0.13573778 0.67165720 0.37617795
0.21569086 0.67623701 0.34952646
0.42117352 0.67562531 0.33692454
0.65318332 0.66981307 0.33376601
0.82660862 0.65638629 0.32674373
0.96733482 0.62346121 0.32305607
0.99688996 0.70657063 0.54822924
1.00000000 0.80997768 0.71436923
0.16133777 0.83487007 0.12959937
0.16133777 0.83487007 0.12959937
0.26421174 0.83870818 0.06912184
0.44767646 0.84251526 0.00000000
0.65762231 0.84449339 0.00000000
0.82272025 0.84306839 0.00000000
0.96394462 0.83237915 0.10143170
1.00000000 0.84895425 0.62113413
1.00000000 0.89926677 0.81527967
0.46599256 0.93503347 0.04714806
0.46599256 0.93503347 0.04714806
0.51414878 0.93717968 0.04600141
0.59145372 0.94122444 0.05191588
0.69387739 0.94828897 0.05958184
0.81645336 0.95872199 0.10163559
0.94670536 0.96733450 0.23680030
1.00000000 0.96353536 0.78253700
1.00000000 0.98205819 0.94431684
0.69131807 0.99003572 0.27866921
0.69131807 0.99003572 0.27866921
0.70665808 0.99143961 0.29770599
0.73765735 0.99378053 0.34500506
0.79729725 0.99673513 0.47110362
0.88078686 1.00000000 0.67395053
0.96280841 1.00000000 0.86812338
1.00000000 1.00000000 1.00000000
1.00000000 1.00000000 1.00000000
0.92929931 1.00000000 0.84584016
0.92929931 1.00000000 0.84584016
0.93369232 1.00000000 0.85446189
0.94240046 1.00000000 0.87156828
0.95959145 1.00000000 0.90586675
0.98789247 1.00000000 0.96352291
1.00000000 1.00000000 1.00000000
1.00000000 1.00000000 1.00000000
1.00000000 1.00000000 1.00000000
0.15009817 0.01439658 0.55032615
0.15009817 0.01439658 0.55032615
0.20761297 0.00000000 0.48321886
0.36454531 0.00000000 0.52388330
0.59570967 0.00000000 0.60404401
0.77986208 0.00000000 0.66049963
0.92240299 0.04796374 0.68268734
0.99265540 0.22610536 0.63647520
1.00000000 0.64868666 0.67997613
0.15009817 0.01439658 0.55032615
0.15009817 0.01439658 0.55032615
0.20761297 0.00000000 0.48321886
0.36454531 0.00000000 0.52388330
0.59570967 0.00000000 0.60404401
0.77986208 0.00000000 0.66049963
0.92240299 0.04796374 0.68268734
0.99265540 0.22610536 0.63647520
1.00000000 0.64868666 0.67997613
0.05054760 0.14093819 0.60474511
0.05054760 0.14093819 0.60474511
0.16001836 0.00000000 0.59401388
0.36614032 0.00000000 0.58751592
0.61199408 0.00000000 0.62842098
0.79320165 0.04947666 0.66320049
0.93214497 0.09358901 0.67521273
0.99449465 0.30903659 0.63501472
1.00000000 0.67299008 0.68867652
0.00000000 0.35964200 0.58489285
0.00000000 0.35964200 0.58489285
0.13617194 0.35120068 0.65048413
0.39220313 0.33582767 0.67034640
0.64288697 0.31226789 0.66952734
0.82277396 0.25313901 0.66772078
0.95104161 0.26809329 0.66123221
0.99567705 0.49078832 0.64777395
1.00000000 0.72411452 0.71360502
0.13151760 0.63746298 0.62784096
0.13151760 0.63746298 0.62784096
0.18738633 0.64401048 0.63558046
0.38264842 0.64639017 0.64049390
0.63952564 0.63952564 0.63952564
0.82155198 0.62350687 0.63738711
0.96363276 0.58898184 0.63054037
0.99605366 0.68680878 0.67830871
1.00000000 0.80231176 0.76245776
0.16741330 0.83470029 0.58456525
0.16741330 0.83470029 0.58456525
0.23169625 0.83705571 0.57355956
0.36084578 0.84074836 0.54980375
0.63193758 0.83846235 0.54819306
0.81884691 0.83335264 0.54461491
0.96803306 0.81753887 0.54452248
0.99895382 0.84488130 0.73747073
1.00000000 0.90122912 0.84851383
0.22336340 0.98066991 0.23484907
0.22336340 0.98066991 0.23484907
0.29347798 0.98249228 0.20293196
0.48474036 0.98182240 0.20205585
0.67823218 0.98039152 0.23371665
0.82529733 0.98033262 0.29047945
0.95835715 0.97905014 0.40273260
1.00000000 0.97119460 0.84114463
1.00000000 0.98688111 0.95878027
0.80382639 1.00000000 0.63468967
0.80382639 1.00000000 0.63468967
0.81489597 1.00000000 0.64960625
0.83539130 1.00000000 0.67757312
0.87008603 1.00000000 0.72722626
0.92313245 1.00000000 0.81525635
0.98191303 1.00000000 0.93551888
1.00000000 1.00000000 1.00000000
1.00000000 1.00000000 1.00000000
0.96407249 1.00000000 0.92230860
0.96407249 1.00000000 0.92230860
0.96708917 1.00000000 0.92794779
0.97304941 1.00000000 0.93908763
0.98450634 1.00000000 0.96082106
1.00000000 1.00000000 1.00000000
1.00000000 1.00000000 1.00000000
1.00000000 1.00000000 1.00000000
1.00000000 1.00000000 1.00000000
0.21716607 0.01253058 0.72632736
0.21716607 0.01253058 0.72632736
0.25999709 0.03675096 0.69177962
0.34045805 0.00000000 0.64738409
0.57208516 0.00000000 0.70188044
0.76489109 0.00000000 0.76640412
0.90815164 0.04595676 0.79912379
0.98448485 0.18023441 0.76359101
1.00000000 0.62005447 0.75654271
0.21716607 0.01253058 0.72632736
0.21716607 0.01253058 0.72632736
0.25999709 0.03675096 0.69177962
0.34045805 0.00000000 0.64738409
0.57208516 0.00000000 0.70188044
0.76489109 0.00000000 0.76640412
0.90815164 0.04595676 0.79912379
0.98448485 0.18023441 0.76359101
1.00000000 0.62005447 0.75654271
0.16520646 0.04872281 0.76987115
0.16520646 0.04872281 0.76987115
0.22400225 0.01689891 0.73968020
0.31604783 0.00000000 0.67876074
0.56361696 0.00000000 0.70993570
0.76981525 0.00000000 0.77208737
0.91401106 0.00000000 0.80014372
0.98834832 0.18654472 0.76089488
1.00000000 0.63173031 0.75569536
0.00000000 0.30864562 0.74848873
0.00000000 0.30864562 0.74848873
0.05226358 0.22225736 0.78593685
0.28693327 0.09034004 0.78835796
0.58625203 0.12825579 0.78728840
0.78712549 0.13514647 0.80425463
0.93122685 0.16007633 0.81027922
0.99405405 0.36532556 0.76618261
1.00000000 0.69040625 0.77247324
0.00000000 0.57078048 0.75274568
0.00000000 0.57078048 0.75274568
0.08544892 0.57039883 0.78060187
0.28038543 0.55832834 0.83414795
0.60539010 0.54695475 0.83382066
0.80995425 0.51919590 0.83310196
0.96044961 0.45444710 0.82057041
0.99744846 0.63188375 0.78389438
1.00000000 0.78135521 0.81005130
0.16305951 0.80522583 0.79635062
0.16305951 0.80522583 0.79635062
0.21015187 0.80805968 0.79970262
0.31703494 0.81294359 0.80563841
0.59616436 0.81297201 0.80789753
0.80706646 0.80706646 0.80706646
0.95725278 0.79536645 0.80483545
0.99615307 0.82903372 0.82898549
1.00000000 0.89498211 0.88298726
0.30096175 0.96696257 0.74706350
0.30096175 0.96696257 0.74706350
0.35679887 0.96786155 0.74537640
0.46653275 0.96937543 0.74246794
0.61802437 0.97268385 0.73355039
0.80527504 0.97173782 0.74148957
0.95443414 0.96794601 0.74180863
1.00000000 0.96544498 0.90835995
1.00000000 0.99635016 0.98696997
0.88107391 1.00000000 0.82311398
0.88107391 1.00000000 0.82311398
0.88666734 1.00000000 0.82802755
0.89777064 1.00000000 0.83841561
0.91874317 1.00000000 0.86063875
0.95391083 1.00000000 0.90705051
1.00000000 1.00000000 1.00000000
1.00000000 1.00000000 1.00000000
1.00000000 1.00000000 1.00000000
1.00000000 1.00000000 1.00000000
1.00000000 1.00000000 1.00000000
1.00000000 1.00000000 1.00000000
1.00000000 1.00000000 1.00000000
1.00000000 1.00000000 1.00000000
1.00000000 1.00000000 1.00000000
1.00000000 1.00000000 1.00000000
1.00000000 1.00000000 1.00000000
1.00000000 1.00000000 1.00000000
0.29732672 0.01967440 0.86446575
0.29732672 0.01967440 0.86446575
0.32574361 0.05082392 0.84722581
0.37933808 0.05873582 0.81161385
0.52360568 0.00000000 0.78564968
0.73766049 0.00000000 0.84260607
0.89121124 0.02789382 0.88823919
0.97239651 0.12541766 0.86663705
1.00000000 0.57432821 0.83501637
0.29732672 0.01967440 0.86446575
0.29732672 0.01967440 0.86446575
0.32574361 0.05082392 0.84722581
0.37933808 0.05873582 0.81161385
0.52360568 0.00000000 0.78564968
0.73766049 0.00000000 0.84260607
0.89121124 0.02789382 0.88823919
0.97239651 0.12541766 0.86663705
1.00000000 0.57432821 0.83501637
0.26858662 0.00000000 0.88757323
0.26858662 0.00000000 0.88757323
0.30212687 0.02427388 0.87051109
0.36241984 0.05211613 0.83365277
0.49548963 0.00000000 0.78910984
0.73463302 0.00000000 0.84428854
0.89281260 0.00000000 0.88989506
0.97428756 0.13077326 0.86679227
1.00000000 0.58423134 0.83454102
0.17797886 0.13115701 0.92351525
0.17797886 0.13115701 0.92351525
0.22931505 0.08261450 0.91486744
0.31221316 0.02720735 0.88310713
0.44644407 0.00000000 0.82348174
0.73298896 0.00000000 0.86060030
0.90072558 0.00000000 0.89932581
0.98114569 0.12337957 0.86960042
1.00000000 0.61444200 0.83576463
0.00000000 0.50795962 0.87371439
0.00000000 0.50795962 0.87371439
0.00000000 0.47107050 0.88942128
0.00000000 0.33191936 0.93461464
0.49257277 0.29152428 0.94180782
0.76543473 0.28399774 0.94537199
0.92842792 0.27600095 0.94446307
0.99465506 0.48514572 0.88588837
1.00000000 0.73420261 0.85923074
0.00000000 0.75046448 0.90367363
0.00000000 0.75046448 0.90367363
0.09286468 0.75148733 0.91555039
0.22469835 0.75194940 0.94222444
0.53764430 0.74925630 0.96116997
0.78089816 0.74368602 0.96857442
0.94779094 0.72558140 0.96596342
0.99894833 0.78304291 0.90727005
1.00000000 0.87121772 0.90915388
0.17102430 0.94243203 0.93375007
0.17102430 0.94243203 0.93375007
0.23104257 0.94370096 0.93526154
0.33875652 0.94609265 0.93816052
0.55054714 0.94916531 0.94228470
0.77583555 0.94964814 0.94500402
0.94441540 0.94441540 0.94441540
0.99880788 0.95522702 0.95602162
1.00000000 0.99442280 0.99371391
0.84737162 0.99873897 0.89815396
0.84737162 0.99873897 0.89815396
0.85479741 0.99881778 0.90080272
0.86972705 0.99900233 0.90653622
0.89767001 0.99960747 0.91892519
0.94397680 1.00000000 0.94586553
1.00000000 1.00000000 1.00000000
1.00000000 1.00000000 1.00000000
1.00000000 1.00000000 1.00000000
1.00000000 1.00000000 1.00000000
1.00000000 1.00000000 1.00000000
1.00000000 1.00000000 1.00000000
1.00000000 1.00000000 1.00000000
1.00000000 1.00000000 1.00000000
1.00000000 1.00000000 1.00000000
1.00000000 1.00000000 1.00000000
1.00000000 1.00000000 1.00000000
1.00000000 1.00000000 1.00000000
0.34037814 0.03554233 0.94055283
0.34037814 0.03554233 0.94055283
0.35617519 0.05087605 0.93090547
0.38787958 0.06781291 0.91024460
0.44770308 0.00000000 0.87176329
0.68074663 0.00000000 0.90379184
0.85708108 0.01916970 0.94983037
0.95465175 0.10599485 0.94747916
1.00000000 0.51436861 0.91452459
0.34037814 0.03554233 0.94055283
0.34037814 0.03554233 0.94055283
0.35617519 0.05087605 0.93090547
0.38787958 0.06781291 0.91024460
0.44770308 0.00000000 0.87176329
0.68074663 0.00000000 0.90379184
0.85708108 0.01916970 0.94983037
0.95465175 0.10599485 0.94747916
1.00000000 0.51436861 0.91452459
0.32704422 0.01746989 0.95372243
0.32704422 0.01746989 0.95372243
0.34456951 0.04352758 0.94419380
0.37821034 0.06280002 0.92340158
0.43911008 0.00000000 0.88121433
0.67217471 0.00000000 0.90466274
0.85650759 0.00638140 0.95106306
0.95548119 0.10861659 0.94828846
1.00000000 0.52323576 0.91432865
0.29340677 0.08118879 0.97978025
0.29340677 0.08118879 0.97978025
0.31356193 0.06965878 0.97136496
0.35333153 0.06743883 0.95108991
0.42242580 0.03512109 0.90605126
0.65091932 0.00000000 0.91064460
0.85618094 0.00000000 0.95623955
0.95805625 0.07816446 0.95112089
1.00000000 0.54058694 0.91399190
0.19106941 0.37388287 0.98856507
0.19106941 0.37388287 0.98856507
0.21805184 0.33890701 0.99048279
0.27316474 0.25555816 0.99025390
0.37155213 0.10627063 0.96476092
0.66593619 0.19503703 0.97365748
0.87960156 0.22812997 0.98772703
0.97662413 0.30699885 0.96936923
1.00000000 0.67358544 0.92184726
0.02826714 0.68505127 0.97804597
0.02826714 0.68505127 0.97804597
0.00000000 0.67553894 0.98370033
0.18401555 0.67853489 0.99006180
0.43530209 0.70471826 0.98443399
0.72385657 0.71584900 0.98845684
0.89119987 0.73102746 0.99965373
0.98499451 0.74074788 0.98206560
1.00000000 0.84302712 0.94663013
0.56864905 0.89692117 1.00000000
0.56864905 0.89692117 1.00000000
0.60099899 0.89746196 1.00000000
0.65529201 0.89870026 1.00000000
0.73526353 0.90171143 1.00000000
0.83638544 0.90954560 0.99827395
0.93130925 0.92666444 0.99856468
0.99232163 0.93973519 0.99302706
1.00000000 0.98409933 0.99586711
0.79114263 0.99109468 0.98387299
0.79114263 0.99109468 0.98387299
0.80202115 0.99121565 0.98420703
0.82317406 0.99153081 0.98497760
0.86110501 0.99246483 0.98687881
0.92178157 0.99499997 0.99142130
0.99025979 1.00000000 1.00000000
1.00000000 1.00000000 1.00000000
1.00000000 1.00000000 1.00000000
1.00000000 1.00000000 1.00000000
1.00000000 1.00000000 1.00000000
1.00000000 1.00000000 1.00000000
1.00000000 1.00000000 1.00000000
1.00000000 1.00000000 1.00000000
1.00000000 1.00000000 1.00000000
1.00000000 1.00000000 1.00000000
1.00000000 1.00000000 1.00000000
1.00000000 1.00000000 1.00000000
0.40871136 0.18997291 1.00000000
0.40871136 0.18997291 1.00000000
0.41692440 0.17275762 1.00000000
0.43376836 0.13965326 0.99745978
0.46269294 0.14553965 0.96898150
0.56401610 0.00000000 0.95810733
0.79922841 0.00000000 1.00000000
0.91959432 0.11813498 1.00000000
1.00000000 0.41826708 0.99134794
0.40871136 0.18997291 1.00000000
0.40871136 0.18997291 1.00000000
0.41692440 0.17275762 1.00000000
0.43376836 0.13965326 0.99745978
0.46269294 0.14553965 0.96898150
0.56401610 0.00000000 0.95810733
0.79922841 0.00000000 1.00000000
0.91959432 0.11813498 1.00000000
1.00000000 0.41826708 0.99134794
0.40348521 0.22793900 1.00000000
0.40348521 0.22793900 1.00000000
0.41174929 0.20614230 1.00000000
0.42909515 0.16753050 1.00000000
0.46054318 0.14360230 0.97745030
0.55111911 0.00000000 0.95789292
0.79600116 0.00000000 1.00000000
0.91911943 0.12422846 1.00000000
1.00000000 0.42475998 0.99119361
0.39224474 0.30759403 1.00000000
0.39224474 0.30759403 1.00000000
0.40034665 0.28516773 1.00000000
0.41822349 0.24061067 1.00000000
0.45372291 0.16529608 0.99198762
0.51966675 0.00000000 0.95783182
0.78866383 0.00000000 1.00000000
0.91820470 0.12914453 1.00000000
1.00000000 0.43774177 0.99094047
0.37431355 0.45902938 1.00000000
0.37431355 0.45902938 1.00000000
0.38095763 0.44048463 1.00000000
0.39723184 0.40200358 1.00000000
0.43234597 0.30852101 1.00000000
0.49935789 0.00000000 0.98085330
0.77894037 0.12015703 1.00000000
0.92072734 0.21788490 1.00000000
1.00000000 0.52749625 0.98912056
0.38877087 0.66577437 1.00000000
0.38877087 0.66577437 1.00000000
0.39142814 0.65862490 1.00000000
0.39755226 0.64097699 1.00000000
0.41715237 0.59429579 1.00000000
0.61303810 0.65479798 0.99966081
0.81447928 0.70815895 1.00000000
0.94165602 0.71693963 1.00000000
1.00000000 0.79460252 0.98662439
0.61981812 0.84835119 1.00000000
0.61981812 0.84835119 1.00000000
0.63450090 0.85103536 1.00000000
0.66268851 0.85658432 1.00000000
0.71296058 0.86764691 1.00000000
0.79156995 0.88730501 1.00000000
0.89647764 0.90651033 1.00000000
0.96480777 0.92276049 1.00000000
1.00000000 0.96252464 1.00000000
0.83608908 0.95071555 1.00000000
0.83608908 0.95071555 1.00000000
0.84255477 0.95165386 1.00000000
0.85564834 0.95369311 0.99999344
0.88098128 0.95817184 0.99957246
0.92411343 0.96817407 0.99897887
0.97626665 0.98755540 1.00000000
1.00000000 1.00000000 1.00000000
1.00000000 1.00000000 1.00000000
1.00000000 1.00000000 1.00000000
1.00000000 1.00000000 1.00000000
1.00000000 1.00000000 1.00000000
1.00000000 1.00000000 1.00000000
1.00000000 1.00000000 1.00000000
1.00000000 1.00000000 1.00000000
1.00000000 1.00000000 1.00000000
1.00000000 1.00000000 1.00000000
1.00000000 1.00000000 1.00000000
