Luts Download/Canon Luts/3dlut/33grid-3dlut/full-to-full-range/CinemaGamut_CanonLog2-to-BT2020_HLGKnee_33_FF_Ver.2.0.cube
# Gamut : Cinema Gamut to BT.2020
# Gamma : Canon Log 2 to HLGKnee
# Range : Full in / Full out
# Version : 2.0 2019/10/24
# Copyright(c) 2019 Canon Inc. All Rights Reserved.
LUT_3D_SIZE 9
# LUT_3D_INPUT_RANGE 0.0 1.0
0.00000004 0.00000000 0.00000003
0.04747984 0.01731444 0.01933651
0.17031531 0.00981454 0.03328726
0.34428112 0.00000000 0.05368462
0.61356603 0.00000000 0.09002097
0.84907188 0.00000000 0.14685657
0.98860993 0.23489671 0.23451567
1.00000000 0.73680267 0.63280641
1.00000000 0.91426090 0.87043429
0.02894522 0.04544688 0.02475878
0.05277017 0.05498330 0.02474338
0.17113882 0.05889314 0.02327464
0.34708387 0.03949851 0.03857934
0.61606096 0.00000000 0.07787200
0.85044350 0.00000000 0.13958023
0.98923751 0.23564042 0.23256965
1.00000000 0.73773619 0.63373389
1.00000000 0.91461969 0.87093274
0.06340054 0.14966909 0.02524493
0.07588626 0.15477824 0.01887630
0.16540666 0.17421967 0.00000000
0.33786598 0.18381450 0.00666306
0.61884133 0.16158882 0.02191852
0.85879211 0.05621684 0.08198559
0.99191871 0.27105795 0.22726729
1.00000000 0.74560154 0.64161528
1.00000000 0.91764832 0.87508951
0.11842239 0.29994469 0.01067997
0.12657876 0.30249177 0.00937202
0.18716990 0.31981013 0.00000000
0.33005144 0.34797163 0.00000000
0.60391859 0.36761219 0.00000000
0.85692510 0.33630507 0.02891787
0.99476024 0.40709488 0.23561386
1.00000000 0.76950216 0.66662423
1.00000000 0.92718891 0.88835599
0.22380244 0.55361962 0.00339869
0.22846919 0.55477935 0.00581945
0.26594481 0.56409011 0.00404225
0.36824969 0.58615105 0.00000000
0.59718281 0.62064029 0.00000000
0.84381472 0.64412473 0.02231629
0.99478912 0.65933704 0.29826838
1.00000000 0.83158630 0.73793230
1.00000000 0.95408423 0.92646657
0.41535622 0.80215529 0.01455669
0.41792654 0.80243488 0.01552081
0.43948150 0.80480960 0.01933067
0.50484978 0.81205207 0.01420819
0.64260136 0.82982658 0.00000000
0.83873702 0.85947321 0.05067151
0.99760055 0.86809290 0.44449913
1.00000000 0.93263372 0.87042845
1.00000000 1.00000000 1.00000000
0.64073440 0.95442773 0.15341475
0.64154000 0.95454939 0.15389022
0.64824519 0.95560582 0.15741719
0.66875466 0.95898358 0.16797639
0.72533952 0.96882549 0.20346551
0.85097956 0.98989487 0.39682666
0.98586581 1.00000000 0.83085489
1.00000000 1.00000000 1.00000000
1.00000000 1.00000000 1.00000000
0.94854896 1.00000000 0.88403107
0.94871675 1.00000000 0.88436665
0.95008970 1.00000000 0.88704301
0.95441584 1.00000000 0.89544905
0.96734283 1.00000000 0.92060783
1.00000000 1.00000000 1.00000000
1.00000000 1.00000000 1.00000000
1.00000000 1.00000000 1.00000000
1.00000000 1.00000000 1.00000000
1.00000000 1.00000000 1.00000000
1.00000000 1.00000000 1.00000000
1.00000000 1.00000000 1.00000000
1.00000000 1.00000000 1.00000000
1.00000000 1.00000000 1.00000000
1.00000000 1.00000000 1.00000000
1.00000000 1.00000000 1.00000000
1.00000000 1.00000000 1.00000000
1.00000000 1.00000000 1.00000000
0.01306001 0.00482208 0.03990981
0.04612466 0.00000000 0.04965647
0.16804201 0.00000000 0.06728940
0.34365275 0.00000000 0.08142215
0.61513854 0.00000000 0.10064732
0.84873949 0.01444202 0.15356894
0.98824551 0.23549505 0.23709880
1.00000000 0.73627352 0.63244899
1.00000000 0.91400322 0.87008988
0.02210313 0.05229152 0.05139776
0.05426708 0.05426708 0.05426708
0.17454516 0.04802906 0.05795872
0.34833514 0.02739396 0.06779130
0.61742789 0.00000000 0.08923685
0.85005728 0.00000000 0.14670678
0.98887902 0.23619788 0.23515379
1.00000000 0.73721155 0.63337978
1.00000000 0.91434314 0.87056676
0.05428212 0.16805081 0.03086981
0.07011731 0.17184253 0.02091988
0.17176310 0.18093269 0.00000000
0.34599393 0.17994633 0.00637702
0.62236391 0.15125843 0.02669643
0.85875105 0.05099837 0.09004380
0.99171335 0.27018005 0.22930846
1.00000000 0.74511050 0.64128351
1.00000000 0.91737883 0.87472954
0.11426857 0.30917942 0.01263731
0.12305283 0.31149159 0.01051131
0.18724802 0.32716193 0.00000000
0.33330643 0.35140796 0.00000000
0.60674653 0.36631762 0.00000000
0.85789553 0.33143428 0.03014389
0.99479596 0.40511848 0.23664138
1.00000000 0.76905107 0.66628430
1.00000000 0.92694294 0.88801987
0.22160780 0.55766169 0.00000000
0.22640239 0.55877378 0.00376255
0.26477249 0.56771720 0.00415691
0.36860741 0.58893495 0.00000000
0.59843458 0.62186452 0.00000000
0.84452990 0.64376291 0.02237824
0.99488129 0.65898942 0.29939226
1.00000000 0.83137550 0.73781372
1.00000000 0.95390673 0.92621810
0.41419078 0.80315799 0.01368988
0.41678294 0.80343423 0.01473853
0.43850609 0.80578146 0.01885588
0.50434104 0.81294082 0.01462448
0.64275385 0.83051947 0.00000000
0.83905750 0.85979253 0.05095899
0.99767054 0.86822122 0.44619245
1.00000000 0.93264012 0.87054466
1.00000000 1.00000000 1.00000000
0.64083060 0.95480687 0.15433338
0.64163658 0.95492800 0.15480590
0.64834313 0.95598014 0.15830553
0.66886301 0.95934370 0.16881509
0.72557998 0.96913168 0.20471116
0.85128210 0.99006736 0.39889446
0.98597634 1.00000000 0.83220586
1.00000000 1.00000000 1.00000000
1.00000000 1.00000000 1.00000000
0.94887423 1.00000000 0.88477674
0.94904133 1.00000000 0.88511070
0.95040843 1.00000000 0.88777325
0.95471650 1.00000000 0.89613652
0.96759441 1.00000000 0.92118785
1.00000000 1.00000000 1.00000000
1.00000000 1.00000000 1.00000000
1.00000000 1.00000000 1.00000000
1.00000000 1.00000000 1.00000000
1.00000000 1.00000000 1.00000000
1.00000000 1.00000000 1.00000000
1.00000000 1.00000000 1.00000000
1.00000000 1.00000000 1.00000000
1.00000000 1.00000000 1.00000000
1.00000000 1.00000000 1.00000000
1.00000000 1.00000000 1.00000000
1.00000000 1.00000000 1.00000000
1.00000000 1.00000000 1.00000000
0.04067415 0.01116719 0.13678551
0.05149980 0.00000000 0.13325967
0.15234914 0.00000000 0.15998908
0.32833050 0.00000000 0.19532685
0.60696070 0.00000000 0.22212328
0.84602666 0.03445344 0.24271891
0.98626378 0.23192586 0.25618374
1.00000000 0.73104313 0.62845800
1.00000000 0.91177958 0.86718707
0.02724958 0.03205558 0.15042335
0.04268175 0.00000000 0.15005534
0.15771123 0.00000000 0.16676037
0.33496352 0.00000000 0.19222021
0.60928328 0.01576114 0.21601077
0.84685442 0.04566178 0.23822306
0.98681330 0.23327464 0.25453243
1.00000000 0.73204224 0.62944873
1.00000000 0.91212537 0.86766903
0.03363285 0.16830730 0.16472204
0.04825880 0.17000868 0.16668168
0.16895397 0.16895397 0.16895397
0.35300322 0.15455754 0.16703079
0.62288284 0.12680398 0.17348941
0.85435246 0.09680221 0.19634729
0.99068464 0.25418501 0.24341824
1.00000000 0.74036875 0.63773385
1.00000000 0.91504266 0.87168117
0.04876174 0.37369205 0.10979989
0.06094830 0.37395048 0.10442668
0.16691106 0.37323409 0.08924817
0.35031269 0.36781994 0.08791701
0.62669073 0.34955989 0.07781099
0.86606763 0.28330402 0.04468592
0.99509994 0.38623500 0.24481979
1.00000000 0.76522681 0.66342287
1.00000000 0.92480874 0.88517002
0.19372099 0.59071059 0.02236272
0.19959646 0.59156153 0.01960499
0.24733801 0.59808080 0.00000000
0.36843567 0.61244882 0.00000000
0.60884277 0.63203704 0.00000000
0.85078511 0.64002551 0.02058342
0.99578909 0.65539981 0.30812024
1.00000000 0.82942512 0.73657861
1.00000000 0.95236261 0.92410530
0.40267854 0.81178009 0.00000000
0.40549993 0.81202800 0.00592875
0.42886120 0.81414037 0.01518515
0.49894043 0.82059079 0.01714471
0.64379172 0.83649245 0.00000000
0.84180681 0.86253090 0.05282039
0.99838406 0.86921896 0.45957759
1.00000000 0.93265990 0.87142154
1.00000000 1.00000000 1.00000000
0.64136709 0.95809318 0.16138857
0.64218015 0.95820968 0.16184770
0.64894133 0.95922244 0.16524542
0.66963554 0.96245892 0.17558333
0.72758931 0.97177364 0.21539040
0.85378034 0.99157990 0.41561845
0.98693552 1.00000000 0.84233876
1.00000000 1.00000000 1.00000000
1.00000000 1.00000000 1.00000000
0.95149352 1.00000000 0.89063172
0.95165481 1.00000000 0.89095173
0.95297572 1.00000000 0.89350557
0.95715355 1.00000000 0.90157118
0.96965133 1.00000000 0.92581377
1.00000000 1.00000000 1.00000000
1.00000000 1.00000000 1.00000000
1.00000000 1.00000000 1.00000000
1.00000000 1.00000000 1.00000000
1.00000000 1.00000000 1.00000000
1.00000000 1.00000000 1.00000000
1.00000000 1.00000000 1.00000000
1.00000000 1.00000000 1.00000000
1.00000000 1.00000000 1.00000000
1.00000000 1.00000000 1.00000000
1.00000000 1.00000000 1.00000000
1.00000000 1.00000000 1.00000000
1.00000000 1.00000000 1.00000000
0.07618212 0.01160042 0.27868025
0.08357244 0.01142429 0.27034871
0.14554788 0.00000000 0.25648504
0.31449346 0.00000000 0.32143506
0.59388088 0.01327027 0.38663245
0.83917772 0.04106368 0.42739130
0.98363930 0.22248993 0.39801038
1.00000000 0.73049735 0.64071199
1.00000000 0.90633390 0.86092847
0.06878172 0.01609563 0.29137116
0.07735845 0.01182618 0.28344428
0.14133270 0.00000000 0.26132840
0.31651751 0.00000000 0.32388591
0.59660096 0.00000000 0.38552110
0.84040793 0.02593640 0.42329263
0.98393081 0.22694747 0.39725153
1.00000000 0.73145079 0.64145958
1.00000000 0.90662521 0.86133007
0.00000000 0.12947319 0.29737724
0.00000000 0.12249450 0.30710143
0.13820152 0.08112044 0.36782230
0.33037014 0.09139922 0.35108107
0.60864735 0.08735428 0.37077279
0.84667298 0.09713885 0.40093705
0.98660460 0.26132869 0.39012090
1.00000000 0.73933305 0.64760519
1.00000000 0.90906784 0.86464759
0.06188155 0.33572479 0.32823712
0.06658888 0.33674376 0.32941318
0.12977449 0.34287703 0.33697687
0.33601674 0.33601674 0.33601674
0.62427797 0.31234534 0.33283320
0.86223743 0.25689438 0.33704964
0.98928592 0.39777557 0.38445823
1.00000000 0.76257740 0.66867413
1.00000000 0.91769630 0.87645028
0.07230378 0.64710311 0.23822680
0.08057635 0.64724934 0.23600946
0.14970016 0.64799498 0.22126306
0.32475472 0.64727067 0.20314439
0.62052471 0.64040464 0.19783412
0.86480939 0.62021851 0.19631287
0.99483197 0.64911638 0.36837606
1.00000000 0.82128044 0.72979058
1.00000000 0.94705401 0.91716539
0.34297034 0.83894442 0.04182730
0.34653241 0.83913874 0.04070598
0.37645952 0.84078041 0.03034338
0.46513830 0.84544637 0.00000000
0.64291016 0.85595598 0.00000000
0.85053456 0.87120498 0.04784026
1.00000000 0.87198023 0.50014650
1.00000000 0.93244601 0.87354712
1.00000000 1.00000000 1.00000000
0.64345863 0.96854781 0.18806002
0.64434829 0.96865371 0.18862291
0.65164470 0.96957794 0.19269155
0.67445158 0.97224583 0.20806193
0.73744041 0.97975158 0.26654019
0.86628731 0.99480393 0.51235342
0.99006054 1.00000000 0.87075964
1.00000000 1.00000000 1.00000000
1.00000000 1.00000000 1.00000000
0.95963297 1.00000000 0.90847042
0.95978007 1.00000000 0.90875899
0.96098525 1.00000000 0.91106094
0.96479772 1.00000000 0.91832636
0.97621814 1.00000000 0.94039717
1.00000000 1.00000000 1.00000000
1.00000000 1.00000000 1.00000000
1.00000000 1.00000000 1.00000000
1.00000000 1.00000000 1.00000000
1.00000000 1.00000000 1.00000000
1.00000000 1.00000000 1.00000000
1.00000000 1.00000000 1.00000000
1.00000000 1.00000000 1.00000000
1.00000000 1.00000000 1.00000000
1.00000000 1.00000000 1.00000000
1.00000000 1.00000000 1.00000000
1.00000000 1.00000000 1.00000000
1.00000000 1.00000000 1.00000000
0.13308197 0.01087366 0.51626585
0.13725290 0.02022232 0.50993833
0.16971745 0.02284296 0.46856136
0.29821582 0.00000000 0.47537019
0.58117741 0.00000000 0.58274263
0.82604352 0.04622685 0.65095472
0.97715935 0.19934910 0.62233519
1.00000000 0.72220560 0.70273160
1.00000000 0.91322793 0.87504556
0.12931169 0.00000000 0.52473336
0.13368797 0.01186624 0.51852835
0.16714922 0.01959949 0.47563097
0.29606776 0.00000000 0.47641468
0.58180097 0.00000000 0.58341918
0.82665578 0.04398828 0.65069019
0.97746538 0.19998012 0.62150609
1.00000000 0.72265164 0.70281854
1.00000000 0.91356851 0.87547626
0.08628936 0.06253286 0.56952096
0.09283495 0.05711724 0.56758399
0.13873841 0.00000000 0.53874279
0.27402644 0.00000000 0.50220477
0.58925026 0.00000000 0.59357261
0.83324100 0.00000000 0.64798885
0.98047325 0.21044301 0.61566048
1.00000000 0.73017721 0.70712156
1.00000000 0.91646930 0.87913818
0.00000000 0.26997507 0.53096089
0.00000000 0.26702485 0.53576863
0.00000000 0.24100085 0.58381084
0.28597274 0.20131051 0.64103635
0.59959770 0.19887096 0.62649122
0.84796943 0.18238755 0.63904572
0.98672704 0.33155521 0.61370219
1.00000000 0.75671462 0.72477050
1.00000000 0.92563850 0.89091435
0.09231722 0.60371661 0.59355540
0.09618648 0.60410687 0.59403137
0.13341463 0.60714537 0.59779394
0.27265141 0.61229575 0.60509832
0.60391133 0.60391133 0.60391133
0.86319843 0.57311892 0.59994310
0.98915638 0.62962738 0.63144882
1.00000000 0.82354428 0.77662404
1.00000000 0.95159842 0.92571612
0.10782608 0.88131197 0.44701868
0.11455946 0.88138538 0.44609947
0.16723422 0.88192741 0.43897708
0.29711591 0.88315384 0.41984630
0.58964118 0.88328341 0.39348558
0.85995148 0.87725171 0.38446608
1.00000000 0.87213686 0.66676036
1.00000000 0.93722685 0.89231419
1.00000000 1.00000000 1.00000000
0.70635776 0.99392538 0.41983906
0.70733752 0.99396434 0.42086026
0.71522206 0.99434435 0.42876213
0.73867443 0.99523291 0.45443050
0.79654612 0.99769344 0.53130554
0.90340534 1.00000000 0.71095856
1.00000000 1.00000000 1.00000000
1.00000000 1.00000000 1.00000000
1.00000000 1.00000000 1.00000000
0.98264734 1.00000000 0.95615241
0.98275508 1.00000000 0.95635443
0.98364096 1.00000000 0.95796948
0.98634903 1.00000000 0.96294759
1.00000000 1.00000000 1.00000000
1.00000000 1.00000000 1.00000000
1.00000000 1.00000000 1.00000000
1.00000000 1.00000000 1.00000000
1.00000000 1.00000000 1.00000000
1.00000000 1.00000000 1.00000000
1.00000000 1.00000000 1.00000000
1.00000000 1.00000000 1.00000000
1.00000000 1.00000000 1.00000000
1.00000000 1.00000000 1.00000000
1.00000000 1.00000000 1.00000000
1.00000000 1.00000000 1.00000000
1.00000000 1.00000000 1.00000000
1.00000000 1.00000000 1.00000000
0.23157257 0.01409457 0.76696906
0.23371913 0.02395757 0.76515652
0.25163724 0.04756843 0.75133632
0.30559256 0.04753459 0.71253157
0.54176137 0.00000000 0.72303911
0.80928672 0.00000000 0.80636649
0.96334803 0.15381986 0.80169833
1.00000000 0.69537746 0.78521362
1.00000000 0.90714925 0.89157069
0.22971460 0.00000000 0.76933516
0.23189311 0.01431531 0.76752431
0.24995783 0.04396971 0.75364857
0.30435817 0.04647476 0.71448489
0.54077386 0.00000000 0.72319945
0.80942191 0.00000000 0.80650533
0.96350737 0.15427360 0.80164748
1.00000000 0.69574861 0.78520694
1.00000000 0.90725253 0.89165480
0.21170809 0.00000000 0.78695891
0.21421403 0.00000000 0.78534819
0.23464155 0.01976534 0.77208090
0.29294255 0.04011198 0.73106193
0.53167886 0.00000000 0.72533923
0.81077584 0.00000000 0.80801425
0.96503403 0.15544226 0.80122898
1.00000000 0.69876883 0.78510640
1.00000000 0.90816982 0.89242036
0.12626446 0.15384380 0.81461869
0.12963452 0.14682175 0.81563918
0.16171569 0.11127437 0.81423746
0.24353981 0.00000000 0.78815453
0.49672131 0.00000000 0.75318951
0.81759727 0.00000000 0.81942670
0.97233189 0.15446753 0.80132673
1.00000000 0.71578090 0.78921648
1.00000000 0.91680194 0.90129848
0.00000000 0.50373081 0.77214614
0.00000000 0.50235202 0.77338851
0.00000000 0.48931559 0.78385839
0.00000000 0.45165246 0.83200280
0.53473127 0.39036737 0.87780548
0.84920625 0.31907896 0.87695499
0.98811354 0.49833637 0.81428772
1.00000000 0.79718906 0.82772756
1.00000000 0.94987114 0.93755212
0.14193318 0.84438268 0.83551933
0.14492361 0.84450205 0.83566162
0.17298946 0.84545091 0.83680801
0.25024048 0.84840564 0.84038890
0.51330342 0.85286522 0.84670493
0.84569243 0.84569243 0.84569243
0.98952133 0.85437848 0.85716778
1.00000000 0.93954123 0.93188272
1.00000000 1.00000000 1.00000000
0.79993335 0.99699455 0.80226349
0.80041178 0.99700083 0.80245453
0.80456652 0.99704070 0.80416098
0.81737027 0.99721454 0.80963898
0.85279458 0.99799737 0.82700486
0.92956602 1.00000000 0.88157729
1.00000000 1.00000000 1.00000000
1.00000000 1.00000000 1.00000000
1.00000000 1.00000000 1.00000000
1.00000000 1.00000000 1.00000000
1.00000000 1.00000000 1.00000000
1.00000000 1.00000000 1.00000000
1.00000000 1.00000000 1.00000000
1.00000000 1.00000000 1.00000000
1.00000000 1.00000000 1.00000000
1.00000000 1.00000000 1.00000000
1.00000000 1.00000000 1.00000000
1.00000000 1.00000000 1.00000000
1.00000000 1.00000000 1.00000000
1.00000000 1.00000000 1.00000000
1.00000000 1.00000000 1.00000000
1.00000000 1.00000000 1.00000000
1.00000000 1.00000000 1.00000000
1.00000000 1.00000000 1.00000000
1.00000000 1.00000000 1.00000000
1.00000000 1.00000000 1.00000000
1.00000000 1.00000000 1.00000000
0.33421457 0.04536434 0.92027034
0.33511760 0.04806749 0.91961814
0.34284276 0.05947562 0.91451081
0.36713010 0.08310374 0.89788640
0.43863790 0.00000000 0.85605370
0.75582034 0.00000000 0.90732010
0.93932314 0.13182919 0.93224987
1.00000000 0.65938831 0.88092530
1.00000000 0.89019994 0.91423113
0.33351889 0.04268034 0.92114120
0.33442718 0.04557879 0.92048855
0.34219548 0.05764287 0.91537961
0.36655233 0.08192262 0.89874044
0.43814480 0.00000000 0.85655282
0.75563344 0.00000000 0.90739037
0.93936630 0.13202616 0.93229057
1.00000000 0.65963172 0.88091967
1.00000000 0.89028003 0.91426498
0.32713008 0.02735237 0.92803756
0.32808770 0.03166318 0.92739703
0.33625525 0.04815891 0.92232104
0.36125430 0.07644279 0.90555473
0.43382315 0.00000000 0.86068500
0.75400515 0.00000000 0.90809448
0.93976087 0.13305384 0.93267265
1.00000000 0.66160773 0.88089061
1.00000000 0.89095944 0.91455653
0.30270639 0.04309191 0.94876586
0.30380089 0.04331272 0.94820820
0.31300159 0.03953364 0.94355154
0.34209706 0.06455888 0.92757615
0.42005366 0.02220132 0.87847705
0.74881375 0.00000000 0.91261009
0.94154536 0.12033834 0.93461942
1.00000000 0.66803221 0.88080480
1.00000000 0.89339456 0.91558442
0.18169293 0.34159923 0.96868685
0.18315742 0.33913026 0.96902750
0.19564302 0.31606342 0.97214938
0.24165579 0.24942400 0.97425763
0.36074238 0.09009341 0.94498480
0.75905788 0.07563978 0.95611804
0.95818036 0.25665844 0.95258367
1.00000000 0.73709152 0.89180065
1.00000000 0.92324064 0.93691189
0.00000000 0.76671439 0.96839263
0.00000000 0.76689611 0.96858051
0.07408726 0.76845800 0.97010826
0.18263187 0.77340615 0.97484459
0.50660791 0.77681232 0.98274777
0.80500861 0.78832143 0.98782287
0.97683939 0.80159260 0.97874069
1.00000000 0.91422103 0.95052904
1.00000000 1.00000000 1.00000000
0.68289751 0.98311779 0.97502199
0.68368455 0.98314357 0.97505686
0.69095877 0.98331527 0.97531069
0.71725249 0.98346434 0.97576009
0.78200136 0.98421263 0.97748069
0.89954209 0.98835951 0.98455809
1.00000000 1.00000000 1.00000000
1.00000000 1.00000000 1.00000000
1.00000000 1.00000000 1.00000000
1.00000000 1.00000000 1.00000000
1.00000000 1.00000000 1.00000000
1.00000000 1.00000000 1.00000000
1.00000000 1.00000000 1.00000000
1.00000000 1.00000000 1.00000000
1.00000000 1.00000000 1.00000000
1.00000000 1.00000000 1.00000000
1.00000000 1.00000000 1.00000000
1.00000000 1.00000000 1.00000000
1.00000000 1.00000000 1.00000000
1.00000000 1.00000000 1.00000000
1.00000000 1.00000000 1.00000000
1.00000000 1.00000000 1.00000000
1.00000000 1.00000000 1.00000000
1.00000000 1.00000000 1.00000000
1.00000000 1.00000000 1.00000000
1.00000000 1.00000000 1.00000000
1.00000000 1.00000000 1.00000000
0.44410163 0.34148133 0.99572914
0.44439849 0.34087333 0.99565653
0.44694432 0.33530738 0.99509394
0.45498074 0.31812928 0.99256060
0.47954361 0.27113265 0.98020789
0.60170033 0.00000000 0.98650252
0.87106594 0.28813501 1.00000000
0.99307850 0.62730891 0.97390064
1.00000000 0.87162312 0.94957238
0.44394507 0.34255445 0.99579744
0.44424242 0.34194829 0.99572486
0.44679230 0.33639108 0.99516508
0.45482418 0.31899615 0.99269084
0.47943491 0.27193206 0.98038805
0.60124074 0.00000000 0.98648834
0.87100709 0.28820122 1.00000000
0.99307550 0.62742451 0.97389436
1.00000000 0.87167246 0.94958159
0.44257673 0.35185191 0.99635508
0.44287821 0.35125424 0.99628497
0.44546255 0.34579597 0.99574157
0.45361463 0.32789999 0.99355514
0.47843102 0.27980134 0.98168505
0.59717649 0.00000000 0.98625759
0.87050320 0.28860399 1.00000000
0.99306703 0.62835434 0.97386012
1.00000000 0.87208698 0.94967050
0.43796648 0.38317829 0.99751294
0.43827308 0.38255040 0.99746582
0.44095562 0.37708348 0.99709177
0.44947566 0.35927348 0.99540648
0.47489005 0.30606579 0.98566857
0.58317848 0.00000000 0.98562576
0.86886941 0.28846892 1.00000000
0.99302979 0.63140883 0.97373799
1.00000000 0.87350599 0.94993544
0.43016724 0.49749984 0.99696679
0.43039084 0.49681258 0.99696733
0.43241637 0.49080248 0.99693414
0.43932819 0.47045596 0.99645988
0.46282377 0.40611386 0.99181125
0.53114579 0.00000000 0.98378428
0.86403152 0.26611174 1.00000000
0.99171737 0.64515287 0.97200896
1.00000000 0.88019963 0.94949287
0.48482186 0.71547199 0.99599339
0.48480390 0.71523389 0.99600696
0.48469403 0.71315444 0.99608599
0.48430712 0.70594150 0.99623838
0.48581791 0.67711481 0.99494409
0.67663000 0.73055452 0.99139270
0.90414899 0.77263990 0.99500132
0.99616638 0.86550628 0.97846344
1.00000000 0.98211913 0.99873512
0.77666822 0.91767417 0.99745545
0.77703430 0.91776243 0.99745224
0.78015104 0.91852675 0.99744021
0.79009028 0.92099735 0.99737814
0.81961765 0.92866343 0.99700023
0.89552946 0.94679480 0.99774131
0.97413427 0.97496023 1.00000000
1.00000000 1.00000000 1.00000000
1.00000000 1.00000000 1.00000000
1.00000000 1.00000000 1.00000000
1.00000000 1.00000000 1.00000000
1.00000000 1.00000000 1.00000000
1.00000000 1.00000000 1.00000000
1.00000000 1.00000000 1.00000000
1.00000000 1.00000000 1.00000000
1.00000000 1.00000000 1.00000000
1.00000000 1.00000000 1.00000000
1.00000000 1.00000000 1.00000000
1.00000000 1.00000000 1.00000000
1.00000000 1.00000000 1.00000000
1.00000000 1.00000000 1.00000000
1.00000000 1.00000000 1.00000000
1.00000000 1.00000000 1.00000000
1.00000000 1.00000000 1.00000000
1.00000000 1.00000000 1.00000000
1.00000000 1.00000000 1.00000000
1.00000000 1.00000000 1.00000000
0.63301857 0.69107769 1.00000000
0.63301358 0.69094246 1.00000000
0.63297668 0.68977956 1.00000000
0.63282974 0.68588515 1.00000000
0.63250101 0.67288546 1.00000000
0.62659850 0.61679089 1.00000000
0.70346859 0.53003567 1.00000000
0.91986691 0.66157267 1.00000000
1.00000000 0.85104828 0.99326796
0.63310863 0.69131471 1.00000000
0.63308966 0.69116561 1.00000000
0.63305150 0.69000211 1.00000000
0.63290412 0.68611139 1.00000000
0.63256439 0.67311098 1.00000000
0.62667660 0.61710253 1.00000000
0.70333594 0.52991591 1.00000000
0.91984528 0.66155659 1.00000000
1.00000000 0.85106314 0.99326560
0.63388241 0.69333922 1.00000000
0.63386271 0.69319021 1.00000000
0.63369524 0.69190437 1.00000000
0.63354182 0.68804137 1.00000000
0.63311077 0.67504362 1.00000000
0.62735314 0.61979440 1.00000000
0.70217343 0.52892981 1.00000000
0.91965753 0.66141503 1.00000000
1.00000000 0.85118633 0.99325172
0.63649302 0.69994548 1.00000000
0.63647180 0.69979942 1.00000000
0.63629224 0.69853897 1.00000000
0.63569970 0.69435196 1.00000000
0.63493849 0.68134628 1.00000000
0.62957397 0.62840757 1.00000000
0.69827694 0.52546640 1.00000000
0.91902634 0.66094069 1.00000000
1.00000000 0.85160712 0.99318662
0.64576903 0.72068976 1.00000000
0.64572441 0.72054015 1.00000000
0.64534574 0.71924820 1.00000000
0.64467582 0.71548965 1.00000000
0.64231629 0.70234545 1.00000000
0.63676527 0.65475551 1.00000000
0.68443932 0.51309912 1.00000000
0.91650226 0.66012879 1.00000000
1.00000000 0.85357680 0.99223704
0.68635369 0.78129809 1.00000000
0.68628002 0.78118246 1.00000000
0.68565657 0.78018103 1.00000000
0.68360176 0.77678025 1.00000000
0.67848778 0.76612457 1.00000000
0.66382220 0.72660502 1.00000000
0.67254978 0.60753051 0.98231240
0.91327731 0.73070327 0.98685142
1.00000000 0.89668996 0.98443705
0.77474244 0.87427698 1.00000000
0.77467143 0.87421518 1.00000000
0.77406928 0.87367516 1.00000000
0.77206397 0.87185548 1.00000000
0.76535846 0.86538914 1.00000000
0.75070557 0.84245302 0.98447784
0.85975422 0.89151614 0.98562014
0.97336466 0.94887269 0.99311855
1.00000000 1.00000000 1.00000000
0.96925922 0.99262790 1.00000000
0.96937866 0.99269737 1.00000000
0.97039669 0.99330277 1.00000000
0.97373993 0.99525984 1.00000000
0.98464986 1.00000000 1.00000000
1.00000000 1.00000000 1.00000000
1.00000000 1.00000000 1.00000000
1.00000000 1.00000000 1.00000000
1.00000000 1.00000000 1.00000000
1.00000000 1.00000000 1.00000000
1.00000000 1.00000000 1.00000000
1.00000000 1.00000000 1.00000000
1.00000000 1.00000000 1.00000000
1.00000000 1.00000000 1.00000000
1.00000000 1.00000000 1.00000000
1.00000000 1.00000000 1.00000000
1.00000000 1.00000000 1.00000000
1.00000000 1.00000000 1.00000000
