Luts Download/Canon Luts/3dlut/33grid-3dlut/full-to-full-range/CinemaGamut_CanonLog3-to-BT2020_HLG-Vivid_33_FF_Ver.2.0.cube
# Gamut : Cinema Gamut to BT.2020
# Gamma : Canon Log 3 to HLG-Vivid
# Range : Full in / Full out
# Version : 2.0 2019/10/24
# Copyright(c) 2019 Canon Inc. All Rights Reserved.
LUT_3D_SIZE 5
# LUT_3D_INPUT_RANGE 0.0 1.0
0.00000000 0.00000004 0.00000001
0.26623844 0.02360105 0.04599573
0.69249016 0.00000000 0.08224235
0.98579330 0.16526024 0.20058950
1.00000000 0.87668617 0.82817497
0.08639935 0.21792749 0.04398859
0.23597506 0.25097157 0.01110374
0.68848624 0.22769341 0.01338733
0.99105593 0.25053433 0.16903137
1.00000000 0.88672518 0.83865928
0.20323242 0.60266859 0.00485725
0.28000355 0.61724611 0.00000000
0.63000772 0.65675130 0.00000000
0.97975585 0.66869757 0.13853990
1.00000000 0.94158130 0.90319871
0.49729360 0.92439513 0.06966960
0.53143659 0.92692124 0.07302811
0.68332896 0.94099723 0.10074656
0.94769045 0.97276301 0.32495704
1.00000000 1.00000000 1.00000000
1.00000000 1.00000000 1.00000000
1.00000000 1.00000000 1.00000000
1.00000000 1.00000000 1.00000000
1.00000000 1.00000000 1.00000000
1.00000000 1.00000000 1.00000000
0.05648226 0.01212526 0.23365942
0.23334937 0.00000000 0.25157587
0.67733007 0.00000000 0.27891029
0.98170694 0.15667071 0.31341783
1.00000000 0.87016207 0.82302458
0.03699036 0.24626183 0.24017916
0.24181371 0.24181371 0.24181371
0.70506739 0.16154795 0.20840147
0.98706321 0.24189706 0.27586329
1.00000000 0.87894431 0.83146369
0.12907453 0.66342264 0.03977508
0.23900884 0.67076522 0.00000000
0.64929080 0.67564976 0.00000000
0.98663322 0.65769139 0.15846824
1.00000000 0.93704108 0.89802387
0.48422928 0.93466353 0.08222426
0.52272394 0.93677800 0.08766963
0.68390029 0.94890305 0.11440811
0.95081336 0.97591132 0.35598043
1.00000000 1.00000000 1.00000000
1.00000000 1.00000000 1.00000000
1.00000000 1.00000000 1.00000000
1.00000000 1.00000000 1.00000000
1.00000000 1.00000000 1.00000000
1.00000000 1.00000000 1.00000000
0.14231300 0.00876891 0.64406596
0.20888071 0.00000000 0.56762889
0.63233396 0.00000000 0.64167723
0.96560197 0.12728152 0.68859464
1.00000000 0.87242802 0.86790970
0.03670060 0.12924721 0.69156299
0.15076506 0.00000000 0.68426274
0.64935367 0.00000000 0.66825938
0.97360049 0.16389506 0.67958311
1.00000000 0.88108360 0.87383220
0.09752653 0.64797164 0.63652159
0.14824557 0.65420659 0.64417052
0.63952564 0.63952564 0.63952564
0.98510734 0.60813130 0.63584173
1.00000000 0.93025760 0.91273976
0.43483649 0.99239535 0.32272046
0.48374165 0.99343696 0.31748773
0.69429307 0.99608834 0.30815642
0.96992225 0.99451229 0.51548768
1.00000000 1.00000000 1.00000000
1.00000000 1.00000000 1.00000000
1.00000000 1.00000000 1.00000000
1.00000000 1.00000000 1.00000000
1.00000000 1.00000000 1.00000000
1.00000000 1.00000000 1.00000000
0.29179581 0.05279504 0.95264837
0.32529135 0.05677219 0.93493668
0.53941763 0.00000000 0.84900253
0.93033790 0.07706752 0.92610599
1.00000000 0.85088702 0.92036788
0.25762602 0.06580670 0.97287933
0.29592982 0.05957553 0.95732520
0.50677079 0.00000000 0.85433293
0.93162782 0.07717503 0.92736083
1.00000000 0.85300904 0.92040328
0.00000000 0.51176279 0.92820317
0.00000000 0.47613142 0.94455516
0.46567080 0.29815324 0.98390378
0.95705838 0.31793197 0.97156136
1.00000000 0.90648459 0.94336324
0.42413059 0.95685841 0.94678977
0.45242696 0.95777513 0.94799430
0.62964325 0.96171695 0.95383800
0.95845399 0.95845399 0.95845399
1.00000000 1.00000000 1.00000000
1.00000000 1.00000000 1.00000000
1.00000000 1.00000000 1.00000000
1.00000000 1.00000000 1.00000000
1.00000000 1.00000000 1.00000000
1.00000000 1.00000000 1.00000000
0.59256330 0.65086206 1.00000000
0.59774172 0.64625228 1.00000000
0.63341637 0.61070754 1.00000000
0.80376822 0.36317764 1.00000000
1.00000000 0.80026916 0.98927383
0.59037945 0.65860562 1.00000000
0.59415570 0.65278278 1.00000000
0.62966887 0.61820770 1.00000000
0.79947215 0.36179547 1.00000000
1.00000000 0.80064901 0.98923268
0.57965878 0.70677651 1.00000000
0.58227312 0.70199794 1.00000000
0.60482936 0.66536550 1.00000000
0.76289858 0.35197155 1.00000000
1.00000000 0.80393866 0.98822443
0.66721082 0.85841245 1.00000000
0.66607996 0.85648895 1.00000000
0.65825771 0.84159538 1.00000000
0.81851663 0.83203842 0.98885237
1.00000000 0.98845814 1.00000000
1.00000000 1.00000000 1.00000000
1.00000000 1.00000000 1.00000000
1.00000000 1.00000000 1.00000000
1.00000000 1.00000000 1.00000000
1.00000000 1.00000000 1.00000000
