Luts Download/Canon Luts/3dlut/33grid-3dlut/full-to-full-range/CinemaGamut_CanonLog3-to-BT2020_HLGKnee_33_FF_Ver.2.0.cube
# Gamut : Cinema Gamut to BT.2020
# Gamma : Canon Log 3 to HLGKnee
# Range : Full in / Full out
# Version : 2.0 2019/10/24
# Copyright(c) 2019 Canon Inc. All Rights Reserved.
LUT_3D_SIZE 33
# LUT_3D_INPUT_RANGE 0.0 1.0
0.00000000 0.00000004 0.00000002
0.00000000 0.00000004 0.00000002
0.00000000 0.00000004 0.00000002
0.00000000 0.00000004 0.00000002
0.00000000 0.00000004 0.00000002
0.09141775 0.03551451 0.03914919
0.14404479 0.03896103 0.04729490
0.19215300 0.03705476 0.05182884
0.23882734 0.03181022 0.05535469
0.28559323 0.02352605 0.05911239
0.33353586 0.00768128 0.06368010
0.38364893 0.00000000 0.06912448
0.43674139 0.00000000 0.07535576
0.49354681 0.00000000 0.08223676
0.55002388 0.00000000 0.08968433
0.60080999 0.00000000 0.09786358
0.64746564 0.00000000 0.10732529
0.69129238 0.00000000 0.11748815
0.73300197 0.00000000 0.12831178
0.77306880 0.00000000 0.13982321
0.81183650 0.00000000 0.15203435
0.84956355 0.00000000 0.16494999
0.88643809 0.00000000 0.17865211
0.91918785 0.00000000 0.19029348
0.94433773 0.00000000 0.19642908
0.96441878 0.06085001 0.20044147
0.98032900 0.11918030 0.20734303
0.99203073 0.20169261 0.22771041
0.99742069 0.33379200 0.28457236
1.00000000 0.45739787 0.35531588
1.00000000 0.56134846 0.43048139
1.00000000 0.63153167 0.50439871
1.00000000 0.67853554 0.56012229
0.00000000 0.00000004 0.00000002
0.00000000 0.00000004 0.00000002
0.00000000 0.00000004 0.00000002
0.00000000 0.00000004 0.00000002
0.00000000 0.00000004 0.00000002
0.09141775 0.03551451 0.03914919
0.14404479 0.03896103 0.04729490
0.19215300 0.03705476 0.05182884
0.23882734 0.03181022 0.05535469
0.28559323 0.02352605 0.05911239
0.33353586 0.00768128 0.06368010
0.38364893 0.00000000 0.06912448
0.43674139 0.00000000 0.07535576
0.49354681 0.00000000 0.08223676
0.55002388 0.00000000 0.08968433
0.60080999 0.00000000 0.09786358
0.64746564 0.00000000 0.10732529
0.69129238 0.00000000 0.11748815
0.73300197 0.00000000 0.12831178
0.77306880 0.00000000 0.13982321
0.81183650 0.00000000 0.15203435
0.84956355 0.00000000 0.16494999
0.88643809 0.00000000 0.17865211
0.91918785 0.00000000 0.19029348
0.94433773 0.00000000 0.19642908
0.96441878 0.06085001 0.20044147
0.98032900 0.11918030 0.20734303
0.99203073 0.20169261 0.22771041
0.99742069 0.33379200 0.28457236
1.00000000 0.45739787 0.35531588
1.00000000 0.56134846 0.43048139
1.00000000 0.63153167 0.50439871
1.00000000 0.67853554 0.56012229
0.00000000 0.00000004 0.00000002
0.00000000 0.00000004 0.00000002
0.00000000 0.00000004 0.00000002
0.00000000 0.00000004 0.00000002
0.03312561 0.02687449 0.00000000
0.09141775 0.03551451 0.03914919
0.14404479 0.03896103 0.04729490
0.19215300 0.03705476 0.05182884
0.23882734 0.03181022 0.05535469
0.28559323 0.02352605 0.05911239
0.33353586 0.00768128 0.06368010
0.38364893 0.00000000 0.06912448
0.43674139 0.00000000 0.07535576
0.49354681 0.00000000 0.08223676
0.55002388 0.00000000 0.08968433
0.60080999 0.00000000 0.09786358
0.64746564 0.00000000 0.10732529
0.69129238 0.00000000 0.11748815
0.73300197 0.00000000 0.12831178
0.77306880 0.00000000 0.13982321
0.81183650 0.00000000 0.15203435
0.84956355 0.00000000 0.16494999
0.88643809 0.00000000 0.17865211
0.91918785 0.00000000 0.19029348
0.94433773 0.00000000 0.19642908
0.96441878 0.06085001 0.20044147
0.98032900 0.11918030 0.20734303
0.99203073 0.20169261 0.22771041
0.99742069 0.33379200 0.28457236
1.00000000 0.45739787 0.35531588
1.00000000 0.56134846 0.43048139
1.00000000 0.63153167 0.50439871
1.00000000 0.67853554 0.56012229
0.07581944 0.09707740 0.05367840
0.10237321 0.11627784 0.07478509
0.12515044 0.13474050 0.09085096
0.14310779 0.14910179 0.10308378
0.08642565 0.08817124 0.02904839
0.09141775 0.03551451 0.03914919
0.14404479 0.03896103 0.04729490
0.19215300 0.03705476 0.05182884
0.23882734 0.03181022 0.05535469
0.28559323 0.02352605 0.05911239
0.33353586 0.00768128 0.06368010
0.38364893 0.00000000 0.06912448
0.43674139 0.00000000 0.07535576
0.49354681 0.00000000 0.08223676
0.55002388 0.00000000 0.08968433
0.60080999 0.00000000 0.09786358
0.64746564 0.00000000 0.10732529
0.69129238 0.00000000 0.11748815
0.73300197 0.00000000 0.12831178
0.77306880 0.00000000 0.13982321
0.81183650 0.00000000 0.15203435
0.84956355 0.00000000 0.16494999
0.88643809 0.00000000 0.17865211
0.91918785 0.00000000 0.19029348
0.94433773 0.00000000 0.19642908
0.96441878 0.06085001 0.20044147
0.98032900 0.11918030 0.20734303
0.99203073 0.20169261 0.22771041
0.99742069 0.33379200 0.28457236
1.00000000 0.45739787 0.35531588
1.00000000 0.56134846 0.43048139
1.00000000 0.63153167 0.50439871
1.00000000 0.67853554 0.56012229
0.11173580 0.13533709 0.08956895
0.11669243 0.13437092 0.08749584
0.12347119 0.13717958 0.08666072
0.12939481 0.13965764 0.08508810
0.08140797 0.08790757 0.00000000
0.09141775 0.03551451 0.03914919
0.14404479 0.03896103 0.04729490
0.19215300 0.03705476 0.05182884
0.23882734 0.03181022 0.05535469
0.28559323 0.02352605 0.05911239
0.33353586 0.00768128 0.06368010
0.38364893 0.00000000 0.06912448
0.43674139 0.00000000 0.07535576
0.49354681 0.00000000 0.08223676
0.55002388 0.00000000 0.08968433
0.60080999 0.00000000 0.09786358
0.64746564 0.00000000 0.10732529
0.69129238 0.00000000 0.11748815
0.73300197 0.00000000 0.12831178
0.77306880 0.00000000 0.13982321
0.81183650 0.00000000 0.15203435
0.84956355 0.00000000 0.16494999
0.88643809 0.00000000 0.17865211
0.91918785 0.00000000 0.19029348
0.94433773 0.00000000 0.19642908
0.96441878 0.06085001 0.20044147
0.98032900 0.11918030 0.20734303
0.99203073 0.20169261 0.22771041
0.99742069 0.33379200 0.28457236
1.00000000 0.45739787 0.35531588
1.00000000 0.56134846 0.43048139
1.00000000 0.63153167 0.50439871
1.00000000 0.67853554 0.56012229
0.05720533 0.08748741 0.04976872
0.05720533 0.08748741 0.04976872
0.05720533 0.08748741 0.04976872
0.05720533 0.08748741 0.04976872
0.05720533 0.08748741 0.04976872
0.10353342 0.10772380 0.05129077
0.14855530 0.11525999 0.04810412
0.19396597 0.11825019 0.04529527
0.23980347 0.11864184 0.04351275
0.28669494 0.11733658 0.04311434
0.33526918 0.11483064 0.04432601
0.38619927 0.11129029 0.04727877
0.44024961 0.10660178 0.05138769
0.49815285 0.10040677 0.05618843
0.55486246 0.09223706 0.06158650
0.61327695 0.01323575 0.00000000
0.65212152 0.07268623 0.07833798
0.69567550 0.06211185 0.08952632
0.73721895 0.04803736 0.10112287
0.77709767 0.02992577 0.11375569
0.81564601 0.00000000 0.12744993
0.85314690 0.00000000 0.14202410
0.88979532 0.00000000 0.15746733
0.92231549 0.00000000 0.17111503
0.94722446 0.01498362 0.17968025
0.96702245 0.07130243 0.18658202
0.98246864 0.13134015 0.19766341
0.99319866 0.22052562 0.22508356
0.99785949 0.35114233 0.28687014
1.00000000 0.47185167 0.35957545
1.00000000 0.57100932 0.43562873
1.00000000 0.63822510 0.50990455
1.00000000 0.68395540 0.56514007
0.07457065 0.13193452 0.05811548
0.07457065 0.13193452 0.05811548
0.07457065 0.13193452 0.05811548
0.07457065 0.13193452 0.05811548
0.07457065 0.13193452 0.05811548
0.11170303 0.14951672 0.05126799
0.15154168 0.15894935 0.04382865
0.19386346 0.16457650 0.03790232
0.23801675 0.16774899 0.03360541
0.28411100 0.16910031 0.03102621
0.33250187 0.16899203 0.03045548
0.38369261 0.16762050 0.03167641
0.43830271 0.16495447 0.03410721
0.49693812 0.16087979 0.03729628
0.55451428 0.15524772 0.04147492
0.60616805 0.14774051 0.04663855
0.65356677 0.13871854 0.05377665
0.69805250 0.12707939 0.06166793
0.74035411 0.11191300 0.07031284
0.78067855 0.09467631 0.08202612
0.81932533 0.07724620 0.09714102
0.85683702 0.05698162 0.11344321
0.89338110 0.03245575 0.13110096
0.92574265 0.00982926 0.14731216
0.95043634 0.03913663 0.15899621
0.96992707 0.08206751 0.16971989
0.98481092 0.14498361 0.18641406
0.99421428 0.24349664 0.22357504
0.99827410 0.37036438 0.28977148
1.00000000 0.48772833 0.36438760
1.00000000 0.58133261 0.44141223
1.00000000 0.64551093 0.51599402
1.00000000 0.68990804 0.57071671
0.08724352 0.17243040 0.05934680
0.08724352 0.17243040 0.05934680
0.08724352 0.17243040 0.05934680
0.08724352 0.17243040 0.05934680
0.08724352 0.17243040 0.05934680
0.11939021 0.18761066 0.04834469
0.15522122 0.19747704 0.03871715
0.19455719 0.20462164 0.03114431
0.23654257 0.20972779 0.02541147
0.28118401 0.21322034 0.02157863
0.32874500 0.21530332 0.01957209
0.37956446 0.21606515 0.01969310
0.43410226 0.21552422 0.02141985
0.49288443 0.21361398 0.02400126
0.55146239 0.21020668 0.02726442
0.60402051 0.20509032 0.03093404
0.65232102 0.19811226 0.03598484
0.69756541 0.18884007 0.04199561
0.74053828 0.17665038 0.04885451
0.78172939 0.16085955 0.05680556
0.82141528 0.14095310 0.06696706
0.86401203 0.01153091 0.00000000
0.89671166 0.09168764 0.09872019
0.92921009 0.07158168 0.11759008
0.95384445 0.07277761 0.13323300
0.97309008 0.10219224 0.14908799
0.98737990 0.16422124 0.17328078
0.99523398 0.27090307 0.22271470
0.99867152 0.39315271 0.29368379
1.00000000 0.50648280 0.37034294
1.00000000 0.59317219 0.44846154
1.00000000 0.65424891 0.52355683
1.00000000 0.69687222 0.57731214
0.09811708 0.21210036 0.05591481
0.09811708 0.21210036 0.05591481
0.09811708 0.21210036 0.05591481
0.09811708 0.21210036 0.05591481
0.09811708 0.21210036 0.05591481
0.12752018 0.22510268 0.04375067
0.16028032 0.23472710 0.03347061
0.19683270 0.24259468 0.02519493
0.23655342 0.24901650 0.01850128
0.27939284 0.25412230 0.01332357
0.32558501 0.25801412 0.01038809
0.37549077 0.26071690 0.00926803
0.42947922 0.26217719 0.01020259
0.48795827 0.26232811 0.01315285
0.54727461 0.26106052 0.01634862
0.60060958 0.25821714 0.01991807
0.64963891 0.25357768 0.02382443
0.69556724 0.24680517 0.02783777
0.73914674 0.23750837 0.03296170
0.78092361 0.22510494 0.03917516
0.82125441 0.20889125 0.04693016
0.86040747 0.18765076 0.05595829
0.89846982 0.16045589 0.06792729
0.93200129 0.13111128 0.08292160
0.95699782 0.11990593 0.10251850
0.97624000 0.13530762 0.12487439
0.99001163 0.19154628 0.15886123
0.99621650 0.30309803 0.22283507
0.99902357 0.41994866 0.29889055
1.00000000 0.52746247 0.37776580
1.00000000 0.60694052 0.45744075
1.00000000 0.66438474 0.53253036
1.00000000 0.70496219 0.58506952
0.10943445 0.25206324 0.05070391
0.10943445 0.25206324 0.05070391
0.10943445 0.25206324 0.05070391
0.10943445 0.25206324 0.05070391
0.10943445 0.25206324 0.05070391
0.13677341 0.26324052 0.03862402
0.16695659 0.27239076 0.02830912
0.20094564 0.28052158 0.01956706
0.23836776 0.28774812 0.01182649
0.27924799 0.29405851 0.00310551
0.32379332 0.29940093 0.00000000
0.37234908 0.30374430 0.00000000
0.42532510 0.30701791 0.00000000
0.48312317 0.30909839 0.00000000
0.54276086 0.30985681 0.00495859
0.59667757 0.30914664 0.01046670
0.64627649 0.30677381 0.01460753
0.69273532 0.30248260 0.01863190
0.73684800 0.29590508 0.02220893
0.77913362 0.28659378 0.02644508
0.81996326 0.27397316 0.03212737
0.85961559 0.25721053 0.03952690
0.89829399 0.23506937 0.04823825
0.93258645 0.20935246 0.06051694
0.95859420 0.18972152 0.07787198
0.97846916 0.18971287 0.10359015
0.99198937 0.23465612 0.14823471
0.99697265 0.34186574 0.22536599
0.99933622 0.45171236 0.30615853
1.00000000 0.55080757 0.38750345
1.00000000 0.62258291 0.46858096
1.00000000 0.67597462 0.54301686
1.00000000 0.71429319 0.59414985
0.12191830 0.29334019 0.04442332
0.12191830 0.29334019 0.04442332
0.12191830 0.29334019 0.04442332
0.12191830 0.29334019 0.04442332
0.12191830 0.29334019 0.04442332
0.14747283 0.30306341 0.03297667
0.17541443 0.31161835 0.02300691
0.20703591 0.31969197 0.01415210
0.24218343 0.32732179 0.00437201
0.28099056 0.33445218 0.00000000
0.32371331 0.34094072 0.00000000
0.37066692 0.34664746 0.00000000
0.42226822 0.35147952 0.00000000
0.47896400 0.35530953 0.00000000
0.53845430 0.35797151 0.00000000
0.59268230 0.35928825 0.00000000
0.64264471 0.35907468 0.00590214
0.68951460 0.35710071 0.01085865
0.73403151 0.35308032 0.01495077
0.77672803 0.34662782 0.01854493
0.81798520 0.33723231 0.02182442
0.85805641 0.32429261 0.02721437
0.89716590 0.30686853 0.03409176
0.93198705 0.28567476 0.04677771
0.95864784 0.26685517 0.06645984
0.98297182 0.21821584 0.02985368
0.99265335 0.29535432 0.14816610
0.99738642 0.38811778 0.23171711
0.99956778 0.48888232 0.31597034
1.00000000 0.57580981 0.39944519
1.00000000 0.63988708 0.48197562
1.00000000 0.68904118 0.55508802
1.00000000 0.72496763 0.60471804
0.13598511 0.33667372 0.03751794
0.13598511 0.33667372 0.03751794
0.13598511 0.33667372 0.03751794
0.13598511 0.33667372 0.03751794
0.13598511 0.33667372 0.03751794
0.15988611 0.34518395 0.02728559
0.18579384 0.35302354 0.01886329
0.21518220 0.36091443 0.01000534
0.24810893 0.36873006 0.00000000
0.28478817 0.37635482 0.00000000
0.32554493 0.38367875 0.00000000
0.37072676 0.39051146 0.00000000
0.42071242 0.39666944 0.00000000
0.47598430 0.40202897 0.00000000
0.53478657 0.40642300 0.00000000
0.58895225 0.40965472 0.00000000
0.63906152 0.41150552 0.00000000
0.68615283 0.41174865 0.00000000
0.73096410 0.41012600 0.00842452
0.77398274 0.40630971 0.01253347
0.81556488 0.39989796 0.01641271
0.85599733 0.39032043 0.01895145
0.89546702 0.37688336 0.02333946
0.93074621 0.35941724 0.03707698
0.95797493 0.34212217 0.06152707
0.98232018 0.30627267 0.03943368
0.99278981 0.35987939 0.15298200
0.99755040 0.43940590 0.24080024
0.99967178 0.52947604 0.32818518
1.00000000 0.60221553 0.41393283
1.00000000 0.65882102 0.49804058
1.00000000 0.70362580 0.56887949
1.00000000 0.73702930 0.61687109
0.15200540 0.38269198 0.03076508
0.15200540 0.38269198 0.03076508
0.15200540 0.38269198 0.03076508
0.15200540 0.38269198 0.03076508
0.15200540 0.38269198 0.03076508
0.17424272 0.39015125 0.02232560
0.19819446 0.39740505 0.01481661
0.22546465 0.40502137 0.00343940
0.25623044 0.41273020 0.00000000
0.29078217 0.42061403 0.00000000
0.32947347 0.42847883 0.00000000
0.37272769 0.43617920 0.00000000
0.42094390 0.44347464 0.00000000
0.47455080 0.45015809 0.00000000
0.53218418 0.45609161 0.00000000
0.58582741 0.46107475 0.00000000
0.63575110 0.46488361 0.00000000
0.68288005 0.46726028 0.00000000
0.72782348 0.46794015 0.00000000
0.77105388 0.46662764 0.00694100
0.81290014 0.46295498 0.01091499
0.85360384 0.45648426 0.01460173
0.89338506 0.44655545 0.01596507
0.92909258 0.43227604 0.03124949
0.95688818 0.41639352 0.06021223
0.98170186 0.38512639 0.04315247
0.99271519 0.42608260 0.15969702
0.99761524 0.49464430 0.25197532
0.99972753 0.56884742 0.34273286
1.00000000 0.62955799 0.43102285
1.00000000 0.67923923 0.51661719
1.00000000 0.71975749 0.58454899
1.00000000 0.75053638 0.63075865
0.17011336 0.43200709 0.02450872
0.17011336 0.43200709 0.02450872
0.17011336 0.43200709 0.02450872
0.17011336 0.43200709 0.02450872
0.17011336 0.43200709 0.02450872
0.19065778 0.43860308 0.01792369
0.21273337 0.44533193 0.01060626
0.23800083 0.45244027 0.00290310
0.26667326 0.46005798 0.00000000
0.29911252 0.46799653 0.00000000
0.33570307 0.47614537 0.00000000
0.37689292 0.48441257 0.00000000
0.42316665 0.49261277 0.00000000
0.47497376 0.50047706 0.00000000
0.53100442 0.50765344 0.00000000
0.58365932 0.51396542 0.00000000
0.63301339 0.51925181 0.00000000
0.67988397 0.52333776 0.00000000
0.72478861 0.52600184 0.00000000
0.76808908 0.52700754 0.00000000
0.81008728 0.52606347 0.00562370
0.85100791 0.52277167 0.00923896
0.89102976 0.51653709 0.01078012
0.92714731 0.50553686 0.02864484
0.95557386 0.49076819 0.06036675
0.98108861 0.46145550 0.04264078
0.99255235 0.49425968 0.16720821
0.99764789 0.54923714 0.26467555
0.99979347 0.60675744 0.35952651
1.00000000 0.65751711 0.45105825
1.00000000 0.70092220 0.53695461
1.00000000 0.73729631 0.60201627
1.00000000 0.76550163 0.64651217
0.19040656 0.48521210 0.01900093
0.19040656 0.48521210 0.01900093
0.19040656 0.48521210 0.01900093
0.19040656 0.48521210 0.01900093
0.19040656 0.48521210 0.01900093
0.20927168 0.49108568 0.01434053
0.22955145 0.49730157 0.00672835
0.25290423 0.50391519 0.00076330
0.27956384 0.51106996 0.00000000
0.30992501 0.51847464 0.00000000
0.34442749 0.52618544 0.00000000
0.38349040 0.53388345 0.00000000
0.42765626 0.54158429 0.00000000
0.47746416 0.54909713 0.00000000
0.53157165 0.55618922 0.00000000
0.58274978 0.56264922 0.00000000
0.63115344 0.56841484 0.00000000
0.67743069 0.57332036 0.00000000
0.72203062 0.57719767 0.00000000
0.76523658 0.57982782 0.00000000
0.80725889 0.58098095 0.00000000
0.84828638 0.58038100 0.00260227
0.88848625 0.57763340 0.00000000
0.92499133 0.57082311 0.02672103
0.95407886 0.55981035 0.06169294
0.98053132 0.53542876 0.03587730
0.99236584 0.55853043 0.17523544
0.99766139 0.59825428 0.27888592
0.99984840 0.64355978 0.37885146
1.00000000 0.68596065 0.47428627
1.00000000 0.72363308 0.55904481
1.00000000 0.75611559 0.62125690
1.00000000 0.78179866 0.66404911
0.21297991 0.53993154 0.01430457
0.21297991 0.53993154 0.01430457
0.21297991 0.53993154 0.01430457
0.21297991 0.53993154 0.01430457
0.21297991 0.53993154 0.01430457
0.23021960 0.54446311 0.01160654
0.24882789 0.54925173 0.00687088
0.27033115 0.55449990 0.00000000
0.29506590 0.56014505 0.00000000
0.32340426 0.56633511 0.00000000
0.35581042 0.57273966 0.00000000
0.39275625 0.57951540 0.00000000
0.43473754 0.58637542 0.00000000
0.48235314 0.59329941 0.00000000
0.53406398 0.60012974 0.00000000
0.58339706 0.60664369 0.00000000
0.63043971 0.61261915 0.00000000
0.67579773 0.61800997 0.00000000
0.71979085 0.62265202 0.00000000
0.76266010 0.62638308 0.00000000
0.80454481 0.62898790 0.00000000
0.84555986 0.63023826 0.00000000
0.88582183 0.62985671 0.00000000
0.92266695 0.62582935 0.02502453
0.95247116 0.61729276 0.06199688
0.98012460 0.59691362 0.00000000
0.99218409 0.61342472 0.18380539
0.99769917 0.64313615 0.29482734
0.99991297 0.67934772 0.40077624
1.00000000 0.71476283 0.50109111
1.00000000 0.74733431 0.58287131
1.00000000 0.77609372 0.64240364
1.00000000 0.79933815 0.68343003
0.23797268 0.58992285 0.01043756
0.23797268 0.58992285 0.01043756
0.23797268 0.58992285 0.01043756
0.23797268 0.58992285 0.01043756
0.23797268 0.58992285 0.01043756
0.25366646 0.59336409 0.00963083
0.27070085 0.59705609 0.00755555
0.29046267 0.60128831 0.00000000
0.31337115 0.60580111 0.00000000
0.33975447 0.61084422 0.00000000
0.37009646 0.61634644 0.00000000
0.40489355 0.62215359 0.00000000
0.44468105 0.62829830 0.00000000
0.49002356 0.63459411 0.00000000
0.53877750 0.64098654 0.00000000
0.58574390 0.64734578 0.00000000
0.63115173 0.65345734 0.00000000
0.67523042 0.65908750 0.00000000
0.71832768 0.66421044 0.00000000
0.76057995 0.66866291 0.00000000
0.80210397 0.67228768 0.00000000
0.84294422 0.67487584 0.00000000
0.88315200 0.67620176 0.00000000
0.92023286 0.67421913 0.02515199
0.95071925 0.66759685 0.06271830
0.97521514 0.66057487 0.11357783
0.99207761 0.66208255 0.19255121
0.99782638 0.68483513 0.31246831
1.00000000 0.71412402 0.42582755
1.00000000 0.74379500 0.53021771
1.00000000 0.77178310 0.60822887
1.00000000 0.79709341 0.66527627
1.00000000 0.81799803 0.70470908
0.26558347 0.63635594 0.00772516
0.26558347 0.63635594 0.00772516
0.26558347 0.63635594 0.00772516
0.26558347 0.63635594 0.00772516
0.26558347 0.63635594 0.00772516
0.27984290 0.63901895 0.00892600
0.29539341 0.64190928 0.00869591
0.31354535 0.64526266 0.00431796
0.33467495 0.64901161 0.00000000
0.35918109 0.65312905 0.00142431
0.38750303 0.65775681 0.00000000
0.42019521 0.66279507 0.00000000
0.45774959 0.66817864 0.00000000
0.50077925 0.67387917 0.00000000
0.54597001 0.67977575 0.00000000
0.59009022 0.68578930 0.00000000
0.63339988 0.69181137 0.00000000
0.67599459 0.69763468 0.00000000
0.71787089 0.70301056 0.00000000
0.75924590 0.70793367 0.00000000
0.80014454 0.71224594 0.00000000
0.84060064 0.71579892 0.00000000
0.88058836 0.71839878 0.00260882
0.91779307 0.71800242 0.02619785
0.94890191 0.71293213 0.06380970
0.97423153 0.70675146 0.11740386
0.99198417 0.70661757 0.20149739
0.99808588 0.72409161 0.33202305
1.00000000 0.74789911 0.45413468
1.00000000 0.77277041 0.56032515
1.00000000 0.79681963 0.63509872
1.00000000 0.81898281 0.68996353
1.00000000 0.83768354 0.72787948
0.29602174 0.68021626 0.00589983
0.29602174 0.68021626 0.00589983
0.29602174 0.68021626 0.00589983
0.29602174 0.68021626 0.00589983
0.29602174 0.68021626 0.00589983
0.30894762 0.68230476 0.00850044
0.32311965 0.68459106 0.00940590
0.33975825 0.68726850 0.00794792
0.35922561 0.69038114 0.00000000
0.38194986 0.69377608 0.00409496
0.40833008 0.69761505 0.00409912
0.43891783 0.70196515 0.00000000
0.47425222 0.70665512 0.00000000
0.51454027 0.71173180 0.00000000
0.55574186 0.71710850 0.00000000
0.59670265 0.72271291 0.00000000
0.63749455 0.72844898 0.00000000
0.67816937 0.73422370 0.00000000
0.71867484 0.73983528 0.00000000
0.75887161 0.74501792 0.00000000
0.79890547 0.74979311 0.00000000
0.83872589 0.75400977 0.00000000
0.87829547 0.75754490 0.01569386
0.91544875 0.75840837 0.03169791
0.94708426 0.75468706 0.06547984
0.97325049 0.74929025 0.12128071
0.99195488 0.74807709 0.21072153
0.99846250 0.76153750 0.35366748
1.00000000 0.78083542 0.48648260
1.00000000 0.80161610 0.59153283
1.00000000 0.82215707 0.66346066
1.00000000 0.84150087 0.71628329
1.00000000 0.85815927 0.75280463
0.32956506 0.72215205 0.00526288
0.32956506 0.72215205 0.00526288
0.32956506 0.72215205 0.00526288
0.32956506 0.72215205 0.00526288
0.32956506 0.72215205 0.00526288
0.34127728 0.72380462 0.00878693
0.35418381 0.72562564 0.01052669
0.36941166 0.72777413 0.01057251
0.38732840 0.73029316 0.00787011
0.40831389 0.73318191 0.00000000
0.43281888 0.73635973 0.00713497
0.46133671 0.74000016 0.00398191
0.49448098 0.74414473 0.00000000
0.53102253 0.74857311 0.00000000
0.56812824 0.75341965 0.00000000
0.60569651 0.75855361 0.00000000
0.64369643 0.76393977 0.00000000
0.68207359 0.76946827 0.00000000
0.72078584 0.77505803 0.00000000
0.75970219 0.78051305 0.00000000
0.79859059 0.78555180 0.00000000
0.83755401 0.79022473 0.00000000
0.87647215 0.79440635 0.02388077
0.91337556 0.79625222 0.03936792
0.94534634 0.79372689 0.07022082
0.97225569 0.78917075 0.12659695
0.99198150 0.78725924 0.22106583
0.99897063 0.79754904 0.37843449
1.00000000 0.81310779 0.52279046
1.00000000 0.83028222 0.62415374
1.00000000 0.84767977 0.69351690
1.00000000 0.86439532 0.74428482
1.00000000 0.87918439 0.77939937
0.36654482 0.76260917 0.00676127
0.36654482 0.76260917 0.00676127
0.36654482 0.76260917 0.00676127
0.36654482 0.76260917 0.00676127
0.36654482 0.76260917 0.00676127
0.37714185 0.76392530 0.00992049
0.38886657 0.76538331 0.01170248
0.40276631 0.76711355 0.01229221
0.41920366 0.76915606 0.01134020
0.43855826 0.77155378 0.00577613
0.46125551 0.77424903 0.00423406
0.48777381 0.77728184 0.00752664
0.51814434 0.78078803 0.00000000
0.55005532 0.78475533 0.00000000
0.58307379 0.78899052 0.00000000
0.61713690 0.79366123 0.00000000
0.65212556 0.79861030 0.00000000
0.68796393 0.80383029 0.00000000
0.72453595 0.80920124 0.00000000
0.76175482 0.81465250 0.00000000
0.79943945 0.81999543 0.00000000
0.83728439 0.82493149 0.00000000
0.87535261 0.82955850 0.02794072
0.91176740 0.83213768 0.04787578
0.94386534 0.83064437 0.07732010
0.97136360 0.82692239 0.13453511
0.99200413 0.82472064 0.23425717
0.99954921 0.83245030 0.40830234
1.00000000 0.84477882 0.56087969
1.00000000 0.85875551 0.65851174
1.00000000 0.87324091 0.72551118
1.00000000 0.88751895 0.77419542
1.00000000 0.90054545 0.80784034
0.40725895 0.80190769 0.00847272
0.40725895 0.80190769 0.00847272
0.40725895 0.80190769 0.00847272
0.40725895 0.80190769 0.00847272
0.40725895 0.80190769 0.00847272
0.41683339 0.80296060 0.01096408
0.42747303 0.80413164 0.01266242
0.44013335 0.80552806 0.01340267
0.45517654 0.80718540 0.01322147
0.47298770 0.80914304 0.01113267
0.49396061 0.81144403 0.00000000
0.51800224 0.81398628 0.00644951
0.54384647 0.81692610 0.00872906
0.57137545 0.82031013 0.00000000
0.60047040 0.82412134 0.00000000
0.63098990 0.82822373 0.00000000
0.66286668 0.83275753 0.00000000
0.69595799 0.83756314 0.00000000
0.73017715 0.84265458 0.00000000
0.76537689 0.84790529 0.00000000
0.80143677 0.85325393 0.00000000
0.83814887 0.85852184 0.00472201
0.87512881 0.86340291 0.03272760
0.91085523 0.86652970 0.05472272
0.94283614 0.86589420 0.08611099
0.97071756 0.86296624 0.14548938
0.99217930 0.86068455 0.25127303
