Luts Download/Canon Luts/3dlut/33grid-3dlut/full-to-full-range/CinemaGamut_CanonLog3-to-BT2020_HLGKnee-Vivid_33_FF_Ver.2.0.cube
# Gamut : Cinema Gamut to BT.2020
# Gamma : Canon Log 3 to HLGKnee-Vivid
# Range : Full in / Full out
# Version : 2.0 2019/10/24
# Copyright(c) 2019 Canon Inc. All Rights Reserved.
LUT_3D_SIZE 9
# LUT_3D_INPUT_RANGE 0.0 1.0
0.00000002 0.00000000 0.00000006
0.00000002 0.00000000 0.00000006
0.26638318 0.03675062 0.06414511
0.48514499 0.00000000 0.09617821
0.68993208 0.00000000 0.14472152
0.85142023 0.00000000 0.20077626
0.96607421 0.07463391 0.23520665
0.99998995 0.47588636 0.38867062
1.00000000 0.73867524 0.64515176
0.03270980 0.06122066 0.00000000
0.16873552 0.17660852 0.09250064
0.26638318 0.03675062 0.06414511
0.48514499 0.00000000 0.09617821
0.68993208 0.00000000 0.14472152
0.85142023 0.00000000 0.20077626
0.96607421 0.07463391 0.23520665
0.99998995 0.47588636 0.38867062
1.00000000 0.73867524 0.64515176
0.10074567 0.21912582 0.05846172
0.10074567 0.21912582 0.05846172
0.23776861 0.25014727 0.03097268
0.44377644 0.26736985 0.00000000
0.67690719 0.25656049 0.00000000
0.85305433 0.19996595 0.05627182
0.97252537 0.13198170 0.13215868
1.00000000 0.51225576 0.37695089
1.00000000 0.74844644 0.64970677
0.15449086 0.39554783 0.03385146
0.15449086 0.39554783 0.03385146
0.25639126 0.41456559 0.00000000
0.42301178 0.44548175 0.02594664
0.64422590 0.47398762 0.04076192
0.83120752 0.47560569 0.00000000
0.96547047 0.42481357 0.07921963
1.00000000 0.59792043 0.38544958
1.00000000 0.77330734 0.66808261
0.24045155 0.60454402 0.01401292
0.24045155 0.60454402 0.01401292
0.31495826 0.61146945 0.00000000
0.44489920 0.62944615 0.00000000
0.63310224 0.65522468 0.02391828
0.80884258 0.67925651 0.05245370
0.95445701 0.67061346 0.06868548
1.00000000 0.71509580 0.43477869
1.00000000 0.82268691 0.71470202
0.37083908 0.77549988 0.00881840
0.37083908 0.77549988 0.00881840
0.42306910 0.77727464 0.01579779
0.52007499 0.78430002 0.00823462
0.65218469 0.79949487 0.00000000
0.80121631 0.82163476 0.01766638
0.94542036 0.83211238 0.09054393
1.00000000 0.84254086 0.56107836
1.00000000 0.89866593 0.80593526
0.54384893 0.90814657 0.02336931
0.54384893 0.90814657 0.02336931
0.57072116 0.90877769 0.02875354
0.61912153 0.91181278 0.03367866
0.69614945 0.92019702 0.03386989
0.80540739 0.93727706 0.04308801
0.93688113 0.95725176 0.15960619
1.00000000 0.95791306 0.73309760
1.00000000 0.98214285 0.94031125
0.67681420 0.97725229 0.17979369
0.67681420 0.97725229 0.17979369
0.68608343 0.97776953 0.18314447
0.70706814 0.97968109 0.19873808
0.75119065 0.98477487 0.25194645
0.83076199 0.99473211 0.41575815
0.94339133 1.00000000 0.78149114
1.00000000 1.00000000 1.00000000
1.00000000 1.00000000 1.00000000
0.91735737 1.00000000 0.81505071
0.91735737 1.00000000 0.81505071
0.91955271 1.00000000 0.81872372
0.92556390 1.00000000 0.82983193
0.93993800 1.00000000 0.85827716
0.96857194 1.00000000 0.91822233
1.00000000 1.00000000 1.00000000
1.00000000 1.00000000 1.00000000
1.00000000 1.00000000 1.00000000
0.00000002 0.00000000 0.00000006
0.00000002 0.00000000 0.00000006
0.26638318 0.03675062 0.06414511
0.48514499 0.00000000 0.09617821
0.68993208 0.00000000 0.14472152
0.85142023 0.00000000 0.20077626
0.96607421 0.07463391 0.23520665
0.99998995 0.47588636 0.38867062
1.00000000 0.73867524 0.64515176
0.00000002 0.00000000 0.00000006
0.00000002 0.00000000 0.00000006
0.26638318 0.03675062 0.06414511
0.48514499 0.00000000 0.09617821
0.68993208 0.00000000 0.14472152
0.85142023 0.00000000 0.20077626
0.96607421 0.07463391 0.23520665
0.99998995 0.47588636 0.38867062
1.00000000 0.73867524 0.64515176
0.10074567 0.21912582 0.05846172
0.10074567 0.21912582 0.05846172
0.23776861 0.25014727 0.03097268
0.44377644 0.26736985 0.00000000
0.67690719 0.25656049 0.00000000
0.85305433 0.19996595 0.05627182
0.97252537 0.13198170 0.13215868
1.00000000 0.51225576 0.37695089
1.00000000 0.74844644 0.64970677
0.15449086 0.39554783 0.03385146
0.15449086 0.39554783 0.03385146
0.25639126 0.41456559 0.00000000
0.42301178 0.44548175 0.02594664
0.64422590 0.47398762 0.04076192
0.83120752 0.47560569 0.00000000
0.96547047 0.42481357 0.07921963
1.00000000 0.59792043 0.38544958
1.00000000 0.77330734 0.66808261
0.24045155 0.60454402 0.01401292
0.24045155 0.60454402 0.01401292
0.31495826 0.61146945 0.00000000
0.44489920 0.62944615 0.00000000
0.63310224 0.65522468 0.02391828
0.80884258 0.67925651 0.05245370
0.95445701 0.67061346 0.06868548
1.00000000 0.71509580 0.43477869
1.00000000 0.82268691 0.71470202
0.37083908 0.77549988 0.00881840
0.37083908 0.77549988 0.00881840
0.42306910 0.77727464 0.01579779
0.52007499 0.78430002 0.00823462
0.65218469 0.79949487 0.00000000
0.80121631 0.82163476 0.01766638
0.94542036 0.83211238 0.09054393
1.00000000 0.84254086 0.56107836
1.00000000 0.89866593 0.80593526
0.54384893 0.90814657 0.02336931
0.54384893 0.90814657 0.02336931
0.57072116 0.90877769 0.02875354
0.61912153 0.91181278 0.03367866
0.69614945 0.92019702 0.03386989
0.80540739 0.93727706 0.04308801
0.93688113 0.95725176 0.15960619
1.00000000 0.95791306 0.73309760
1.00000000 0.98214285 0.94031125
0.67681420 0.97725229 0.17979369
0.67681420 0.97725229 0.17979369
0.68608343 0.97776953 0.18314447
0.70706814 0.97968109 0.19873808
0.75119065 0.98477487 0.25194645
0.83076199 0.99473211 0.41575815
0.94339133 1.00000000 0.78149114
1.00000000 1.00000000 1.00000000
1.00000000 1.00000000 1.00000000
0.91735737 1.00000000 0.81505071
0.91735737 1.00000000 0.81505071
0.91955271 1.00000000 0.81872372
0.92556390 1.00000000 0.82983193
0.93993800 1.00000000 0.85827716
0.96857194 1.00000000 0.91822233
1.00000000 1.00000000 1.00000000
1.00000000 1.00000000 1.00000000
1.00000000 1.00000000 1.00000000
0.07619613 0.02720980 0.23324810
0.07619613 0.02720980 0.23324810
0.23188162 0.00000000 0.24870065
0.45196763 0.00000000 0.29442044
0.67734626 0.00000000 0.33012875
0.84555510 0.00000000 0.36445835
0.96242002 0.06647327 0.36248218
1.00000000 0.45275691 0.42747164
1.00000000 0.73347281 0.64711400
0.07619613 0.02720980 0.23324810
0.07619613 0.02720980 0.23324810
0.23188162 0.00000000 0.24870065
0.45196763 0.00000000 0.29442044
0.67734626 0.00000000 0.33012875
0.84555510 0.00000000 0.36445835
0.96242002 0.06647327 0.36248218
1.00000000 0.45275691 0.42747164
1.00000000 0.73347281 0.64711400
0.06257258 0.24517137 0.24029468
0.06257258 0.24517137 0.24029468
0.24181371 0.24181371 0.24181371
0.48286731 0.21042823 0.22940700
0.69512230 0.16858185 0.23367942
0.85568132 0.12548662 0.26519257
0.96945358 0.11640017 0.28297994
1.00000000 0.49210090 0.40770907
1.00000000 0.74226155 0.64983045
0.00000000 0.49171829 0.19155039
0.00000000 0.49171829 0.19155039
0.21155344 0.48913347 0.12484749
0.45014530 0.47142426 0.11355907
0.67756396 0.44761986 0.09990674
0.85284037 0.39950127 0.08241701
0.97488446 0.33986861 0.12998497
0.99986847 0.58634755 0.40587510
1.00000000 0.76819950 0.66818916
0.14769868 0.64769479 0.01155965
0.14769868 0.64769479 0.01155965
0.27756001 0.65006407 0.02019459
0.44263167 0.65797983 0.00000000
0.64580291 0.66786383 0.01007856
0.82005161 0.67579399 0.05025812
0.96146710 0.65620617 0.09097823
1.00000000 0.71185055 0.45670186
1.00000000 0.81976851 0.71565219
0.33125686 0.79037543 0.01853443
0.33125686 0.79037543 0.01853443
0.39452897 0.79146376 0.01459354
0.50667005 0.79690393 0.01109787
0.65237505 0.80877042 0.00000000
0.80549427 0.82595227 0.01795555
0.94976560 0.83151660 0.10108885
1.00000000 0.84276957 0.57900625
1.00000000 0.89782897 0.80772197
0.52479389 0.91429536 0.02154025
0.52479389 0.91429536 0.02154025
0.55576029 0.91479098 0.02849840
0.60984667 0.91747062 0.03798162
0.69258734 0.92511019 0.04084401
0.80555903 0.94083396 0.05089785
0.93856752 0.95897472 0.16899774
1.00000000 0.95872923 0.74441660
1.00000000 0.98230055 0.94193864
0.67614428 0.98016388 0.19670982
0.67614428 0.98016388 0.19670982
0.68627295 0.98057008 0.20279235
0.70870196 0.98222970 0.22299787
0.75288044 0.98706481 0.27296108
0.83558992 0.99565628 0.45583119
0.94567558 1.00000000 0.79427664
1.00000000 1.00000000 1.00000000
1.00000000 1.00000000 1.00000000
0.92095602 1.00000000 0.82456748
0.92095602 1.00000000 0.82456748
0.92299845 1.00000000 0.82797012
0.92885080 1.00000000 0.83871144
0.94276718 1.00000000 0.86595329
0.97064794 1.00000000 0.92379724
1.00000000 1.00000000 1.00000000
1.00000000 1.00000000 1.00000000
1.00000000 1.00000000 1.00000000
0.13360824 0.03002975 0.42991960
0.13360824 0.03002975 0.42991960
0.21597963 0.00000000 0.36561669
0.41576199 0.00000000 0.43713395
0.65431278 0.00000000 0.50810066
0.83290342 0.02773000 0.55768731
0.95585825 0.05999098 0.55332919
0.99929135 0.43222563 0.55339348
1.00000000 0.72763678 0.67884466
0.13360824 0.03002975 0.42991960
0.13360824 0.03002975 0.42991960
0.21597963 0.00000000 0.36561669
0.41576199 0.00000000 0.43713395
0.65431278 0.00000000 0.50810066
0.83290342 0.02773000 0.55768731
0.95585825 0.05999098 0.55332919
0.99929135 0.43222563 0.55339348
1.00000000 0.72763678 0.67884466
0.00000000 0.19259167 0.41093919
0.00000000 0.19259167 0.41093919
0.19909465 0.11033336 0.51897135
0.44242416 0.12438285 0.47785158
0.67416918 0.11073179 0.48789640
0.84371969 0.10449397 0.51334909
0.96205444 0.12924844 0.51072127
0.99927522 0.47307860 0.54144080
1.00000000 0.73602837 0.67852240
0.10957042 0.43672871 0.42755767
0.10957042 0.43672871 0.42755767
0.16811721 0.44670766 0.43935091
0.42987279 0.42987279 0.42987279
0.68131184 0.39115725 0.41407327
0.86191338 0.30232124 0.39782132
0.97435330 0.28446048 0.41808917
0.99919805 0.56645768 0.53036979
1.00000000 0.75826718 0.68483589
0.06653540 0.68973809 0.38216239
0.06653540 0.68973809 0.38216239
0.15015670 0.69185291 0.33834171
0.37698378 0.68889368 0.28560194
0.65695358 0.67392116 0.26916665
0.84571937 0.64722247 0.24381426
0.97765940 0.60297500 0.27605168
1.00000000 0.69700561 0.53346320
1.00000000 0.80954951 0.71543039
0.02952473 0.83155369 0.06023131
0.02952473 0.83155369 0.06023131
0.28049888 0.83022265 0.09782965
0.44408687 0.83237085 0.00000000
0.65002154 0.83529451 0.00000000
0.81766895 0.83810026 0.00000000
0.96092158 0.83020847 0.12267569
1.00000000 0.84323475 0.61427376
1.00000000 0.89532563 0.81021795
0.46373636 0.93132893 0.05005757
0.46373636 0.93132893 0.05005757
0.50874948 0.93158283 0.04380618
0.58314740 0.93339796 0.04384898
0.68405164 0.93900315 0.04980963
0.80738945 0.95089551 0.07001474
0.94348564 0.96399537 0.20816277
1.00000000 0.96129991 0.77291016
1.00000000 0.98293244 0.94600619
0.68417284 0.98763704 0.26099808
0.68417284 0.98763704 0.26099808
0.69456273 0.98791308 0.26656024
0.71676211 0.98928906 0.28389002
0.76252113 0.99299839 0.33920042
0.85107920 0.99775575 0.56113860
0.95264425 1.00000000 0.82905539
1.00000000 1.00000000 1.00000000
1.00000000 1.00000000 1.00000000
0.93118602 1.00000000 0.84987773
0.93118602 1.00000000 0.84987773
0.93299596 1.00000000 0.85284780
0.93801285 1.00000000 0.86181699
0.95067000 1.00000000 0.88600259
0.97647492 1.00000000 0.93855145
1.00000000 1.00000000 1.00000000
1.00000000 1.00000000 1.00000000
1.00000000 1.00000000 1.00000000
0.20354166 0.02270198 0.64261124
0.20354166 0.02270198 0.64261124
0.25634270 0.00000000 0.57294556
0.39122240 0.00000000 0.56630127
0.63049435 0.00000000 0.64328501
0.81549501 0.03410344 0.69933877
0.94388546 0.07404469 0.70645696
0.99805683 0.38737918 0.67516903
1.00000000 0.71942028 0.73268622
0.20354166 0.02270198 0.64261124
0.20354166 0.02270198 0.64261124
0.25634270 0.00000000 0.57294556
0.39122240 0.00000000 0.56630127
0.63049435 0.00000000 0.64328501
0.81549501 0.03410344 0.69933877
0.94388546 0.07404469 0.70645696
0.99805683 0.38737918 0.67516903
1.00000000 0.71942028 0.73268622
0.08149700 0.13235244 0.66815024
0.08149700 0.13235244 0.66815024
0.19397924 0.00000000 0.64023929
0.35799261 0.00000000 0.59646464
0.63473062 0.00000000 0.65608801
0.82361310 0.00000000 0.69484993
0.95005657 0.06581193 0.69318956
0.99853962 0.41938154 0.66654640
1.00000000 0.72820738 0.73304000
0.00000000 0.36115124 0.59881830
0.00000000 0.36115124 0.59881830
0.06148157 0.33242677 0.66574625
0.38030668 0.29271902 0.70585874
0.66212372 0.25174352 0.69708309
0.84198883 0.22996334 0.68462776
0.96452395 0.22836847 0.66842056
0.99881514 0.52760631 0.66325094
1.00000000 0.75216870 0.73991223
0.15323588 0.64709925 0.63772601
0.15323588 0.64709925 0.63772601
0.17876052 0.65101882 0.64267414
0.33886010 0.65382279 0.64769049
0.63952564 0.63952564 0.63952564
0.84311434 0.60413010 0.62554874
0.97546118 0.55737597 0.61652869
0.99900500 0.67828370 0.67211471
1.00000000 0.80312178 0.76407020
0.07276588 0.85033812 0.59505395
0.07276588 0.85033812 0.59505395
0.14156068 0.85142437 0.57696195
0.27473177 0.85371270 0.53556539
0.58663853 0.85056290 0.48284330
0.82234899 0.83703173 0.45947094
0.98213500 0.80569720 0.44560449
1.00000000 0.83462320 0.71891774
1.00000000 0.88902316 0.83057387
0.28920894 0.97034333 0.25938244
0.28920894 0.97034333 0.25938244
0.04967173 0.97507822 0.04092308
0.45485125 0.97253535 0.17016182
0.64009907 0.97465903 0.10823018
0.80733282 0.97708010 0.13244264
0.95606544 0.97647067 0.30063979
1.00000000 0.96730106 0.82863056
1.00000000 0.98430759 0.95357085
0.76144195 0.99762076 0.54542001
0.76144195 0.99762076 0.54542001
0.76889897 0.99765663 0.55046355
0.78740331 0.99793700 0.57011763
0.82541542 0.99865245 0.62111999
0.89093989 1.00000000 0.73189279
0.96921628 1.00000000 0.89761187
1.00000000 1.00000000 1.00000000
1.00000000 1.00000000 1.00000000
0.95456742 1.00000000 0.90349594
0.95456742 1.00000000 0.90349594
0.95597411 1.00000000 0.90575397
0.95980220 1.00000000 0.91235273
0.96921256 1.00000000 0.92972278
0.98960663 1.00000000 0.96940767
1.00000000 1.00000000 1.00000000
1.00000000 1.00000000 1.00000000
1.00000000 1.00000000 1.00000000
0.29361281 0.01908235 0.80786461
0.29361281 0.01908235 0.80786461
0.33566052 0.05307489 0.77612082
0.40312433 0.00000000 0.71138182
0.60126711 0.00000000 0.73445738
0.79561525 0.00000000 0.80021768
0.92775666 0.05591555 0.81971576
0.99434493 0.31136582 0.78398087
1.00000000 0.70152081 0.79303583
0.29361281 0.01908235 0.80786461
0.29361281 0.01908235 0.80786461
0.33566052 0.05307489 0.77612082
0.40312433 0.00000000 0.71138182
0.60126711 0.00000000 0.73445738
0.79561525 0.00000000 0.80021768
0.92775666 0.05591555 0.81971576
0.99434493 0.31136582 0.78398087
1.00000000 0.70152081 0.79303583
0.22763641 0.03120150 0.83173695
0.22763641 0.03120150 0.83173695
0.28580416 0.02613383 0.80411027
0.37313235 0.00000000 0.73569014
0.58805212 0.00000000 0.73553715
0.79624888 0.00000000 0.80084811
0.93061908 0.02847566 0.81793802
0.99518036 0.32621614 0.77980106
1.00000000 0.70553533 0.79051891
0.00000000 0.31671760 0.79585749
0.00000000 0.31671760 0.79585749
0.10005219 0.21843648 0.83176758
0.29242971 0.00000000 0.80930912
0.57317757 0.00000000 0.78961857
0.80223747 0.00000000 0.82315497
0.94230381 0.09166728 0.82044315
0.99744322 0.41244762 0.77558292
1.00000000 0.72851870 0.79406700
0.00000000 0.56716705 0.76200701
0.00000000 0.56716705 0.76200701
0.00000000 0.55857467 0.78780606
0.20941840 0.53137101 0.85096678
0.59449076 0.49589096 0.86423968
0.82626981 0.44134841 0.85767076
0.96731420 0.41080772 0.82325681
0.99938794 0.62384310 0.78242753
1.00000000 0.78684266 0.81439700
0.19767776 0.81406893 0.80531380
0.19767776 0.81406893 0.80531380
0.21624909 0.81547979 0.80719725
0.28510920 0.81896752 0.81167500
0.54819532 0.81941768 0.81412925
0.80706646 0.80706646 0.80706646
0.97005908 0.78063093 0.79406207
0.99813811 0.81727607 0.81833005
1.00000000 0.88323458 0.87046568
0.30250956 0.97536587 0.75581841
0.30250956 0.97536587 0.75581841
0.33563472 0.97576190 0.75109912
0.41292922 0.97692225 0.74202833
0.57603114 0.97900941 0.72492659
0.77116928 0.98055500 0.69648956
0.95739791 0.97130181 0.68137706
1.00000000 0.96389444 0.90319205
1.00000000 0.99067040 0.97788808
0.88434290 1.00000000 0.82712747
0.88434290 1.00000000 0.82712747
0.88720501 1.00000000 0.82805668
0.89452301 1.00000000 0.83246970
0.91096191 1.00000000 0.84626735
0.94316440 1.00000000 0.88493942
1.00000000 1.00000000 1.00000000
1.00000000 1.00000000 1.00000000
1.00000000 1.00000000 1.00000000
1.00000000 1.00000000 1.00000000
1.00000000 1.00000000 1.00000000
1.00000000 1.00000000 1.00000000
1.00000000 1.00000000 1.00000000
1.00000000 1.00000000 1.00000000
1.00000000 1.00000000 1.00000000
1.00000000 1.00000000 1.00000000
1.00000000 1.00000000 1.00000000
1.00000000 1.00000000 1.00000000
0.34885816 0.02497371 0.90644768
0.34885816 0.02497371 0.90644768
0.37934801 0.05073188 0.89183855
0.43398672 0.06490095 0.85733279
0.54026701 0.00000000 0.80649280
0.75954878 0.00000000 0.86699028
0.90787850 0.02508790 0.90623445
0.98560650 0.21182696 0.88139642
1.00000000 0.66581937 0.85477862
0.34885816 0.02497371 0.90644768
0.34885816 0.02497371 0.90644768
0.37934801 0.05073188 0.89183855
0.43398672 0.06490095 0.85733279
0.54026701 0.00000000 0.80649280
0.75954878 0.00000000 0.86699028
0.90787850 0.02508790 0.90623445
0.98560650 0.21182696 0.88139642
1.00000000 0.66581937 0.85477862
0.31296673 0.00000000 0.92220017
0.31296673 0.00000000 0.92220017
0.34859986 0.02656537 0.90804494
0.41044140 0.05403722 0.87335779
0.51774759 0.00000000 0.81140626
0.75561729 0.00000000 0.86754229
0.90831951 0.01706350 0.90662418
0.98631944 0.21710310 0.88042108
1.00000000 0.66887058 0.85361693
0.21335956 0.13531446 0.94902060
0.21335956 0.13531446 0.94902060
0.26537662 0.09994661 0.94059808
0.35018860 0.05077987 0.91195579
0.48043574 0.00000000 0.84074338
0.74634193 0.00000000 0.87247368
0.91101786 0.00000000 0.90985704
0.98887907 0.22235736 0.87911221
1.00000000 0.67690970 0.85138025
0.00000000 0.51758165 0.88922252
0.00000000 0.51758165 0.88922252
0.00000000 0.48264543 0.90565906
0.08257830 0.35495267 0.94624465
0.44745672 0.14139855 0.93859840
0.75763668 0.18316419 0.94798288
0.92983851 0.17656480 0.94872712
0.99637914 0.44547410 0.88562817
1.00000000 0.73734195 0.86057449
0.00000000 0.75145554 0.90888533
0.00000000 0.75145554 0.90888533
0.00000000 0.74968440 0.91919455
0.15660611 0.74616593 0.94545547
0.48935393 0.73722964 0.97167062
0.77348461 0.73099239 0.97119571
0.94873888 0.70556702 0.96937612
1.00000000 0.76145090 0.90229941
1.00000000 0.85602290 0.89957759
0.22345757 0.94756687 0.93893010
0.22345757 0.94756687 0.93893010
0.24691364 0.94813282 0.93972354
0.31659366 0.94960504 0.94168170
0.49288564 0.95216466 0.94524772
0.73888932 0.95374650 0.94884416
0.94441540 0.94441540 0.94441540
0.99998853 0.95309637 0.95400112
1.00000000 0.98996475 0.98908461
0.87309279 1.00000000 0.91297769
0.87309279 1.00000000 0.91297769
0.87598758 1.00000000 0.91347281
0.88376457 1.00000000 0.91565827
0.90234956 1.00000000 0.92263292
0.94074468 1.00000000 0.94305378
1.00000000 1.00000000 1.00000000
1.00000000 1.00000000 1.00000000
1.00000000 1.00000000 1.00000000
1.00000000 1.00000000 1.00000000
1.00000000 1.00000000 1.00000000
1.00000000 1.00000000 1.00000000
1.00000000 1.00000000 1.00000000
1.00000000 1.00000000 1.00000000
1.00000000 1.00000000 1.00000000
1.00000000 1.00000000 1.00000000
1.00000000 1.00000000 1.00000000
1.00000000 1.00000000 1.00000000
0.39614940 0.10622864 0.97939445
0.39614940 0.10622864 0.97939445
0.41523375 0.10033906 0.97304208
0.45072777 0.09821531 0.95575365
0.51068346 0.06846574 0.91353759
0.69299906 0.00000000 0.91762093
0.87010148 0.01208650 0.96407120
0.96773634 0.16011090 0.96048979
1.00000000 0.62510320 0.92230379
0.39614940 0.10622864 0.97939445
0.39614940 0.10622864 0.97939445
0.41523375 0.10033906 0.97304208
0.45072777 0.09821531 0.95575365
0.51068346 0.06846574 0.91353759
0.69299906 0.00000000 0.91762093
0.87010148 0.01208650 0.96407120
0.96773634 0.16011090 0.96048979
1.00000000 0.62510320 0.92230379
0.37584870 0.11791272 0.98600642
0.37584870 0.11791272 0.98600642
0.39650041 0.11010321 0.97998074
0.43430229 0.09795768 0.96369465
0.49849220 0.07229823 0.92120392
0.68490868 0.00000000 0.91881081
0.86903883 0.00642625 0.96477593
0.96793758 0.16214749 0.96065033
1.00000000 0.62732257 0.92188028
0.33096579 0.20384436 0.99483059
0.33096579 0.20384436 0.99483059
0.35352957 0.17656427 0.99188194
0.39836583 0.12982663 0.98074920
0.47345730 0.08951834 0.94072164
0.66244723 0.00000000 0.92150240
0.86665545 0.00000000 0.96679931
0.96867309 0.16424294 0.96133508
1.00000000 0.63329539 0.92111728
0.22596925 0.42505679 0.99083696
0.22596925 0.42505679 0.99083696
0.25283565 0.40071200 0.99228675
0.30627255 0.33948412 0.99278658
0.40512821 0.18918027 0.98045987
0.62344057 0.00000000 0.95686744
0.87002584 0.00000000 0.98608294
0.97507169 0.20017903 0.96971635
1.00000000 0.66566807 0.92139027
0.07743930 0.68764846 0.97883234
0.07743930 0.68764846 0.97883234
0.08768017 0.68060166 0.98289567
0.11242838 0.66130872 0.99123201
0.33248916 0.65616161 0.99084203
0.69543932 0.67333312 0.99088544
0.88296743 0.69364935 1.00000000
0.98382593 0.69643225 0.98352416
1.00000000 0.81758953 0.94058048
0.56948253 0.89696893 1.00000000
0.56948253 0.89696893 1.00000000
0.59253018 0.89637218 1.00000000
0.63835328 0.89596557 1.00000000
0.71503269 0.89673599 1.00000000
0.82076230 0.90260601 1.00000000
0.92641931 0.92085518 1.00000000
0.99172167 0.93236691 0.99281214
1.00000000 0.97563893 0.99150159
0.82043220 0.99192478 0.98515058
0.82043220 0.99192478 0.98515058
0.82462618 0.99191409 0.98526922
0.83580083 0.99203203 0.98570648
0.86149261 0.99258181 0.98700827
0.91290605 0.99448607 0.99063291
0.98654761 1.00000000 1.00000000
1.00000000 1.00000000 1.00000000
1.00000000 1.00000000 1.00000000
1.00000000 1.00000000 1.00000000
1.00000000 1.00000000 1.00000000
1.00000000 1.00000000 1.00000000
1.00000000 1.00000000 1.00000000
1.00000000 1.00000000 1.00000000
1.00000000 1.00000000 1.00000000
1.00000000 1.00000000 1.00000000
1.00000000 1.00000000 1.00000000
1.00000000 1.00000000 1.00000000
0.48255190 0.41492314 1.00000000
0.48255190 0.41492314 1.00000000
0.49255478 0.40406169 1.00000000
0.51149863 0.37618372 1.00000000
0.54605161 0.31260201 1.00000000
0.59649890 0.10031320 0.97816457
0.80536634 0.13146058 1.00000000
0.92602359 0.24979075 1.00000000
1.00000000 0.56499379 0.99052282
0.48255190 0.41492314 1.00000000
0.48255190 0.41492314 1.00000000
0.49255478 0.40406169 1.00000000
0.51149863 0.37618372 1.00000000
0.54605161 0.31260201 1.00000000
0.59649890 0.10031320 0.97816457
0.80536634 0.13146058 1.00000000
0.92602359 0.24979075 1.00000000
1.00000000 0.56499379 0.99052282
0.47377146 0.42985572 1.00000000
0.47377146 0.42985572 1.00000000
0.48314657 0.41767845 1.00000000
0.50262913 0.38953151 1.00000000
0.53865987 0.32463585 1.00000000
0.59209033 0.12854514 0.98031562
0.80218276 0.13596866 1.00000000
0.92538463 0.25212701 1.00000000
1.00000000 0.56633908 0.99042196
0.45711376 0.46733683 1.00000000
0.45711376 0.46733683 1.00000000
0.46677416 0.45572634 1.00000000
0.48519735 0.42560585 1.00000000
0.52362454 0.35857454 1.00000000
0.57902241 0.15564079 0.98484859
0.79441576 0.13689760 1.00000000
0.92392646 0.25533006 1.00000000
1.00000000 0.56981900 0.99021792
0.42994697 0.55178435 1.00000000
0.42994697 0.55178435 1.00000000
0.43890030 0.54308394 1.00000000
0.45566197 0.51822120 1.00000000
0.49144482 0.44824898 1.00000000
0.55809553 0.26241619 0.99539792
0.77410133 0.09366372 1.00000000
0.92066113 0.25398344 1.00000000
1.00000000 0.57995957 0.98942578
0.41680316 0.68218277 1.00000000
0.41680316 0.68218277 1.00000000
0.42347121 0.67803387 1.00000000
0.43539281 0.66640509 1.00000000
0.45843623 0.63147652 1.00000000
0.51107012 0.51419040 0.99583538
0.77714620 0.61019835 1.00000000
0.92756692 0.63014187 1.00000000
1.00000000 0.74011445 0.98624230
0.57398582 0.83515323 1.00000000
0.57398582 0.83515323 1.00000000
0.57588112 0.83370696 1.00000000
0.58609843 0.83216637 1.00000000
0.64507318 0.84131678 1.00000000
0.74188755 0.86136092 1.00000000
0.87373806 0.88427401 1.00000000
0.95509977 0.90177535 0.99998943
1.00000000 0.94296637 0.99747561
0.83200660 0.94860413 0.99899006
0.83200660 0.94860413 0.99899006
0.83538103 0.94870348 0.99892600
0.84404628 0.94942737 0.99881583
0.86402058 0.95191535 0.99850260
0.90416809 0.95952052 0.99779317
0.96397647 0.97985712 0.99980408
1.00000000 1.00000000 1.00000000
1.00000000 1.00000000 1.00000000
1.00000000 1.00000000 1.00000000
1.00000000 1.00000000 1.00000000
1.00000000 1.00000000 1.00000000
1.00000000 1.00000000 1.00000000
1.00000000 1.00000000 1.00000000
1.00000000 1.00000000 1.00000000
1.00000000 1.00000000 1.00000000
1.00000000 1.00000000 1.00000000
1.00000000 1.00000000 1.00000000
