Luts Download/Canon Luts/3dlut/33grid-3dlut/full-to-full-range/CinemaGamut_CanonLog2-to-DCIP3_DCI_33_FF_Ver.2.0.cube
# Gamut : Cinema Gamut to DCI-P3
# Gamma : Canon Log 2 to DCI
# Range : Full in / Full out
# Version : 2.0 2019/10/24
# Copyright(c) 2019 Canon Inc. All Rights Reserved.
LUT_3D_SIZE 9
# LUT_3D_INPUT_RANGE 0.0 1.0
0.00000276 0.00000000 0.00000177
0.01768217 0.00833594 0.00966057
0.18311778 0.04445304 0.06706523
0.44522058 0.05927112 0.13876352
0.75241111 0.02643099 0.20966845
0.94355565 0.08231271 0.22925517
1.00000000 0.29168685 0.28322503
1.00000000 0.38622689 0.33050354
1.00000000 0.41565866 0.34174212
0.01125690 0.01597318 0.01170646
0.01890922 0.01924169 0.01335948
0.17886448 0.06270911 0.00000000
0.44459926 0.07531642 0.11136836
0.75369700 0.00000000 0.19552326
0.94452656 0.07104045 0.22300156
1.00000000 0.29170748 0.28175009
1.00000000 0.38636767 0.33021097
1.00000000 0.41580631 0.34175148
0.05458017 0.15601028 0.05971752
0.06751060 0.15560120 0.04441900
0.16923171 0.17703799 0.06686916
0.40727852 0.23038285 0.00000000
0.75392689 0.18849613 0.07622313
0.96017545 0.11087130 0.18027476
1.00000000 0.32395188 0.29022032
1.00000000 0.40800974 0.34502915
1.00000000 0.43531943 0.35852472
0.06166259 0.37480509 0.10789648
0.07189984 0.37462899 0.08990270
0.20250012 0.37985228 0.00000000
0.40308437 0.42132366 0.06999138
0.73037249 0.44555227 0.08252967
0.98076600 0.39433104 0.22137762
0.99763892 0.48547415 0.39531442
0.99537904 0.53311809 0.45503105
0.99541359 0.55098719 0.47107244
0.00000000 0.63667176 0.15583159
0.00000000 0.63666307 0.14445606
0.15827660 0.63999551 0.06119516
0.37403744 0.66853850 0.00000000
0.68301477 0.71376684 0.00000000
0.99804943 0.67415799 0.28043986
1.00000000 0.70095621 0.56802496
1.00000000 0.72232978 0.64635418
1.00000000 0.73101293 0.66697496
0.03751967 0.80441318 0.12858488
0.00000000 0.80445667 0.12076762
0.10974471 0.80802206 0.05615842
0.28625513 0.83473509 0.00000000
0.52947839 0.89634564 0.08682461
0.86129704 0.90321528 0.19683341
1.00000000 0.86073542 0.63048370
1.00000000 0.84917360 0.76968400
1.00000000 0.84457869 0.79479070
0.14945957 0.90034620 0.04124797
0.15239768 0.90030074 0.03713320
0.17880364 0.90322524 0.02691661
0.24746326 0.92904500 0.06412462
0.45005854 0.98976528 0.23357033
0.75017932 1.00000000 0.50300026
0.95428438 0.99627328 0.64384631
1.00000000 0.94814411 0.85171085
1.00000000 0.91930827 0.87396977
0.24302487 0.94664169 0.00000000
0.24362117 0.94662913 0.00000000
0.25013114 0.94960669 0.03714619
0.29778569 0.97325101 0.13526716
0.61320956 1.00000000 0.47392052
0.82865851 1.00000000 0.72727534
0.93945184 1.00000000 0.87408113
1.00000000 1.00000000 1.00000000
0.99841042 0.98301407 0.95515944
0.29587748 0.96328947 0.00000000
0.29600675 0.96329396 0.00000000
0.29840629 0.96631702 0.01162548
0.35059272 0.98803677 0.17045925
0.67586617 1.00000000 0.54703595
0.85875257 1.00000000 0.78368974
0.95144525 1.00000000 0.91787929
1.00000000 1.00000000 1.00000000
1.00000000 1.00000000 1.00000000
0.00650510 0.00398037 0.01305785
0.01755019 0.00440490 0.01651944
0.18284697 0.03190575 0.09216709
0.44387825 0.05259348 0.16547493
0.75091418 0.05509941 0.22298708
0.94255525 0.09234714 0.23524345
1.00000000 0.29212495 0.28490637
1.00000000 0.38635198 0.33099694
1.00000000 0.41574961 0.34194245
0.00927440 0.01829231 0.01791866
0.01933178 0.01933178 0.01933178
0.18423067 0.04223805 0.06802881
0.44518613 0.05883419 0.14224956
0.75241813 0.03122239 0.20907117
0.94358419 0.08255235 0.22909099
1.00000000 0.29212799 0.28342901
1.00000000 0.38649263 0.33070458
1.00000000 0.41588432 0.34194001
0.05139007 0.15616794 0.07333513
0.05873930 0.15644988 0.05715956
0.16931965 0.17725001 0.06666893
0.41297542 0.22512311 0.00000000
0.75722988 0.17684613 0.09417036
0.95915316 0.11784930 0.18810606
1.00000000 0.32440627 0.29190084
1.00000000 0.40812227 0.34550232
1.00000000 0.43538720 0.35870281
0.06841840 0.37479953 0.12186178
0.07127763 0.37477408 0.10547404
0.19759396 0.38051807 0.02972772
0.40307215 0.42138589 0.06989454
0.73300432 0.44358466 0.08471948
0.98068096 0.39406881 0.22587307
0.99734566 0.48551533 0.39637470
0.99524208 0.53313616 0.45534654
0.99531552 0.55102107 0.47120492
0.02606745 0.63668909 0.16484790
0.00000000 0.63669810 0.15425106
0.14916113 0.64037455 0.07086229
0.37154346 0.66889563 0.00000000
0.68301555 0.71379186 0.00000000
0.99834413 0.67388500 0.28246057
1.00000000 0.70090738 0.56864886
1.00000000 0.72232156 0.64654228
1.00000000 0.73103036 0.66706439
0.05398367 0.80440084 0.13533525
0.04093739 0.80444883 0.12805732
0.10188389 0.80816216 0.06499579
0.28350803 0.83493226 0.02150782
0.52860521 0.89649120 0.08798938
0.86129939 0.90322863 0.19764690
1.00000000 0.86070172 0.63102496
1.00000000 0.84916737 0.76984017
1.00000000 0.84459310 0.79486766
0.14720569 0.90041404 0.04623056
0.15007720 0.90037151 0.04239347
0.17659233 0.90330697 0.03197257
0.24654956 0.92910358 0.06742058
0.45017681 0.98974907 0.23482618
0.75040921 1.00000000 0.50389972
0.95428591 0.99622529 0.64460119
1.00000000 0.94814141 0.85198226
1.00000000 0.91932229 0.87406827
0.24260797 0.94668090 0.01561064
0.24320938 0.94666819 0.01476508
0.24978615 0.94964306 0.03926776
0.29804165 0.97325221 0.13647475
0.61385211 1.00000000 0.47482415
0.82893008 1.00000000 0.72779922
0.93958854 1.00000000 0.87447945
1.00000000 1.00000000 1.00000000
0.99834151 0.98301572 0.95529280
0.29588396 0.96331046 0.00000000
0.29601561 0.96331456 0.00000000
0.29848048 0.96633323 0.02182310
0.35138376 0.98798978 0.17189891
0.67643464 1.00000000 0.54779854
0.85900273 1.00000000 0.78412061
0.95158735 1.00000000 0.91817540
1.00000000 1.00000000 1.00000000
1.00000000 1.00000000 1.00000000
0.04732278 0.04043355 0.12827432
0.06816466 0.02657401 0.12571899
0.16612523 0.00000000 0.14977345
0.42490915 0.05270398 0.26720399
0.73973019 0.00000000 0.33263966
0.93671066 0.05846080 0.30258202
1.00000000 0.27930122 0.29012799
1.00000000 0.37573620 0.32597698
1.00000000 0.40578582 0.33416489
0.00000000 0.05451406 0.12096636
0.04596553 0.04092401 0.12869018
0.16732155 0.00000000 0.15105660
0.42717451 0.03970826 0.26209297
0.74148753 0.00000000 0.32473486
0.93765734 0.03909377 0.29742767
1.00000000 0.27937430 0.28868640
1.00000000 0.37589605 0.32568613
1.00000000 0.40592797 0.33416292
0.07476396 0.16541292 0.16081875
0.06514096 0.16621467 0.16148658
0.17241401 0.17241401 0.17241401
0.46326131 0.13221408 0.19588295
0.76838576 0.00000000 0.25628734
0.95553567 0.06676043 0.25972747
1.00000000 0.31037404 0.29482542
1.00000000 0.39650864 0.33906090
1.00000000 0.42430964 0.34956422
0.00000000 0.40691274 0.22594100
0.00000000 0.40719255 0.21864807
0.08906216 0.41697025 0.14397281
0.41681991 0.43362788 0.03998685
0.77391107 0.41463317 0.10631119
0.98283292 0.38784785 0.25786986
0.99733490 0.48184572 0.40142163
0.99572030 0.53011457 0.45469032
0.99574021 0.54806044 0.46879881
0.10711448 0.65006235 0.23048089
0.09990312 0.65012572 0.22349712
0.10411343 0.65513008 0.16119062
0.34993168 0.68271305 0.04285694
0.68823114 0.71935325 0.00000000
1.00000000 0.67504903 0.30589487
1.00000000 0.70294746 0.57705553
1.00000000 0.72420178 0.65042110
1.00000000 0.73295126 0.66985585
0.09869855 0.81306818 0.18185338
0.09335332 0.81313299 0.17702728
0.08433601 0.81725068 0.13554385
0.25736520 0.84446690 0.06348132
0.52350281 0.90325344 0.09803868
0.86474830 0.90694658 0.21051690
1.00000000 0.86351459 0.64293036
1.00000000 0.85173273 0.77507317
1.00000000 0.84718357 0.79871903
0.13223498 0.90798474 0.08683680
0.13410275 0.90796992 0.08388798
0.15792269 0.91099213 0.06933182
0.24243595 0.93600909 0.09980526
0.47189135 0.99209332 0.27451555
0.76345447 1.00000000 0.53321594
0.95673211 0.99674172 0.67462606
1.00000000 0.95047520 0.86175658
1.00000000 0.92186615 0.87885579
0.24364333 0.95331116 0.06738581
0.24428970 0.95329628 0.06744701
0.25259213 0.95612609 0.07853799
0.31735600 0.97810717 0.17106875
0.63948696 1.00000000 0.50606894
0.84075035 1.00000000 0.74672610
0.94649535 1.00000000 0.88971541
1.00000000 1.00000000 1.00000000
0.99793448 0.98503776 0.96169621
0.30205933 0.96940798 0.07369699
0.30227382 0.96940624 0.07404578
0.30714687 0.97220192 0.08826441
0.38338696 0.99109720 0.21821834
0.69830119 1.00000000 0.57534179
0.86974574 1.00000000 0.80048084
0.95850716 1.00000000 0.93016450
1.00000000 1.00000000 1.00000000
1.00000000 1.00000000 1.00000000
0.09391053 0.08049467 0.32724421
0.11778494 0.06922457 0.32560064
0.20485370 0.00000000 0.27790607
0.40454921 0.02948062 0.36176730
0.71083095 0.05972317 0.46246567
0.91605156 0.07401667 0.43049701
0.99928035 0.25352292 0.36333669
0.99866011 0.36866476 0.33441208
0.99926245 0.39938394 0.33198693
0.06372092 0.10272188 0.31726254
0.09391064 0.08581281 0.32414618
0.20139143 0.00000000 0.28214017
0.40496241 0.00000000 0.36204264
0.71164238 0.05293330 0.46055410
0.91669218 0.06951660 0.42764503
0.99928325 0.25384976 0.36204694
0.99855556 0.36888856 0.33401642
0.99918154 0.39951932 0.33197499
0.00000000 0.18015820 0.26161298
0.00000000 0.17810603 0.26772447
0.12610125 0.08594090 0.33476830
0.41918874 0.00000000 0.39210413
0.73625884 0.00000000 0.44552676
0.93427530 0.00000000 0.40806086
1.00000000 0.28137843 0.36190193
0.99816603 0.38710479 0.34348942
0.99871999 0.41578393 0.34522461
0.13729243 0.39543873 0.38357248
0.12972447 0.39582125 0.38393517
0.00000000 0.40377545 0.39187837
0.40773944 0.40773944 0.40773944
0.80503253 0.33940838 0.40736539
0.97045739 0.36476587 0.42386917
0.99349471 0.46953294 0.44910689
0.99086565 0.52571342 0.45877515
0.99189770 0.54346467 0.46682176
0.00000000 0.73337952 0.41717671
0.00000000 0.73354789 0.41401265
0.00000000 0.73713235 0.38651038
0.12231533 0.75441819 0.29433669
0.71787944 0.74344731 0.23076693
1.00000000 0.67639334 0.42043378
1.00000000 0.71417721 0.61165231
1.00000000 0.73727075 0.66919271
1.00000000 0.74620376 0.68539288
0.00000000 0.88561729 0.27880903
0.00000000 0.88568764 0.27591182
0.00000000 0.88986957 0.24991079
0.00000000 0.91600102 0.14302204
0.50839837 0.95514226 0.09079228
0.89339182 0.93711291 0.24754638
1.00000000 0.88492629 0.69578919
1.00000000 0.87035758 0.80280943
1.00000000 0.86547467 0.82174121
0.21551848 0.96475987 0.21497573
0.21573707 0.96477620 0.21377910
0.23200903 0.96725959 0.21169995
0.34339277 0.98478779 0.25993767
0.64014452 1.00000000 0.49615815
0.84093429 1.00000000 0.68680075
0.97831196 1.00000000 0.83450757
1.00000000 0.96899527 0.91543831
0.99919339 0.94134952 0.91032275
0.42877896 0.99300262 0.31257191
0.42930170 0.99295682 0.31282338
0.45003130 0.99329966 0.33066994
0.56942496 0.99668264 0.44554962
0.77493651 1.00000000 0.67713252
0.91042096 1.00000000 0.85572084
0.98722315 1.00000000 0.96979006
1.00000000 1.00000000 1.00000000
1.00000000 1.00000000 1.00000000
0.52142414 0.99765494 0.37928407
0.52184079 0.99759597 0.37968446
0.53964991 0.99729714 0.39859889
0.64005332 0.99793915 0.51028681
0.81505668 1.00000000 0.72880133
0.93356583 1.00000000 0.89628702
1.00000000 1.00000000 1.00000000
1.00000000 1.00000000 1.00000000
1.00000000 1.00000000 1.00000000
0.13576252 0.08459416 0.57146533
0.15257503 0.07753330 0.56953279
0.23976644 0.08030285 0.52896457
0.38490355 0.00000000 0.48500687
0.68038255 0.00000000 0.60262679
0.88842840 0.00000000 0.58271591
0.99822966 0.17804410 0.48411296
1.00000000 0.32957237 0.39549992
0.99886692 0.37586114 0.32906201
0.11598576 0.10714799 0.56756496
0.13566872 0.09341459 0.56896497
0.23243562 0.08006187 0.53280242
0.38365662 0.00000000 0.48683654
0.68048075 0.00000000 0.60269196
0.88866554 0.00000000 0.58204719
0.99823601 0.17858762 0.48327125
1.00000000 0.32980307 0.39518667
0.99878174 0.37600166 0.32898887
0.00000000 0.23700583 0.46716766
0.00000000 0.23139942 0.47787616
0.14333915 0.15155030 0.54674498
0.36686213 0.00000000 0.50692142
0.68680911 0.00000000 0.60846693
0.89740675 0.00000000 0.57857611
1.00000000 0.18982767 0.47837120
1.00000000 0.33731820 0.39576174
0.99858104 0.38221436 0.33243277
0.00000000 0.35847703 0.47768843
0.00000000 0.35788012 0.48014721
0.00000000 0.34287650 0.51278108
0.33487891 0.26812331 0.67909027
0.74262087 0.19776550 0.70179408
0.96831313 0.21317201 0.60351675
1.00000000 0.39133154 0.52737554
1.00000000 0.47178053 0.47718266
0.99763930 0.50231012 0.43576809
0.00000000 0.67297713 0.65092801
0.00000000 0.67317783 0.65113481
0.00000000 0.67748842 0.65544376
0.00000000 0.69813695 0.67755650
0.69019238 0.69019238 0.69019238
0.95118637 0.67043588 0.68935861
0.99190756 0.71235186 0.70940740
0.99042977 0.74559819 0.71651171
0.98934669 0.75961069 0.71072508
0.24065108 0.89257309 0.54463483
0.24203393 0.89256259 0.54394560
0.25930403 0.89419914 0.53987838
0.35283815 0.90644487 0.54146227
0.61758431 0.92643527 0.59611134
0.88938714 0.92009699 0.61551072
1.00000000 0.89791086 0.79966716
1.00000000 0.91266673 0.87603755
1.00000000 0.91878329 0.89331585
0.51491209 0.99566035 0.48003510
0.51593220 0.99552482 0.48031205
0.53217451 0.99491739 0.48875781
0.61187796 0.99586977 0.54525056
0.77533994 1.00000000 0.69144702
0.91002695 1.00000000 0.82818405
0.99819514 1.00000000 0.94711577
1.00000000 1.00000000 1.00000000
1.00000000 1.00000000 1.00000000
0.74453615 1.00000000 0.65507242
0.74473232 1.00000000 0.65523747
0.75322990 1.00000000 0.66499832
0.80662014 1.00000000 0.73084319
0.92197043 0.99770800 0.88582152
1.00000000 1.00000000 1.00000000
1.00000000 1.00000000 1.00000000
1.00000000 1.00000000 1.00000000
1.00000000 1.00000000 1.00000000
0.81172572 1.00000000 0.72653018
0.81189668 1.00000000 0.72676288
0.81947254 1.00000000 0.73725775
0.86060309 1.00000000 0.79439810
0.95613003 1.00000000 0.93218231
1.00000000 1.00000000 1.00000000
1.00000000 1.00000000 1.00000000
1.00000000 1.00000000 1.00000000
1.00000000 1.00000000 1.00000000
0.10428329 0.10209361 0.72916849
0.11839650 0.09366905 0.72971026
0.19179584 0.09749902 0.71016093
0.29295567 0.00000000 0.64353889
0.60728249 0.00000000 0.73753063
0.84416086 0.00687048 0.73940268
0.97845171 0.10978624 0.64610599
1.00000000 0.29374143 0.51717251
1.00000000 0.35301166 0.40341107
0.08879794 0.12291866 0.72420879
0.10477814 0.10876824 0.72735240
0.18523380 0.09727820 0.71183179
0.29010040 0.00000000 0.64528376
0.60678059 0.00000000 0.73828279
0.84418590 0.00000000 0.73942016
0.97848358 0.11006627 0.64588622
1.00000000 0.29394254 0.51694702
1.00000000 0.35312694 0.40333894
0.01579655 0.25281235 0.63991928
0.00000000 0.24523997 0.64982993
0.11726139 0.16238461 0.70956519
0.26588072 0.00000000 0.66353016
0.60266569 0.00000000 0.74710480
0.84684589 0.00000000 0.74181120
0.98072978 0.11189664 0.64521420
1.00000000 0.29993931 0.51651222
1.00000000 0.35763920 0.40483786
0.00000000 0.35765029 0.61061727
0.00000000 0.35640038 0.61370991
0.00000000 0.34011388 0.63927079
0.13907147 0.18542345 0.73874779
0.62586155 0.00000000 0.84950985
0.89882971 0.00000000 0.79186075
1.00000000 0.28006935 0.66747384
1.00000000 0.40395922 0.55414253
1.00000000 0.44600553 0.46183146
0.00000000 0.60891908 0.77232120
0.00000000 0.60879353 0.77344162
0.00000000 0.61072095 0.78742954
0.19681971 0.62041443 0.86193928
0.63209114 0.62727528 0.92617659
0.96494333 0.57896507 0.90113979
1.00000000 0.65876088 0.78596338
1.00000000 0.70575406 0.74330905
1.00000000 0.72586411 0.70883631
0.00000000 0.85562749 0.82601312
0.00000000 0.85573482 0.82612032
0.00000000 0.85853843 0.82888706
0.00000000 0.87471149 0.84543372
0.50193570 0.89506789 0.87404439
0.87519428 0.87519428 0.87519428
0.99439263 0.87979668 0.88456618
0.99514343 0.90408332 0.90064310
0.99459806 0.91441433 0.90273830
0.38058700 0.98396051 0.62254146
0.38091691 0.98395625 0.62234904
0.39714493 0.98443477 0.62482147
0.51621442 0.98556305 0.66142999
0.73529995 0.99034527 0.77071775
0.89251901 0.99648050 0.87050587
0.99035458 0.99939559 0.93924917
1.00000000 1.00000000 1.00000000
1.00000000 1.00000000 1.00000000
0.71844362 0.99916384 0.65385510
0.71860528 0.99912866 0.65394387
0.72636067 0.99876994 0.66155354
0.77794931 0.99821903 0.71703125
0.90157224 1.00000000 0.86510476
1.00000000 1.00000000 1.00000000
1.00000000 1.00000000 1.00000000
1.00000000 1.00000000 1.00000000
1.00000000 1.00000000 1.00000000
0.79740231 1.00000000 0.71495665
0.79750939 1.00000000 0.71508623
0.80360330 1.00000000 0.72296458
0.84588480 1.00000000 0.77906169
0.95081851 1.00000000 0.92584285
1.00000000 1.00000000 1.00000000
1.00000000 1.00000000 1.00000000
1.00000000 1.00000000 1.00000000
1.00000000 1.00000000 1.00000000
0.02956046 0.22870748 0.75845052
0.03474753 0.22273178 0.76351686
0.09266528 0.17777822 0.78709447
0.18117053 0.11817163 0.75681890
0.41878635 0.00000000 0.89165660
0.74771163 0.00000000 0.88918334
0.93305305 0.07980467 0.81097630
1.00000000 0.23563908 0.67224022
1.00000000 0.32484624 0.52885863
0.02846277 0.23470688 0.75303773
0.03133586 0.22903569 0.75815564
0.08644430 0.18237461 0.78490887
0.17848453 0.11847434 0.75727503
0.41763455 0.00000000 0.89228566
0.74752860 0.00000000 0.88943420
0.93305495 0.07986044 0.81097670
1.00000000 0.23581015 0.67216931
1.00000000 0.32495514 0.52880026
0.02654595 0.26994030 0.72575578
0.00908919 0.26628104 0.73031773
0.04899687 0.23197283 0.76018271
0.15688309 0.13171602 0.76551091
0.40667449 0.00000000 0.89759968
0.74676450 0.00000000 0.89317260
0.93442035 0.07245223 0.81218403
1.00000000 0.24113372 0.67217909
1.00000000 0.32865344 0.52933154
0.01552722 0.34218729 0.73416600
0.00000000 0.34073361 0.73672642
0.00000000 0.32531196 0.75324489
0.07877840 0.23405391 0.79735225
0.38495952 0.00000000 0.95996856
0.77173180 0.00000000 0.94681026
0.96282018 0.05610643 0.83731829
1.00000000 0.32417942 0.68515169
1.00000000 0.39007938 0.55326651
0.00000000 0.54072635 0.88647204
0.00000000 0.54032346 0.88780185
0.00000000 0.54070809 0.90098547
0.22163073 0.56068908 0.94761854
0.50236335 0.62370981 0.97110208
0.84926256 0.59612480 0.98482728
1.00000000 0.61369086 0.89329019
1.00000000 0.67125220 0.80634685
1.00000000 0.69458263 0.74516553
0.17979580 0.79113212 0.97940099
0.17840195 0.79110576 0.97977262
0.17984639 0.79300541 0.98465395
0.31864761 0.80782756 0.99317775
0.62290744 0.83739095 0.98426070
0.84203518 0.85063583 0.98643348
0.99620557 0.85038724 0.95784062
1.00000000 0.88255537 0.91994306
1.00000000 0.89601126 0.90603173
0.00000000 0.95660771 0.92372474
0.00000000 0.95664321 0.92376129
0.00000000 0.95828782 0.92545621
0.00000000 0.96814993 0.93631383
0.57827258 0.98264967 0.95843810
0.83898330 0.98477964 0.97400385
0.98320425 0.98320425 0.98320425
1.00000000 0.99783866 0.99807046
1.00000000 1.00000000 1.00000000
0.62052040 0.99906611 0.72365843
0.62067378 0.99904615 0.72366958
0.63106730 0.99875623 0.72867010
0.70119654 0.99798413 0.76819269
0.86150882 0.99897700 0.88002949
0.98482183 1.00000000 0.98520469
1.00000000 1.00000000 1.00000000
1.00000000 1.00000000 1.00000000
1.00000000 1.00000000 1.00000000
0.76539496 0.99921023 0.69908387
0.76548443 0.99918794 0.69916824
0.77192155 0.99894952 0.70646335
0.81794861 0.99849913 0.76081311
0.93316101 1.00000000 0.90757196
1.00000000 1.00000000 1.00000000
1.00000000 1.00000000 1.00000000
1.00000000 1.00000000 1.00000000
1.00000000 1.00000000 1.00000000
0.00000000 0.28929905 0.74505682
0.00000000 0.28830672 0.74639810
0.00000000 0.28030804 0.75111641
0.00000000 0.24712567 0.74216923
0.23533398 0.14315560 0.94122156
0.49852496 0.26383906 1.00000000
0.82236913 0.14624151 0.95996098
0.97467889 0.13119361 0.84211607
1.00000000 0.26777044 0.68181218
0.00000000 0.29026087 0.74376748
0.00000000 0.28929069 0.74508980
0.00000000 0.28140478 0.74974321
0.00000000 0.24852239 0.74075472
0.23442869 0.14409314 0.94110806
0.49808724 0.26416763 1.00000000
0.82228915 0.14647903 0.95999691
0.97466871 0.13134700 0.84210666
1.00000000 0.26788338 0.68178736
0.00000000 0.29793913 0.74389345
0.00000000 0.29707611 0.74512120
0.00000000 0.28976607 0.74947289
0.00000000 0.25864158 0.73949469
0.22510995 0.14615260 0.93932819
0.49439624 0.26589387 1.00000000
0.82232009 0.14715486 0.96129442
0.97536320 0.13437974 0.84271100
1.00000000 0.27183768 0.68203851
0.00000000 0.33248504 0.79666965
0.00000000 0.33179357 0.79769847
0.00000000 0.32456808 0.80067492
0.00000000 0.29082162 0.78869751
0.19047140 0.00000000 0.96273208
0.49063525 0.27728639 1.00000000
0.83788187 0.11654615 0.98658150
0.98791796 0.17843114 0.85368336
1.00000000 0.32263824 0.69017530
0.16675928 0.48827362 0.97759417
0.16744051 0.48798766 0.97808034
0.16740403 0.48307860 0.98221355
0.28556068 0.52208051 0.97351902
0.46676320 0.61262430 0.97758843
0.64599064 0.65832273 1.00000000
0.91673692 0.61950338 0.98908911
1.00000000 0.64144846 0.89229040
1.00000000 0.66982601 0.81024460
0.46542018 0.74249201 1.00000000
0.46561113 0.74244945 1.00000000
0.47288379 0.74453429 1.00000000
0.52454223 0.76340173 1.00000000
0.66225482 0.81521804 0.98968965
0.78610695 0.85558813 0.99506381
0.94929191 0.85162322 0.99494617
1.00000000 0.86777698 0.95198712
1.00000000 0.88245583 0.92510422
0.55224151 0.88184513 1.00000000
0.55233884 0.88183279 1.00000000
0.55927181 0.88321914 1.00000000
0.61227272 0.89502454 1.00000000
0.75570874 0.92863210 1.00000000
0.89289846 0.95665349 0.99866123
0.97355508 0.97602884 0.99942198
1.00000000 0.99081658 0.99935906
1.00000000 1.00000000 1.00000000
0.39349712 0.99121333 0.96087786
0.39374884 0.99120023 0.96087208
0.41523182 0.99123858 0.96132512
0.54752509 0.99197137 0.96538932
0.79551098 0.99519024 0.97982091
0.96818175 1.00000000 0.99833281
1.00000000 1.00000000 1.00000000
1.00000000 1.00000000 1.00000000
1.00000000 1.00000000 1.00000000
0.70597037 0.99760606 0.77080205
0.70608018 0.99758505 0.77084942
0.71394379 0.99740070 0.77570019
0.77013435 0.99718246 0.81320738
0.90925461 0.99911589 0.92040087
1.00000000 1.00000000 1.00000000
1.00000000 1.00000000 1.00000000
1.00000000 1.00000000 1.00000000
1.00000000 1.00000000 1.00000000
0.00000000 0.31607040 0.72841514
0.00000000 0.31590510 0.72865959
0.00000000 0.31417997 0.72533244
0.00000000 0.30118421 0.69563872
0.00000000 0.27378902 0.88469240
0.30133648 0.35353068 1.00000000
0.53375531 0.38016647 1.00000000
0.86184327 0.17027698 0.99437374
0.99292088 0.12985109 0.85372668
0.00000000 0.31622867 0.72822289
0.00000000 0.31605952 0.72845669
0.00000000 0.31433519 0.72512806
0.00000000 0.30134909 0.69541296
0.00000000 0.27441542 0.88408144
0.30108884 0.35360311 1.00000000
0.53361413 0.38026078 1.00000000
0.86180883 0.17044584 0.99436531
0.99291129 0.12999937 0.85371817
0.00000000 0.31872162 0.73561002
0.00000000 0.31855079 0.73584651
0.00000000 0.31677043 0.73251819
0.00000000 0.30419406 0.70140030
0.00000000 0.27815195 0.87714510
0.29875751 0.35371845 1.00000000
0.53267213 0.38147364 1.00000000
0.86208731 0.17320054 0.99487961
0.99350781 0.13376418 0.85423760
0.00000000 0.33930133 0.80606697
0.00000000 0.33910229 0.80633227
0.00000000 0.33669832 0.80295248
0.00000000 0.32094741 0.76822713
0.00000000 0.24081116 0.89327653
0.29305119 0.35203871 1.00000000
0.53603737 0.39111784 1.00000000
0.87274576 0.18333856 1.00000000
0.99782606 0.20404066 0.85803197
0.22547814 0.47833908 0.98929627
0.22568497 0.47824091 0.98942508
0.22311643 0.47478865 0.99062533
0.28727834 0.50829660 0.98270379
0.44085285 0.60856634 0.98515658
0.56433498 0.67575945 1.00000000
0.70499308 0.69405472 1.00000000
0.94074160 0.63855636 0.99466372
1.00000000 0.65167751 0.89215402
0.53364867 0.72148581 1.00000000
0.53370300 0.72147062 1.00000000
0.53844982 0.72400668 1.00000000
0.57588850 0.74535235 1.00000000
0.68191574 0.80382428 0.99379809
0.77648570 0.85335722 0.99621262
0.85805923 0.87670570 1.00000000
0.97702991 0.86486396 0.99321997
1.00000000 0.87514880 0.95207919
0.67057169 0.84756843 1.00000000
0.67060973 0.84756524 1.00000000
0.67493146 0.84942125 1.00000000
0.70912286 0.86483572 1.00000000
0.80770087 0.90894869 1.00000000
0.90252583 0.94973530 0.99827564
0.96230439 0.97600444 0.99952780
0.99834460 0.98832518 1.00000000
1.00000000 0.99620079 1.00000000
0.69009374 0.92275204 1.00000000
0.69016848 0.92274605 1.00000000
0.69618720 0.92392729 1.00000000
0.74157644 0.93401623 1.00000000
0.86438061 0.96406070 1.00000000
0.97377379 0.99401075 1.00000000
1.00000000 1.00000000 1.00000000
1.00000000 1.00000000 1.00000000
1.00000000 1.00000000 1.00000000
0.54572040 0.99702176 0.96989142
0.54592891 0.99700181 0.96987944
0.56046947 0.99686079 0.97021272
0.65736490 0.99681665 0.97385867
0.86710792 0.99891134 0.98790993
1.00000000 1.00000000 1.00000000
1.00000000 1.00000000 1.00000000
1.00000000 1.00000000 1.00000000
1.00000000 1.00000000 1.00000000
