Luts Download/Canon Luts/3dlut/33grid-3dlut/full-to-full-range/CinemaGamut_CanonLog2-to-BT2020_HLG-Vivid_33_FF_Ver.2.0.cube
# Gamut : Cinema Gamut to BT.2020
# Gamma : Canon Log 2 to HLG-Vivid
# Range : Full in / Full out
# Version : 2.0 2019/10/24
# Copyright(c) 2019 Canon Inc. All Rights Reserved.
LUT_3D_SIZE 5
# LUT_3D_INPUT_RANGE 0.0 1.0
0.00000004 0.00000000 0.00000003
0.19018942 0.00584480 0.02669106
0.65954983 0.00000000 0.06765649
1.00000000 0.60064945 0.46210394
1.00000000 1.00000000 1.00000000
0.05490782 0.15395217 0.01816777
0.16498957 0.17559397 0.00000000
0.66264178 0.13597074 0.01264575
1.00000000 0.61505812 0.46146143
1.00000000 1.00000000 1.00000000
0.19185818 0.56678210 0.00212645
0.23455352 0.57640222 0.00261829
0.59594193 0.62406668 0.00000000
1.00000000 0.76734034 0.53598288
1.00000000 1.00000000 1.00000000
0.81250437 0.99947591 0.59233040
0.81658541 0.99975222 0.59780723
0.86108002 1.00000000 0.65977392
1.00000000 1.00000000 1.00000000
1.00000000 1.00000000 1.00000000
1.00000000 1.00000000 1.00000000
1.00000000 1.00000000 1.00000000
1.00000000 1.00000000 1.00000000
1.00000000 1.00000000 1.00000000
1.00000000 1.00000000 1.00000000
0.03919323 0.00788331 0.16886951
0.16617655 0.00000000 0.17617325
0.65193286 0.00000000 0.20038465
1.00000000 0.59091975 0.46902076
1.00000000 1.00000000 1.00000000
0.02521305 0.17254984 0.16814955
0.16895397 0.16895397 0.16895397
0.66737795 0.10161191 0.14793105
1.00000000 0.60693472 0.46931910
1.00000000 1.00000000 1.00000000
0.15901524 0.60397737 0.01221522
0.21209840 0.61059106 0.00000000
0.60761853 0.63543009 0.00000000
1.00000000 0.76418393 0.54083368
1.00000000 1.00000000 1.00000000
0.81727012 1.00000000 0.60746985
0.82121140 1.00000000 0.61255451
0.86439023 1.00000000 0.67082794
1.00000000 1.00000000 1.00000000
1.00000000 1.00000000 1.00000000
1.00000000 1.00000000 1.00000000
1.00000000 1.00000000 1.00000000
1.00000000 1.00000000 1.00000000
1.00000000 1.00000000 1.00000000
1.00000000 1.00000000 1.00000000
0.12528293 0.00626195 0.61417981
0.16779846 0.01510615 0.56133644
0.61721503 0.00000000 0.61882739
1.00000000 0.56539980 0.71054348
1.00000000 1.00000000 1.00000000
0.07332264 0.05040406 0.66583598
0.13051517 0.00000000 0.63434804
0.62452038 0.00000000 0.62934593
1.00000000 0.57772425 0.70810909
1.00000000 1.00000000 1.00000000
0.06568027 0.61464267 0.60257378
0.10106210 0.61788752 0.60677713
0.60391133 0.60391133 0.60391133
1.00000000 0.73636770 0.71814578
1.00000000 1.00000000 1.00000000
0.88083870 1.00000000 0.77710305
0.88344400 1.00000000 0.77971371
0.91200161 1.00000000 0.81078464
1.00000000 1.00000000 1.00000000
1.00000000 1.00000000 1.00000000
1.00000000 1.00000000 1.00000000
1.00000000 1.00000000 1.00000000
1.00000000 1.00000000 1.00000000
1.00000000 1.00000000 1.00000000
1.00000000 1.00000000 1.00000000
0.37244914 0.28890724 0.99506675
0.38354304 0.28068221 0.99326075
0.51628693 0.17657865 0.96053534
0.98569489 0.43130764 0.96833243
1.00000000 1.00000000 1.00000000
0.36260292 0.30143408 0.99671150
0.37393685 0.29317107 0.99503860
0.50950188 0.18386791 0.96522457
0.98570086 0.43345235 0.96827135
1.00000000 1.00000000 1.00000000
0.25144594 0.50446436 0.99059386
0.25897097 0.49292243 0.99201406
0.39263739 0.34441916 0.99362410
0.98637934 0.49941019 0.97035013
1.00000000 1.00000000 1.00000000
0.95056336 1.00000000 1.00000000
0.95229545 1.00000000 1.00000000
1.00000000 1.00000000 1.00000000
1.00000000 1.00000000 1.00000000
1.00000000 1.00000000 1.00000000
1.00000000 1.00000000 1.00000000
1.00000000 1.00000000 1.00000000
1.00000000 1.00000000 1.00000000
1.00000000 1.00000000 1.00000000
1.00000000 1.00000000 1.00000000
0.85745991 0.89948655 1.00000000
0.85748627 0.89924518 1.00000000
0.85781847 0.89605896 1.00000000
0.86432134 0.84508805 1.00000000
1.00000000 0.97246223 1.00000000
0.85781200 0.90002410 1.00000000
0.85761318 0.89958992 1.00000000
0.85793564 0.89642202 1.00000000
0.86436639 0.84570493 1.00000000
1.00000000 0.97248238 1.00000000
0.86257871 0.90651943 1.00000000
0.86235040 0.90612805 1.00000000
0.85959014 0.90086003 1.00000000
0.86499547 0.85330074 1.00000000
1.00000000 0.97274582 1.00000000
0.93040925 0.96378974 1.00000000
0.93003124 0.96352271 1.00000000
0.92516813 0.96001485 1.00000000
0.88140664 0.91157948 0.99885638
1.00000000 1.00000000 1.00000000
1.00000000 1.00000000 1.00000000
1.00000000 1.00000000 1.00000000
1.00000000 1.00000000 1.00000000
1.00000000 1.00000000 1.00000000
1.00000000 1.00000000 1.00000000
