Luts Download/Canon Luts/3dlut/33grid-3dlut/full-to-full-range/CinemaGamut_CanonLog2-to-BT2020_709WideDR_33_FF_Ver.2.0.cube
# Gamut : Cinema Gamut to BT.2020
# Gamma : Canon Log 2 to Wide DR
# Range : Full in / Full out
# Version : 2.0 2019/10/24
# Copyright(c) 2019 Canon Inc. All Rights Reserved.
LUT_3D_SIZE 33
# LUT_3D_INPUT_RANGE 0.0 1.0
0.00000000 0.00000000 0.00000000
0.00000000 0.00000000 0.00000000
0.00000000 0.00000000 0.00000000
0.00044378 0.00044378 0.00044378
0.01499141 0.00196786 0.00246269
0.03744126 0.00232743 0.00361468
0.06796233 0.00203745 0.00437264
0.10507429 0.00140042 0.00498056
0.14576050 0.00060866 0.00576125
0.19044494 0.00000000 0.00686964
0.23997676 0.00000000 0.00840643
0.29506601 0.00000000 0.01039661
0.35605378 0.00000000 0.01292384
0.42292415 0.00000000 0.01617725
0.49447014 0.00000000 0.01977150
0.56137233 0.00000000 0.02193921
0.62382369 0.00000000 0.02257855
0.68252202 0.00000000 0.02191998
0.73730283 0.00000000 0.02016420
0.78757134 0.00079444 0.01764560
0.83269997 0.00455716 0.01469717
0.87219145 0.00982298 0.01170189
0.90580841 0.01738161 0.00917196
0.93339534 0.02956710 0.00822011
0.95554784 0.04890317 0.01004498
0.97303158 0.08063611 0.01704245
0.98360033 0.13411116 0.03781088
0.98733079 0.20276476 0.08274297
0.98982037 0.27856329 0.14649474
0.99418128 0.36317958 0.22354215
1.00000000 0.45846874 0.31768921
1.00000000 0.56328046 0.42802602
1.00000000 0.67249634 0.54286819
0.00000000 0.00000000 0.00000000
0.00000000 0.00000000 0.00000000
0.00000000 0.00000000 0.00000000
0.00044378 0.00044378 0.00044378
0.01499141 0.00196786 0.00246269
0.03744126 0.00232743 0.00361468
0.06796233 0.00203745 0.00437264
0.10507429 0.00140042 0.00498056
0.14576050 0.00060866 0.00576125
0.19044494 0.00000000 0.00686964
0.23997676 0.00000000 0.00840643
0.29506601 0.00000000 0.01039661
0.35605378 0.00000000 0.01292384
0.42292415 0.00000000 0.01617725
0.49447014 0.00000000 0.01977150
0.56137233 0.00000000 0.02193921
0.62382369 0.00000000 0.02257855
0.68252202 0.00000000 0.02191998
0.73730283 0.00000000 0.02016420
0.78757134 0.00079444 0.01764560
0.83269997 0.00455716 0.01469717
0.87219145 0.00982298 0.01170189
0.90580841 0.01738161 0.00917196
0.93339534 0.02956710 0.00822011
0.95554784 0.04890317 0.01004498
0.97303158 0.08063611 0.01704245
0.98360033 0.13411116 0.03781088
0.98733079 0.20276476 0.08274297
0.98982037 0.27856329 0.14649474
0.99418128 0.36317958 0.22354215
1.00000000 0.45846874 0.31768921
1.00000000 0.56328046 0.42802602
1.00000000 0.67249634 0.54286819
0.00000000 0.00000000 0.00000000
0.00000000 0.00000000 0.00000000
0.00000000 0.00000000 0.00000000
0.00044378 0.00044378 0.00044378
0.01499141 0.00196786 0.00246269
0.03744126 0.00232743 0.00361468
0.06796233 0.00203745 0.00437264
0.10507429 0.00140042 0.00498056
0.14576050 0.00060866 0.00576125
0.19044494 0.00000000 0.00686964
0.23997676 0.00000000 0.00840643
0.29506601 0.00000000 0.01039661
0.35605378 0.00000000 0.01292384
0.42292415 0.00000000 0.01617725
0.49447014 0.00000000 0.01977150
0.56137233 0.00000000 0.02193921
0.62382369 0.00000000 0.02257855
0.68252202 0.00000000 0.02191998
0.73730283 0.00000000 0.02016420
0.78757134 0.00079444 0.01764560
0.83269997 0.00455716 0.01469717
0.87219145 0.00982298 0.01170189
0.90580841 0.01738161 0.00917196
0.93339534 0.02956710 0.00822011
0.95554784 0.04890317 0.01004498
0.97303158 0.08063611 0.01704245
0.98360033 0.13411116 0.03781088
0.98733079 0.20276476 0.08274297
0.98982037 0.27856329 0.14649474
0.99418128 0.36317958 0.22354215
1.00000000 0.45846874 0.31768921
1.00000000 0.56328046 0.42802602
1.00000000 0.67249634 0.54286819
0.00044378 0.00044378 0.00044378
0.00044378 0.00044378 0.00044378
0.00044378 0.00044378 0.00044378
0.00044378 0.00044378 0.00044378
0.01499141 0.00196786 0.00246269
0.03771410 0.00248705 0.00367321
0.06822571 0.00229727 0.00439363
0.10530289 0.00174280 0.00498043
0.14591946 0.00101508 0.00574586
0.19056643 0.00016967 0.00683615
0.24009005 0.00000000 0.00834877
0.29518951 0.00000000 0.01030715
0.35619478 0.00000000 0.01280010
0.42307271 0.00000000 0.01603314
0.49462961 0.00000000 0.01961088
0.56154098 0.00000000 0.02178056
0.62399743 0.00000000 0.02243609
0.68269795 0.00000000 0.02180091
0.73747763 0.00000000 0.02007280
0.78774156 0.00096372 0.01758433
0.83286032 0.00473865 0.01466957
0.87233643 0.01003740 0.01171130
0.90592763 0.01766510 0.00922793
0.93349395 0.02990852 0.00831406
0.95563563 0.04927484 0.01016319
0.97309704 0.08106099 0.01719943
0.98360005 0.13457773 0.03807211
0.98731365 0.20313537 0.08305643
0.98980598 0.27884081 0.14674242
0.99417402 0.36338808 0.22374236
1.00000000 0.45863166 0.31785947
1.00000000 0.56341193 0.42817496
1.00000000 0.67260765 0.54300256
0.00542529 0.01380202 0.00389814
0.00542529 0.01380202 0.00389814
0.00542529 0.01380202 0.00389814
0.00542529 0.01380202 0.00389814
0.01809445 0.01965005 0.00390829
0.03994237 0.02215091 0.00369714
0.07004383 0.02292274 0.00406684
0.10694040 0.02278309 0.00461678
0.14772339 0.02206102 0.00498300
0.19288385 0.02075669 0.00537676
0.24312998 0.01882582 0.00595677
0.29912051 0.01609901 0.00675908
0.36111248 0.01260585 0.00796659
0.42852986 0.00953672 0.01038677
0.50057417 0.00649807 0.01338709
0.56782260 0.00432611 0.01570368
0.63047186 0.00323139 0.01698589
0.68927064 0.00315234 0.01720218
0.74402889 0.00413158 0.01646671
0.79412360 0.00650098 0.01507855
0.83888210 0.01067828 0.01338839
0.87764976 0.01758625 0.01195766
0.91036767 0.02751864 0.01108813
0.93715151 0.04195523 0.01158682
0.95878463 0.06276957 0.01445515
0.97527466 0.09671973 0.02311860
0.98344402 0.15120370 0.04779093
0.98660523 0.21632085 0.09424838
0.98920651 0.28877835 0.15564383
0.99380825 0.37092003 0.23101094
1.00000000 0.46453861 0.32406692
1.00000000 0.56819075 0.43362561
1.00000000 0.67665968 0.54793814
0.00951435 0.03124005 0.00544484
0.00951435 0.03124005 0.00544484
0.00951435 0.03124005 0.00544484
0.00963529 0.03145019 0.00551344
0.02085734 0.03963681 0.00419539
0.04065614 0.04479831 0.00288194
0.07011170 0.04733793 0.00208298
0.10716367 0.04824041 0.00256947
0.14954821 0.04749952 0.00128504
0.19248026 0.04828955 0.00395652
0.24296946 0.04680853 0.00429616
0.29943663 0.04402455 0.00467889
0.36219329 0.03974051 0.00524408
0.43118634 0.03408361 0.00623522
0.50497196 0.02727574 0.00767122
0.57376284 0.02094028 0.00918832
0.63731766 0.01662796 0.01068712
0.69667648 0.01401161 0.01160877
0.75176983 0.01303024 0.01181345
0.80191501 0.01429688 0.01160165
0.84634851 0.01859606 0.01139726
0.88437154 0.02707680 0.01180753
0.91571540 0.04073196 0.01341250
0.94151888 0.05791623 0.01578946
0.96231350 0.08116642 0.02028634
0.97711943 0.11681565 0.03174174
0.98318824 0.17051547 0.06032008
0.98594887 0.23167485 0.10722458
0.98872320 0.30055554 0.16620046
0.99353568 0.38003703 0.23982005
1.00000000 0.47176592 0.33165971
1.00000000 0.57408209 0.44033158
1.00000000 0.68167563 0.55402283
0.01330017 0.05428038 0.00549755
0.01330017 0.05428038 0.00549755
0.01330017 0.05428038 0.00549755
0.01347916 0.05469441 0.00552424
0.02390163 0.06393485 0.00377685
0.04176683 0.07114254 0.00241109
0.06875596 0.07618369 0.00122738
0.10495082 0.07907657 0.00055758
0.14539208 0.08108418 0.00092976
0.19025665 0.08234266 0.00161302
0.24225200 0.08096236 0.00013869
0.29932635 0.07852302 0.00010900
0.36311961 0.07357635 0.00000000
0.43370624 0.06568100 0.00000000
0.50594340 0.06152703 0.00361950
0.57628232 0.05195875 0.00486839
0.64170258 0.04296291 0.00601531
0.70267003 0.03562562 0.00699448
0.75906623 0.03029889 0.00753303
0.81004273 0.02830385 0.00805655
0.85485885 0.03059764 0.00892165
0.89263953 0.03902921 0.01094577
0.92275802 0.05583361 0.01519313
0.94698580 0.07751070 0.02051686
0.96626985 0.10356578 0.02780482
0.97787996 0.14230681 0.04450051
0.98272345 0.19254618 0.07632191
0.98533132 0.24926658 0.12204766
0.98835767 0.31430551 0.17854025
0.99329472 0.39095103 0.25039539
1.00000000 0.48054918 0.34091544
1.00000000 0.58130430 0.44857845
1.00000000 0.68785792 0.56154707
0.01756802 0.08390175 0.00471528
0.01756802 0.08390175 0.00471528
0.01756802 0.08390175 0.00471528
0.01773935 0.08430420 0.00468401
0.02780473 0.09354007 0.00309854
0.04430357 0.10138005 0.00198826
0.06892829 0.10763320 0.00110911
0.10256222 0.11233133 0.00025373
0.14161873 0.11621705 0.00000000
0.18591810 0.11931705 0.00000505
0.23609432 0.12136759 0.00021681
0.29278066 0.12188020 0.00040131
0.35640163 0.12031655 0.00053636
0.42711173 0.11603655 0.00061116
0.50605707 0.10431404 0.00000000
0.57808522 0.09303015 0.00000000
0.64557017 0.07966679 0.00024232
0.70914715 0.06532430 0.00070473
0.76859088 0.05095134 0.00011728
0.81662512 0.05593073 0.00659382
0.86293063 0.05311677 0.00778754
0.90205712 0.05670906 0.01001221
0.93299694 0.07026252 0.01480716
0.95446583 0.09889782 0.02502594
0.97102818 0.12831304 0.03715861
0.97888489 0.17001481 0.06055357
0.98252357 0.21686366 0.09548482
0.98497085 0.26926683 0.13888617
0.98812391 0.33048542 0.19311463
0.99300084 0.40416988 0.26328166
1.00000000 0.49135876 0.35238187
1.00000000 0.59025408 0.45886119
1.00000000 0.69556583 0.57099057
0.02335374 0.11918021 0.00361217
0.02335374 0.11918021 0.00361217
0.02335374 0.11918021 0.00361217
0.02354116 0.11954454 0.00356811
0.03361944 0.12727478 0.00234047
0.04932968 0.13454163 0.00149195
0.07236245 0.14100905 0.00082658
0.10348793 0.14659959 0.00018050
0.14020399 0.15193207 0.00000000
0.18272824 0.15680246 0.00000000
0.23166916 0.16089216 0.00000000
0.28765193 0.16369916 0.00000000
0.35102432 0.16460364 0.00000000
0.42189172 0.16299953 0.00000000
0.49893504 0.15806430 0.00000000
0.57476022 0.14618324 0.00000000
0.64324099 0.13580233 0.00156491
0.70764592 0.12417659 0.00451139
0.76769663 0.11183066 0.00649491
0.82290033 0.09908706 0.00728031
0.87275472 0.08616860 0.00694912
0.91681645 0.07392079 0.00556024
0.94349188 0.09851685 0.01795703
0.96642081 0.11911783 0.02823044
0.97640331 0.15917094 0.05123302
0.98104312 0.20110408 0.08163441
0.98344144 0.24458800 0.11743449
0.98555822 0.29288436 0.15888981
0.98836508 0.35053219 0.21135422
0.99276088 0.42114491 0.28002499
1.00000000 0.50546258 0.36749034
1.00000000 0.60204523 0.47251059
1.00000000 0.70577962 0.58357556
0.03159667 0.15833261 0.00255481
0.03159667 0.15833261 0.00255481
0.03159667 0.15833261 0.00255481
0.03181181 0.15859352 0.00252139
0.04204747 0.16504385 0.00165841
0.05732670 0.17154550 0.00105874
0.07927500 0.17783641 0.00052564
0.10789839 0.18376117 0.00002584
0.14200919 0.18992335 0.00000000
0.18223949 0.19612094 0.00000000
0.22920725 0.20192008 0.00000000
0.28361393 0.20682532 0.00000000
0.34600222 0.21015616 0.00000000
0.41648643 0.21115246 0.00000000
0.49380659 0.20884720 0.00000000
0.56903254 0.20167268 0.00116786
0.64127240 0.19018639 0.00267198
0.70688445 0.18023117 0.00830618
0.76794102 0.16969756 0.01352649
0.82389986 0.15912922 0.01757736
0.87427098 0.14890574 0.02019270
0.91875423 0.13932160 0.02154481
0.95738824 0.13071686 0.02160795
0.99081936 0.12325855 0.02052303
0.98450512 0.19298957 0.06902292
0.98689515 0.23308620 0.10438524
0.98699760 0.27500067 0.14139925
0.98720523 0.32115640 0.18311980
0.98856850 0.37597186 0.23495422
0.99239842 0.44296815 0.30192760
1.00000000 0.52379176 0.38739564
1.00000000 0.61752719 0.49062227
1.00000000 0.71928728 0.60035933
0.04322608 0.20191502 0.00166559
0.04322608 0.20191502 0.00166559
0.04322608 0.20191502 0.00166559
0.04346825 0.20210969 0.00164673
0.05395541 0.20745130 0.00115886
0.06901683 0.21320955 0.00074711
0.08994472 0.21915245 0.00026952
0.11583152 0.22502946 0.00000000
0.14718998 0.23154474 0.00000000
0.18479019 0.23855871 0.00000000
0.22939301 0.24567866 0.00000000
0.28167402 0.25230561 0.00000000
0.34231797 0.25778898 0.00000000
0.41171800 0.26129597 0.00000000
0.48883042 0.26155497 0.00000000
0.56544862 0.25608451 0.00091004
0.64053719 0.24498926 0.00198364
0.70785879 0.23569245 0.01064816
0.77021818 0.22595548 0.01971139
0.82725863 0.21615004 0.02810495
0.87843709 0.20680358 0.03503015
0.92345686 0.19830681 0.04018061
0.96251379 0.19073817 0.04362787
0.99627877 0.18422428 0.04539298
0.98829646 0.24173905 0.10227353
0.98975695 0.27669638 0.13729966
0.98883559 0.31437478 0.17363435
0.98789609 0.35680447 0.21462841
0.98838469 0.40767958 0.26514242
0.99177962 0.47046633 0.33013942
1.00000000 0.54726028 0.41333611
1.00000000 0.63752367 0.51431829
1.00000000 0.73687363 0.62244209
0.05945820 0.25050490 0.00106090
0.05945820 0.25050490 0.00106090
0.05945820 0.25050490 0.00106090
0.05972101 0.25065593 0.00105244
0.07042639 0.25511789 0.00083466
0.08529687 0.26021651 0.00051049
0.10422786 0.26554853 0.00022912
0.12740451 0.27124150 0.00000000
0.15591731 0.27779749 0.00000000
0.19063771 0.28518160 0.00000000
0.23245757 0.29316023 0.00000000
0.28221749 0.30119888 0.00000000
0.34056999 0.30850089 0.00000000
0.40813533 0.31426702 0.00000000
0.48434148 0.31706593 0.00000000
0.56219519 0.31335115 0.00000000
0.63827357 0.30464715 0.00346696
0.71147020 0.29218341 0.00855872
0.77606902 0.28202924 0.02176634
0.83460283 0.27215030 0.03544659
0.88683963 0.26286556 0.04833901
0.93262290 0.25450283 0.05930390
0.97216969 0.24723767 0.06778550
0.98360057 0.27253181 0.10888978
0.99026446 0.29831011 0.14328642
0.99089582 0.32839921 0.17805350
0.98940847 0.36140338 0.21366892
0.98796120 0.39934759 0.25353213
0.98800119 0.44569917 0.30241380
0.99104078 0.50392884 0.36532669
0.99956212 0.57634438 0.44613223
1.00000000 0.66296529 0.54490443
1.00000000 0.75931005 0.65097288
0.08166267 0.30451393 0.00070063
0.08166267 0.30451393 0.00070063
0.08166267 0.30451393 0.00070063
0.08193807 0.30463482 0.00069823
0.09236259 0.30839566 0.00065023
0.10556552 0.31282825 0.00044053
0.12213533 0.31765506 0.00018177
0.14268593 0.32293096 0.00000000
0.16834328 0.32927859 0.00000000
0.20004440 0.33679041 0.00000000
0.23874587 0.34518346 0.00000000
0.28546821 0.35418187 0.00000000
0.34107888 0.36307907 0.00000000
0.40615400 0.37085087 0.00000000
0.48057843 0.37606622 0.00000000
0.55881252 0.37447384 0.00000000
0.63763361 0.36664086 0.00018871
0.71702168 0.35189777 0.00000000
0.78578909 0.33984833 0.01560163
0.84731725 0.32834867 0.03458078
0.90152751 0.31790318 0.05420824
0.94860435 0.30869870 0.07281437
0.98892318 0.30092637 0.08873749
0.98790264 0.33589916 0.15125436
0.99208295 0.35964568 0.18931226
0.99179667 0.38571330 0.22505405
0.98990798 0.41432542 0.26047683
0.98810274 0.44790492 0.29953700
0.98782320 0.48975967 0.34698229
0.99056921 0.54338262 0.40791111
0.99886923 0.61130552 0.48634982
1.00000000 0.69392745 0.58274402
1.00000000 0.78715959 0.68685748
0.10885025 0.36415394 0.00049715
0.10885025 0.36415394 0.00049715
0.10885025 0.36415394 0.00049715
0.10909143 0.36425310 0.00049788
0.11800076 0.36745159 0.00055639
0.12934947 0.37127996 0.00046210
0.14367860 0.37568840 0.00012509
0.16178018 0.38044511 0.00000000
0.18459773 0.38645677 0.00000000
0.21318355 0.39374068 0.00000000
0.24857762 0.40233292 0.00000000
0.29184819 0.41185687 0.00000000
0.34408368 0.42187437 0.00000000
0.40615095 0.43151441 0.00000000
0.47794464 0.43900505 0.00000000
0.55529758 0.43983202 0.00000000
0.63575743 0.43369785 0.00000000
0.71625913 0.42169594 0.00020103
0.79723358 0.40235867 0.00000000
0.86464328 0.38726717 0.02085791
0.92302331 0.37370039 0.04650758
0.97281081 0.36210859 0.07318418
0.98530323 0.38252469 0.14536051
0.99419798 0.40134107 0.19474735
0.99579696 0.42323135 0.23794397
0.99439541 0.44611964 0.27595912
0.99199062 0.47114240 0.31229754
0.98976444 0.50098157 0.35137249
0.98895608 0.53890890 0.39812445
0.99116137 0.58829001 0.45758220
0.99890818 0.65179832 0.53387008
1.00000000 0.73026687 0.62783647
1.00000000 0.82034684 0.73015386
0.13893516 0.42822261 0.00048696
0.13893516 0.42822261 0.00048696
0.13893516 0.42822261 0.00048696
0.13914100 0.42830590 0.00048979
0.14668324 0.43106369 0.00061489
0.15632707 0.43440269 0.00058529
0.16859029 0.43830583 0.00032174
0.18427299 0.44276592 0.00000000
0.20430080 0.44828563 0.00000000
0.22968259 0.45532783 0.00000000
0.26157783 0.46376090 0.00000000
0.30109946 0.47359300 0.00000000
0.34940993 0.48434896 0.00000000
0.40763380 0.49537992 0.00000000
0.47612797 0.50516318 0.00000000
0.55120314 0.50862840 0.00000000
0.63159625 0.50499755 0.00000000
0.71479374 0.49442320 0.00000000
0.79705937 0.47804800 0.00000000
0.87337734 0.45879235 0.01474436
0.94760853 0.43342215 0.02192234
0.98101726 0.43680911 0.10295353
0.99833519 0.44912794 0.17536916
1.00000000 0.46756469 0.23657331
1.00000000 0.48716381 0.28625037
0.99999947 0.50728382 0.32788337
0.99681106 0.52936306 0.36616112
0.99396241 0.55604016 0.40611651
0.99240352 0.59059736 0.45291443
0.99369537 0.63634572 0.51167617
1.00000000 0.69606800 0.58664361
1.00000000 0.77078288 0.67874144
1.00000000 0.85783004 0.77955084
0.16918009 0.48818643 0.00043684
0.16918009 0.48818643 0.00043684
0.16918009 0.48818643 0.00043684
0.16935184 0.48825980 0.00044124
0.17561512 0.49073359 0.00062252
0.18364897 0.49375600 0.00066200
0.19391875 0.49733132 0.00048849
0.20711105 0.50156638 0.00010397
0.22435572 0.50684837 0.00000000
0.24637887 0.51360153 0.00000000
0.27442101 0.52211448 0.00000000
0.30967742 0.53211834 0.00000000
0.35339389 0.54356818 0.00000000
0.40675325 0.55589840 0.00000000
0.47047880 0.56779497 0.00000000
0.54181861 0.57449051 0.00000000
0.61968710 0.57430913 0.00000000
0.70294474 0.56687743 0.00000000
0.78835004 0.55228254 0.00000000
0.87105790 0.53228400 0.00380384
0.94344018 0.51194705 0.03253855
0.99042830 0.50400971 0.10701500
1.00000000 0.51401037 0.19783495
1.00000000 0.52982805 0.27057526
1.00000000 0.54663165 0.32785094
1.00000000 0.56397189 0.37442985
1.00000000 0.58339280 0.41568668
0.99762482 0.60738893 0.45728929
0.99535458 0.63907724 0.50484031
0.99575323 0.68177316 0.56358905
1.00000000 0.73832178 0.63790892
1.00000000 0.81007011 0.72907913
1.00000000 0.89472276 0.82918797
0.19909282 0.54423847 0.00039739
0.19909282 0.54423847 0.00039739
0.19909282 0.54423847 0.00039739
0.19923428 0.54430527 0.00040270
0.20437519 0.54658668 0.00061649
0.21098800 0.54939395 0.00071224
0.21945925 0.55274930 0.00060809
0.23038907 0.55677385 0.00029352
0.24481103 0.56201872 0.00000000
0.26368566 0.56855201 0.00000690
0.28779634 0.57697319 0.00000000
0.31870727 0.58725202 0.00000000
0.35741110 0.59932004 0.00000000
0.40545832 0.61267942 0.00020174
0.46355445 0.62635357 0.00076302
0.52961162 0.63582180 0.00000000
0.60339893 0.63962702 0.00000000
0.68382461 0.63630509 0.00000000
0.76924217 0.62540812 0.00000000
0.85537735 0.60745771 0.00000000
0.93467829 0.58608679 0.02402822
0.99109567 0.57255403 0.10198410
1.00000000 0.57740126 0.21047328
1.00000000 0.58910596 0.29625436
1.00000000 0.60265132 0.36260144
1.00000000 0.61709934 0.41535958
1.00000000 0.63378947 0.46061678
1.00000000 0.65517981 0.50455510
0.99774406 0.68422423 0.55326919
0.99737736 0.72418103 0.61248515
1.00000000 0.77797249 0.68666790
1.00000000 0.84715754 0.77734244
1.00000000 0.93005487 0.87749597
0.22835084 0.59702891 0.00039601
0.22835084 0.59702891 0.00039601
0.22835084 0.59702891 0.00039601
0.22846677 0.59709102 0.00040164
0.23267233 0.59923164 0.00063114
0.23809375 0.60188048 0.00077052
0.24502837 0.60507526 0.00071166
0.25399414 0.60894621 0.00044662
0.26589645 0.61407341 0.00008434
0.28178338 0.62056837 0.00000000
0.30233593 0.62887529 0.00003398
0.32872468 0.63942682 0.00000000
0.36272832 0.65175968 0.00012072
0.40513028 0.66610245 0.00059402
0.45731509 0.68120635 0.00168824
0.51734566 0.69292262 0.00170511
0.58543881 0.69996924 0.00033135
0.66152744 0.70121844 0.00000000
0.74394996 0.69488702 0.00000000
0.83035528 0.68082026 0.00000000
0.91453199 0.66070551 0.01813160
0.98322294 0.64187778 0.08427197
1.00000000 0.64025162 0.21171657
1.00000000 0.64673243 0.31252591
1.00000000 0.65627532 0.39012399
1.00000000 0.66756024 0.45054648
1.00000000 0.68142122 0.50089010
1.00000000 0.70009575 0.54800233
0.99978703 0.72652222 0.59845287
0.99884542 0.76384085 0.65835666
1.00000000 0.81505566 0.73268970
1.00000000 0.88193066 0.82310048
1.00000000 0.96324919 0.92323907
0.25650541 0.64639148 0.00044933
0.25650541 0.64639148 0.00044933
0.25650541 0.64639148 0.00044933
0.25660068 0.64645006 0.00045521
0.26004622 0.64848318 0.00068818
0.26449612 0.65100984 0.00086096
0.27017126 0.65407975 0.00084553
0.27748974 0.65783258 0.00060785
0.28727005 0.66282656 0.00028976
0.30032094 0.66937690 0.00000000
0.31780018 0.67755467 0.00003969
0.34022031 0.68807184 0.00000000
0.36928913 0.70089179 0.00013965
0.40649151 0.71582061 0.00073884
0.45256941 0.73210012 0.00228600
0.50632175 0.74572465 0.00287882
0.56802738 0.75544767 0.00266650
0.63804533 0.76030628 0.00162322
0.71598400 0.75901616 0.00055767
0.79955306 0.74972776 0.00236401
0.88512657 0.73301286 0.01661277
0.96254348 0.71286145 0.06975648
1.00000000 0.70319351 0.20068920
1.00000000 0.70347437 0.31769977
1.00000000 0.70833291 0.40912418
1.00000000 0.71591206 0.47948756
1.00000000 0.72670105 0.53624910
1.00000000 0.74252045 0.58739116
1.00000000 0.76617453 0.64021038
1.00000000 0.80084121 0.70123698
1.00000000 0.84947289 0.77569770
1.00000000 0.91403894 0.86557961
1.00000000 1.00000000 1.00000000
0.28309105 0.69185706 0.00054428
0.28309105 0.69185706 0.00054428
0.28309105 0.69185706 0.00054428
0.28316990 0.69191289 0.00055043
0.28601559 0.69386078 0.00079107
0.28969253 0.69629002 0.00099801
0.29437269 0.69925734 0.00105050
0.30035557 0.70291459 0.00084337
0.30836377 0.70780238 0.00052802
0.31905930 0.71433091 0.00002152
0.33359696 0.72251250 0.00006917
0.35273512 0.73296030 0.00003704
0.37728077 0.74613453 0.00000000
0.40933721 0.76147476 0.00092633
0.44977392 0.77871440 0.00227922
0.49713339 0.79385321 0.00366152
0.55225280 0.80580891 0.00439177
0.61553004 0.81373244 0.00452523
0.68707428 0.81633875 0.00484612
0.76620885 0.81243628 0.00713936
0.84971497 0.80032765 0.01821765
0.93152417 0.78193867 0.05945876
0.99303511 0.76545714 0.17274897
1.00000000 0.75953437 0.30881745
1.00000000 0.75925656 0.41759466
1.00000000 0.76266282 0.50088460
1.00000000 0.76993329 0.56626348
1.00000000 0.78268885 0.62262923
1.00000000 0.80340275 0.67844227
1.00000000 0.83521884 0.74096421
1.00000000 0.88117643 0.81563677
1.00000000 0.94321076 0.90412350
1.00000000 1.00000000 1.00000000
0.30773186 0.73292083 0.00069356
0.30773186 0.73292083 0.00069356
0.30773186 0.73292083 0.00069356
0.30779798 0.73297448 0.00070026
0.31017511 0.73485388 0.00095217
0.31324675 0.73720400 0.00119704
0.31715722 0.74008467 0.00134266
0.32210345 0.74365856 0.00121417
0.32867100 0.74845981 0.00088335
0.33749841 0.75489019 0.00040280
0.34947074 0.76315194 0.00014676
0.36550054 0.77359102 0.00016526
0.38655118 0.78677032 0.00000000
0.41381709 0.80260964 0.00088744
0.44865246 0.82063250 0.00241474
0.49027950 0.83691466 0.00426341
0.53870154 0.85080193 0.00575415
0.59513404 0.86119416 0.00755519
0.65962681 0.86718720 0.00921910
0.73211033 0.86738232 0.01283476
0.81157510 0.86084213 0.02235764
0.89343442 0.84619229 0.05147421
0.96822169 0.82711575 0.13270185
1.00000000 0.81485607 0.28316823
1.00000000 0.80928341 0.41316874
1.00000000 0.80817785 0.51341792
1.00000000 0.81155942 0.59029452
1.00000000 0.82083423 0.65367828
1.00000000 0.83841468 0.71342056
1.00000000 0.86719553 0.77778727
1.00000000 0.91026287 0.85268771
1.00000000 0.96962540 0.93930832
1.00000000 1.00000000 1.00000000
0.33017306 0.76924484 0.00090539
0.33017306 0.76924484 0.00090539
0.33017306 0.76924484 0.00090539
0.33022927 0.76929674 0.00091266
0.33224697 0.77112005 0.00118422
0.33485137 0.77340498 0.00147222
0.33816643 0.77621296 0.00171341
0.34236832 0.77970425 0.00178353
0.34783224 0.78442556 0.00151187
0.35514552 0.79077388 0.00102253
0.36499354 0.79910131 0.00043067
0.37845218 0.80951724 0.00049758
0.39622072 0.82275736 0.00045541
0.41969221 0.83888985 0.00098005
0.44968181 0.85738045 0.00316974
0.48556138 0.87478236 0.00541699
0.52820086 0.89000435 0.00831045
0.57782557 0.90253940 0.01201290
0.63528066 0.91123110 0.01668185
0.70043149 0.91501757 0.02275396
0.77298934 0.91272546 0.03319038
0.85156421 0.90372961 0.05673895
0.92943983 0.88712852 0.11707222
0.99035739 0.86941258 0.24006994
1.00000000 0.85834873 0.39324449
1.00000000 0.85261610 0.51554330
1.00000000 0.85187123 0.60797926
