Luts Download/Canon Luts/3dlut/33grid-3dlut/full-to-full-range/CinemaGamut_CanonLog2-to-BT2020_HLG-Vivid_33_FF_Ver.2.0.cube
# Gamut : Cinema Gamut to BT.2020
# Gamma : Canon Log 2 to HLG-Vivid
# Range : Full in / Full out
# Version : 2.0 2019/10/24
# Copyright(c) 2019 Canon Inc. All Rights Reserved.
LUT_3D_SIZE 9
# LUT_3D_INPUT_RANGE 0.0 1.0
0.00000004 0.00000000 0.00000003
0.05209623 0.01548140 0.01768768
0.19018942 0.00584480 0.02669106
0.38406313 0.00000000 0.04120726
0.65954983 0.00000000 0.06765649
0.88760121 0.04477617 0.11396591
1.00000000 0.60064945 0.46210394
1.00000000 0.90451479 0.86506111
1.00000000 1.00000000 1.00000000
0.02699401 0.04639224 0.02237747
0.05268010 0.05534285 0.02122263
0.18836447 0.05236092 0.01714607
0.38724055 0.02856962 0.02769248
0.66228907 0.00000000 0.05686527
0.88911461 0.04019631 0.10776652
1.00000000 0.60196200 0.46174786
1.00000000 0.90485063 0.86542694
1.00000000 1.00000000 1.00000000
0.05490782 0.15395217 0.01816777
0.06758384 0.15895655 0.01272621
0.16498957 0.17559397 0.00000000
0.36315318 0.17493360 0.00330022
0.66264178 0.13597074 0.01264575
0.89783612 0.06601636 0.06345624
1.00000000 0.61505812 0.46146143
1.00000000 0.90770077 0.86850911
1.00000000 1.00000000 1.00000000
0.10121235 0.30873675 0.00558348
0.10939435 0.31120221 0.00473804
0.17220051 0.32750575 0.00000000
0.32916732 0.35072901 0.00000000
0.63230567 0.35316923 0.00114208
0.89211463 0.30108066 0.03807364
1.00000000 0.66099200 0.47461846
1.00000000 0.91704037 0.87920771
1.00000000 1.00000000 1.00000000
0.19185818 0.56678210 0.00212645
0.19654179 0.56785070 0.00308612
0.23455352 0.57640222 0.00261829
0.34164414 0.59620632 0.00000000
0.59594193 0.62406668 0.00000000
0.86622284 0.63087615 0.03788957
1.00000000 0.76734034 0.53598288
1.00000000 0.94934326 0.91943623
1.00000000 1.00000000 1.00000000
0.36255096 0.81283184 0.02734603
0.36511591 0.81309076 0.02760640
0.38668803 0.81529065 0.02894841
0.45296611 0.82197417 0.02909723
0.61429583 0.83811629 0.03121796
0.83793376 0.86303911 0.07384259
1.00000000 0.91561508 0.67599251
1.00000000 1.00000000 1.00000000
1.00000000 1.00000000 1.00000000
0.81250437 0.99947591 0.59233040
0.81294684 0.99950028 0.59294885
0.81658541 0.99975222 0.59780723
0.82789394 1.00000000 0.61290080
0.86108002 1.00000000 0.65977392
0.93829779 1.00000000 0.79747336
1.00000000 1.00000000 1.00000000
1.00000000 1.00000000 1.00000000
1.00000000 1.00000000 1.00000000
1.00000000 1.00000000 1.00000000
1.00000000 1.00000000 1.00000000
1.00000000 1.00000000 1.00000000
1.00000000 1.00000000 1.00000000
1.00000000 1.00000000 1.00000000
1.00000000 1.00000000 1.00000000
1.00000000 1.00000000 1.00000000
1.00000000 1.00000000 1.00000000
1.00000000 1.00000000 1.00000000
1.00000000 1.00000000 1.00000000
1.00000000 1.00000000 1.00000000
1.00000000 1.00000000 1.00000000
1.00000000 1.00000000 1.00000000
1.00000000 1.00000000 1.00000000
1.00000000 1.00000000 1.00000000
1.00000000 1.00000000 1.00000000
1.00000000 1.00000000 1.00000000
1.00000000 1.00000000 1.00000000
0.01281717 0.00374250 0.04920855
0.05043472 0.00000000 0.05510931
0.18717172 0.00000000 0.06234784
0.38294667 0.00000000 0.06795260
0.66067771 0.00000000 0.07721125
0.88712102 0.04678834 0.11974742
1.00000000 0.60004909 0.46327971
1.00000000 0.90425222 0.86480718
1.00000000 1.00000000 1.00000000
0.01903059 0.05344952 0.05235535
0.05426708 0.05426708 0.05426708
0.19305234 0.04101705 0.05140067
0.38861938 0.01836115 0.05446670
0.66324458 0.00000000 0.06684035
0.88857891 0.04324942 0.11383010
1.00000000 0.60137817 0.46293851
1.00000000 0.90458933 0.86517457
1.00000000 1.00000000 1.00000000
0.04462747 0.17317667 0.02267068
0.06030622 0.17682874 0.01411433
0.17132677 0.18236012 0.00000000
0.37310230 0.17027120 0.00313360
0.66649439 0.12556617 0.01589168
0.89774117 0.06338234 0.06919673
1.00000000 0.61442821 0.46252434
1.00000000 0.90744699 0.86826164
1.00000000 1.00000000 1.00000000
0.09643989 0.31839645 0.00686338
0.10519697 0.32061802 0.00551314
0.17157522 0.33517447 0.00000000
0.33241284 0.35419272 0.00000000
0.63541117 0.35151571 0.00022785
0.89318558 0.29631229 0.03863880
1.00000000 0.66020750 0.47513491
1.00000000 0.91672700 0.87886131
1.00000000 1.00000000 1.00000000
0.18932000 0.57082891 0.00117019
0.19412138 0.57185101 0.00247028
0.23297356 0.58004157 0.00260251
0.34165722 0.59900860 0.00000000
0.59719533 0.62528734 0.00000000
0.86700348 0.63041625 0.03808793
1.00000000 0.76704221 0.53655450
1.00000000 0.94911546 0.91915821
1.00000000 1.00000000 1.00000000
0.36126048 0.81384630 0.02731215
0.36384525 0.81410185 0.02757828
0.38556734 0.81627425 0.02894814
0.45227413 0.82287383 0.02927405
0.61435735 0.83881682 0.03133774
0.83825491 0.86336007 0.07418928
1.00000000 0.91565528 0.67674217
1.00000000 1.00000000 1.00000000
1.00000000 1.00000000 1.00000000
0.81304274 0.99958195 0.59405953
0.81348293 0.99960636 0.59467123
0.81710093 0.99985934 0.59947002
0.82836899 1.00000000 0.61445063
0.86143937 1.00000000 0.66098080
0.93858327 1.00000000 0.79859905
1.00000000 1.00000000 1.00000000
1.00000000 1.00000000 1.00000000
1.00000000 1.00000000 1.00000000
1.00000000 1.00000000 1.00000000
1.00000000 1.00000000 1.00000000
1.00000000 1.00000000 1.00000000
1.00000000 1.00000000 1.00000000
1.00000000 1.00000000 1.00000000
1.00000000 1.00000000 1.00000000
1.00000000 1.00000000 1.00000000
1.00000000 1.00000000 1.00000000
1.00000000 1.00000000 1.00000000
1.00000000 1.00000000 1.00000000
1.00000000 1.00000000 1.00000000
1.00000000 1.00000000 1.00000000
1.00000000 1.00000000 1.00000000
1.00000000 1.00000000 1.00000000
1.00000000 1.00000000 1.00000000
1.00000000 1.00000000 1.00000000
1.00000000 1.00000000 1.00000000
1.00000000 1.00000000 1.00000000
0.03919323 0.00788331 0.16886951
0.05117489 0.00000000 0.16073360
0.16617655 0.00000000 0.17617325
0.36377122 0.00000000 0.19502666
0.65193286 0.00000000 0.20038465
0.88393255 0.05122681 0.20226771
1.00000000 0.59091975 0.46902076
1.00000000 0.90194407 0.86259624
1.00000000 1.00000000 1.00000000
0.02358794 0.02881320 0.18508093
0.04088204 0.00000000 0.18587136
0.17204447 0.00000000 0.18391909
0.37150022 0.00000000 0.19073471
0.65443316 0.00845990 0.19367554
0.88482680 0.05551917 0.19791002
1.00000000 0.59257943 0.46897953
1.00000000 0.90229103 0.86297414
1.00000000 1.00000000 1.00000000
0.02521305 0.17254984 0.16814955
0.03855615 0.17416033 0.17007943
0.16895397 0.16895397 0.16895397
0.38384890 0.14247351 0.15638019
0.66737795 0.10161191 0.14793105
0.89263318 0.08739853 0.15870590
1.00000000 0.60693472 0.46931910
1.00000000 0.90522396 0.86612961
1.00000000 1.00000000 1.00000000
0.03353724 0.38564419 0.08869783
0.04380531 0.38588603 0.08350526
0.14607603 0.38366094 0.06891908
0.34953198 0.37059732 0.06654020
0.65784807 0.33163227 0.05482774
0.90229882 0.24979172 0.04510039
1.00000000 0.65268905 0.47877956
1.00000000 0.91452678 0.87655025
1.00000000 1.00000000 1.00000000
0.15901524 0.60397737 0.01221522
0.16472652 0.60475360 0.01050685
0.21209840 0.61059106 0.00000000
0.33819291 0.62274222 0.00000000
0.60761853 0.63543009 0.00000000
0.87385435 0.62575644 0.03923145
1.00000000 0.76418393 0.54083368
1.00000000 0.94712241 0.91677629
1.00000000 1.00000000 1.00000000
0.34870370 0.82257462 0.02693875
0.35149274 0.82280157 0.02730548
0.37467295 0.82473867 0.02899360
0.44530625 0.83062339 0.03053672
0.61457041 0.84485879 0.03196928
0.84100767 0.86610894 0.07675062
1.00000000 0.91593304 0.68251931
1.00000000 1.00000000 1.00000000
1.00000000 1.00000000 1.00000000
0.81727012 1.00000000 0.60746985
0.81769554 1.00000000 0.60803862
0.82121140 1.00000000 0.61255451
0.83215657 1.00000000 0.62663693
0.86439023 1.00000000 0.67082794
0.94089433 1.00000000 0.80742694
1.00000000 1.00000000 1.00000000
1.00000000 1.00000000 1.00000000
1.00000000 1.00000000 1.00000000
1.00000000 1.00000000 1.00000000
1.00000000 1.00000000 1.00000000
1.00000000 1.00000000 1.00000000
1.00000000 1.00000000 1.00000000
1.00000000 1.00000000 1.00000000
1.00000000 1.00000000 1.00000000
1.00000000 1.00000000 1.00000000
1.00000000 1.00000000 1.00000000
1.00000000 1.00000000 1.00000000
1.00000000 1.00000000 1.00000000
1.00000000 1.00000000 1.00000000
1.00000000 1.00000000 1.00000000
1.00000000 1.00000000 1.00000000
1.00000000 1.00000000 1.00000000
1.00000000 1.00000000 1.00000000
1.00000000 1.00000000 1.00000000
1.00000000 1.00000000 1.00000000
1.00000000 1.00000000 1.00000000
0.07241486 0.00720995 0.34485759
0.08095926 0.00692214 0.33246415
0.15159142 0.00000000 0.29907004
0.34268841 0.00000000 0.35160936
0.63644254 0.00787070 0.38934797
0.87635413 0.05155844 0.39338467
1.00000000 0.58569318 0.57537592
1.00000000 0.89579214 0.85869674
1.00000000 1.00000000 1.00000000
0.06377900 0.01100216 0.36244819
0.07351191 0.00739240 0.35074884
0.14610737 0.00000000 0.30550878
0.34479284 0.00000000 0.35427955
0.63915255 0.00000000 0.38761185
0.87763640 0.04666604 0.38879493
1.00000000 0.58744091 0.57514248
1.00000000 0.89608095 0.85894895
1.00000000 1.00000000 1.00000000
0.00000000 0.12771316 0.34577421
0.00000000 0.11997124 0.36077752
0.13739417 0.07249520 0.44475271
0.35910705 0.07682481 0.38626510
0.65216028 0.06512877 0.36906899
0.88434969 0.08517785 0.36440204
1.00000000 0.60127853 0.57250525
1.00000000 0.89850920 0.86102624
1.00000000 1.00000000 1.00000000
0.04553054 0.34421986 0.33502876
0.04960565 0.34524320 0.33624488
0.10932335 0.35079372 0.34356257
0.33601674 0.33601674 0.33601674
0.65752962 0.29137426 0.31445690
0.89869751 0.22338776 0.29651361
1.00000000 0.64418526 0.56632048
1.00000000 0.90769247 0.87041052
1.00000000 1.00000000 1.00000000
0.04791004 0.66018980 0.19869999
0.05445440 0.66033315 0.19646866
0.11383562 0.66091314 0.18169829
0.28678687 0.65853061 0.16332719
0.61965985 0.64349255 0.15565178
0.88962882 0.60238680 0.15874933
1.00000000 0.75228895 0.56202828
1.00000000 0.94019652 0.90885955
1.00000000 1.00000000 1.00000000
0.28860262 0.85008270 0.04085399
0.29195677 0.85025916 0.04039934
0.32046066 0.85174048 0.03677576
0.40750553 0.85584228 0.03110946
0.61058676 0.86457770 0.02782840
0.84973538 0.87479834 0.08025934
1.00000000 0.91644489 0.69877456
1.00000000 1.00000000 1.00000000
1.00000000 1.00000000 1.00000000
0.83075873 1.00000000 0.64795060
0.83115616 1.00000000 0.64845057
0.83445097 1.00000000 0.65245795
0.84481351 1.00000000 0.66529551
0.87561874 1.00000000 0.70741315
0.94798905 1.00000000 0.83321156
1.00000000 1.00000000 1.00000000
1.00000000 1.00000000 1.00000000
1.00000000 1.00000000 1.00000000
1.00000000 1.00000000 1.00000000
1.00000000 1.00000000 1.00000000
1.00000000 1.00000000 1.00000000
1.00000000 1.00000000 1.00000000
1.00000000 1.00000000 1.00000000
1.00000000 1.00000000 1.00000000
1.00000000 1.00000000 1.00000000
1.00000000 1.00000000 1.00000000
1.00000000 1.00000000 1.00000000
1.00000000 1.00000000 1.00000000
1.00000000 1.00000000 1.00000000
1.00000000 1.00000000 1.00000000
1.00000000 1.00000000 1.00000000
1.00000000 1.00000000 1.00000000
1.00000000 1.00000000 1.00000000
1.00000000 1.00000000 1.00000000
1.00000000 1.00000000 1.00000000
1.00000000 1.00000000 1.00000000
0.12528293 0.00626195 0.61417981
0.13006434 0.01318852 0.60755294
0.16779846 0.01510615 0.56133644
0.31278437 0.00000000 0.54324382
0.61721503 0.00000000 0.61882739
0.86082155 0.04997051 0.65368036
1.00000000 0.56539980 0.71054348
1.00000000 0.90480256 0.89104839
1.00000000 1.00000000 1.00000000
0.12083220 0.00000000 0.62254657
0.12584799 0.00693037 0.61617892
0.16465108 0.01255584 0.56932748
0.31018052 0.00000000 0.54463587
0.61780572 0.00000000 0.61947888
0.86144398 0.04914999 0.65326888
1.00000000 0.56625564 0.71006537
1.00000000 0.90514762 0.89133650
1.00000000 1.00000000 1.00000000
0.07332264 0.05040406 0.66583598
0.08013300 0.04524409 0.66400859
0.13051517 0.00000000 0.63434804
0.28175165 0.00000000 0.57271234
0.62452038 0.00000000 0.62934593
0.86840091 0.00000000 0.64927661
1.00000000 0.57772425 0.70810909
1.00000000 0.90807667 0.89378352
1.00000000 1.00000000 1.00000000
0.00000000 0.26877824 0.59065510
0.00000000 0.26547885 0.59637108
0.00000000 0.23655383 0.65352764
0.28523242 0.18717552 0.71138344
0.63434823 0.17191728 0.66553484
0.88407453 0.15370012 0.63747307
1.00000000 0.62440587 0.70949830
1.00000000 0.91731166 0.90171983
1.00000000 1.00000000 1.00000000
0.06568027 0.61464267 0.60257378
0.06888322 0.61501976 0.60305232
0.10106210 0.61788752 0.60677713
0.23515024 0.62173389 0.61317045
0.60391133 0.60391133 0.60391133
0.89217316 0.54245403 0.57569736
1.00000000 0.73636770 0.71814578
1.00000000 0.94344558 0.92612526
1.00000000 1.00000000 1.00000000
0.12336891 0.89189782 0.38594655
0.12679292 0.89197112 0.38501350
0.15806850 0.89249595 0.37781147
0.25698682 0.89356593 0.35854838
0.53437067 0.89323755 0.32001526
0.85921101 0.87996592 0.30624378
1.00000000 0.91208525 0.77019039
1.00000000 1.00000000 1.00000000
1.00000000 1.00000000 1.00000000
0.88083870 1.00000000 0.77710305
0.88111886 1.00000000 0.77739229
0.88344400 1.00000000 0.77971371
0.89082348 1.00000000 0.78728108
0.91200161 1.00000000 0.81078464
0.96613021 1.00000000 0.88938001
1.00000000 1.00000000 1.00000000
1.00000000 1.00000000 1.00000000
1.00000000 1.00000000 1.00000000
1.00000000 1.00000000 1.00000000
1.00000000 1.00000000 1.00000000
1.00000000 1.00000000 1.00000000
1.00000000 1.00000000 1.00000000
1.00000000 1.00000000 1.00000000
1.00000000 1.00000000 1.00000000
1.00000000 1.00000000 1.00000000
1.00000000 1.00000000 1.00000000
1.00000000 1.00000000 1.00000000
1.00000000 1.00000000 1.00000000
1.00000000 1.00000000 1.00000000
1.00000000 1.00000000 1.00000000
1.00000000 1.00000000 1.00000000
1.00000000 1.00000000 1.00000000
1.00000000 1.00000000 1.00000000
1.00000000 1.00000000 1.00000000
1.00000000 1.00000000 1.00000000
1.00000000 1.00000000 1.00000000
0.21681781 0.02088457 0.84783573
0.21927912 0.02465536 0.84584001
0.23992262 0.03852440 0.83033585
0.30302818 0.03527299 0.78576714
0.56311350 0.00000000 0.77431731
0.83839153 0.02347689 0.83438002
0.99955929 0.50865361 0.84298094
1.00000000 0.90188024 0.91989101
1.00000000 1.00000000 1.00000000
0.21462131 0.01678887 0.85034322
0.21711558 0.02107911 0.84835969
0.23790570 0.03607781 0.83285430
0.30150718 0.03458922 0.78794539
0.56203301 0.00000000 0.77457824
0.83852314 0.02318313 0.83451390
0.99957172 0.50941502 0.84289275
1.00000000 0.90197798 0.91990328
1.00000000 1.00000000 1.00000000
0.19374841 0.00000000 0.86889699
0.19656914 0.00326892 0.86716628
0.21967200 0.02420412 0.85261691
0.28745564 0.03086491 0.80636146
0.55193372 0.00000000 0.77753899
0.83987529 0.00747546 0.83602392
0.99987020 0.51513965 0.84218592
1.00000000 0.90284941 0.92001666
1.00000000 1.00000000 1.00000000
0.10348250 0.13856300 0.89433729
0.10672845 0.13167319 0.89573450
0.13888993 0.09793440 0.89529952
0.22790182 0.01844313 0.86799513
0.51051822 0.00000000 0.80952885
0.84672714 0.00000000 0.84808949
1.00000000 0.54221177 0.84179046
1.00000000 0.91167479 0.92564275
1.00000000 1.00000000 1.00000000
0.00000000 0.50343442 0.81619565
0.00000000 0.50192377 0.81767341
0.00000000 0.48774120 0.83021214
0.02799670 0.44727467 0.88824582
0.53377646 0.36551577 0.93966153
0.88084515 0.26839244 0.91385559
1.00000000 0.68644954 0.85408185
1.00000000 0.94507047 0.95041153
1.00000000 1.00000000 1.00000000
0.16946889 0.85191922 0.84134966
0.17118304 0.85203357 0.84149103
0.18803583 0.85293835 0.84262931
0.24227172 0.85573027 0.84616291
0.44552614 0.86100280 0.85362670
0.84569243 0.84569243 0.84569243
1.00000000 0.89326881 0.89412304
1.00000000 1.00000000 1.00000000
1.00000000 1.00000000 1.00000000
0.95201960 1.00000000 0.94332633
0.95214753 1.00000000 0.94339736
0.95300839 1.00000000 0.94376820
0.95511115 1.00000000 0.94432503
1.00000000 1.00000000 1.00000000
1.00000000 1.00000000 1.00000000
1.00000000 1.00000000 1.00000000
1.00000000 1.00000000 1.00000000
1.00000000 1.00000000 1.00000000
1.00000000 1.00000000 1.00000000
1.00000000 1.00000000 1.00000000
1.00000000 1.00000000 1.00000000
1.00000000 1.00000000 1.00000000
1.00000000 1.00000000 1.00000000
1.00000000 1.00000000 1.00000000
1.00000000 1.00000000 1.00000000
1.00000000 1.00000000 1.00000000
1.00000000 1.00000000 1.00000000
1.00000000 1.00000000 1.00000000
1.00000000 1.00000000 1.00000000
1.00000000 1.00000000 1.00000000
1.00000000 1.00000000 1.00000000
1.00000000 1.00000000 1.00000000
1.00000000 1.00000000 1.00000000
1.00000000 1.00000000 1.00000000
1.00000000 1.00000000 1.00000000
1.00000000 1.00000000 1.00000000
0.37244914 0.28890724 0.99506675
0.37360594 0.28810427 0.99486338
0.38354304 0.28068221 0.99326075
0.41583775 0.25973703 0.98585131
0.51628693 0.17657865 0.96053534
0.77627111 0.01223688 0.95363201
0.98569489 0.43130764 0.96833243
1.00000000 0.87419929 0.94124838
1.00000000 1.00000000 1.00000000
0.37144375 0.29016015 0.99526329
0.37260334 0.28935903 0.99506013
0.38256280 0.28192078 0.99347545
0.41488893 0.26065879 0.98620938
0.51561290 0.17720884 0.96106174
0.77600892 0.01097031 0.95368152
0.98569327 0.43154445 0.96832335
1.00000000 0.87426063 0.94125239
1.00000000 1.00000000 1.00000000
0.36260292 0.30143408 0.99671150
0.36378574 0.30062745 0.99652099
0.37393685 0.29317107 0.99503860
0.40648282 0.26958780 0.98887125
0.50950188 0.18386791 0.96522457
0.77368122 0.00000000 0.95412565
0.98570086 0.43345235 0.96827135
1.00000000 0.87477931 0.94129744
1.00000000 1.00000000 1.00000000
0.33296280 0.34439222 0.99868923
0.33411286 0.34324559 0.99862408
0.34406010 0.33375327 0.99769775
0.37834200 0.30677023 0.99425773
0.48612669 0.21669877 0.97485185
0.76549706 0.00000000 0.95654756
0.98589279 0.43862425 0.96830628
1.00000000 0.87658881 0.94138554
1.00000000 1.00000000 1.00000000
0.25144594 0.50446436 0.99059386
0.25220923 0.50329156 0.99075262
0.25897097 0.49292243 0.99201406
0.28713063 0.45893178 0.99539671
0.39263739 0.34441916 0.99362410
0.73899127 0.00000000 0.98293940
0.98637934 0.49941019 0.97035013
1.00000000 0.89500386 0.94723838
1.00000000 1.00000000 1.00000000
0.11707452 0.75866252 0.98731515
0.11642335 0.75842505 0.98750185
0.11114051 0.75632237 0.98907154
0.09730544 0.74879040 0.99383176
0.39126745 0.74354232 0.99998929
0.77560650 0.75335510 1.00000000
0.98486475 0.83575357 0.98304112
1.00000000 1.00000000 1.00000000
1.00000000 1.00000000 1.00000000
0.95056336 1.00000000 1.00000000
0.95074802 1.00000000 1.00000000
0.95229545 1.00000000 1.00000000
0.95728522 1.00000000 1.00000000
1.00000000 1.00000000 1.00000000
1.00000000 1.00000000 1.00000000
1.00000000 1.00000000 1.00000000
1.00000000 1.00000000 1.00000000
1.00000000 1.00000000 1.00000000
1.00000000 1.00000000 1.00000000
1.00000000 1.00000000 1.00000000
1.00000000 1.00000000 1.00000000
1.00000000 1.00000000 1.00000000
1.00000000 1.00000000 1.00000000
1.00000000 1.00000000 1.00000000
1.00000000 1.00000000 1.00000000
1.00000000 1.00000000 1.00000000
1.00000000 1.00000000 1.00000000
1.00000000 1.00000000 1.00000000
1.00000000 1.00000000 1.00000000
1.00000000 1.00000000 1.00000000
1.00000000 1.00000000 1.00000000
1.00000000 1.00000000 1.00000000
1.00000000 1.00000000 1.00000000
1.00000000 1.00000000 1.00000000
1.00000000 1.00000000 1.00000000
1.00000000 1.00000000 1.00000000
0.63476039 0.70102512 1.00000000
0.63492223 0.70088208 1.00000000
0.63631949 0.69963262 1.00000000
0.64088910 0.69540582 1.00000000
0.65624638 0.68056065 1.00000000
0.70580598 0.61304086 0.99719583
0.88941058 0.56953468 0.99661410
1.00000000 0.83640774 0.97921132
1.00000000 1.00000000 1.00000000
0.63466094 0.70123056 1.00000000
0.63482279 0.70108771 1.00000000
0.63621998 0.69983975 1.00000000
0.64078954 0.69561811 1.00000000
0.65613309 0.68078286 1.00000000
0.70569941 0.61337817 0.99720311
0.88933504 0.56951905 0.99659809
1.00000000 0.83642049 0.97920935
1.00000000 1.00000000 1.00000000
0.63379660 0.70299709 1.00000000
0.63395829 0.70285562 1.00000000
0.63535475 0.70162035 1.00000000
0.63992409 0.69744282 1.00000000
0.65514871 0.68269100 1.00000000
0.70478062 0.61625955 0.99729144
0.88868245 0.56936369 0.99646911
1.00000000 0.83652656 0.97919818
1.00000000 1.00000000 1.00000000
0.63110498 0.70882221 1.00000000
0.63124368 0.70866654 1.00000000
0.63259943 0.70744741 1.00000000
0.63711990 0.70338292 1.00000000
0.65190174 0.68887847 1.00000000
0.70175738 0.62547234 0.99759759
0.88648867 0.56880552 0.99604634
1.00000000 0.83688568 0.97914690
1.00000000 1.00000000 1.00000000
0.62979576 0.73232246 1.00000000
0.62984032 0.73213451 1.00000000
0.63036315 0.73054916 1.00000000
0.63263475 0.72539284 1.00000000
0.64290986 0.70909718 1.00000000
0.69161549 0.65329702 0.99812021
0.87842240 0.56749096 0.99404875
1.00000000 0.83843266 0.97845214
1.00000000 1.00000000 1.00000000
0.64876600 0.79772502 0.99724007
0.64873132 0.79759354 0.99723884
0.64845141 0.79644663 0.99720189
0.64754546 0.79256329 0.99705142
0.64827397 0.77975412 0.99662965
0.66227348 0.72712620 0.98850203
0.84751992 0.64190010 0.97606961
0.99445143 0.87394294 0.97579206
1.00000000 1.00000000 1.00000000
0.84255484 0.93318941 0.98919264
0.84250674 0.93313653 0.98915955
0.84208499 0.93267691 0.98887413
0.84065974 0.93113430 0.98791905
0.83575788 0.92567811 0.98440736
0.88181485 0.93739064 0.99274928
0.98802201 0.98894613 1.00000000
1.00000000 1.00000000 1.00000000
1.00000000 1.00000000 1.00000000
1.00000000 1.00000000 1.00000000
1.00000000 1.00000000 1.00000000
1.00000000 1.00000000 1.00000000
1.00000000 1.00000000 1.00000000
1.00000000 1.00000000 1.00000000
1.00000000 1.00000000 1.00000000
1.00000000 1.00000000 1.00000000
1.00000000 1.00000000 1.00000000
1.00000000 1.00000000 1.00000000
1.00000000 1.00000000 1.00000000
1.00000000 1.00000000 1.00000000
1.00000000 1.00000000 1.00000000
1.00000000 1.00000000 1.00000000
1.00000000 1.00000000 1.00000000
1.00000000 1.00000000 1.00000000
1.00000000 1.00000000 1.00000000
1.00000000 1.00000000 1.00000000
1.00000000 1.00000000 1.00000000
0.85745991 0.89948655 1.00000000
0.85746142 0.89946148 1.00000000
0.85748627 0.89924518 1.00000000
0.85756814 0.89852353 1.00000000
0.85781847 0.89605896 1.00000000
0.85912848 0.88734584 1.00000000
0.86432134 0.84508805 1.00000000
0.94702467 0.81091554 0.99873005
1.00000000 0.97246223 1.00000000
0.85749622 0.89954235 1.00000000
0.85747582 0.89949723 1.00000000
0.85749904 0.89928077 1.00000000
0.85758078 0.89855957 1.00000000
0.85783087 0.89609641 1.00000000
0.85913594 0.88738538 1.00000000
0.86432557 0.84515224 1.00000000
0.94700823 0.81090853 0.99872482
1.00000000 0.97246434 1.00000000
0.85781200 0.90002410 1.00000000
0.85779074 0.89997973 1.00000000
0.85761318 0.89958992 1.00000000
0.85768774 0.89887288 1.00000000
0.85793564 0.89642202 1.00000000
0.85919920 0.88772847 1.00000000
0.86436639 0.84570493 1.00000000
0.94686650 0.81084713 0.99868093
1.00000000 0.97248238 1.00000000
0.85888914 0.90157916 1.00000000
0.85886612 0.90153651 1.00000000
0.85867356 0.90116154 1.00000000
0.85807093 0.89989074 1.00000000
0.85828605 0.89748536 1.00000000
0.85941017 0.88885016 1.00000000
0.86450539 0.84751045 1.00000000
0.94639524 0.81064398 0.99853364
1.00000000 0.97254207 1.00000000
0.86257871 0.90651943 1.00000000
0.86255451 0.90647939 1.00000000
0.86235040 0.90612805 1.00000000
0.86168480 0.90495235 1.00000000
0.85959014 0.90086003 1.00000000
0.86014639 0.89244031 1.00000000
0.86499547 0.85330074 1.00000000
0.94474785 0.80999096 0.99794362
1.00000000 0.97274582 1.00000000
0.87561172 0.92150150 1.00000000
0.87557921 0.92146388 1.00000000
0.87530423 0.92113308 1.00000000
0.87448146 0.92008413 1.00000000
0.87211830 0.91671898 1.00000000
0.86457077 0.90390496 1.00000000
0.86682291 0.87059922 1.00000000
0.93742669 0.80844641 0.99346624
1.00000000 0.97355225 1.00000000
0.93040925 0.96378974 1.00000000
0.93036931 0.96376268 1.00000000
0.93003124 0.96352271 1.00000000
0.92891301 0.96272417 1.00000000
0.92516813 0.96001485 1.00000000
0.91460260 0.95150080 1.00000000
0.88140664 0.91157948 0.99885638
0.91684645 0.85939141 0.96139023
1.00000000 1.00000000 1.00000000
1.00000000 1.00000000 1.00000000
1.00000000 1.00000000 1.00000000
1.00000000 1.00000000 1.00000000
1.00000000 1.00000000 1.00000000
1.00000000 1.00000000 1.00000000
1.00000000 1.00000000 1.00000000
1.00000000 1.00000000 1.00000000
1.00000000 1.00000000 1.00000000
1.00000000 1.00000000 1.00000000
1.00000000 1.00000000 1.00000000
1.00000000 1.00000000 1.00000000
1.00000000 1.00000000 1.00000000
1.00000000 1.00000000 1.00000000
1.00000000 1.00000000 1.00000000
1.00000000 1.00000000 1.00000000
1.00000000 1.00000000 1.00000000
1.00000000 1.00000000 1.00000000
1.00000000 1.00000000 1.00000000
