Luts Download/Canon Luts/3dlut/33grid-3dlut/full-to-full-range/CinemaGamut_CanonLog2-to-BT2020_HLG_33_FF_Ver.2.0.cube
# Gamut : Cinema Gamut to BT.2020
# Gamma : Canon Log 2 to HLG
# Range : Full in / Full out
# Version : 2.0 2019/10/24
# Copyright(c) 2019 Canon Inc. All Rights Reserved.
LUT_3D_SIZE 33
# LUT_3D_INPUT_RANGE 0.0 1.0
0.00000004 0.00000000 0.00000003
0.00000004 0.00000000 0.00000003
0.00000004 0.00000000 0.00000003
0.00811000 0.00811000 0.00811000
0.04747984 0.01731444 0.01933651
0.07718300 0.01929341 0.02404167
0.10687330 0.01858052 0.02731589
0.13748469 0.01557790 0.03012568
0.17031531 0.00981457 0.03328726
0.20638513 0.00000000 0.03717783
0.24674694 0.00000000 0.04179871
0.29239075 0.00000000 0.04721859
0.34428082 0.00000000 0.05368535
0.40354835 0.00000000 0.06125245
0.47151560 0.00000000 0.06977983
0.54563655 0.00000000 0.07940609
0.61354948 0.00000000 0.09007298
0.67651951 0.00000000 0.10197251
0.73611798 0.00000000 0.11543141
0.79322886 0.01279780 0.13110722
0.84822214 0.05068994 0.15047425
0.90075846 0.10275454 0.17726793
0.94889655 0.19475102 0.22126858
0.98601673 0.36245590 0.30850682
1.00000000 0.59255617 0.47129326
1.00000000 0.72505483 0.62870435
1.00000000 0.81041526 0.73816636
1.00000000 0.87283380 0.82169132
1.00000000 0.92211674 0.88899288
1.00000000 0.96323926 0.94503762
1.00000000 1.00000000 1.00000000
1.00000000 1.00000000 1.00000000
1.00000000 1.00000000 1.00000000
0.00000004 0.00000000 0.00000003
0.00000004 0.00000000 0.00000003
0.00000004 0.00000000 0.00000003
0.00811000 0.00811000 0.00811000
0.04747984 0.01731444 0.01933651
0.07718300 0.01929341 0.02404167
0.10687330 0.01858052 0.02731589
0.13748469 0.01557790 0.03012568
0.17031531 0.00981457 0.03328726
0.20638513 0.00000000 0.03717783
0.24674694 0.00000000 0.04179871
0.29239075 0.00000000 0.04721859
0.34428082 0.00000000 0.05368535
0.40354835 0.00000000 0.06125245
0.47151560 0.00000000 0.06977983
0.54563655 0.00000000 0.07940609
0.61354948 0.00000000 0.09007298
0.67651951 0.00000000 0.10197251
0.73611798 0.00000000 0.11543141
0.79322886 0.01279780 0.13110722
0.84822214 0.05068994 0.15047425
0.90075846 0.10275454 0.17726793
0.94889655 0.19475102 0.22126858
0.98601673 0.36245590 0.30850682
1.00000000 0.59255617 0.47129326
1.00000000 0.72505483 0.62870435
1.00000000 0.81041526 0.73816636
1.00000000 0.87283380 0.82169132
1.00000000 0.92211674 0.88899288
1.00000000 0.96323926 0.94503762
1.00000000 1.00000000 1.00000000
1.00000000 1.00000000 1.00000000
1.00000000 1.00000000 1.00000000
0.00000004 0.00000000 0.00000003
0.02787797 0.03466447 0.00000000
0.04565220 0.04874538 0.01981788
0.00811000 0.00811000 0.00811000
0.04747984 0.01731444 0.01933651
0.07718300 0.01929341 0.02404167
0.10687330 0.01858052 0.02731589
0.13748469 0.01557790 0.03012568
0.17031531 0.00981457 0.03328726
0.20638513 0.00000000 0.03717783
0.24674694 0.00000000 0.04179871
0.29239075 0.00000000 0.04721859
0.34428082 0.00000000 0.05368535
0.40354835 0.00000000 0.06125245
0.47151560 0.00000000 0.06977983
0.54563655 0.00000000 0.07940609
0.61354948 0.00000000 0.09007298
0.67651951 0.00000000 0.10197251
0.73611798 0.00000000 0.11543141
0.79322886 0.01279780 0.13110722
0.84822214 0.05068994 0.15047425
0.90075846 0.10275454 0.17726793
0.94889655 0.19475102 0.22126858
0.98601673 0.36245590 0.30850682
1.00000000 0.59255617 0.47129326
1.00000000 0.72505483 0.62870435
1.00000000 0.81041526 0.73816636
1.00000000 0.87283380 0.82169132
1.00000000 0.92211674 0.88899288
1.00000000 0.96323926 0.94503762
1.00000000 1.00000000 1.00000000
1.00000000 1.00000000 1.00000000
1.00000000 1.00000000 1.00000000
0.00811000 0.00811000 0.00811000
0.00811000 0.00811000 0.00811000
0.00811000 0.00811000 0.00811000
0.00811000 0.00811000 0.00811000
0.04747984 0.01731444 0.01933651
0.07776979 0.01989651 0.02430614
0.10712828 0.01924464 0.02732809
0.13762565 0.01638801 0.03001502
0.17040493 0.01078353 0.03309213
0.20645580 0.00000000 0.03691668
0.24681662 0.00000000 0.04147911
0.29261270 0.00000000 0.04582027
0.34436062 0.00000000 0.05330609
0.40363083 0.00000000 0.06087997
0.47160339 0.00000000 0.06941689
0.54571560 0.00000000 0.07906488
0.61361476 0.00000000 0.08975903
0.67657464 0.00000000 0.10168995
0.73616506 0.00000000 0.11518239
0.79326934 0.01202901 0.13089166
0.84825671 0.05053156 0.15029254
0.90078732 0.10267922 0.17712166
0.94891850 0.19474466 0.22116529
0.98602700 0.36252164 0.30846572
1.00000000 0.59259994 0.47128487
1.00000000 0.72507924 0.62871104
1.00000000 0.81043118 0.73817626
1.00000000 0.87284500 0.82170126
1.00000000 0.92212492 0.88900177
1.00000000 0.96324532 0.94504492
1.00000000 1.00000000 1.00000000
1.00000000 1.00000000 1.00000000
1.00000000 1.00000000 1.00000000
0.02894522 0.04544688 0.02475878
0.02894522 0.04544688 0.02475878
0.02894522 0.04544688 0.02475878
0.02894522 0.04544688 0.02475878
0.05277017 0.05498330 0.02474338
0.07937424 0.05905883 0.02369598
0.10767641 0.06053027 0.02277772
0.13806247 0.06034135 0.02249597
0.17113882 0.05889315 0.02327465
0.20763692 0.05634314 0.02538770
0.24853101 0.05240914 0.02847465
0.29478375 0.04658554 0.03247196
0.34708357 0.03950001 0.03858036
0.40660594 0.03111204 0.04654988
0.47483205 0.01867083 0.05563602
0.54862456 0.00000000 0.06615101
0.61604409 0.00000000 0.07793121
0.67864272 0.00000000 0.09105662
0.73794112 0.00000000 0.10580567
0.79480357 0.00000000 0.12275909
0.84957223 0.04190823 0.14341898
0.90188886 0.09867239 0.17157542
0.94975864 0.19388690 0.21723735
0.98643178 0.36461194 0.30685515
1.00000000 0.59409647 0.47091100
1.00000000 0.72594042 0.62893193
1.00000000 0.81100159 0.73853048
1.00000000 0.87324875 0.82206298
1.00000000 0.92242028 0.88932661
1.00000000 0.96346404 0.94531120
1.00000000 1.00000000 1.00000000
1.00000000 1.00000000 1.00000000
1.00000000 1.00000000 1.00000000
0.03861720 0.06976015 0.02932025
0.03861720 0.06976015 0.02932025
0.03861720 0.06976015 0.02932025
0.03938839 0.07077918 0.02989902
0.05753299 0.07932811 0.02563772
0.08069227 0.08469208 0.02176709
0.10711176 0.08798087 0.01878150
0.13657158 0.08972886 0.01687671
0.16932259 0.09016224 0.01640992
0.20593819 0.08936184 0.01731830
0.24720887 0.08722850 0.01925458
0.29398580 0.08350753 0.02214351
0.34718817 0.07789841 0.02635917
0.40793002 0.06982220 0.03186930
0.48243525 0.02439746 0.00000000
0.55160883 0.04429841 0.04833667
0.61870988 0.02884822 0.06246155
0.68102139 0.00000000 0.07718863
0.74004326 0.00000000 0.09362415
0.79664178 0.00000000 0.11228904
0.85116448 0.03590081 0.13462958
0.90323078 0.09599610 0.16453943
0.95078778 0.19396580 0.21229533
0.98692080 0.36781370 0.30488592
1.00000000 0.59617825 0.47049899
1.00000000 0.72710599 0.62924708
1.00000000 0.81176457 0.73900314
1.00000000 0.87378643 0.82253974
1.00000000 0.92281353 0.88975328
1.00000000 0.96375595 0.94566085
1.00000000 1.00000000 1.00000000
1.00000000 1.00000000 1.00000000
1.00000000 1.00000000 1.00000000
0.04712188 0.09520491 0.03056468
0.04712188 0.09520491 0.03056468
0.04712188 0.09520491 0.03056468
0.04746983 0.09573278 0.03058161
0.06261854 0.10289657 0.02431904
0.08300067 0.10852331 0.01909350
0.10731410 0.11291034 0.01505731
0.13526569 0.11614876 0.01231425
0.16710574 0.11828707 0.01102039
0.20329396 0.11926473 0.01118526
0.24445375 0.11896301 0.01266928
0.29139609 0.11717379 0.01490945
0.34506098 0.11358125 0.01781946
0.40649093 0.10772813 0.02183826
0.47690715 0.09886725 0.02718108
0.55248055 0.08595132 0.03412828
0.62462110 0.01713296 0.00000000
0.68341282 0.04867617 0.05943044
0.74240100 0.02632282 0.07768722
0.79882924 0.00000000 0.09848100
0.85312055 0.03614752 0.12304088
0.90491068 0.09499936 0.15530173
0.95209280 0.19503819 0.20584628
0.98753205 0.37241857 0.30239310
1.00000000 0.59903081 0.47003728
1.00000000 0.72868375 0.62970084
1.00000000 0.81279081 0.73964652
1.00000000 0.87450758 0.82318102
1.00000000 0.92334061 0.89032486
1.00000000 0.96414744 0.94612852
1.00000000 1.00000000 1.00000000
1.00000000 1.00000000 1.00000000
1.00000000 1.00000000 1.00000000
0.05486412 0.12145861 0.02869401
0.05486412 0.12145861 0.02869401
0.05486412 0.12145861 0.02869401
0.05512902 0.12177777 0.02856710
0.06857061 0.12768317 0.02193523
0.08672894 0.13311393 0.01623556
0.10893688 0.13800192 0.01171478
0.13512945 0.14228474 0.00823177
0.16556990 0.14579197 0.00613581
0.20077152 0.14838805 0.00587636
0.24136054 0.14987186 0.00687319
0.28803987 0.15000354 0.00920881
0.34171219 0.14849815 0.01193972
0.40342122 0.14494052 0.01502031
0.47438590 0.13872653 0.01868333
0.55106991 0.12905040 0.02398120
0.62059249 0.11463693 0.03113000
0.68464423 0.09417594 0.04144598
0.74463311 0.06749846 0.05647508
0.80119365 0.04840199 0.08059105
0.85541210 0.04992062 0.10785122
0.90696665 0.09796301 0.14318469
0.95372840 0.19790650 0.19744180
0.98828393 0.37902833 0.29927482
1.00000000 0.60293019 0.46955803
1.00000000 0.73081950 0.63036141
1.00000000 0.81417241 0.74052933
1.00000000 0.87547597 0.82404928
1.00000000 0.92404783 0.89109505
1.00000000 0.96467286 0.94675742
1.00000000 1.00000000 1.00000000
1.00000000 1.00000000 1.00000000
1.00000000 1.00000000 1.00000000
0.06340055 0.14966909 0.02524495
0.06340055 0.14966909 0.02524495
0.06340055 0.14966909 0.02524495
0.06366342 0.14988662 0.02509561
0.07588626 0.15477824 0.01887633
0.09217944 0.15977769 0.01340237
0.11236973 0.16478168 0.00858177
0.13664412 0.16966682 0.00388858
0.16540666 0.17421968 0.00000000
0.19918025 0.17816465 0.00000000
0.23865645 0.18127708 0.00000000
0.28461175 0.18327011 0.00255961
0.33786569 0.18381478 0.00667189
0.39944824 0.18253446 0.00997652
0.47054939 0.17893009 0.01333104
0.54822230 0.17227999 0.01673444
0.61882126 0.16165315 0.02215229
0.68389465 0.14571614 0.03010222
0.74510682 0.12294801 0.04142923
0.80314014 0.09424250 0.05924674
0.85778671 0.08040881 0.08867489
0.90932111 0.10968194 0.12768793
0.95569146 0.20446172 0.18674964
0.98916496 0.38864580 0.29553076
1.00000000 0.60827205 0.46917172
1.00000000 0.73371236 0.63133930
1.00000000 0.81603215 0.74174873
1.00000000 0.87677573 0.82522896
1.00000000 0.92499621 0.89213532
1.00000000 0.96537758 0.94760466
1.00000000 1.00000000 1.00000000
1.00000000 1.00000000 1.00000000
1.00000000 1.00000000 1.00000000
0.07359166 0.18073325 0.02113324
0.07359166 0.18073325 0.02113324
0.07359166 0.18073325 0.02113324
0.07385723 0.18089072 0.02100425
0.08501820 0.18495569 0.01581899
0.09963951 0.18945596 0.01109210
0.11790444 0.19435498 0.00610127
0.14020052 0.19950763 0.00000000
0.16705720 0.20473398 0.00000000
0.19911362 0.20976981 0.00000000
0.23705756 0.21427453 0.00000000
0.28174460 0.21796926 0.00000000
0.33410654 0.22050363 0.00000000
0.39511686 0.22145577 0.00462600
0.46595351 0.22036181 0.00875813
0.54431716 0.21663570 0.01247373
0.61599350 0.20945250 0.01606191
0.68198786 0.19775648 0.02193588
0.74408299 0.18023500 0.03132271
0.80320948 0.15589472 0.04507211
0.85947844 0.12958200 0.06796319
0.91163861 0.13690773 0.10921982
0.95785484 0.21823283 0.17383578
0.99009456 0.40292044 0.29142233
1.00000000 0.61560839 0.46913554
1.00000000 0.73763074 0.63281198
1.00000000 0.81853356 0.74344546
1.00000000 0.87851814 0.82683710
1.00000000 0.92626636 0.89354309
1.00000000 0.96632153 0.94874707
1.00000000 1.00000000 1.00000000
1.00000000 1.00000000 1.00000000
1.00000000 1.00000000 1.00000000
0.08596775 0.21551592 0.01710788
0.08596775 0.21551592 0.01710788
0.08596775 0.21551592 0.01710788
0.08622419 0.21563593 0.01701166
0.09631151 0.21903968 0.01314149
0.10937434 0.22308313 0.00908918
0.12581456 0.22772795 0.00398788
0.14613084 0.23287280 0.00000000
0.17096115 0.23844447 0.00000000
0.20103276 0.24422270 0.00000000
0.23715403 0.24990315 0.00000000
0.28015100 0.25508156 0.00000000
0.33105679 0.25943989 0.00000000
0.39098612 0.26256129 0.00000000
0.46108547 0.26393440 0.00267995
0.53976536 0.26300455 0.00835986
0.61234835 0.25908360 0.01258954
0.67919061 0.25127038 0.01692793
0.74208701 0.23849276 0.02418348
0.80201267 0.21991446 0.03668050
0.85927102 0.19726038 0.05677289
0.91301843 0.18688414 0.09245041
0.95980593 0.24507643 0.16010390
0.99086842 0.42436203 0.28772428
1.00000000 0.62565413 0.46994073
1.00000000 0.74292215 0.63505067
1.00000000 0.82189330 0.74582738
1.00000000 0.88084975 0.82903863
1.00000000 0.92796475 0.89545408
1.00000000 0.96758350 0.95028873
1.00000000 1.00000000 1.00000000
1.00000000 1.00000000 1.00000000
1.00000000 1.00000000 1.00000000
0.10082778 0.25492868 0.01358256
0.10082778 0.25492868 0.01358256
0.10082778 0.25492868 0.01358256
0.10106499 0.25502396 0.01351887
0.11006758 0.25790949 0.01101147
0.12165981 0.26153953 0.00726795
0.13638077 0.26576990 0.00444957
0.15476931 0.27080085 0.00000000
0.17753153 0.27645087 0.00000000
0.20545648 0.28262949 0.00000000
0.23944637 0.28913442 0.00000000
0.28046383 0.29561420 0.00000000
0.32947353 0.30158342 0.00000000
0.38772195 0.30669605 0.00000000
0.45652593 0.31046578 0.00000000
0.53496635 0.31228512 0.00000000
0.60820441 0.31150385 0.00876878
0.67572597 0.30735050 0.01417494
0.73931943 0.29891918 0.02044755
0.79994282 0.28550978 0.03133540
0.85791814 0.26826736 0.05110142
0.91257857 0.25729721 0.08574838
0.96070832 0.29335629 0.15111067
0.99131186 0.45659437 0.28627078
1.00000000 0.63941631 0.47266554
1.00000000 0.75005598 0.63852850
1.00000000 0.82640288 0.74922281
1.00000000 0.88396911 0.83208744
1.00000000 0.93023306 0.89806652
1.00000000 0.96926709 0.95237527
1.00000000 1.00000000 1.00000000
1.00000000 1.00000000 1.00000000
1.00000000 1.00000000 1.00000000
0.11842313 0.29994466 0.01068600
0.11842313 0.29994466 0.01068600
0.11842313 0.29994466 0.01068600
0.11863670 0.30002249 0.01065384
0.12657944 0.30249175 0.00937903
0.13682186 0.30566507 0.00707470
0.14991434 0.30958000 0.00370812
0.16646213 0.31425658 0.00000000
0.18717035 0.31981012 0.00000000
0.21289660 0.32617096 0.00000000
0.24455149 0.33313068 0.00000000
0.28322268 0.34053302 0.00000000
0.33005166 0.34797188 0.00000000
0.38614622 0.35486285 0.00000000
0.45299929 0.36083715 0.00000000
0.53044902 0.36533363 0.00000000
0.60390126 0.36764136 0.00000000
0.67184903 0.36702222 0.01091146
0.73597712 0.36269074 0.01863312
0.79719241 0.35404605 0.02935423
0.85578841 0.34192126 0.04835732
0.91108817 0.33386911 0.08381042
0.95995917 0.36107486 0.15041121
0.99130840 0.50123074 0.28831244
1.00000000 0.65823786 0.47930503
1.00000000 0.76043305 0.64494875
1.00000000 0.83296138 0.75471317
1.00000000 0.88842326 0.83667636
1.00000000 0.93342972 0.90185800
1.00000000 0.97170349 0.95542993
1.00000000 1.00000000 1.00000000
1.00000000 1.00000000 1.00000000
1.00000000 1.00000000 1.00000000
0.13906087 0.35162098 0.00831071
0.13906087 0.35162098 0.00831071
0.13906087 0.35162098 0.00831071
0.13924970 0.35168577 0.00830415
0.14620650 0.35381069 0.00815683
0.15521983 0.35657826 0.00723763
0.16681401 0.36014195 0.00391836
0.18162256 0.36444273 0.00233348
0.20033246 0.36971534 0.00000000
0.22382031 0.37596276 0.00000000
0.25307397 0.38317812 0.00000000
0.28916366 0.39110605 0.00000000
0.33337259 0.39958743 0.00000000
0.38703856 0.40816271 0.00000000
0.45142410 0.41612030 0.00000000
0.52697598 0.42307987 0.00000000
0.59990227 0.42839745 0.00000000
0.66786852 0.43126881 0.00466838
0.73227995 0.43091695 0.01644911
0.79393724 0.42678498 0.02881182
0.85305962 0.41950254 0.04842203
0.90895417 0.41487426 0.08398808
0.95851698 0.43751992 0.15225059
0.99094632 0.55168601 0.29271947
1.00000000 0.68106589 0.48931859
1.00000000 0.77383182 0.65406137
1.00000000 0.84199550 0.76283309
1.00000000 0.89495442 0.84372265
1.00000000 0.93829739 0.90772220
1.00000000 0.97537985 0.96004658
1.00000000 1.00000000 1.00000000
1.00000000 1.00000000 1.00000000
1.00000000 1.00000000 1.00000000
0.16316037 0.41112678 0.00646732
0.16316037 0.41112678 0.00646732
0.16316037 0.41112678 0.00646732
0.16332565 0.41118136 0.00648264
0.16938376 0.41301471 0.00728983
0.17727290 0.41542422 0.00732831
0.18751119 0.41856484 0.00626371
0.20067774 0.42259103 0.00000000
0.21749865 0.42740627 0.00165962
0.23878323 0.43340349 0.00000000
0.26557900 0.44051051 0.00000000
0.29899492 0.44874462 0.00000000
0.34030745 0.45783948 0.00000000
0.39101113 0.46759868 0.00000000
0.45267642 0.47751100 0.00000000
0.52552609 0.48670036 0.00000000
0.59688271 0.49479063 0.00000000
0.66420375 0.50106254 0.00000000
0.72851852 0.50461836 0.01288377
0.79037383 0.50489789 0.02809633
0.84989522 0.50231397 0.04943737
0.90633171 0.50134034 0.08621008
0.95665304 0.52073126 0.15543904
0.99041503 0.60218990 0.29849228
1.00000000 0.70752599 0.50297369
1.00000000 0.79022871 0.66604254
1.00000000 0.85334198 0.77345596
1.00000000 0.90329299 0.85299220
1.00000000 0.94458472 0.91546174
1.00000000 0.98017574 0.96616039
1.00000000 1.00000000 1.00000000
1.00000000 1.00000000 1.00000000
1.00000000 1.00000000 1.00000000
0.19122982 0.47977334 0.00531045
0.19122982 0.47977334 0.00531045
0.19122982 0.47977334 0.00531045
0.19137369 0.47981963 0.00534451
0.19662654 0.48140161 0.00685174
0.20350235 0.48349397 0.00752283
0.21249323 0.48624473 0.00754429
0.22416119 0.48983154 0.00571625
0.23918126 0.49435107 0.00000000
0.25836789 0.49985100 0.00000000
0.28272402 0.50666425 0.00000000
0.31338928 0.51447345 0.00000000
0.35168194 0.52330075 0.00000000
0.39910177 0.53277917 0.00000000
0.45739017 0.54263668 0.00000000
0.52703021 0.55234728 0.00000000
0.59570674 0.56104859 0.00000000
0.66147372 0.56855475 0.00000000
0.72508086 0.57435711 0.01073956
0.78677894 0.57795652 0.02674904
0.84647109 0.57950971 0.05052780
0.90335454 0.58168078 0.08928924
0.95444994 0.59582697 0.16051684
0.98977418 0.65222745 0.30596079
1.00000000 0.73725560 0.51992525
1.00000000 0.80977343 0.68137492
1.00000000 0.86729525 0.78723172
1.00000000 0.91370953 0.86492517
1.00000000 0.95256614 0.92549184
1.00000000 0.98634541 0.97410279
1.00000000 1.00000000 1.00000000
1.00000000 1.00000000 1.00000000
1.00000000 1.00000000 1.00000000
0.22386453 0.55362028 0.00520014
0.22386453 0.55362028 0.00520014
0.22386453 0.55362028 0.00520014
0.22398915 0.55365339 0.00523811
0.22853019 0.55478005 0.00703546
0.23450342 0.55627046 0.00806720
0.24236182 0.55823063 0.00867398
0.25264577 0.56078835 0.00848444
0.26599819 0.56409117 0.00575254
0.28319579 0.56814614 0.00397615
0.30516661 0.57307245 0.00309986
0.33311226 0.57917959 0.00000000
0.36828875 0.58615378 0.00000000
0.41227165 0.59410420 0.00000000
0.46680990 0.60270978 0.00000000
0.53202004 0.61171840 0.00000000
0.59719965 0.62065960 0.00000000
0.66046958 0.62868684 0.00000000
0.72254721 0.63570371 0.00974311
0.78351567 0.64133630 0.02729201
0.84304789 0.64550460 0.05164541
0.90017612 0.64976590 0.09300320
0.95200515 0.66129918 0.16698330
0.98903384 0.70161120 0.31616533
1.00000000 0.76985938 0.54075659
1.00000000 0.83239925 0.70034291
1.00000000 0.88397880 0.80461287
1.00000000 0.92648848 0.88020047
1.00000000 0.96250103 0.93825905
1.00000000 0.99413650 0.98410211
1.00000000 1.00000000 1.00000000
1.00000000 1.00000000 1.00000000
1.00000000 1.00000000 1.00000000
0.26180183 0.62116902 0.00737291
0.26180183 0.62116902 0.00737291
0.26180183 0.62116902 0.00737291
0.26190953 0.62119138 0.00740272
0.26582881 0.62196385 0.00891353
0.27100257 0.62299097 0.00995091
0.27784439 0.62435093 0.01079745
0.28686199 0.62614130 0.01138612
0.29866849 0.62848032 0.01116623
0.31398756 0.63150535 0.00811667
0.33370891 0.63518746 0.00821301
0.35894328 0.63974780 0.00720828
0.39104309 0.64539528 0.00000000
0.43146718 0.65184677 0.00000000
0.48206347 0.65924721 0.00000000
0.54162625 0.66730430 0.00000000
0.60178649 0.67578232 0.00000000
0.66195394 0.68425341 0.00000000
0.72165863 0.69187512 0.00219472
0.78113470 0.69867933 0.02964594
0.83996654 0.70455927 0.05515175
0.89703803 0.71033871 0.09774830
0.94944287 0.72055574 0.17522443
0.98824491 0.75020856 0.32929195
1.00000000 0.80484224 0.56668210
1.00000000 0.85792422 0.72383163
1.00000000 0.90338124 0.82615421
1.00000000 0.94170117 0.89921462
1.00000000 0.97458613 0.95404438
1.00000000 1.00000000 1.00000000
1.00000000 1.00000000 1.00000000
1.00000000 1.00000000 1.00000000
1.00000000 1.00000000 1.00000000
0.30601802 0.68422078 0.01337617
0.30601802 0.68422078 0.01337617
0.30601802 0.68422078 0.01337617
0.30611087 0.68423626 0.01339471
0.30948631 0.68477657 0.01435744
0.31395482 0.68549776 0.01513465
0.31988816 0.68645727 0.01589689
0.32774870 0.68772840 0.01664261
0.33811184 0.68940291 0.01719043
0.35167493 0.69159253 0.01694112
0.36926311 0.69442795 0.01413102
0.39190552 0.69785776 0.01518822
0.42092901 0.70218242 0.01441765
0.45783942 0.70752108 0.00000000
0.50430413 0.71362531 0.00000000
0.55653850 0.72066259 0.00000000
0.61062622 0.72836351 0.00000000
0.66629093 0.73650815 0.00000000
0.72315643 0.74470963 0.01273273
0.78035110 0.75213712 0.03323789
0.83775501 0.75904385 0.06190771
0.89425205 0.76590216 0.10627614
0.94696037 0.77549638 0.18650006
0.98744528 0.79799556 0.34682883
1.00000000 0.84159823 0.59830037
1.00000000 0.88594457 0.75298848
1.00000000 0.92525202 0.85253327
1.00000000 0.95921116 0.92223876
1.00000000 0.98884418 0.97287932
1.00000000 1.00000000 1.00000000
1.00000000 1.00000000 1.00000000
1.00000000 1.00000000 1.00000000
1.00000000 1.00000000 1.00000000
0.35795838 0.74423271 0.02510821
0.35795838 0.74423271 0.02510821
0.35795838 0.74423271 0.02510821
0.35803821 0.74424359 0.02511972
0.36093841 0.74462579 0.02570910
0.36478628 0.74513755 0.02624343
0.36991025 0.74582083 0.02682346
0.37672398 0.74673017 0.02747125
0.38575149 0.74793532 0.02813316
0.39764947 0.74952380 0.02862809
0.41322262 0.75160268 0.02848613
0.43341561 0.75429830 0.02637800
0.45944424 0.75757288 0.02801076
0.49279821 0.76171226 0.02773412
0.53320073 0.76683255 0.02215981
0.57723583 0.77269902 0.02312474
0.62456094 0.77949299 0.02028463
0.67475957 0.78696720 0.02244205
0.72740492 0.79492316 0.03050801
0.78194247 0.80303205 0.04708765
0.83713226 0.81050302 0.07433162
0.89231707 0.81801996 0.12166990
0.94479954 0.82730182 0.20522410
0.98671986 0.84494706 0.37199904
1.00000000 0.87950446 0.63740654
1.00000000 0.91578272 0.78877613
1.00000000 0.94908030 0.88450048
1.00000000 0.97866137 0.94924545
1.00000000 1.00000000 1.00000000
1.00000000 1.00000000 1.00000000
1.00000000 1.00000000 1.00000000
1.00000000 1.00000000 1.00000000
1.00000000 1.00000000 1.00000000
0.42024466 0.80205319 0.04683570
0.42024466 0.80205319 0.04683570
0.42024466 0.80205319 0.04683570
0.42031297 0.80206090 0.04684367
0.42279382 0.80233274 0.04723376
0.42609123 0.80269772 0.04762611
0.43049232 0.80318637 0.04808656
0.43636244 0.80383888 0.04864683
0.44417077 0.80470750 0.04931135
0.45451523 0.80585916 0.05003889
0.46814832 0.80737806 0.05070229
0.48598275 0.80936798 0.05090996
0.50895912 0.81195225 0.04974038
0.53650290 0.81511925 0.05196221
0.56832017 0.81912011 0.05268071
0.60442225 0.82407567 0.05060179
0.64456482 0.82978472 0.05330226
0.68855635 0.83642240 0.05523151
0.73599239 0.84377321 0.06194785
0.78639570 0.85167736 0.07623132
0.83903610 0.85991599 0.10360761
0.89200637 0.86778185 0.15181091
0.94337415 0.87680973 0.23991751
0.98603499 0.89108674 0.41498865
1.00000000 0.91787823 0.68765733
1.00000000 0.94650064 0.83288131
1.00000000 0.97393733 0.92204912
1.00000000 1.00000000 1.00000000
1.00000000 1.00000000 1.00000000
1.00000000 1.00000000 1.00000000
1.00000000 1.00000000 1.00000000
1.00000000 1.00000000 1.00000000
1.00000000 1.00000000 1.00000000
0.49864904 0.85805554 0.08730295
0.49864904 0.85805554 0.08730295
0.49864904 0.85805554 0.08730295
0.49870702 0.85806101 0.08730999
0.50081252 0.85825420 0.08762756
0.50359209 0.85851434 0.08797744
0.50726538 0.85886342 0.08841227
0.51210203 0.85933075 0.08896894
0.51842885 0.85995493 0.08967853
0.52663232 0.86078609 0.09056435
0.53715228 0.86188857 0.09163294
0.55045138 0.86334384 0.09280774
0.56697922 0.86525287 0.09385053
0.58715560 0.86776244 0.09430467
0.61133167 0.87083015 0.09756763
0.63976199 0.87472263 0.10022665
0.67259356 0.87955480 0.10197654
0.70969979 0.88515714 0.10830957
0.75097979 0.89170541 0.11664800
0.79606899 0.89902394 0.13288867
0.84437871 0.90703335 0.16318614
0.89474023 0.91575372 0.21811314
0.94357526 0.92447858 0.31239102
0.98559905 0.93616721 0.49843164
1.00000000 0.95555648 0.75490492
1.00000000 0.97668823 0.88671462
1.00000000 0.99672335 0.96144186
