Luts Download/Canon Luts/3dlut/33grid-3dlut/full-to-full-range/CinemaGamut_CanonLog2-to-BT2020_HLGKnee-Vivid_33_FF_Ver.2.0.cube
# Gamut : Cinema Gamut to BT.2020
# Gamma : Canon Log 2 to HLGKnee-Vivid
# Range : Full in / Full out
# Version : 2.0 2019/10/24
# Copyright(c) 2019 Canon Inc. All Rights Reserved.
LUT_3D_SIZE 9
# LUT_3D_INPUT_RANGE 0.0 1.0
0.00000004 0.00000000 0.00000002
0.05239606 0.01878422 0.02111504
0.18893138 0.01754905 0.04132178
0.38227624 0.00000000 0.07190118
0.65899323 0.00000000 0.11592086
0.88913772 0.03319320 0.17857462
0.99466153 0.36569256 0.30440020
1.00000000 0.78160080 0.69533242
1.00000000 0.94038211 0.90810739
0.02921742 0.04609959 0.02499577
0.05277852 0.05493959 0.02561881
0.18576855 0.05795237 0.01171484
0.38307693 0.03710540 0.04930063
0.66008698 0.00000000 0.10144190
0.88973057 0.00974030 0.17061825
0.99482228 0.36609587 0.30229875
1.00000000 0.78177584 0.69529703
1.00000000 0.94045689 0.90819223
0.06446155 0.15450559 0.02616388
0.07622596 0.15705664 0.01783882
0.16621146 0.17497520 0.01660785
0.35177090 0.18818862 0.00000000
0.65269901 0.16300443 0.02241232
0.89314277 0.06209351 0.10821987
0.99603431 0.37824904 0.28902786
1.00000000 0.78409699 0.69611929
1.00000000 0.94136274 0.90929228
0.11984743 0.30991146 0.01229563
0.12791211 0.31049813 0.01046825
0.18744103 0.32173813 0.00000000
0.33157822 0.34947061 0.01615539
0.61692705 0.37714137 0.01850712
0.88219295 0.34556563 0.00978623
0.99704891 0.45676218 0.27306841
1.00000000 0.79454213 0.70350018
1.00000000 0.94518897 0.91433607
0.22737769 0.56854242 0.00536651
0.23197850 0.56863205 0.00817775
0.26879243 0.57226649 0.01072155
0.36871859 0.58830777 0.00000000
0.59917821 0.62249779 0.01017445
0.85352562 0.65445205 0.04056454
0.99539800 0.66006993 0.30058410
1.00000000 0.83646047 0.74578366
1.00000000 0.95974275 0.93469684
0.42508613 0.81457429 0.01619988
0.42753067 0.81455062 0.01752803
0.44822469 0.81497133 0.02242769
0.51126396 0.81812657 0.02367032
0.64345678 0.83145730 0.00000000
0.84057296 0.86125152 0.05466637
0.99632058 0.86670043 0.44463876
1.00000000 0.92971815 0.86564550
1.00000000 1.00000000 1.00000000
0.65102888 0.95962855 0.17194680
0.65160948 0.95962347 0.17210092
0.65675412 0.95980345 0.17343970
0.67354374 0.96105461 0.17866044
0.72305122 0.96718078 0.19959123
0.84335421 0.98643454 0.36156375
0.98662157 1.00000000 0.83704878
1.00000000 1.00000000 1.00000000
1.00000000 1.00000000 1.00000000
0.96008892 1.00000000 0.90702421
0.96012465 1.00000000 0.90707967
0.96054987 1.00000000 0.90777724
0.96237807 1.00000000 0.91100065
0.96988246 1.00000000 0.92514401
1.00000000 1.00000000 1.00000000
1.00000000 1.00000000 1.00000000
1.00000000 1.00000000 1.00000000
1.00000000 1.00000000 1.00000000
1.00000000 1.00000000 1.00000000
1.00000000 1.00000000 1.00000000
1.00000000 1.00000000 1.00000000
1.00000000 1.00000000 1.00000000
1.00000000 1.00000000 1.00000000
1.00000000 1.00000000 1.00000000
1.00000000 1.00000000 1.00000000
1.00000000 1.00000000 1.00000000
1.00000000 1.00000000 1.00000000
0.01637489 0.00649666 0.04894191
0.05002852 0.00000000 0.05400126
0.18679228 0.00000000 0.07586121
0.38264711 0.00000000 0.09682618
0.65891265 0.00303552 0.12942401
0.88873410 0.04657916 0.18626641
0.99450752 0.36597896 0.30683783
1.00000000 0.78150221 0.69547797
1.00000000 0.94034008 0.90806826
0.02267232 0.05343359 0.05253140
0.05426708 0.05426708 0.05426708
0.19052832 0.04270450 0.05710803
0.38551947 0.00820480 0.07644013
0.66005783 0.00000000 0.11536130
0.88934409 0.03329813 0.17842996
0.99467285 0.36634914 0.30472389
1.00000000 0.78167537 0.69543892
1.00000000 0.94039442 0.90812959
0.04415542 0.16835411 0.00774079
0.06987092 0.16898014 0.02299315
0.17025303 0.17929775 0.01442913
0.35837357 0.18354891 0.00000000
0.65535976 0.15322383 0.03365493
0.89301450 0.06284705 0.11711608
0.99587899 0.37855174 0.29151255
1.00000000 0.78400161 0.69626575
1.00000000 0.94129988 0.90922675
0.11500024 0.31492577 0.01591039
0.12352868 0.31544197 0.01307609
0.18614743 0.32584814 0.00000000
0.33313239 0.35114797 0.01569665
0.61895035 0.37537054 0.01983855
0.88296949 0.34106894 0.02083891
0.99698661 0.45623709 0.27497859
1.00000000 0.79439925 0.70355926
1.00000000 0.94512599 0.91426341
0.22439947 0.57028083 0.00372903
0.22910766 0.57036170 0.00709095
0.26669554 0.57389181 0.01037213
0.36800651 0.58958674 0.00000000
0.59964154 0.62296173 0.01003066
0.85403008 0.65391102 0.04095106
0.99544996 0.65975604 0.30183010
1.00000000 0.83634407 0.74580488
1.00000000 0.95968775 0.93462758
0.42331545 0.81495538 0.01521516
0.42578070 0.81493106 0.01663368
0.44663587 0.81534492 0.02185777
0.51013545 0.81847454 0.02365285
0.64317209 0.83172621 0.00000000
0.84066646 0.86134658 0.05479654
0.99636123 0.86668797 0.44558077
1.00000000 0.92968472 0.86567825
1.00000000 1.00000000 1.00000000
0.65069843 0.95975083 0.17213254
0.65128087 0.95974567 0.17228665
0.65644261 0.95992465 0.17363434
0.67327939 0.96117230 0.17887389
0.72290866 0.96728195 0.19989340
0.84338509 0.98648743 0.36235897
0.98664738 1.00000000 0.83742674
1.00000000 1.00000000 1.00000000
1.00000000 1.00000000 1.00000000
0.96015125 1.00000000 0.90719026
0.96018694 1.00000000 0.90724565
0.96061149 1.00000000 0.90794150
0.96243799 1.00000000 0.91116075
0.96993065 1.00000000 0.92527947
1.00000000 1.00000000 1.00000000
1.00000000 1.00000000 1.00000000
1.00000000 1.00000000 1.00000000
1.00000000 1.00000000 1.00000000
1.00000000 1.00000000 1.00000000
1.00000000 1.00000000 1.00000000
1.00000000 1.00000000 1.00000000
1.00000000 1.00000000 1.00000000
1.00000000 1.00000000 1.00000000
1.00000000 1.00000000 1.00000000
1.00000000 1.00000000 1.00000000
1.00000000 1.00000000 1.00000000
1.00000000 1.00000000 1.00000000
0.05408525 0.01675487 0.16920584
0.06477180 0.00000000 0.15957111
0.16531305 0.00000000 0.17537429
0.36264289 0.00581916 0.21614662
0.65269212 0.00000000 0.24943059
0.88726259 0.01037049 0.27612199
0.99356099 0.36167827 0.32420204
1.00000000 0.78005816 0.69594064
1.00000000 0.93978473 0.90748744
0.03501637 0.03412367 0.17445157
0.05212051 0.01021530 0.17019306
0.16772695 0.00000000 0.17929477
0.36801688 0.00000000 0.21041167
0.65370101 0.01711480 0.24130072
0.88777254 0.00000000 0.26935263
0.99369736 0.36228819 0.32222812
1.00000000 0.78024339 0.69591834
1.00000000 0.93983811 0.90754731
0.04266763 0.17184224 0.16829801
0.04717718 0.17306456 0.16970530
0.16895397 0.16895397 0.16895397
0.38210281 0.13873369 0.15880056
0.66206749 0.10018236 0.17623345
0.89256135 0.00000000 0.21166337
0.99491119 0.37477601 0.30921696
1.00000000 0.78258507 0.69671942
1.00000000 0.94055640 0.90840907
0.00000000 0.38493518 0.10343648
0.00000000 0.38540770 0.09445991
0.13755250 0.38809165 0.03330568
0.35444731 0.37187341 0.00000000
0.64542885 0.34688295 0.02086978
0.89014877 0.29287279 0.05380083
0.99654900 0.44818347 0.28896287
1.00000000 0.79300263 0.70380069
1.00000000 0.94438687 0.91338625
0.19463758 0.59225370 0.02922365
0.20029395 0.59226373 0.02696973
0.24611190 0.59461191 0.01405688
0.36317124 0.60590452 0.00000000
0.60604217 0.62927450 0.00000000
0.85891906 0.64897619 0.04142805
0.99602594 0.65631786 0.31126443
1.00000000 0.83501560 0.74549659
1.00000000 0.95904320 0.93380471
0.40841835 0.81966558 0.01213537
0.41106647 0.81963461 0.01373228
0.43336060 0.81997295 0.01927901
0.50090719 0.82280338 0.02356654
0.64156022 0.83512884 0.00000000
0.84198057 0.86266715 0.05576025
0.99684546 0.86673548 0.45409826
1.00000000 0.92936668 0.86589983
1.00000000 1.00000000 1.00000000
0.64838037 0.96126306 0.17449031
0.64897832 0.96125704 0.17464545
0.65426060 0.96142712 0.17597926
0.67148484 0.96263516 0.18133553
0.72218785 0.96855297 0.20367112
0.84405657 0.98721081 0.37058499
0.98701389 1.00000000 0.84159347
1.00000000 1.00000000 1.00000000
1.00000000 1.00000000 1.00000000
0.96091601 1.00000000 0.90903286
0.96095127 1.00000000 0.90908747
0.96137108 1.00000000 0.90977367
0.96318053 1.00000000 0.91295643
0.97056402 1.00000000 0.92686443
1.00000000 1.00000000 1.00000000
1.00000000 1.00000000 1.00000000
1.00000000 1.00000000 1.00000000
1.00000000 1.00000000 1.00000000
1.00000000 1.00000000 1.00000000
1.00000000 1.00000000 1.00000000
1.00000000 1.00000000 1.00000000
1.00000000 1.00000000 1.00000000
1.00000000 1.00000000 1.00000000
1.00000000 1.00000000 1.00000000
1.00000000 1.00000000 1.00000000
1.00000000 1.00000000 1.00000000
1.00000000 1.00000000 1.00000000
0.10318615 0.01576787 0.34519492
0.11044550 0.02032287 0.33432654
0.15913818 0.00000000 0.28984018
0.34210614 0.00000000 0.35331136
0.63534818 0.03313946 0.42580841
0.87851388 0.05818285 0.47616677
0.99275443 0.33744116 0.45285734
1.00000000 0.77342390 0.69691156
1.00000000 0.93724601 0.90464549
0.09346251 0.01630558 0.35323843
0.10191542 0.01680402 0.34332283
0.15408608 0.00000000 0.29320183
0.34253436 0.00000000 0.35386037
0.63651830 0.02678616 0.42342772
0.87904959 0.05302973 0.47140415
0.99280713 0.33875140 0.45101841
1.00000000 0.77361313 0.69678488
1.00000000 0.93730254 0.90471134
0.00000000 0.13381534 0.32338812
0.00000000 0.12696448 0.33245433
0.12881463 0.05771059 0.36734490
0.34562027 0.06338499 0.37243635
0.64464993 0.06450422 0.39852596
0.88289161 0.08293622 0.43865107
0.99344044 0.35578535 0.43801495
1.00000000 0.77591889 0.69655580
1.00000000 0.93804224 0.90559757
0.07704761 0.34325704 0.33573519
0.07653346 0.34382891 0.33644813
0.12177942 0.34749861 0.34148642
0.33601674 0.33601674 0.33601674
0.65578267 0.28589479 0.31912896
0.89487952 0.20487680 0.33655370
0.99537110 0.42747234 0.40572360
1.00000000 0.78656651 0.70237205
1.00000000 0.94130987 0.90976890
0.00000000 0.67131460 0.22413242
0.00000000 0.67115600 0.22029226
0.00000000 0.66992398 0.19117745
0.26886447 0.66400796 0.13835084
0.62654385 0.64551841 0.11937891
0.88671744 0.60603098 0.09326901
0.99794179 0.63962195 0.35224601
1.00000000 0.82933196 0.74269488
1.00000000 0.95632346 0.93029222
0.34714473 0.83926132 0.05706437
0.35048969 0.83921443 0.05615213
0.37846240 0.83937144 0.04726034
0.46216999 0.84115446 0.02589977
0.63620176 0.84957320 0.00000000
0.84777498 0.86845378 0.05493892
0.99857077 0.86739798 0.48527029
1.00000000 0.92816304 0.86635776
1.00000000 1.00000000 1.00000000
0.64298829 0.96753393 0.18866610
0.64363444 0.96752471 0.18881712
0.64933010 0.96765556 0.19019802
0.66787397 0.96869164 0.19622549
0.72318697 0.97366611 0.22939668
0.84780245 0.99028123 0.40455763
0.98865914 1.00000000 0.85846306
1.00000000 1.00000000 1.00000000
1.00000000 1.00000000 1.00000000
0.96434393 1.00000000 0.91697201
0.96437785 1.00000000 0.91702512
0.96478328 1.00000000 0.91769156
0.96653486 1.00000000 0.92078009
0.97355654 1.00000000 0.93403604
1.00000000 1.00000000 1.00000000
1.00000000 1.00000000 1.00000000
1.00000000 1.00000000 1.00000000
1.00000000 1.00000000 1.00000000
1.00000000 1.00000000 1.00000000
1.00000000 1.00000000 1.00000000
1.00000000 1.00000000 1.00000000
1.00000000 1.00000000 1.00000000
1.00000000 1.00000000 1.00000000
1.00000000 1.00000000 1.00000000
1.00000000 1.00000000 1.00000000
1.00000000 1.00000000 1.00000000
1.00000000 1.00000000 1.00000000
0.17793856 0.01371352 0.61488856
0.18240636 0.02464701 0.60997318
0.21514227 0.03819755 0.56872855
0.32016491 0.00000000 0.52190691
0.61793011 0.00000000 0.62205392
0.86153036 0.07048319 0.69002474
0.98920891 0.28964593 0.65128298
1.00000000 0.77248310 0.75138006
1.00000000 0.93498866 0.90549913
0.17269335 0.00000000 0.61907143
0.17735343 0.01477312 0.61427350
0.21126214 0.03439722 0.57301830
0.31791290 0.00000000 0.52294135
0.61797835 0.00000000 0.62210059
0.86176912 0.06958457 0.68939868
0.98927427 0.29034737 0.65032986
1.00000000 0.77268339 0.75132282
1.00000000 0.93503550 0.90553531
0.11876798 0.06467772 0.63770474
0.12541389 0.05965341 0.63607211
0.17245811 0.02470515 0.60850551
0.29047518 0.00000000 0.53356605
0.61940372 0.00000000 0.62448264
0.86510458 0.03117043 0.68420367
0.99025430 0.29749450 0.64280858
1.00000000 0.77522783 0.75165982
1.00000000 0.93566587 0.90614740
0.00000000 0.27952601 0.55767340
0.00000000 0.27707664 0.56160556
0.00000000 0.23702464 0.60596068
0.27059817 0.16003090 0.64845673
0.61712002 0.15114222 0.65027557
0.87619968 0.14270664 0.66492409
0.99213937 0.37944989 0.63201156
1.00000000 0.78592048 0.75553386
1.00000000 0.93845454 0.90924549
0.12805816 0.61326245 0.60329540
0.12781961 0.61343579 0.60354300
0.14098724 0.61511643 0.60588046
0.21864846 0.62115599 0.61391801
0.60391133 0.60391133 0.60391133
0.89065351 0.53418516 0.58243941
0.99416690 0.61394233 0.62138096
1.00000000 0.82466785 0.77799802
1.00000000 0.94949901 0.92342552
0.00000000 0.90119179 0.42353584
0.00000000 0.90118123 0.42180480
0.00000000 0.90119464 0.40780836
0.00000000 0.90143922 0.36330370
0.49731504 0.89784125 0.28475087
0.86482563 0.88126051 0.26760622
1.00000000 0.86120033 0.62236093
1.00000000 0.92117495 0.86640720
1.00000000 0.99531092 0.98631425
0.66669686 0.98816157 0.34437418
0.66729328 0.98814901 0.34433117
0.67282631 0.98819276 0.34471481
0.69152378 0.98876669 0.34911896
0.74900177 0.99121302 0.38727307
0.87619047 0.99763628 0.61213462
0.99547375 1.00000000 0.91200060
1.00000000 1.00000000 1.00000000
1.00000000 1.00000000 1.00000000
0.97807433 1.00000000 0.94718321
0.97810143 1.00000000 0.94722619
0.97843423 1.00000000 0.94777457
0.97989421 1.00000000 0.95032721
0.98566598 1.00000000 0.96082782
1.00000000 1.00000000 1.00000000
1.00000000 1.00000000 1.00000000
1.00000000 1.00000000 1.00000000
1.00000000 1.00000000 1.00000000
1.00000000 1.00000000 1.00000000
1.00000000 1.00000000 1.00000000
1.00000000 1.00000000 1.00000000
1.00000000 1.00000000 1.00000000
1.00000000 1.00000000 1.00000000
1.00000000 1.00000000 1.00000000
1.00000000 1.00000000 1.00000000
1.00000000 1.00000000 1.00000000
1.00000000 1.00000000 1.00000000
0.29604461 0.01713503 0.84481782
0.29863055 0.02690501 0.84344542
0.31929860 0.05354108 0.83149414
0.37812855 0.07504247 0.79026388
0.56877499 0.00000000 0.75108696
0.83960385 0.00000000 0.83778452
0.97612302 0.22567363 0.81766972
1.00000000 0.75514527 0.81826703
1.00000000 0.94023443 0.92885287
0.29329123 0.00000000 0.84614543
0.29590789 0.01716223 0.84478281
0.31676250 0.05006926 0.83282067
0.37611844 0.07371230 0.79151207
0.56796229 0.00000000 0.75133752
0.83960940 0.00000000 0.83778751
0.97617413 0.22590235 0.81750962
1.00000000 0.75523516 0.81816306
1.00000000 0.94024827 0.92884766
0.26829295 0.00000000 0.85630858
0.27121385 0.00000000 0.85502832
0.29442691 0.02559577 0.84383857
0.35863472 0.06470975 0.80269117
0.55864694 0.00000000 0.75254838
0.83972181 0.00000000 0.83792934
0.97683987 0.22781750 0.81631609
1.00000000 0.75623924 0.81741483
1.00000000 0.94075289 0.92922552
0.16334105 0.15648773 0.87025319
0.16755076 0.15325807 0.87019350
0.20211727 0.12453504 0.86718878
0.29105892 0.05057609 0.84154223
0.51164837 0.00000000 0.76622961
0.84155714 0.00000000 0.84346476
0.98076485 0.22073248 0.81281458
1.00000000 0.76046311 0.81573416
1.00000000 0.94424914 0.93257142
0.00000000 0.51999408 0.78833219
0.00000000 0.51902888 0.78937927
0.00000000 0.50876989 0.79779447
0.00000000 0.41996663 0.84900639
0.50797824 0.31413333 0.88435291
0.85400987 0.28931114 0.88378912
0.99137452 0.47146183 0.81394190
1.00000000 0.80650216 0.83479045
1.00000000 0.95874398 0.94789683
0.21885819 0.85239553 0.84360338
0.21866827 0.85244232 0.84367106
0.22441962 0.85290121 0.84431422
0.25472394 0.85483281 0.84684434
0.41788961 0.86050584 0.85429524
0.84569243 0.84569243 0.84569243
0.99218570 0.84398924 0.84780537
1.00000000 0.92539423 0.91627158
1.00000000 1.00000000 1.00000000
0.81338916 1.00000000 0.81402157
0.81354397 1.00000000 0.81396918
0.81528568 1.00000000 0.81384976
0.82213828 1.00000000 0.81452817
0.84717647 1.00000000 0.82124368
0.91979746 1.00000000 0.86379626
1.00000000 1.00000000 1.00000000
1.00000000 1.00000000 1.00000000
1.00000000 1.00000000 1.00000000
1.00000000 1.00000000 1.00000000
1.00000000 1.00000000 1.00000000
1.00000000 1.00000000 1.00000000
1.00000000 1.00000000 1.00000000
1.00000000 1.00000000 1.00000000
1.00000000 1.00000000 1.00000000
1.00000000 1.00000000 1.00000000
1.00000000 1.00000000 1.00000000
1.00000000 1.00000000 1.00000000
1.00000000 1.00000000 1.00000000
1.00000000 1.00000000 1.00000000
1.00000000 1.00000000 1.00000000
1.00000000 1.00000000 1.00000000
1.00000000 1.00000000 1.00000000
1.00000000 1.00000000 1.00000000
1.00000000 1.00000000 1.00000000
1.00000000 1.00000000 1.00000000
1.00000000 1.00000000 1.00000000
0.37914391 0.09780697 0.95849462
0.38030135 0.09892339 0.95804678
0.38972138 0.10327298 0.95419136
0.41766667 0.11334817 0.94000149
0.49283865 0.08494950 0.89299527
0.77366289 0.00000000 0.92571511
0.95139995 0.17548709 0.94400488
1.00000000 0.72019319 0.89364122
1.00000000 0.92613805 0.94199093
0.37799186 0.09675632 0.95896665
0.37915454 0.09785298 0.95852267
0.38861000 0.10240322 0.95465477
0.41663103 0.11274967 0.94044942
0.49201455 0.08489808 0.89337584
0.77349630 0.00000000 0.92579697
0.95140454 0.17559290 0.94400712
1.00000000 0.72024607 0.89361081
1.00000000 0.92615072 0.94198313
0.36834898 0.09390600 0.96301650
0.36955280 0.09511416 0.96256903
0.37937868 0.09925470 0.95879215
0.40809907 0.11019247 0.94457574
0.48550007 0.08855780 0.89685707
0.77180156 0.00000000 0.92635475
0.95149422 0.17635542 0.94407989
1.00000000 0.72082243 0.89340134
1.00000000 0.92632032 0.94196574
0.33489603 0.11904755 0.97502284
0.33625448 0.11905576 0.97466505
0.34739160 0.11662504 0.97141935
0.38060648 0.11292137 0.95921404
0.46575688 0.09547451 0.91124291
0.76542317 0.00000000 0.92866997
0.95207042 0.17553941 0.94465703
1.00000000 0.72328652 0.89283566
1.00000000 0.92712785 0.94208155
0.20408424 0.38307307 0.97472422
0.20557006 0.38107786 0.97517269
0.21848271 0.36427094 0.97787450
0.26427668 0.31352421 0.98011017
0.38760400 0.17078582 0.95997073
0.74613903 0.00000000 0.95861492
0.95847452 0.13569927 0.95495785
1.00000000 0.73955733 0.89227485
1.00000000 0.93420718 0.94590392
0.00000000 0.75998181 0.96986281
0.00000000 0.75995933 0.97004952
0.00000000 0.76019825 0.97140849
0.00000000 0.76219497 0.97607442
0.43602489 0.75934453 0.98821115
0.79165570 0.76922512 0.99114216
0.97512889 0.77521366 0.97905291
1.00000000 0.89248627 0.93883635
1.00000000 0.99283888 0.99443325
0.72423217 0.98408732 0.97625679
0.72447624 0.98408306 0.97625902
0.72742057 0.98407414 0.97631266
0.73938930 0.98412271 0.97658623
0.78109732 0.98459644 0.97785137
0.88711780 0.98794870 0.98384105
1.00000000 1.00000000 1.00000000
1.00000000 1.00000000 1.00000000
1.00000000 1.00000000 1.00000000
1.00000000 1.00000000 1.00000000
1.00000000 1.00000000 1.00000000
1.00000000 1.00000000 1.00000000
1.00000000 1.00000000 1.00000000
1.00000000 1.00000000 1.00000000
1.00000000 1.00000000 1.00000000
1.00000000 1.00000000 1.00000000
1.00000000 1.00000000 1.00000000
1.00000000 1.00000000 1.00000000
1.00000000 1.00000000 1.00000000
1.00000000 1.00000000 1.00000000
1.00000000 1.00000000 1.00000000
1.00000000 1.00000000 1.00000000
1.00000000 1.00000000 1.00000000
1.00000000 1.00000000 1.00000000
1.00000000 1.00000000 1.00000000
1.00000000 1.00000000 1.00000000
1.00000000 1.00000000 1.00000000
0.52213974 0.52182088 0.99970949
0.52252380 0.52158811 0.99968331
0.52552939 0.51894192 0.99947725
0.53427451 0.50823805 0.99863228
0.55866187 0.46675746 0.99375233
0.61322761 0.17968950 0.98441453
0.87600235 0.34599743 1.00000000
0.99529141 0.68604257 0.97473187
1.00000000 0.90472510 0.96324069
0.52177180 0.52211394 0.99972324
0.52215652 0.52188095 0.99969742
0.52516772 0.51924106 0.99949030
0.53392863 0.50855611 0.99864528
0.55834715 0.46707205 0.99377976
0.61299764 0.18044877 0.98444895
0.87594537 0.34611122 1.00000000
0.99528736 0.68606425 0.97472707
1.00000000 0.90473318 0.96323783
0.51894173 0.52532666 0.99986662
0.51933208 0.52509830 0.99984054
0.52238549 0.52248598 0.99964606
0.53127486 0.51197342 0.99881919
0.55592296 0.47053879 0.99406711
0.61133976 0.18961392 0.98473522
0.87543713 0.34656487 1.00000000
0.99526668 0.68626922 0.97470004
1.00000000 0.90483746 0.96323424
0.51069806 0.53848812 0.99986463
0.51110151 0.53825288 0.99985407
0.51426382 0.53567137 0.99976745
0.52350593 0.52550601 0.99922290
0.54873494 0.48437861 0.99508495
0.60657868 0.23121776 0.98443151
0.87366820 0.34664501 1.00000000
0.99520069 0.68711516 0.97460950
1.00000000 0.90531792 0.96326653
0.49312272 0.59081024 0.99864617
0.49346455 0.59056693 0.99864585
0.49613167 0.58798222 0.99862087
0.50404459 0.57763026 0.99838763
0.52876050 0.53973960 0.99626259
0.58849115 0.32567202 0.98405505
0.86726164 0.33965367 1.00000000
0.99458650 0.69149747 0.97386855
1.00000000 0.90773975 0.96325779
0.50875524 0.72644308 0.99532858
0.50897953 0.72633457 0.99533360
0.51049152 0.72518003 0.99535666
0.51408941 0.72058723 0.99539771
0.52408282 0.70048658 0.99470431
0.56457050 0.60956537 0.97655638
0.87879936 0.69386380 0.99298556
0.99343099 0.81660183 0.97406553
1.00000000 0.95572991 0.98300516
0.74979824 0.90779686 0.99492390
0.74993051 0.90780712 0.99491874
0.75147301 0.90804053 0.99491191
0.75778391 0.90924232 0.99494738
0.78160431 0.91451896 0.99503076
0.86122199 0.92967688 0.99650190
0.96136286 0.96230391 1.00000000
1.00000000 1.00000000 1.00000000
1.00000000 1.00000000 1.00000000
1.00000000 1.00000000 1.00000000
1.00000000 1.00000000 1.00000000
1.00000000 1.00000000 1.00000000
1.00000000 1.00000000 1.00000000
1.00000000 1.00000000 1.00000000
1.00000000 1.00000000 1.00000000
1.00000000 1.00000000 1.00000000
1.00000000 1.00000000 1.00000000
1.00000000 1.00000000 1.00000000
1.00000000 1.00000000 1.00000000
1.00000000 1.00000000 1.00000000
1.00000000 1.00000000 1.00000000
1.00000000 1.00000000 1.00000000
1.00000000 1.00000000 1.00000000
1.00000000 1.00000000 1.00000000
1.00000000 1.00000000 1.00000000
1.00000000 1.00000000 1.00000000
1.00000000 1.00000000 1.00000000
0.71367107 0.77432848 1.00000000
0.71371891 0.77429845 1.00000000
0.71404911 0.77395832 1.00000000
0.71484630 0.77255053 1.00000000
0.71642453 0.76672458 1.00000000
0.71814067 0.74119396 1.00000000
0.72962147 0.61614375 1.00000000
0.92362206 0.69019105 1.00000000
1.00000000 0.87488698 0.99457135
0.71364620 0.77438070 1.00000000
0.71367853 0.77433603 1.00000000
0.71400741 0.77399479 1.00000000
0.71480466 0.77258754 1.00000000
0.71638264 0.76676343 1.00000000
0.71809529 0.74124077 1.00000000
0.72957491 0.61625406 1.00000000
0.92360600 0.69018979 1.00000000
1.00000000 0.87488892 0.99457049
0.71355287 0.77494667 1.00000000
0.71358433 0.77490141 1.00000000
0.71376891 0.77442578 1.00000000
0.71456058 0.77301877 1.00000000
0.71613690 0.76721488 1.00000000
0.71781765 0.74176429 1.00000000
0.72935528 0.61748505 1.00000000
0.92345983 0.69012851 1.00000000
1.00000000 0.87491069 0.99456613
0.71368814 0.77719901 1.00000000
0.71371770 0.77715310 1.00000000
0.71388587 0.77667266 1.00000000
0.71418378 0.77483045 1.00000000
0.71572716 0.76908669 1.00000000
0.71728392 0.74390245 1.00000000
0.72918905 0.62248700 1.00000000
0.92294722 0.68978227 1.00000000
1.00000000 0.87500948 0.99454548
0.71582216 0.78575574 1.00000000
0.71584932 0.78571218 1.00000000
0.71599715 0.78525657 1.00000000
0.71620678 0.78348995 1.00000000
0.71601135 0.77657994 1.00000000
0.71694272 0.75232573 1.00000000
0.73057708 0.64179870 1.00000000
0.92099207 0.68835097 1.00000000
1.00000000 0.87554482 0.99428480
0.73279773 0.81699606 1.00000000
0.73281220 0.81696067 1.00000000
0.73284372 0.81658223 1.00000000
0.73265921 0.81507672 1.00000000
0.73108037 0.80899184 1.00000000
0.72391291 0.78382073 1.00000000
0.73166805 0.69536362 1.00000000
0.90945784 0.68948032 0.99377362
1.00000000 0.88099574 0.98813416
0.79324132 0.88567616 1.00000000
0.79323715 0.88565625 1.00000000
0.79312268 0.88543607 1.00000000
0.79247416 0.88455792 1.00000000
0.78939703 0.88101029 1.00000000
0.77606208 0.86448181 1.00000000
0.76674310 0.81551552 0.97154021
0.94780072 0.89933657 0.98550256
1.00000000 1.00000000 1.00000000
0.94606400 0.97794397 0.99779985
0.94605517 0.97793699 0.99779638
0.94594887 0.97784918 0.99774040
0.94549308 0.97747557 0.99748495
0.94728503 0.97824634 0.99786271
0.97149527 0.99268718 1.00000000
1.00000000 1.00000000 1.00000000
1.00000000 1.00000000 1.00000000
1.00000000 1.00000000 1.00000000
1.00000000 1.00000000 1.00000000
1.00000000 1.00000000 1.00000000
1.00000000 1.00000000 1.00000000
1.00000000 1.00000000 1.00000000
1.00000000 1.00000000 1.00000000
1.00000000 1.00000000 1.00000000
1.00000000 1.00000000 1.00000000
1.00000000 1.00000000 1.00000000
1.00000000 1.00000000 1.00000000
