Luts Download/Canon Luts/3dlut/33grid-3dlut/full-to-full-range/CinemaGamut_CanonLog3-to-BT2020_HLGKnee_33_FF_Ver.2.0.cube
# Gamut : Cinema Gamut to BT.2020
# Gamma : Canon Log 3 to HLGKnee
# Range : Full in / Full out
# Version : 2.0 2019/10/24
# Copyright(c) 2019 Canon Inc. All Rights Reserved.
LUT_3D_SIZE 5
# LUT_3D_INPUT_RANGE 0.0 1.0
0.00000000 0.00000004 0.00000002
0.23882734 0.03181022 0.05535469
0.64746564 0.00000000 0.10732529
0.94433773 0.00000000 0.19642908
1.00000000 0.67853554 0.56012229
0.09811708 0.21210036 0.05591481
0.23655342 0.24901650 0.01850128
0.64963891 0.25357768 0.02382443
0.95699782 0.11990593 0.10251850
1.00000000 0.70496219 0.58506952
0.23797268 0.58992285 0.01043756
0.31337115 0.60580111 0.00000000
0.63115173 0.65345734 0.00000000
0.95071925 0.66759685 0.06271830
1.00000000 0.81799803 0.70470908
0.53879188 0.90052500 0.02300363
0.56738578 0.90366842 0.02642065
0.69779460 0.92136706 0.02754221
0.93574118 0.95620052 0.15748180
1.00000000 0.97878185 0.93165103
0.89839928 1.00000000 0.77132728
0.90429995 1.00000000 0.78354624
0.93792548 1.00000000 0.85346501
1.00000000 1.00000000 1.00000000
1.00000000 1.00000000 1.00000000
0.05823521 0.01666268 0.18954408
0.21428440 0.00000000 0.22817851
0.63340141 0.00000000 0.29567404
0.94001367 0.00000000 0.32796959
1.00000000 0.66815572 0.55904960
0.04928541 0.24020412 0.23524866
0.24181371 0.24181371 0.24181371
0.66346678 0.19034505 0.23534648
0.95050149 0.15608638 0.27193830
1.00000000 0.69275259 0.57939087
0.16654620 0.65041494 0.06245861
0.27978505 0.65879934 0.00000000
0.65042051 0.67240328 0.00000000
0.95949758 0.65331136 0.07574717
1.00000000 0.81433452 0.70458137
0.52372552 0.91176835 0.01769556
0.55687546 0.91447804 0.03164078
0.69771881 0.92998564 0.03765967
0.93931022 0.95980450 0.17664620
1.00000000 0.97989899 0.93614850
0.90901363 1.00000000 0.79770020
0.91429746 1.00000000 0.80840839
0.94536880 1.00000000 0.87195515
1.00000000 1.00000000 1.00000000
1.00000000 1.00000000 1.00000000
0.15009817 0.01439658 0.55032615
0.20761297 0.00000000 0.48321886
0.59570967 0.00000000 0.60404401
0.92240299 0.04796374 0.68268734
1.00000000 0.64868666 0.67997613
0.05054760 0.14093819 0.60474511
0.16001836 0.00000000 0.59401388
0.61199408 0.00000000 0.62842098
0.93214497 0.09358901 0.67521273
1.00000000 0.67299008 0.68867652
0.13151760 0.63746298 0.62784096
0.18738633 0.64401048 0.63558046
0.63952564 0.63952564 0.63952564
0.96363276 0.58898184 0.63054037
1.00000000 0.80231176 0.76245776
0.22336340 0.98066991 0.23484907
0.29347798 0.98249228 0.20293196
0.67823218 0.98039152 0.23371665
0.95835715 0.97905014 0.40273260
1.00000000 0.98688111 0.95878027
0.96407249 1.00000000 0.92230860
0.96708917 1.00000000 0.92794779
0.98450634 1.00000000 0.96082106
1.00000000 1.00000000 1.00000000
1.00000000 1.00000000 1.00000000
0.29732672 0.01967440 0.86446575
0.32574361 0.05082392 0.84722581
0.52360568 0.00000000 0.78564968
0.89121124 0.02789382 0.88823919
1.00000000 0.57432821 0.83501637
0.26858662 0.00000000 0.88757323
0.30212687 0.02427388 0.87051109
0.49548963 0.00000000 0.78910984
0.89281260 0.00000000 0.88989506
1.00000000 0.58423134 0.83454102
0.00000000 0.50795962 0.87371439
0.00000000 0.47107050 0.88942128
0.49257277 0.29152428 0.94180782
0.92842792 0.27600095 0.94446307
1.00000000 0.73420261 0.85923074
0.17102430 0.94243203 0.93375007
0.23104257 0.94370096 0.93526154
0.55054714 0.94916531 0.94228470
0.94441540 0.94441540 0.94441540
1.00000000 0.99442280 0.99371391
1.00000000 1.00000000 1.00000000
1.00000000 1.00000000 1.00000000
1.00000000 1.00000000 1.00000000
1.00000000 1.00000000 1.00000000
1.00000000 1.00000000 1.00000000
0.40871136 0.18997291 1.00000000
0.41692440 0.17275762 1.00000000
0.46269294 0.14553965 0.96898150
0.79922841 0.00000000 1.00000000
1.00000000 0.41826708 0.99134794
0.40348521 0.22793900 1.00000000
0.41174929 0.20614230 1.00000000
0.46054318 0.14360230 0.97745030
0.79600116 0.00000000 1.00000000
1.00000000 0.42475998 0.99119361
0.37431355 0.45902938 1.00000000
0.38095763 0.44048463 1.00000000
0.43234597 0.30852101 1.00000000
0.77894037 0.12015703 1.00000000
1.00000000 0.52749625 0.98912056
0.61981812 0.84835119 1.00000000
0.63450090 0.85103536 1.00000000
0.71296058 0.86764691 1.00000000
0.89647764 0.90651033 1.00000000
1.00000000 0.96252464 1.00000000
1.00000000 1.00000000 1.00000000
1.00000000 1.00000000 1.00000000
1.00000000 1.00000000 1.00000000
1.00000000 1.00000000 1.00000000
1.00000000 1.00000000 1.00000000
