Luts Download/Canon Luts/3dlut/33grid-3dlut/full-to-full-range/CinemaGamut_CanonLog2-to-BT709_WideDR_33_FF_Ver.2.0.cube
# Gamut : Cinema Gamut to BT.709
# Gamma : Canon Log 2 to Wide DR
# Range : Full in / Full out
# Version : 2.0 2019/10/24
# Copyright(c) 2019 Canon Inc. All Rights Reserved.
LUT_3D_SIZE 9
# LUT_3D_INPUT_RANGE 0.0 1.0
0.00000000 0.00000000 0.00000000
0.01979051 0.00150129 0.00302507
0.18346380 0.00000000 0.01208935
0.41640486 0.00000000 0.03994203
0.70506683 0.00000000 0.08557720
0.92410604 0.00000000 0.10094672
1.00000000 0.15149985 0.15523204
0.99336806 0.34150746 0.28197792
1.00000000 0.66415720 0.59794575
0.00326756 0.01378013 0.00489393
0.01815597 0.01965160 0.00464959
0.18927903 0.01278013 0.00776611
0.42713521 0.00000000 0.03018432
0.71554460 0.00000000 0.07592205
0.93245253 0.00017817 0.09819844
1.00000000 0.16550021 0.16249397
0.99311582 0.34903992 0.28854221
1.00000000 0.66823821 0.60247500
0.00279641 0.11905981 0.01704377
0.00508380 0.12963434 0.01038223
0.14097168 0.15376231 0.00000000
0.41330824 0.14902410 0.00014489
0.76082224 0.05933344 0.01310350
0.98043774 0.04247624 0.07765623
1.00000000 0.24882886 0.20974242
0.99181480 0.39874121 0.33271572
1.00000000 0.69685513 0.63432263
0.00024472 0.30870885 0.03838902
0.00000000 0.31411850 0.03002174
0.07946224 0.33875663 0.00116147
0.34336688 0.36948663 0.00000000
0.72107628 0.35470259 0.00000000
0.99341992 0.31205733 0.13882858
0.99742171 0.41505377 0.32700164
0.98867341 0.51835881 0.44711937
1.00000000 0.77671706 0.72503279
0.00000000 0.55364326 0.05559495
0.00000000 0.55671186 0.04866697
0.01643124 0.57598096 0.00655155
0.25036408 0.61293905 0.00000000
0.60484242 0.65035017 0.00000000
0.99185485 0.59502958 0.14961536
1.00000000 0.62449076 0.48105088
0.99800237 0.69234973 0.62285038
1.00000000 0.91720678 0.88871737
0.00116642 0.74414576 0.03333018
0.00000000 0.74635174 0.02995281
0.00399619 0.76156433 0.00709273
0.14508454 0.79912168 0.00000000
0.41417882 0.86130525 0.00675308
0.80700486 0.86963685 0.05877745
1.00000000 0.81254340 0.53574112
1.00000000 0.83450994 0.76030174
1.00000000 1.00000000 1.00000000
0.03289514 0.86346886 0.00649380
0.03436637 0.86520707 0.00628532
0.05136381 0.87747081 0.00628636
0.11982394 0.91329354 0.01220994
0.31744185 0.97791243 0.09888700
0.64893876 1.00000000 0.35686321
0.92930479 0.99149961 0.51073427
1.00000000 0.95476304 0.87670443
1.00000000 1.00000000 1.00000000
0.31147130 0.96931890 0.19787194
0.31414079 0.97049044 0.20020233
0.34047375 0.97787822 0.22379363
0.46964694 0.98896385 0.34875116
0.69465917 1.00000000 0.59060257
0.87587396 1.00000000 0.81155609
1.00000000 1.00000000 1.00000000
1.00000000 1.00000000 1.00000000
1.00000000 1.00000000 1.00000000
1.00000000 1.00000000 1.00000000
1.00000000 1.00000000 1.00000000
1.00000000 1.00000000 1.00000000
1.00000000 1.00000000 1.00000000
1.00000000 1.00000000 1.00000000
1.00000000 1.00000000 1.00000000
1.00000000 1.00000000 1.00000000
1.00000000 1.00000000 1.00000000
1.00000000 1.00000000 1.00000000
0.00108174 0.00029237 0.00913251
0.01816354 0.00000000 0.01479380
0.17757744 0.00000000 0.03014029
0.41201182 0.00000000 0.06169336
0.70367413 0.00000000 0.09640569
0.92378088 0.00000000 0.10222306
1.00000000 0.14253342 0.15158340
0.99379256 0.33716256 0.27838294
1.00000000 0.66139553 0.59496647
0.00000000 0.01765633 0.01610717
0.01903558 0.01903558 0.01903558
0.19260894 0.00705065 0.02512931
0.42535132 0.00000000 0.04985518
0.71482338 0.00000000 0.08586843
0.93140575 0.00000000 0.10045181
1.00000000 0.15800763 0.15941162
0.99339780 0.34501111 0.28519517
1.00000000 0.66550010 0.59952219
0.00000000 0.14461256 0.02749995
0.00000000 0.15355495 0.01797677
0.15060450 0.16401375 0.00000000
0.42833520 0.14123810 0.00000000
0.76706331 0.04388930 0.01607197
0.97933476 0.03949818 0.08216019
1.00000000 0.24537624 0.20841132
0.99184692 0.39604506 0.33042849
1.00000000 0.69445608 0.63171178
0.00183073 0.32051326 0.04971370
0.00000000 0.32565971 0.04057438
0.07314336 0.34927424 0.00179181
0.34802874 0.37444869 0.00000000
0.72772408 0.35331498 0.00000000
0.99384742 0.31235951 0.14375444
0.99707704 0.41504130 0.32805292
0.98853913 0.51767813 0.44666719
1.00000000 0.77515042 0.72329993
0.00164918 0.56003960 0.06438260
0.00000000 0.56304761 0.05728183
0.01264934 0.58229136 0.01041828
0.24913569 0.61815018 0.00000000
0.60742589 0.65310242 0.00000000
0.99328782 0.59659710 0.15560930
1.00000000 0.62597411 0.48382900
0.99786407 0.69320084 0.62407290
1.00000000 0.91678535 0.88827780
0.00284856 0.74859834 0.03806426
0.00162513 0.75077892 0.03464571
0.00373833 0.76590658 0.01044916
0.14237357 0.80320311 0.00000000
0.41456719 0.86430257 0.00718136
0.80880812 0.87155509 0.06164732
1.00000000 0.81418724 0.54020960
1.00000000 0.83573323 0.76227935
1.00000000 1.00000000 1.00000000
0.03210225 0.86724007 0.00759355
0.03346324 0.86896733 0.00731601
0.05032290 0.88112601 0.00717453
0.12020901 0.91659933 0.01377029
0.32339395 0.97983316 0.10891052
0.65544568 1.00000000 0.36970584
0.93075820 0.99193426 0.52631510
1.00000000 0.95589944 0.88030303
1.00000000 1.00000000 1.00000000
0.31651896 0.97174943 0.20301420
0.31937633 0.97287895 0.20552992
0.35237371 0.97912009 0.23580187
0.48012761 0.98957229 0.35988387
0.70193366 1.00000000 0.59970283
0.88019990 1.00000000 0.81795346
1.00000000 1.00000000 1.00000000
1.00000000 1.00000000 1.00000000
1.00000000 1.00000000 1.00000000
1.00000000 1.00000000 1.00000000
1.00000000 1.00000000 1.00000000
1.00000000 1.00000000 1.00000000
1.00000000 1.00000000 1.00000000
1.00000000 1.00000000 1.00000000
1.00000000 1.00000000 1.00000000
1.00000000 1.00000000 1.00000000
1.00000000 1.00000000 1.00000000
1.00000000 1.00000000 1.00000000
0.00748914 0.00300749 0.08455547
0.01594554 0.00000000 0.08436779
0.15030645 0.00000000 0.12017737
0.38614153 0.00000000 0.17662142
0.68470882 0.00000000 0.21347183
0.91101446 0.00000000 0.17930136
0.99757332 0.13588319 0.16150251
0.99262719 0.33064996 0.27579330
1.00000000 0.65140092 0.58459663
0.00115906 0.01127371 0.09093543
0.00810216 0.00217562 0.10525910
0.16385243 0.00000000 0.13336301
0.40030078 0.00000000 0.17646968
0.69441418 0.00000000 0.20884261
0.91755447 0.00043260 0.17804391
0.99717327 0.15125029 0.16871647
0.99207710 0.33833593 0.28235692
1.00000000 0.65513676 0.58871548
0.00000000 0.13951148 0.12894482
0.00000000 0.14391077 0.13338577
0.14520997 0.14520997 0.14520997
0.46859542 0.06635383 0.13685767
0.75836695 0.02195788 0.16368044
0.96359437 0.04585321 0.16240882
0.99791629 0.23680870 0.21377458
0.99104160 0.38822805 0.32587079
1.00000000 0.68127977 0.61763040
0.00000000 0.38370805 0.15714148
0.00000000 0.38627191 0.14927795
0.00000000 0.40019181 0.07286177
0.36745371 0.39213970 0.01919326
0.77993073 0.32524419 0.02277891
0.99718115 0.30808449 0.17727295
1.00000000 0.40755616 0.32927786
0.99310395 0.50868883 0.43897743
1.00000000 0.76231235 0.70911174
0.00825099 0.60636903 0.13245437
0.00477496 0.60916538 0.12600493
0.00000000 0.62758098 0.06321289
0.22406356 0.65796324 0.00000000
0.62597113 0.67286851 0.00000000
1.00000000 0.60579864 0.19358710
1.00000000 0.63430044 0.50038054
0.99892484 0.69803960 0.63114597
1.00000000 0.91305106 0.88424014
0.00999009 0.78084103 0.07636047
0.00825245 0.78298379 0.07249562
0.00327890 0.79748722 0.04258195
0.11240518 0.83351149 0.00235740
0.41489199 0.88651562 0.00946468
0.82187760 0.88545909 0.08470661
1.00000000 0.82560329 0.57107475
1.00000000 0.84418686 0.77571888
1.00000000 1.00000000 1.00000000
0.03078511 0.89436363 0.02052948
0.03123862 0.89611024 0.01970877
0.04604673 0.90764204 0.01797455
0.13052330 0.94027695 0.03337896
0.38374121 0.99059755 0.19785984
0.70012274 1.00000000 0.45559826
0.94164618 0.99540161 0.62141258
1.00000000 0.96397638 0.90425708
1.00000000 1.00000000 1.00000000
0.39295219 0.98268838 0.27982804
0.39909214 0.98307038 0.28570412
0.44016344 0.98596901 0.32517621
0.55457392 0.99264224 0.44080392
0.75045675 0.99982265 0.66131507
0.90895494 1.00000000 0.86027517
1.00000000 1.00000000 1.00000000
1.00000000 1.00000000 1.00000000
1.00000000 1.00000000 1.00000000
1.00000000 1.00000000 1.00000000
1.00000000 1.00000000 1.00000000
1.00000000 1.00000000 1.00000000
1.00000000 1.00000000 1.00000000
1.00000000 1.00000000 1.00000000
1.00000000 1.00000000 1.00000000
1.00000000 1.00000000 1.00000000
1.00000000 1.00000000 1.00000000
1.00000000 1.00000000 1.00000000
0.01827885 0.00702645 0.25950971
0.02880634 0.00396721 0.25217021
0.12967261 0.00000000 0.22151203
0.36020470 0.00000000 0.29361414
0.65768039 0.00000000 0.35287485
0.89051202 0.00000000 0.31663340
0.99669537 0.10540939 0.24280765
0.98946212 0.32147379 0.28122692
1.00000000 0.65131734 0.58683887
0.00892219 0.01479151 0.26246499
0.01909377 0.00829588 0.26337747
0.12423524 0.00000000 0.22845488
0.36499465 0.00000000 0.29766346
0.66452769 0.00000000 0.35328883
0.89679969 0.00000000 0.31458076
0.99810031 0.11065559 0.24367616
0.98978501 0.32451924 0.28336072
1.00000000 0.65535141 0.59122288
0.00000000 0.10824251 0.21502212
0.00000000 0.10301089 0.22465458
0.09657528 0.05876602 0.35315865
0.41240739 0.01607341 0.36108674
0.72347908 0.00000000 0.35885030
0.94594488 0.00559767 0.31210609
0.99974542 0.20233970 0.27593684
0.98826062 0.37618165 0.32558258
1.00000000 0.68480743 0.62349256
0.00010276 0.33730409 0.31811461
0.00000000 0.33969818 0.32041715
0.00000000 0.35596717 0.33684686
0.34979522 0.34979522 0.34979522
0.78617344 0.26516844 0.33711312
0.98144268 0.28336655 0.34868696
0.99232271 0.40135056 0.38501358
0.98420154 0.51282934 0.45185045
1.00000000 0.76932266 0.71829789
0.00876541 0.65033851 0.32491778
0.00455523 0.65198691 0.32218352
0.00000000 0.66347337 0.29812162
0.11920391 0.69002458 0.21999495
0.63827793 0.67662640 0.17326840
1.00000000 0.60503781 0.33840934
1.00000000 0.65340515 0.55138110
0.99854927 0.71997957 0.66205416
1.00000000 0.92184370 0.89499412
0.00000000 0.88632895 0.15067264
0.00000000 0.88835563 0.14628949
0.00000000 0.90228286 0.10732436
0.00000000 0.93135351 0.00000000
0.38014106 0.95604684 0.00000000
0.85907156 0.92517196 0.07356240
1.00000000 0.85437883 0.62911295
1.00000000 0.86738443 0.80780484
1.00000000 1.00000000 1.00000000
0.12073539 0.97387133 0.12379503
0.12600732 0.97512066 0.12589139
0.16529633 0.98349713 0.14190566
0.32106652 0.99861540 0.23765966
0.58632244 1.00000000 0.45039770
0.80651771 1.00000000 0.64626319
0.97705679 1.00000000 0.82763152
1.00000000 0.98801220 0.96047196
1.00000000 1.00000000 1.00000000
0.63250957 0.99707772 0.53472880
0.63672412 0.99706719 0.53939537
0.66544548 0.99726913 0.57141535
0.74163621 0.99882133 0.65955803
0.87051487 1.00000000 0.81857844
1.00000000 1.00000000 1.00000000
1.00000000 1.00000000 1.00000000
1.00000000 1.00000000 1.00000000
1.00000000 1.00000000 1.00000000
1.00000000 1.00000000 1.00000000
1.00000000 1.00000000 1.00000000
1.00000000 1.00000000 1.00000000
1.00000000 1.00000000 1.00000000
1.00000000 1.00000000 1.00000000
1.00000000 1.00000000 1.00000000
1.00000000 1.00000000 1.00000000
1.00000000 1.00000000 1.00000000
1.00000000 1.00000000 1.00000000
0.02595642 0.00926917 0.49240234
0.03539736 0.00719048 0.48692821
0.11112995 0.00273940 0.42579331
0.31850409 0.00000000 0.42650571
0.62454877 0.00000000 0.50736450
0.86178084 0.00000000 0.48154159
0.99423809 0.04936777 0.37898856
0.99406791 0.29234609 0.34120609
1.00000000 0.63633117 0.58116572
0.01723930 0.01720421 0.49305814
0.02659976 0.01180525 0.49246616
0.10578622 0.00314614 0.43583996
0.31611303 0.00000000 0.42801733
0.62611051 0.00000000 0.50866589
0.86416990 0.00000000 0.48194175
0.99494555 0.05324200 0.37924406
0.99394919 0.29474624 0.34247311
1.00000000 0.63761941 0.58247948
0.00000000 0.13137391 0.38142417
0.00000000 0.12429689 0.39213116
0.03213202 0.03810491 0.48107676
0.30787161 0.00000000 0.47793083
0.65397000 0.00000000 0.53230126
0.89706159 0.00000000 0.48852782
1.00000000 0.09592222 0.38500911
0.99462858 0.32177034 0.35871944
1.00000000 0.65828251 0.60410603
0.00000000 0.27859365 0.41095487
0.00000000 0.27729456 0.41477245
0.00000000 0.28522095 0.47653655
0.28477235 0.22457426 0.70731789
0.74004957 0.14058630 0.65711763
0.99083884 0.15435995 0.54014585
1.00000000 0.33375516 0.46791445
0.99239183 0.47160106 0.47222960
1.00000000 0.75349475 0.70717550
0.00000000 0.59814073 0.56583838
0.00000000 0.59966380 0.56728852
0.00000000 0.61098484 0.57816067
0.00000000 0.63781649 0.60694331
0.61787795 0.61787795 0.61787795
0.95545353 0.58141581 0.61354717
0.99273215 0.63933643 0.64377167
0.98849834 0.71843097 0.69417464
1.00000000 0.93762356 0.91525566
0.08636120 0.84867646 0.44909448
0.08773507 0.84974353 0.44889981
0.10530940 0.85719875 0.44706855
0.18606511 0.87857361 0.44500333
0.46531966 0.90606861 0.47303057
0.84475544 0.88878164 0.49312365
1.00000000 0.85818567 0.73777161
1.00000000 0.91056126 0.87929690
1.00000000 1.00000000 1.00000000
0.34815937 0.98816614 0.34933861
0.35367046 0.98835388 0.35261303
0.39194828 0.98971921 0.37559275
0.49828429 0.99326485 0.44829149
0.68433592 1.00000000 0.59940981
0.85888449 1.00000000 0.75475812
0.98916492 1.00000000 0.90284807
1.00000000 1.00000000 1.00000000
1.00000000 1.00000000 1.00000000
0.84589683 1.00000000 0.79305163
0.84795662 1.00000000 0.79559344
0.86233617 1.00000000 0.81330791
0.90499848 1.00000000 0.86668917
1.00000000 1.00000000 1.00000000
1.00000000 1.00000000 1.00000000
1.00000000 1.00000000 1.00000000
1.00000000 1.00000000 1.00000000
1.00000000 1.00000000 1.00000000
1.00000000 1.00000000 1.00000000
1.00000000 1.00000000 1.00000000
1.00000000 1.00000000 1.00000000
1.00000000 1.00000000 1.00000000
1.00000000 1.00000000 1.00000000
1.00000000 1.00000000 1.00000000
1.00000000 1.00000000 1.00000000
1.00000000 1.00000000 1.00000000
1.00000000 1.00000000 1.00000000
0.00689462 0.02946018 0.66216683
0.01169535 0.02125347 0.66649828
0.05616679 0.01361621 0.63647264
0.18324959 0.00000000 0.59102142
0.54036151 0.00000000 0.66966114
0.81621301 0.00000000 0.65785270
0.97430867 0.01945986 0.55552930
0.99811265 0.26523663 0.45859721
1.00000000 0.61387375 0.61397339
0.00335634 0.04500222 0.65195463
0.00745976 0.03179411 0.66227349
0.05198677 0.01472101 0.64237117
0.17856018 0.00000000 0.59167288
0.53971575 0.00000000 0.67059420
0.81701460 0.00000000 0.65851958
0.97510520 0.02033737 0.55586258
0.99800124 0.26689933 0.45912563
1.00000000 0.61488229 0.61482886
0.00000000 0.15296610 0.55082926
0.00000000 0.14612257 0.56051181
0.01316002 0.06215463 0.64739446
0.14540755 0.00000000 0.61146373
0.53798101 0.00000000 0.68908773
0.82835717 0.00000000 0.66789071
0.98368717 0.01908660 0.55845201
0.99816052 0.27803560 0.46255929
1.00000000 0.62280382 0.62148521
0.00000000 0.26644631 0.53643267
0.00000000 0.26406052 0.53806629
0.00000000 0.24044520 0.56319352
0.07745826 0.16119459 0.77858934
0.61244961 0.03916462 0.85780087
0.92849160 0.01865289 0.75626999
1.00000000 0.24504668 0.60681360
0.99703823 0.41586152 0.53679283
1.00000000 0.71622273 0.70962738
0.00000000 0.52803803 0.69764204
0.00000000 0.52952701 0.70086052
0.00000000 0.54013013 0.72699596
0.06088990 0.55875624 0.82192387
0.55074929 0.54831295 0.91818853
0.95562672 0.49679561 0.85365739
1.00000000 0.58103974 0.73201542
0.99823826 0.68013586 0.72114715
1.00000000 0.91710282 0.90975105
0.00000000 0.80775458 0.76393066
0.00000000 0.80894100 0.76504881
0.00000000 0.81745173 0.77316704
0.00000000 0.84175269 0.79727923
0.29802038 0.87036463 0.83518757
0.83311348 0.83311348 0.83311348
0.99731696 0.83553625 0.84529559
0.99999727 0.89891843 0.89748246
1.00000000 1.00000000 1.00000000
0.24228569 0.96706809 0.54344752
0.24701319 0.96759172 0.54474975
0.28299269 0.97105176 0.55475348
0.40391367 0.97796852 0.59555411
0.63481278 0.98657211 0.70369138
0.83486931 0.99454219 0.81523867
0.97989165 0.99569054 0.89694586
1.00000000 1.00000000 1.00000000
1.00000000 1.00000000 1.00000000
0.84411411 1.00000000 0.80711305
0.84615436 1.00000000 0.80942994
0.86068656 1.00000000 0.82594861
0.90485113 1.00000000 0.87715067
1.00000000 1.00000000 1.00000000
1.00000000 1.00000000 1.00000000
1.00000000 1.00000000 1.00000000
1.00000000 1.00000000 1.00000000
1.00000000 1.00000000 1.00000000
1.00000000 1.00000000 1.00000000
1.00000000 1.00000000 1.00000000
1.00000000 1.00000000 1.00000000
1.00000000 1.00000000 1.00000000
1.00000000 1.00000000 1.00000000
1.00000000 1.00000000 1.00000000
1.00000000 1.00000000 1.00000000
1.00000000 1.00000000 1.00000000
1.00000000 1.00000000 1.00000000
0.00000000 0.14438943 0.64881588
0.00000000 0.13971757 0.65363267
0.00000000 0.09605349 0.69231293
0.04449493 0.00674101 0.70676951
0.31700520 0.00650604 0.87858495
0.70427546 0.00000000 0.84217113
0.92807947 0.01113080 0.74312295
0.99721851 0.23709618 0.61061865
1.00000000 0.59983188 0.69064905
0.00000000 0.14889990 0.64694496
0.00000000 0.14448115 0.65154857
0.00000000 0.10216170 0.69022590
0.04294205 0.00794809 0.70856069
0.31525706 0.00625851 0.87868478
0.70427589 0.00000000 0.84276990
0.92858589 0.01135539 0.74354567
0.99717627 0.23836755 0.61087235
1.00000000 0.60067069 0.69117253
0.00024833 0.17846939 0.63907500
0.00000000 0.17534141 0.64158377
0.00000000 0.14538414 0.67079935
0.03054146 0.02672131 0.72234483
0.30100169 0.00000000 0.88564136
0.70571222 0.00000000 0.85129095
0.93378913 0.00751788 0.74782835
0.99732581 0.24702114 0.61275694
1.00000000 0.60708915 0.69505182
0.00183435 0.25516087 0.66844886
0.00156510 0.25315724 0.66891838
0.00000000 0.23473338 0.67810455
0.00000000 0.12870856 0.75964775
0.31219489 0.13137262 0.98366094
0.77267284 0.02892719 0.94558811
0.98272237 0.12933811 0.79016856
0.99720715 0.36373906 0.64937655
1.00000000 0.68571384 0.75244777
0.00000000 0.45920332 0.81878512
0.00000000 0.46066515 0.82177686
0.01024307 0.47044158 0.84764265
0.08512533 0.49768163 0.92408645
0.38130382 0.54917695 0.97400147
0.83388297 0.49754427 0.98673895
1.00000000 0.53109839 0.85213039
0.99970608 0.64474058 0.77873650
1.00000000 0.89504240 0.91926631
0.00621969 0.73567725 0.93854006
0.00490074 0.73690295 0.94056728
0.00604933 0.74542505 0.95410304
0.11959537 0.76885644 0.98042747
0.48777167 0.79664672 0.98314909
0.78924554 0.80245790 0.98751045
1.00000000 0.79917108 0.93949145
1.00000000 0.87648682 0.91472449
1.00000000 1.00000000 1.00000000
0.00000000 0.93565286 0.88655143
0.00000000 0.93653107 0.88741394
0.00000000 0.94258834 0.89349521
0.00000000 0.95902558 0.91101505
0.43554496 0.97813808 0.93977638
0.76425515 0.97931993 0.96089213
0.97244176 0.97244176 0.97244176
1.00000000 1.00000000 1.00000000
1.00000000 1.00000000 1.00000000
0.80732263 1.00000000 0.84854548
0.80952231 1.00000000 0.85017775
0.82546550 1.00000000 0.86206637
0.87519808 1.00000000 0.90020750
1.00000000 1.00000000 1.00000000
1.00000000 1.00000000 1.00000000
1.00000000 1.00000000 1.00000000
1.00000000 1.00000000 1.00000000
1.00000000 1.00000000 1.00000000
1.00000000 1.00000000 1.00000000
1.00000000 1.00000000 1.00000000
1.00000000 1.00000000 1.00000000
1.00000000 1.00000000 1.00000000
1.00000000 1.00000000 1.00000000
1.00000000 1.00000000 1.00000000
1.00000000 1.00000000 1.00000000
1.00000000 1.00000000 1.00000000
1.00000000 1.00000000 1.00000000
0.00000000 0.20329541 0.69412992
0.00000000 0.20212630 0.69361008
0.00000000 0.19249148 0.69158294
0.00000000 0.15334034 0.68967152
0.10461857 0.04850777 0.95059491
0.39850476 0.14803267 1.00000000
0.79864003 0.03237438 0.93028147
0.98749746 0.18670318 0.78992030
1.00000000 0.58724609 0.78755047
0.00000000 0.20475689 0.69666961
0.00000000 0.20359326 0.69615143
0.00000000 0.19391500 0.69393994
0.00000000 0.15504303 0.69148383
0.10301441 0.04835042 0.94931402
0.39791185 0.14801672 1.00000000
0.79871509 0.03248613 0.93054257
0.98755981 0.18754228 0.79000555
1.00000000 0.58791028 0.78782911
0.00000000 0.21665784 0.71344005
0.00000000 0.21544107 0.71278305
0.00000000 0.20599002 0.71023103
0.00000000 0.16900085 0.70412447
0.08916242 0.04588330 0.94017063
0.39298778 0.14636459 1.00000000
0.79964279 0.03074760 0.93353812
0.98825411 0.19312149 0.79080539
1.00000000 0.59289067 0.78985815
0.00166825 0.26202063 0.77836007
0.00149196 0.26066752 0.77735082
0.00000000 0.24926336 0.77147673
0.00000000 0.20987947 0.76246367
0.08191366 0.13560428 0.95796317
0.40322779 0.22945145 1.00000000
0.83213251 0.09799086 0.96870715
0.99230836 0.27971879 0.79917066
1.00000000 0.64914461 0.81684254
0.02338146 0.40803961 0.93596997
0.02205776 0.40675319 0.93628417
0.00952059 0.39556202 0.94230195
0.11333122 0.43313195 0.96041677
0.31056036 0.51715310 0.98359814
0.54480172 0.56475198 1.00000000
0.90845165 0.50938925 0.97863931
0.99924180 0.59793644 0.85570879
1.00000000 0.86501830 0.93898129
0.25486300 0.66410975 0.99719186
0.25845187 0.66534324 0.99743230
0.28485225 0.67414837 0.99868987
0.36312653 0.70083052 0.99910901
0.52020589 0.75516103 0.99503983
0.68732250 0.79851848 1.00000000
0.93538005 0.78478454 0.99206637
1.00000000 0.84576709 0.93826339
1.00000000 1.00000000 1.00000000
0.35970374 0.84339925 1.00000000
0.36363984 0.84416879 1.00000000
0.39214514 0.84967302 1.00000000
0.47724559 0.86637611 1.00000000
0.64802539 0.90206928 0.99799244
0.82151466 0.93373088 0.99902704
0.94648072 0.95225592 1.00000000
1.00000000 1.00000000 1.00000000
1.00000000 1.00000000 1.00000000
0.70362344 0.99393755 0.96826708
0.70685356 0.99413679 0.96868100
0.72964802 0.99570507 0.97178528
0.79838518 1.00000000 0.98189879
0.93734020 1.00000000 1.00000000
1.00000000 1.00000000 1.00000000
1.00000000 1.00000000 1.00000000
1.00000000 1.00000000 1.00000000
1.00000000 1.00000000 1.00000000
1.00000000 1.00000000 1.00000000
1.00000000 1.00000000 1.00000000
1.00000000 1.00000000 1.00000000
1.00000000 1.00000000 1.00000000
1.00000000 1.00000000 1.00000000
1.00000000 1.00000000 1.00000000
1.00000000 1.00000000 1.00000000
1.00000000 1.00000000 1.00000000
1.00000000 1.00000000 1.00000000
0.03336144 0.34023402 1.00000000
0.03319455 0.33955544 1.00000000
0.03241187 0.33433472 1.00000000
0.03095241 0.31759834 0.99405372
0.01502129 0.24628861 0.98675452
0.15865992 0.24833610 1.00000000
0.43789001 0.26422755 1.00000000
0.87386432 0.16056213 0.98635405
1.00000000 0.54962894 0.89215747
0.03397387 0.34137247 1.00000000
0.03379034 0.34068173 1.00000000
0.03296497 0.33545270 1.00000000
0.03140365 0.31866289 0.99521775
0.01586303 0.24819168 0.98668179
0.15785232 0.24751145 1.00000000
0.43748221 0.26381686 1.00000000
0.87366275 0.16030813 0.98621740
1.00000000 0.54983200 0.89216367
0.03837835 0.35000045 1.00000000
0.03818021 0.34931935 1.00000000
0.03707386 0.34401890 1.00000000
0.03446469 0.32671536 1.00000000
0.02002201 0.25970808 0.99095506
0.15128960 0.24113554 1.00000000
0.43419469 0.26071721 1.00000000
0.87211708 0.15830285 0.98523701
1.00000000 0.55134821 0.89218183
0.06008786 0.38116972 1.00000000
0.05957300 0.38035922 1.00000000
0.05618000 0.37410296 1.00000000
0.04868331 0.35501860 1.00000000
0.03401628 0.29443242 1.00000000
0.12723835 0.21603609 1.00000000
0.42295709 0.24695115 1.00000000
0.86642687 0.15061355 0.98147917
1.00000000 0.55871445 0.88984630
0.15653853 0.47327631 1.00000000
0.15557105 0.47242694 1.00000000
0.14867805 0.46593168 1.00000000
0.12441207 0.44255042 1.00000000
0.09288435 0.38639983 1.00000000
0.23017036 0.40265312 1.00000000
0.49077720 0.43018818 1.00000000
0.89378828 0.39232772 0.96474525
1.00000000 0.70873463 0.91994205
0.26924599 0.59505600 1.00000000
0.26820512 0.59439600 1.00000000
0.26095272 0.58938192 1.00000000
0.23753701 0.57144492 1.00000000
0.30148045 0.58995679 1.00000000
0.46597848 0.65794079 1.00000000
0.64619654 0.68327764 1.00000000
0.94141667 0.68387143 0.96863157
1.00000000 0.93541858 0.99810031
0.30981020 0.70869034 1.00000000
0.30879180 0.70818675 1.00000000
0.30221072 0.70430330 1.00000000
0.32103789 0.70648848 1.00000000
0.47439862 0.76486011 1.00000000
0.62126086 0.81700210 1.00000000
0.74301249 0.83665751 0.98972441
0.94783066 0.86131460 0.97623105
1.00000000 1.00000000 1.00000000
0.52274536 0.86383038 0.97561134
0.52581073 0.86454231 0.97564866
0.54770659 0.86972396 0.97599913
0.61393871 0.88576301 0.97693815
0.74760846 0.92203141 0.98215033
0.87495887 0.96071513 0.99173023
0.95175885 0.98493425 1.00000000
1.00000000 1.00000000 1.00000000
1.00000000 1.00000000 1.00000000
1.00000000 1.00000000 1.00000000
1.00000000 1.00000000 1.00000000
1.00000000 1.00000000 1.00000000
1.00000000 1.00000000 1.00000000
1.00000000 1.00000000 1.00000000
1.00000000 1.00000000 1.00000000
1.00000000 1.00000000 1.00000000
1.00000000 1.00000000 1.00000000
1.00000000 1.00000000 1.00000000
