Luts Download/Canon Luts/3dlut/33grid-3dlut/full-to-full-range/CinemaGamut_CanonLog2-to-BT2020_HLGKnee-Vivid_33_FF_Ver.2.0.cube
# Gamut : Cinema Gamut to BT.2020
# Gamma : Canon Log 2 to HLGKnee-Vivid
# Range : Full in / Full out
# Version : 2.0 2019/10/24
# Copyright(c) 2019 Canon Inc. All Rights Reserved.
LUT_3D_SIZE 5
# LUT_3D_INPUT_RANGE 0.0 1.0
0.00000004 0.00000000 0.00000002
0.18893138 0.01754905 0.04132178
0.65899323 0.00000000 0.11592086
0.99466153 0.36569256 0.30440020
1.00000000 0.94038211 0.90810739
0.06446155 0.15450559 0.02616388
0.16621146 0.17497520 0.01660785
0.65269901 0.16300443 0.02241232
0.99603431 0.37824904 0.28902786
1.00000000 0.94136274 0.90929228
0.22737769 0.56854242 0.00536651
0.26879243 0.57226649 0.01072155
0.59917821 0.62249779 0.01017445
0.99539800 0.66006993 0.30058410
1.00000000 0.95974275 0.93469684
0.65102888 0.95962855 0.17194680
0.65675412 0.95980345 0.17343970
0.72305122 0.96718078 0.19959123
0.98662157 1.00000000 0.83704878
1.00000000 1.00000000 1.00000000
1.00000000 1.00000000 1.00000000
1.00000000 1.00000000 1.00000000
1.00000000 1.00000000 1.00000000
1.00000000 1.00000000 1.00000000
1.00000000 1.00000000 1.00000000
0.05408525 0.01675487 0.16920584
0.16531305 0.00000000 0.17537429
0.65269212 0.00000000 0.24943059
0.99356099 0.36167827 0.32420204
1.00000000 0.93978473 0.90748744
0.04266763 0.17184224 0.16829801
0.16895397 0.16895397 0.16895397
0.66206749 0.10018236 0.17623345
0.99491119 0.37477601 0.30921696
1.00000000 0.94055640 0.90840907
0.19463758 0.59225370 0.02922365
0.24611190 0.59461191 0.01405688
0.60604217 0.62927450 0.00000000
0.99602594 0.65631786 0.31126443
1.00000000 0.95904320 0.93380471
0.64838037 0.96126306 0.17449031
0.65426060 0.96142712 0.17597926
0.72218785 0.96855297 0.20367112
0.98701389 1.00000000 0.84159347
1.00000000 1.00000000 1.00000000
1.00000000 1.00000000 1.00000000
1.00000000 1.00000000 1.00000000
1.00000000 1.00000000 1.00000000
1.00000000 1.00000000 1.00000000
1.00000000 1.00000000 1.00000000
0.17793856 0.01371352 0.61488856
0.21514227 0.03819755 0.56872855
0.61793011 0.00000000 0.62205392
0.98920891 0.28964593 0.65128298
1.00000000 0.93498866 0.90549913
0.11876798 0.06467772 0.63770474
0.17245811 0.02470515 0.60850551
0.61940372 0.00000000 0.62448264
0.99025430 0.29749450 0.64280858
1.00000000 0.93566587 0.90614740
0.12805816 0.61326245 0.60329540
0.14098724 0.61511643 0.60588046
0.60391133 0.60391133 0.60391133
0.99416690 0.61394233 0.62138096
1.00000000 0.94949901 0.92342552
0.66669686 0.98816157 0.34437418
0.67282631 0.98819276 0.34471481
0.74900177 0.99121302 0.38727307
0.99547375 1.00000000 0.91200060
1.00000000 1.00000000 1.00000000
1.00000000 1.00000000 1.00000000
1.00000000 1.00000000 1.00000000
1.00000000 1.00000000 1.00000000
1.00000000 1.00000000 1.00000000
1.00000000 1.00000000 1.00000000
0.37914391 0.09780697 0.95849462
0.38972138 0.10327298 0.95419136
0.49283865 0.08494950 0.89299527
0.95139995 0.17548709 0.94400488
1.00000000 0.92613805 0.94199093
0.36834898 0.09390600 0.96301650
0.37937868 0.09925470 0.95879215
0.48550007 0.08855780 0.89685707
0.95149422 0.17635542 0.94407989
1.00000000 0.92632032 0.94196574
0.20408424 0.38307307 0.97472422
0.21848271 0.36427094 0.97787450
0.38760400 0.17078582 0.95997073
0.95847452 0.13569927 0.95495785
1.00000000 0.93420718 0.94590392
0.72423217 0.98408732 0.97625679
0.72742057 0.98407414 0.97631266
0.78109732 0.98459644 0.97785137
1.00000000 1.00000000 1.00000000
1.00000000 1.00000000 1.00000000
1.00000000 1.00000000 1.00000000
1.00000000 1.00000000 1.00000000
1.00000000 1.00000000 1.00000000
1.00000000 1.00000000 1.00000000
1.00000000 1.00000000 1.00000000
0.71367107 0.77432848 1.00000000
0.71404911 0.77395832 1.00000000
0.71642453 0.76672458 1.00000000
0.72962147 0.61614375 1.00000000
1.00000000 0.87488698 0.99457135
0.71355287 0.77494667 1.00000000
0.71376891 0.77442578 1.00000000
0.71613690 0.76721488 1.00000000
0.72935528 0.61748505 1.00000000
1.00000000 0.87491069 0.99456613
0.71582216 0.78575574 1.00000000
0.71599715 0.78525657 1.00000000
0.71601135 0.77657994 1.00000000
0.73057708 0.64179870 1.00000000
1.00000000 0.87554482 0.99428480
0.79324132 0.88567616 1.00000000
0.79312268 0.88543607 1.00000000
0.78939703 0.88101029 1.00000000
0.76674310 0.81551552 0.97154021
1.00000000 1.00000000 1.00000000
1.00000000 1.00000000 1.00000000
1.00000000 1.00000000 1.00000000
1.00000000 1.00000000 1.00000000
1.00000000 1.00000000 1.00000000
1.00000000 1.00000000 1.00000000
