Luts Download/Canon Luts/3dlut/33grid-3dlut/full-to-full-range/CinemaGamut_CanonLog3-to-BT2020_HLG-Vivid_33_FF_Ver.2.0.cube
# Gamut : Cinema Gamut to BT.2020
# Gamma : Canon Log 3 to HLG-Vivid
# Range : Full in / Full out
# Version : 2.0 2019/10/24
# Copyright(c) 2019 Canon Inc. All Rights Reserved.
LUT_3D_SIZE 33
# LUT_3D_INPUT_RANGE 0.0 1.0
0.00000000 0.00000004 0.00000001
0.00000000 0.00000004 0.00000001
0.00000000 0.00000004 0.00000001
0.00000000 0.00000004 0.00000001
0.00000000 0.00000004 0.00000001
0.09996674 0.03214024 0.03612462
0.15933805 0.03316857 0.04185572
0.21367434 0.02957510 0.04428756
0.26623844 0.02360105 0.04599573
0.31875522 0.01579866 0.04806829
0.37245008 0.00355988 0.05096403
0.42829372 0.00000000 0.05468646
0.48743563 0.00000000 0.05908649
0.54663936 0.00000000 0.06400753
0.59942878 0.00000000 0.06934826
0.64764371 0.00000000 0.07529503
0.69249016 0.00000000 0.08224235
0.73494389 0.00000000 0.08979150
0.77561317 0.00000000 0.09773119
0.81482880 0.00000000 0.10627134
0.85280476 0.00000000 0.11571957
0.88966373 0.00000000 0.12650071
0.92516741 0.01963929 0.14023291
0.95822159 0.07620421 0.16115002
0.98579330 0.16526024 0.20058950
0.99818807 0.32910972 0.28862761
1.00000000 0.49068481 0.39539914
1.00000000 0.61428828 0.50961763
1.00000000 0.69590104 0.60579690
1.00000000 0.75668087 0.67968710
1.00000000 0.80489175 0.73972568
1.00000000 0.84436159 0.78922720
1.00000000 0.87668617 0.82817497
0.00000000 0.00000004 0.00000001
0.00000000 0.00000004 0.00000001
0.00000000 0.00000004 0.00000001
0.00000000 0.00000004 0.00000001
0.00000000 0.00000004 0.00000001
0.09996674 0.03214024 0.03612462
0.15933805 0.03316857 0.04185572
0.21367434 0.02957510 0.04428756
0.26623844 0.02360105 0.04599573
0.31875522 0.01579866 0.04806829
0.37245008 0.00355988 0.05096403
0.42829372 0.00000000 0.05468646
0.48743563 0.00000000 0.05908649
0.54663936 0.00000000 0.06400753
0.59942878 0.00000000 0.06934826
0.64764371 0.00000000 0.07529503
0.69249016 0.00000000 0.08224235
0.73494389 0.00000000 0.08979150
0.77561317 0.00000000 0.09773119
0.81482880 0.00000000 0.10627134
0.85280476 0.00000000 0.11571957
0.88966373 0.00000000 0.12650071
0.92516741 0.01963929 0.14023291
0.95822159 0.07620421 0.16115002
0.98579330 0.16526024 0.20058950
0.99818807 0.32910972 0.28862761
1.00000000 0.49068481 0.39539914
1.00000000 0.61428828 0.50961763
1.00000000 0.69590104 0.60579690
1.00000000 0.75668087 0.67968710
1.00000000 0.80489175 0.73972568
1.00000000 0.84436159 0.78922720
1.00000000 0.87668617 0.82817497
0.00000000 0.00000004 0.00000001
0.00000000 0.00000004 0.00000001
0.00000000 0.00000004 0.00000001
0.00000000 0.00000004 0.00000001
0.03008866 0.02176380 0.00000000
0.09996674 0.03214024 0.03612462
0.15933805 0.03316857 0.04185572
0.21367434 0.02957510 0.04428756
0.26623844 0.02360105 0.04599573
0.31875522 0.01579866 0.04806829
0.37245008 0.00355988 0.05096403
0.42829372 0.00000000 0.05468646
0.48743563 0.00000000 0.05908649
0.54663936 0.00000000 0.06400753
0.59942878 0.00000000 0.06934826
0.64764371 0.00000000 0.07529503
0.69249016 0.00000000 0.08224235
0.73494389 0.00000000 0.08979150
0.77561317 0.00000000 0.09773119
0.81482880 0.00000000 0.10627134
0.85280476 0.00000000 0.11571957
0.88966373 0.00000000 0.12650071
0.92516741 0.01963929 0.14023291
0.95822159 0.07620421 0.16115002
0.98579330 0.16526024 0.20058950
0.99818807 0.32910972 0.28862761
1.00000000 0.49068481 0.39539914
1.00000000 0.61428828 0.50961763
1.00000000 0.69590104 0.60579690
1.00000000 0.75668087 0.67968710
1.00000000 0.80489175 0.73972568
1.00000000 0.84436159 0.78922720
1.00000000 0.87668617 0.82817497
0.06962546 0.09473151 0.04460784
0.09902920 0.11546073 0.06773697
0.12338581 0.13479682 0.08408744
0.14234775 0.14951146 0.09618557
0.08593963 0.08804268 0.02246547
0.09996674 0.03214024 0.03612462
0.15933805 0.03316857 0.04185572
0.21367434 0.02957510 0.04428756
0.26623844 0.02360105 0.04599573
0.31875522 0.01579866 0.04806829
0.37245008 0.00355988 0.05096403
0.42829372 0.00000000 0.05468646
0.48743563 0.00000000 0.05908649
0.54663936 0.00000000 0.06400753
0.59942878 0.00000000 0.06934826
0.64764371 0.00000000 0.07529503
0.69249016 0.00000000 0.08224235
0.73494389 0.00000000 0.08979150
0.77561317 0.00000000 0.09773119
0.81482880 0.00000000 0.10627134
0.85280476 0.00000000 0.11571957
0.88966373 0.00000000 0.12650071
0.92516741 0.01963929 0.14023291
0.95822159 0.07620421 0.16115002
0.98579330 0.16526024 0.20058950
0.99818807 0.32910972 0.28862761
1.00000000 0.49068481 0.39539914
1.00000000 0.61428828 0.50961763
1.00000000 0.69590104 0.60579690
1.00000000 0.75668087 0.67968710
1.00000000 0.80489175 0.73972568
1.00000000 0.84436159 0.78922720
1.00000000 0.87668617 0.82817497
0.10635466 0.13396562 0.08140393
0.11301686 0.13386251 0.07996919
0.12105708 0.13734589 0.07918688
0.12792871 0.14018476 0.07742926
0.08065017 0.08844606 0.00000000
0.09996674 0.03214024 0.03612462
0.15933805 0.03316857 0.04185572
0.21367434 0.02957510 0.04428756
0.26623844 0.02360105 0.04599573
0.31875522 0.01579866 0.04806829
0.37245008 0.00355988 0.05096403
0.42829372 0.00000000 0.05468646
0.48743563 0.00000000 0.05908649
0.54663936 0.00000000 0.06400753
0.59942878 0.00000000 0.06934826
0.64764371 0.00000000 0.07529503
0.69249016 0.00000000 0.08224235
0.73494389 0.00000000 0.08979150
0.77561317 0.00000000 0.09773119
0.81482880 0.00000000 0.10627134
0.85280476 0.00000000 0.11571957
0.88966373 0.00000000 0.12650071
0.92516741 0.01963929 0.14023291
0.95822159 0.07620421 0.16115002
0.98579330 0.16526024 0.20058950
0.99818807 0.32910972 0.28862761
1.00000000 0.49068481 0.39539914
1.00000000 0.61428828 0.50961763
1.00000000 0.69590104 0.60579690
1.00000000 0.75668087 0.67968710
1.00000000 0.80489175 0.73972568
1.00000000 0.84436159 0.78922720
1.00000000 0.87668617 0.82817497
0.05360571 0.08923094 0.04536491
0.05360571 0.08923094 0.04536491
0.05360571 0.08923094 0.04536491
0.05360571 0.08923094 0.04536491
0.05360571 0.08923094 0.04536491
0.10336583 0.10840521 0.04453394
0.15426362 0.11377140 0.03991052
0.20649142 0.11402986 0.03608629
0.25939739 0.11149183 0.03348066
0.31339197 0.10728159 0.03228038
0.36907261 0.10202467 0.03256028
0.42716231 0.09598158 0.03435978
0.48855079 0.08909023 0.03710411
0.54948777 0.08108197 0.04037240
0.60339785 0.07165532 0.04408408
0.66049702 0.00683646 0.00000000
0.69719469 0.05170533 0.05637960
0.73958828 0.04196819 0.06474898
0.78019348 0.03047892 0.07341454
0.81922994 0.01884752 0.08311535
0.85697028 0.00893666 0.09397066
0.89352741 0.01259972 0.10646264
0.92863303 0.03728630 0.12241097
0.96118449 0.08561259 0.14659073
0.98782904 0.17594586 0.19114696
0.99899519 0.34157046 0.28525217
1.00000000 0.50166926 0.39485138
1.00000000 0.62062851 0.51073655
1.00000000 0.70017693 0.60744268
1.00000000 0.75982429 0.68148021
1.00000000 0.80733459 0.74152906
1.00000000 0.84633459 0.79097077
1.00000000 0.87865234 0.83017487
0.06811636 0.13507719 0.05050537
0.06811636 0.13507719 0.05050537
0.06811636 0.13507719 0.05050537
0.06811636 0.13507719 0.05050537
0.06811636 0.13507719 0.05050537
0.10720649 0.15211001 0.04211921
0.15121649 0.16012877 0.03415677
0.19920219 0.16366110 0.02813286
0.24993481 0.16424787 0.02389455
0.30318610 0.16266890 0.02128914
0.35911745 0.15941766 0.02041956
0.41815455 0.15479830 0.02098657
0.48092401 0.14887077 0.02247311
0.54438268 0.14161701 0.02451716
0.60033201 0.13299926 0.02728670
0.65087823 0.12283836 0.03076558
0.69743678 0.11164978 0.03579791
0.74126525 0.09853518 0.04133234
0.78299579 0.08312686 0.04753271
0.82273902 0.06746411 0.05638307
0.86072822 0.05443282 0.06838241
0.89733853 0.04657317 0.08265965
0.93222657 0.05631158 0.10156129
0.96418665 0.09900836 0.13041215
0.98923504 0.19422581 0.18341634
0.99963965 0.35658597 0.28224040
1.00000000 0.51384807 0.39448208
1.00000000 0.62760718 0.51207785
1.00000000 0.70491582 0.60932901
1.00000000 0.76332661 0.68352359
1.00000000 0.81006620 0.74358171
1.00000000 0.84855718 0.79297768
1.00000000 0.88086837 0.83246866
0.07810744 0.17692159 0.04918516
0.07810744 0.17692159 0.04918516
0.07810744 0.17692159 0.04918516
0.07810744 0.17692159 0.04918516
0.07810744 0.17692159 0.04918516
0.11147988 0.19174961 0.03767812
0.15028734 0.20063097 0.02840909
0.19409813 0.20620820 0.02156512
0.24172194 0.20922538 0.01665426
0.29292649 0.21016821 0.01348056
0.34780145 0.20929910 0.01181278
0.40656137 0.20677463 0.01171388
0.46959491 0.20268618 0.01272405
0.53510791 0.19704944 0.01431346
0.59342418 0.18983271 0.01636227
0.64583950 0.18094080 0.01869956
0.69406459 0.17036709 0.02203147
0.73924323 0.15784718 0.02605673
0.78211931 0.14306355 0.03081501
0.82313797 0.12589331 0.03666662
0.86249811 0.10701918 0.04484187
0.90569494 0.00517306 0.00000000
0.93539392 0.08773752 0.07830160
0.96702381 0.12136708 0.11255825
0.99034901 0.21896063 0.17594167
1.00000000 0.37561914 0.27949553
1.00000000 0.52812281 0.39443672
1.00000000 0.63588059 0.51389519
1.00000000 0.71056026 0.61168819
1.00000000 0.76751757 0.68604436
1.00000000 0.81334980 0.74611087
1.00000000 0.85167678 0.79593271
1.00000000 0.88353240 0.83526161
0.08639935 0.21792749 0.04398859
0.08639935 0.21792749 0.04398859
0.08639935 0.21792749 0.04398859
0.08639935 0.21792749 0.04398859
0.08639935 0.21792749 0.04398859
0.11662302 0.23064614 0.03229101
0.15154625 0.23953477 0.02312055
0.19158414 0.24620676 0.01625550
0.23597506 0.25097157 0.01110374
0.28455062 0.25395313 0.00739819
0.33744895 0.25526028 0.00540342
0.39494703 0.25493149 0.00463751
0.45733820 0.25294459 0.00513990
0.52391154 0.24928412 0.00687652
0.58448432 0.24390672 0.00878763
0.63870982 0.23674327 0.01094469
0.68848624 0.22769341 0.01338733
0.73501182 0.21656329 0.01595440
0.77903478 0.20318296 0.01941627
0.82107776 0.18739698 0.02410622
0.86143717 0.16939301 0.03087680
0.90015792 0.15064178 0.04116980
0.93665503 0.13875623 0.05977129
0.96904804 0.15666240 0.09530142
0.99105593 0.25053433 0.16903137
1.00000000 0.39914815 0.27710971
1.00000000 0.54462000 0.39486762
1.00000000 0.64564270 0.51638465
1.00000000 0.71727685 0.61468956
1.00000000 0.77255163 0.68922798
1.00000000 0.81776400 0.74978980
1.00000000 0.85547235 0.79961635
1.00000000 0.88672518 0.83865928
0.09522999 0.25919958 0.03781603
0.09522999 0.25919958 0.03781603
0.09522999 0.25919958 0.03781603
0.09522999 0.25919958 0.03781603
0.09522999 0.25919958 0.03781603
0.12312035 0.27012424 0.02697566
0.15488974 0.27869927 0.01839295
0.19157791 0.28589605 0.01172689
0.23279573 0.29180445 0.00635821
0.27855411 0.29637526 0.00130284
0.32903662 0.29952082 0.00000000
0.38456717 0.30119124 0.00000000
0.44552329 0.30130396 0.00000000
0.51200119 0.29974269 0.00000000
0.57450862 0.29641072 0.00212733
0.63036326 0.29121747 0.00508191
0.68156672 0.28404666 0.00745285
0.72932953 0.27476775 0.00995923
0.77447513 0.26318409 0.01245477
0.81751980 0.24918137 0.01602610
0.85877856 0.23291054 0.02195108
0.89830949 0.21558667 0.03225772
0.93561765 0.20249894 0.05093185
0.96871465 0.21206674 0.08749709
0.99106163 0.29031370 0.16401255
1.00000000 0.42795679 0.27545853
1.00000000 0.56360034 0.39618907
1.00000000 0.65737438 0.52020718
1.00000000 0.72578171 0.61923268
1.00000000 0.77940328 0.69423204
1.00000000 0.82327688 0.75461073
1.00000000 0.85999438 0.80409907
1.00000000 0.89052902 0.84276744
0.10522405 0.30179350 0.03130967
0.10522405 0.30179350 0.03130967
0.10522405 0.30179350 0.03130967
0.10522405 0.30179350 0.03130967
0.10522405 0.30179350 0.03130967
0.13114434 0.31128217 0.02170010
0.16026161 0.31936808 0.01400188
0.19396473 0.32669527 0.00776323
0.23216342 0.33326628 0.00182257
0.27504100 0.33897554 0.00000000
0.32289968 0.34362885 0.00000000
0.37608411 0.34703309 0.00000000
0.43503548 0.34905992 0.00000000
0.50020026 0.34955357 0.00000000
0.56417926 0.34833875 0.00000000
0.62137765 0.34525524 0.00000000
0.67379617 0.34016815 0.00274522
0.72269972 0.33292009 0.00548971
0.76887304 0.32336831 0.00828225
0.81286348 0.31139055 0.01169574
0.85500242 0.29708194 0.01690224
0.89533140 0.28149420 0.02711218
0.93339106 0.26883056 0.04631625
0.96726130 0.27386153 0.08380709
0.99071914 0.33700108 0.16067942
1.00000000 0.46332621 0.27562263
1.00000000 0.58596508 0.39975245
1.00000000 0.67182882 0.52651925
1.00000000 0.73626898 0.62560832
1.00000000 0.78749381 0.70039913
1.00000000 0.82976519 0.76043787
1.00000000 0.86533348 0.80949820
1.00000000 0.89503058 0.84770175
0.11673381 0.34647638 0.02487387
0.11673381 0.34647638 0.02487387
0.11673381 0.34647638 0.02487387
0.11673381 0.34647638 0.02487387
0.11673381 0.34647638 0.02487387
0.14088354 0.35476170 0.01687741
0.16766031 0.36220651 0.01075236
0.19864693 0.36949167 0.00493936
0.23400342 0.37644780 0.00000000
0.27403502 0.38290898 0.00000000
0.31915159 0.38870892 0.00000000
0.36978642 0.39359247 0.00000000
0.42637992 0.39731039 0.00000000
0.48947095 0.39969395 0.00000000
0.55406247 0.40053503 0.00000000
0.61217843 0.39961442 0.00000000
0.66557475 0.39671852 0.00000000
0.71541900 0.39166838 0.00155908
0.76252455 0.38429191 0.00523348
0.80740131 0.37447100 0.00901765
0.85036211 0.36230089 0.01487040
0.89149523 0.34856050 0.02461340
0.93033680 0.33669883 0.04374104
0.96511012 0.33854648 0.08105331
0.99002958 0.38857417 0.15717177
1.00000000 0.50392371 0.27617252
1.00000000 0.61019099 0.40458209
1.00000000 0.68805390 0.53419352
1.00000000 0.74824560 0.63322333
1.00000000 0.79683419 0.70775218
1.00000000 0.83730799 0.76737670
1.00000000 0.87157232 0.81592294
1.00000000 0.90031963 0.85359007
0.13007754 0.39389592 0.01911957
0.13007754 0.39389592 0.01911957
0.13007754 0.39389592 0.01911957
0.13007754 0.39389592 0.01911957
0.13007754 0.39389592 0.01911957
0.15247608 0.40114100 0.01292550
0.17707173 0.40805820 0.00783605
0.20556852 0.41517471 0.00131713
0.23825974 0.42217448 0.00000000
0.27553947 0.42910260 0.00000000
0.31787770 0.43570297 0.00000000
0.36581750 0.44176517 0.00000000
0.41986598 0.44697601 0.00000000
0.48053644 0.45105182 0.00000000
0.54472316 0.45380221 0.00000000
0.60321871 0.45497573 0.00000000
0.65720089 0.45431583 0.00000000
0.70777595 0.45156305 0.00000000
0.75564082 0.44650610 0.00255583
0.80130415 0.43899089 0.00723473
0.84505885 0.42904020 0.01323371
0.88695664 0.41732113 0.02363345
0.92661675 0.40651139 0.04235675
0.96240714 0.40607360 0.07875939
0.98909687 0.44463764 0.15261998
1.00000000 0.54581008 0.27653414
1.00000000 0.63581682 0.41015563
1.00000000 0.70593496 0.54327117
1.00000000 0.76171483 0.64220602
1.00000000 0.80748189 0.71640644
1.00000000 0.84597485 0.77553841
1.00000000 0.87879029 0.82349191
1.00000000 0.90647743 0.86054970
0.14533235 0.44468852 0.01419938
0.14533235 0.44468852 0.01419938
0.14533235 0.44468852 0.01419938
0.14533235 0.44468852 0.01419938
0.14533235 0.44468852 0.01419938
0.16599548 0.45108012 0.00973829
0.18854121 0.45752023 0.00515944
0.21475152 0.46420522 0.00099129
0.24493045 0.47123777 0.00000000
0.27957231 0.47838409 0.00000000
0.31917971 0.48548169 0.00000000
0.36433501 0.49237528 0.00000000
0.41566331 0.49880814 0.00000000
0.47374483 0.50439708 0.00000000
0.53665249 0.50877044 0.00000000
0.59495855 0.51179379 0.00000000
0.64906796 0.51323147 0.00000000
0.70002073 0.51283221 0.00000000
0.74844411 0.51030435 0.00000000
0.79474227 0.50537582 0.00558079
0.83918820 0.49787477 0.01219413
0.88183339 0.48829987 0.02257021
0.92230516 0.47884036 0.04137326
0.95918157 0.47690429 0.07666393
0.98787414 0.50553584 0.14717629
0.99982778 0.58646220 0.27660018
1.00000000 0.66260422 0.41637173
1.00000000 0.72532891 0.55351371
1.00000000 0.77667787 0.65266365
1.00000000 0.81947547 0.72654838
1.00000000 0.85584308 0.78509621
1.00000000 0.88708597 0.83240634
1.00000000 0.91360995 0.86878961
0.16255671 0.49946420 0.01018399
0.16255671 0.49946420 0.01018399
0.16255671 0.49946420 0.01018399
0.16255671 0.49946420 0.01018399
0.16255671 0.49946420 0.01018399
0.18150871 0.50510098 0.00725629
0.20213903 0.51089801 0.00294403
0.22621760 0.51687375 0.00027792
0.25405233 0.52326028 0.00000000
0.28617360 0.52976112 0.00000000
0.32314111 0.53640936 0.00000000
0.36552615 0.54285209 0.00000000
0.41400824 0.54906668 0.00000000
0.46928872 0.55481749 0.00000000
0.53032067 0.55981676 0.00000000
0.58781600 0.56378418 0.00000000
0.64157501 0.56660992 0.00000000
0.69249743 0.56806635 0.00000000
0.74116139 0.56792473 0.00000000
0.78789798 0.56593826 0.00411070
0.83289718 0.56194308 0.01102716
0.87619109 0.55608679 0.02175477
0.91745112 0.54961168 0.04021302
0.95540788 0.54741485 0.07457010
0.98618088 0.56437920 0.14142456
0.99925937 0.62617406 0.27678560
1.00000000 0.69039889 0.42352230
1.00000000 0.74612794 0.56492896
1.00000000 0.79305374 0.66454496
1.00000000 0.83282917 0.73828546
1.00000000 0.86699240 0.79634144
1.00000000 0.89654058 0.84288860
1.00000000 0.92180096 0.87850864
0.18182843 0.55345868 0.00712473
0.18182843 0.55345868 0.00712473
0.18182843 0.55345868 0.00712473
0.18182843 0.55345868 0.00712473
0.18182843 0.55345868 0.00712473
0.19912488 0.55764106 0.00550708
0.21799091 0.56203964 0.00284522
0.24004553 0.56682082 0.00000000
0.26571099 0.57190916 0.00000000
0.29543562 0.57743668 0.00000000
0.32984889 0.58305533 0.00000000
0.36953277 0.58889550 0.00000000
0.41515687 0.59463858 0.00000000
0.46747973 0.60022835 0.00000000
0.52603518 0.60546551 0.00000000
0.58221110 0.61007524 0.00000000
0.63509221 0.61376872 0.00000000
0.68556962 0.61646112 0.00000000
0.73410041 0.61793467 0.00000000
0.78098420 0.61799066 0.00399762
0.82634349 0.61644687 0.01020635
0.87015321 0.61334008 0.02080458
0.91208578 0.60943894 0.03945881
0.95100674 0.60787506 0.07322764
0.98341266 0.61865027 0.13863052
0.99831623 0.66518614 0.27777918
1.00000000 0.71902871 0.43200542
1.00000000 0.76819733 0.57780390
1.00000000 0.81078573 0.67795157
1.00000000 0.84750726 0.75172741
1.00000000 0.87939354 0.80931210
1.00000000 0.90720154 0.85515655
1.00000000 0.93111115 0.88990511
0.20323242 0.60266859 0.00485725
0.20323242 0.60266859 0.00485725
0.20323242 0.60266859 0.00485725
0.20323242 0.60266859 0.00485725
0.20323242 0.60266859 0.00485725
0.21897792 0.60585405 0.00447712
0.23620449 0.60925975 0.00332356
0.25637025 0.61314759 0.00000000
0.28000355 0.61724611 0.00000000
0.30749002 0.62179239 0.00000000
0.33943697 0.62669992 0.00000000
0.37649135 0.63179643 0.00000000
0.41931001 0.63708918 0.00000000
0.46864533 0.64236161 0.00000000
0.52424841 0.64752496 0.00000000
0.57838905 0.65240942 0.00000000
0.63000772 0.65675130 0.00000000
0.67957523 0.66025131 0.00000000
0.72760128 0.66285240 0.00000000
0.77428414 0.66435208 0.00406005
0.81972996 0.66459966 0.01023695
0.86386268 0.66354288 0.02035406
0.90633209 0.66164167 0.03879523
0.94604683 0.66100508 0.07295810
0.97975585 0.66869757 0.13853990
0.99705868 0.70330338 0.27889643
1.00000000 0.74826024 0.44209837
1.00000000 0.79137401 0.59236437
1.00000000 0.82976252 0.69320231
1.00000000 0.86342815 0.76697794
1.00000000 0.89301546 0.82419044
1.00000000 0.91903159 0.86929265
1.00000000 0.94158130 0.90319871
0.22692385 0.64853838 0.00336241
0.22692385 0.64853838 0.00336241
0.22692385 0.64853838 0.00336241
0.22692385 0.64853838 0.00336241
0.22692385 0.64853838 0.00336241
0.24121870 0.65100931 0.00392968
0.25691985 0.65368330 0.00376933
0.27538583 0.65677555 0.00161698
0.29707863 0.66020870 0.00000000
0.32247101 0.66394559 0.00113133
0.35207686 0.66811558 0.00000000
0.38658843 0.67260758 0.00000000
0.42664496 0.67733321 0.00000000
0.47301891 0.68224067 0.00000000
0.52536299 0.68718057 0.00000000
0.57678783 0.69204119 0.00000000
0.62651884 0.69667601 0.00000000
0.67487865 0.70082989 0.00000000
0.72197802 0.70419036 0.00000000
0.76811944 0.70673273 0.00193717
0.81332346 0.70828612 0.01043266
0.85752016 0.70878951 0.02053468
0.90033260 0.70848847 0.03878909
0.94072221 0.70878762 0.07288090
0.97564608 0.71469506 0.13909562
0.99560475 0.74037194 0.27955901
1.00000000 0.77783807 0.45336829
1.00000000 0.81546786 0.60886347
1.00000000 0.84984638 0.71057905
1.00000000 0.88050866 0.78443898
1.00000000 0.90777408 0.84116917
1.00000000 0.93199507 0.88554375
1.00000000 0.95316356 0.91852776
0.25311039 0.69197588 0.00284341
0.25311039 0.69197588 0.00284341
0.25311039 0.69197588 0.00284341
0.25311039 0.69197588 0.00284341
0.25311039 0.69197588 0.00284341
0.26607357 0.69391623 0.00404598
0.28037297 0.69603521 0.00456544
0.29726150 0.69851057 0.00397420
0.31714779 0.70137961 0.00000000
0.34055860 0.70447984 0.00237904
0.36795857 0.70796317 0.00219770
0.40000303 0.71188668 0.00000000
0.43739128 0.71606277 0.00000000
0.48084916 0.72051868 0.00000000
0.52961495 0.72514504 0.00000000
0.57779645 0.72984302 0.00000000
0.62505884 0.73448412 0.00000000
0.67163370 0.73893851 0.00000000
0.71757889 0.74295994 0.00000000
0.76278716 0.74622111 0.00000000
0.80743240 0.74874291 0.00952409
0.85137756 0.75041505 0.02101834
0.89429203 0.75138139 0.03929392
0.93518574 0.75254495 0.07329474
0.97128039 0.75739209 0.13936640
0.99403209 0.77640789 0.27927797
1.00000000 0.80759916 0.46617163
1.00000000 0.84027366 0.62727648
1.00000000 0.87085342 0.73042957
1.00000000 0.89857770 0.80437238
1.00000000 0.92354288 0.86054420
1.00000000 0.94594950 0.90399812
1.00000000 0.96577248 0.93604400
0.28206189 0.73358331 0.00372795
0.28206189 0.73358331 0.00372795
0.28206189 0.73358331 0.00372795
0.28206189 0.73358331 0.00372795
0.28206189 0.73358331 0.00372795
0.29379559 0.73512066 0.00492034
0.30679205 0.73681133 0.00563436
0.32220463 0.73880205 0.00560535
0.34044663 0.74112987 0.00443453
0.36195425 0.74378762 0.00196228
0.38728047 0.74668503 0.00407583
0.41698291 0.74998753 0.00321164
0.45179679 0.75372692 0.00000000
0.49242567 0.75766498 0.00000000
0.53713360 0.76191969 0.00000000
0.58164441 0.76633743 0.00000000
0.62600451 0.77085640 0.00000000
0.67028256 0.77533576 0.00000000
0.71452010 0.77966005 0.00000000
0.75862445 0.78359303 0.00275221
0.80233822 0.78679546 0.01021204
0.84572932 0.78935589 0.02130141
0.88844163 0.79129796 0.04042197
0.92961659 0.79321512 0.07424923
0.96676333 0.79744935 0.13975466
0.99239825 0.81150793 0.27746140
1.00000000 0.83743603 0.48121785
1.00000000 0.86559454 0.64816910
1.00000000 0.89253918 0.75290064
1.00000000 0.91741039 0.82710208
1.00000000 0.94012297 0.88258462
1.00000000 0.96074404 0.92486768
1.00000000 0.97920361 0.95560961
0.31407448 0.77377819 0.00575148
0.31407448 0.77377819 0.00575148
0.31407448 0.77377819 0.00575148
0.31407448 0.77377819 0.00575148
0.31407448 0.77377819 0.00575148
0.32468993 0.77500320 0.00673204
0.33649001 0.77635786 0.00744502
0.35053735 0.77796293 0.00770457
0.36723948 0.77985314 0.00743118
0.38701465 0.78206642 0.00586243
0.41037654 0.78453762 0.00593536
0.43786634 0.78729938 0.00706961
0.47019768 0.79048311 0.00640833
0.50795226 0.79406242 0.00103647
0.54796769 0.79782744 0.00423782
0.58852485 0.80192974 0.00000000
0.62961163 0.80618967 0.00060810
0.67121749 0.81057489 0.00000000
0.71327793 0.81493608 0.00347752
0.75572648 0.81917154 0.00676966
0.79838218 0.82305821 0.01377386
0.84085483 0.82625244 0.02396693
0.88306335 0.82896004 0.04236976
0.92421416 0.83149787 0.07642326
0.96220332 0.83541032 0.14077364
0.99065898 0.84581638 0.27475057
1.00000000 0.86729245 0.50006983
1.00000000 0.89127977 0.67269438
1.00000000 0.91470101 0.77898285
1.00000000 0.93673235 0.85303244
1.00000000 0.95721027 0.90737255
1.00000000 0.97607459 0.94789805
1.00000000 0.99321420 0.97674754
0.34969764 0.81284753 0.01011171
0.34969764 0.81284753 0.01011171
0.34969764 0.81284753 0.01011171
0.34969764 0.81284753 0.01011171
0.34969764 0.81284753 0.01011171
0.35930730 0.81382660 0.01091331
0.37002048 0.81491415 0.01159573
0.38281595 0.81620924 0.01205832
0.39808472 0.81774339 0.01229710
0.41624732 0.81955154 0.01207238
0.43773816 0.82167222 0.01061236
0.46313962 0.82399650 0.01196202
0.49306923 0.82667727 0.01280735
0.52693623 0.82975052 0.01223464
0.56218278 0.83318648 0.01017878
0.59862031 0.83683410 0.01181201
0.63618475 0.84081838 0.01062400
0.67477439 0.84495801 0.01220260
0.71430601 0.84924496 0.01334760
0.75464173 0.85352569 0.01678368
0.79566048 0.85771240 0.02158238
0.83711764 0.86160649 0.03165509
0.87843484 0.86487576 0.04913104
0.91921683 0.86794933 0.08202168
0.95767347 0.87173756 0.14512487
0.98866786 0.87953930 0.27339525
1.00000000 0.89711691 0.52596515
