Luts Download/Canon Luts/3dlut/33grid-3dlut/full-to-full-range/CinemaGamut_CanonLog2-to-DCIP3_DCI_33_FF_Ver.2.0.cube
# Gamut : Cinema Gamut to DCI-P3
# Gamma : Canon Log 2 to DCI
# Range : Full in / Full out
# Version : 2.0 2019/10/24
# Copyright(c) 2019 Canon Inc. All Rights Reserved.
LUT_3D_SIZE 33
# LUT_3D_INPUT_RANGE 0.0 1.0
0.00000276 0.00000000 0.00000177
0.00000276 0.00000000 0.00000177
0.00000276 0.00000000 0.00000177
0.00313993 0.00000000 0.00200603
0.01768217 0.00833594 0.00966057
0.04431565 0.01717133 0.02099674
0.08120939 0.02595344 0.03435040
0.12992862 0.03568450 0.05065091
0.18311778 0.04445304 0.06706523
0.24022481 0.05165562 0.08346277
0.30247407 0.05645800 0.10038852
0.37053777 0.05920627 0.11872478
0.44522058 0.05927112 0.13876352
0.52726360 0.05553962 0.16052601
0.61163768 0.04764260 0.18181147
0.68648069 0.03676775 0.19796472
0.75241111 0.02643099 0.20966845
0.81044029 0.02369789 0.21774463
0.86135838 0.03514570 0.22304403
0.90572137 0.05411279 0.22645070
0.94355565 0.08231271 0.22925517
0.97390559 0.12307220 0.23372366
0.99310133 0.18271382 0.24502847
1.00000000 0.24520266 0.26428124
1.00000000 0.29168685 0.28322503
1.00000000 0.32609365 0.29947407
1.00000000 0.35188626 0.31261316
1.00000000 0.37142631 0.32285358
1.00000000 0.38622689 0.33050354
1.00000000 0.39741737 0.33595345
1.00000000 0.40575354 0.33951357
1.00000000 0.41172989 0.34139965
1.00000000 0.41565866 0.34174212
0.00000276 0.00000000 0.00000177
0.00000276 0.00000000 0.00000177
0.00000276 0.00000000 0.00000177
0.00313993 0.00000000 0.00200603
0.01768217 0.00833594 0.00966057
0.04431565 0.01717133 0.02099674
0.08120939 0.02595344 0.03435040
0.12992862 0.03568450 0.05065091
0.18311778 0.04445304 0.06706523
0.24022481 0.05165562 0.08346277
0.30247407 0.05645800 0.10038852
0.37053777 0.05920627 0.11872478
0.44522058 0.05927112 0.13876352
0.52726360 0.05553962 0.16052601
0.61163768 0.04764260 0.18181147
0.68648069 0.03676775 0.19796472
0.75241111 0.02643099 0.20966845
0.81044029 0.02369789 0.21774463
0.86135838 0.03514570 0.22304403
0.90572137 0.05411279 0.22645070
0.94355565 0.08231271 0.22925517
0.97390559 0.12307220 0.23372366
0.99310133 0.18271382 0.24502847
1.00000000 0.24520266 0.26428124
1.00000000 0.29168685 0.28322503
1.00000000 0.32609365 0.29947407
1.00000000 0.35188626 0.31261316
1.00000000 0.37142631 0.32285358
1.00000000 0.38622689 0.33050354
1.00000000 0.39741737 0.33595345
1.00000000 0.40575354 0.33951357
1.00000000 0.41172989 0.34139965
1.00000000 0.41565866 0.34174212
0.00000276 0.00000000 0.00000177
0.00000276 0.00000000 0.00000177
0.00000276 0.00000000 0.00000177
0.00313993 0.00000000 0.00200603
0.01768217 0.00833594 0.00966057
0.04431565 0.01717133 0.02099674
0.08120939 0.02595344 0.03435040
0.12992862 0.03568450 0.05065091
0.18311778 0.04445304 0.06706523
0.24022481 0.05165562 0.08346277
0.30247407 0.05645800 0.10038852
0.37053777 0.05920627 0.11872478
0.44522058 0.05927112 0.13876352
0.52726360 0.05553962 0.16052601
0.61163768 0.04764260 0.18181147
0.68648069 0.03676775 0.19796472
0.75241111 0.02643099 0.20966845
0.81044029 0.02369789 0.21774463
0.86135838 0.03514570 0.22304403
0.90572137 0.05411279 0.22645070
0.94355565 0.08231271 0.22925517
0.97390559 0.12307220 0.23372366
0.99310133 0.18271382 0.24502847
1.00000000 0.24520266 0.26428124
1.00000000 0.29168685 0.28322503
1.00000000 0.32609365 0.29947407
1.00000000 0.35188626 0.31261316
1.00000000 0.37142631 0.32285358
1.00000000 0.38622689 0.33050354
1.00000000 0.39741737 0.33595345
1.00000000 0.40575354 0.33951357
1.00000000 0.41172989 0.34139965
1.00000000 0.41565866 0.34174212
0.00313993 0.00000000 0.00200603
0.00313993 0.00000000 0.00200603
0.00313993 0.00000000 0.00200603
0.00313993 0.00000000 0.00200603
0.01768217 0.00833594 0.00966057
0.04429864 0.01734258 0.02085974
0.08115095 0.02618779 0.03364902
0.12983850 0.03603735 0.04948707
0.18301804 0.04491022 0.06600558
0.24013873 0.05216612 0.08247692
0.30241807 0.05696427 0.09946568
0.37050247 0.05970256 0.11791492
0.44521168 0.05968545 0.13804941
0.52727350 0.05584373 0.15990914
0.61165994 0.04776359 0.18128461
0.68650925 0.03626464 0.19751894
0.75244141 0.02477826 0.20929581
0.81046982 0.02189905 0.21743638
0.86138569 0.03309563 0.22279176
0.90574556 0.05352895 0.22624674
0.94357611 0.08210519 0.22909319
0.97392134 0.12299330 0.23359965
0.99311030 0.18269662 0.24494163
1.00000000 0.24520035 0.26422280
1.00000000 0.29168838 0.28318550
1.00000000 0.32609638 0.29944710
1.00000000 0.35188935 0.31259468
1.00000000 0.37142950 0.32284100
1.00000000 0.38622991 0.33049497
1.00000000 0.39742028 0.33594779
1.00000000 0.40575636 0.33951000
1.00000000 0.41173265 0.34139762
1.00000000 0.41566167 0.34174148
0.01125690 0.01597318 0.01170646
0.01125690 0.01597318 0.01170646
0.01125690 0.01597318 0.01170646
0.01125690 0.01597318 0.01170646
0.01890922 0.01924169 0.01335948
0.04068574 0.02847019 0.00000000
0.07781650 0.03857206 0.00000000
0.12600207 0.05109827 0.00000000
0.17886448 0.06270911 0.00000000
0.23633303 0.07173319 0.03858045
0.29967874 0.07657455 0.06167253
0.36886558 0.07804543 0.08680693
0.44459926 0.07531642 0.11136836
0.52749094 0.06714784 0.13709429
0.61244965 0.05191630 0.16187309
0.68762346 0.01981315 0.18109475
0.75369700 0.00000000 0.19552326
0.81174682 0.00000000 0.20599374
0.86260664 0.00000000 0.21337810
0.90685470 0.00000000 0.21859759
0.94452656 0.07104045 0.22300156
0.97465390 0.11886890 0.22894528
0.99353695 0.18166958 0.24171020
1.00000000 0.24498817 0.26207273
1.00000000 0.29170748 0.28175009
1.00000000 0.32619514 0.29848160
1.00000000 0.35201687 0.31194433
1.00000000 0.37156842 0.32240820
1.00000000 0.38636767 0.33021097
1.00000000 0.39755745 0.33577141
1.00000000 0.40589194 0.33941112
1.00000000 0.41186767 0.34135607
1.00000000 0.41580631 0.34175148
0.02296101 0.03886383 0.02460399
0.02296101 0.03886383 0.02460399
0.02296101 0.03886383 0.02460399
0.02303031 0.03891305 0.02455334
0.02926457 0.03987248 0.01963901
0.04394870 0.04537972 0.02637368
0.06989702 0.05778408 0.00000000
0.11680905 0.07254395 0.00000000
0.17003748 0.08567425 0.00000000
0.22736744 0.09727475 0.00000000
0.29083903 0.10621542 0.00000000
0.36159800 0.11022489 0.00000000
0.44004949 0.10670714 0.06559619
0.52563925 0.09478388 0.10186085
0.61233514 0.07573775 0.13323286
0.68853389 0.04478716 0.15752051
0.75517766 0.00000000 0.17609110
0.81349417 0.00000000 0.19003893
0.86441072 0.00000000 0.20038955
0.90857436 0.00000000 0.20815689
0.94604367 0.05334820 0.21481137
0.97581905 0.11460612 0.22287545
0.99411146 0.18184256 0.23783494
1.00000000 0.24583086 0.25971415
1.00000000 0.29260766 0.28033898
1.00000000 0.32704708 0.29767190
1.00000000 0.35280910 0.31153012
1.00000000 0.37231481 0.32226676
1.00000000 0.38707667 0.33025923
1.00000000 0.39824142 0.33595773
1.00000000 0.40655484 0.33969573
1.00000000 0.41251856 0.34171583
1.00000000 0.41646443 0.34218153
0.03405048 0.07010507 0.03716827
0.03405048 0.07010507 0.03716827
0.03405048 0.07010507 0.03716827
0.03415444 0.07012083 0.03698070
0.04175523 0.07028008 0.02782422
0.05623946 0.07280932 0.02250385
0.07753295 0.08057390 0.04082801
0.10945604 0.09645323 0.03490523
0.15854091 0.11235727 0.00000000
0.21630228 0.12543342 0.00000000
0.28004246 0.13641108 0.00000000
0.35087663 0.14414333 0.00000000
0.43012237 0.14628818 0.00000000
0.51845143 0.13919275 0.03488703
0.60968651 0.11766319 0.08914095
0.68859407 0.08945253 0.12333392
0.75689985 0.04491294 0.14856153
0.81610840 0.00000000 0.16786840
0.86741454 0.00000000 0.18263272
0.91159750 0.00000000 0.19417159
0.94878573 0.02307723 0.20419218
0.97791598 0.11372050 0.21553338
0.99495176 0.18635754 0.23409350
1.00000000 0.24997193 0.25807710
1.00000000 0.29615193 0.27989765
1.00000000 0.33013244 0.29794642
1.00000000 0.35557293 0.31226270
1.00000000 0.37485588 0.32330838
1.00000000 0.38948341 0.33153358
1.00000000 0.40055172 0.33739950
1.00000000 0.40878815 0.34125422
1.00000000 0.41470718 0.34337066
1.00000000 0.41864569 0.34393134
0.04547592 0.11125192 0.04974393
0.04547592 0.11125192 0.04974393
0.04547592 0.11125192 0.04974393
0.04565494 0.11125641 0.04942411
0.05576864 0.11103804 0.03666623
0.07152830 0.11178510 0.01937086
0.09296764 0.11624871 0.02145762
0.12153044 0.12682561 0.05606352
0.15659388 0.14234896 0.06298731
0.20624600 0.15826914 0.00000000
0.26845488 0.17141645 0.00000000
0.33945302 0.18158223 0.00000000
0.41890353 0.18782412 0.00000000
0.50768116 0.18755099 0.00000000
0.60060826 0.17649173 0.00000000
0.68465414 0.15212199 0.08045151
0.75755151 0.11754113 0.11321887
0.81927119 0.07794899 0.13979436
0.87184967 0.00000000 0.16067584
0.91645243 0.00000000 0.17756714
0.95332910 0.06201399 0.19251958
0.98132200 0.12886586 0.20886592
0.99595738 0.20230301 0.23307950
1.00000000 0.26218376 0.25962409
1.00000000 0.30601879 0.28270245
1.00000000 0.33852002 0.30143465
1.00000000 0.36301993 0.31617773
1.00000000 0.38169683 0.32752321
1.00000000 0.39593350 0.33597947
1.00000000 0.40672612 0.34201451
1.00000000 0.41476220 0.34599380
1.00000000 0.42055786 0.34822450
1.00000000 0.42444404 0.34890638
0.05458017 0.15601028 0.05971752
0.05458017 0.15601028 0.05971752
0.05458017 0.15601028 0.05971752
0.05484292 0.15600853 0.05929767
0.06751060 0.15560120 0.04441900
0.08547463 0.15547205 0.02429485
0.10702285 0.15795476 0.00000000
0.13549211 0.16550627 0.03185959
0.16923171 0.17703799 0.06686916
0.20881128 0.19191424 0.08007779
0.26126497 0.20768372 0.05882800
0.32840051 0.22093933 0.00000000
0.40727852 0.23038285 0.00000000
0.49641859 0.23486557 0.00000000
0.59046721 0.23104998 0.00000000
0.67667085 0.21557053 0.00000000
0.75392689 0.18849613 0.07622313
0.82163089 0.15051501 0.10542150
0.87751700 0.11575802 0.13390758
0.92356104 0.09409995 0.15792243
0.96017545 0.11087130 0.18027476
0.98611498 0.16127522 0.20448069
0.99714286 0.23061739 0.23645185
1.00000000 0.28411063 0.26588805
1.00000000 0.32395188 0.29022032
1.00000000 0.35393328 0.30957912
1.00000000 0.37685098 0.32472842
1.00000000 0.39448069 0.33635699
1.00000000 0.40800974 0.34502915
1.00000000 0.41829341 0.35121926
1.00000000 0.42598963 0.35534181
1.00000000 0.43155156 0.35769762
1.00000000 0.43531943 0.35852472
0.06163865 0.20374621 0.06902770
0.06163865 0.20374621 0.06902770
0.06163865 0.20374621 0.06902770
0.06194899 0.20374235 0.06853692
0.07621103 0.20329712 0.05232445
0.09669761 0.20276646 0.03409672
0.11940342 0.20399957 0.00000000
0.14724782 0.20943657 0.00000000
0.18102229 0.21854760 0.04100886
0.22016826 0.23053346 0.07301162
0.26596398 0.24513097 0.08926705
0.32378578 0.26064644 0.08172919
0.39709061 0.27386099 0.03855293
0.48463437 0.28255247 0.00000000
0.57939844 0.28374155 0.00000000
0.66768702 0.27433491 0.00000000
0.74802392 0.25487524 0.03925183
0.81983560 0.22586543 0.08111463
0.88192320 0.19004317 0.10850519
0.93189300 0.16183133 0.13761922
0.96851293 0.16762092 0.17025742
0.98961683 0.21462775 0.20813690
0.99793119 0.27080340 0.24638185
1.00000000 0.31600165 0.27833229
1.00000000 0.35078307 0.30382143
1.00000000 0.37750274 0.32376805
1.00000000 0.39830044 0.33930866
1.00000000 0.41447408 0.35120132
1.00000000 0.42697499 0.36006194
0.99974535 0.43654501 0.36641743
0.99945588 0.44372311 0.37067266
0.99933462 0.44891977 0.37315007
0.99972847 0.45248840 0.37413758
0.06560476 0.25552029 0.07940008
0.06560476 0.25552029 0.07940008
0.06560476 0.25552029 0.07940008
0.06591106 0.25551698 0.07886206
0.08048247 0.25514115 0.06143367
0.10394929 0.25446172 0.04483875
0.12901182 0.25490069 0.01466725
0.15732519 0.25865671 0.00000000
0.19061376 0.26591243 0.00000000
0.22985786 0.27596072 0.04531070
0.27548503 0.28840409 0.07520686
0.32885668 0.30290346 0.09304697
0.39418655 0.31811229 0.09264482
0.47538144 0.33103771 0.06885203
0.56810182 0.33714770 0.00000000
0.65796279 0.33241838 0.00000000
0.74130863 0.31798214 0.02373666
0.81670239 0.29518175 0.07186765
0.88300315 0.26629133 0.10067508
0.93784155 0.23909003 0.13112460
0.97561187 0.23770146 0.17184769
0.99168480 0.27770588 0.22240908
0.99785853 0.32110620 0.26490839
0.99995174 0.35779974 0.29875136
1.00000000 0.38706911 0.32518232
1.00000000 0.41011913 0.34565802
0.99979179 0.42841079 0.36155186
0.99927827 0.44278957 0.37366333
0.99882185 0.45399181 0.38267591
0.99842861 0.46263274 0.38916812
0.99813486 0.46916074 0.39356892
0.99802631 0.47390422 0.39619407
0.99848645 0.47720753 0.39736552
0.06578868 0.31224827 0.09225228
0.06578868 0.31224827 0.09225228
0.06578868 0.31224827 0.09225228
0.06606557 0.31224517 0.09172754
0.07871437 0.31200114 0.07319894
0.10538464 0.31135347 0.05643013
0.13399667 0.31135854 0.03837999
0.16440657 0.31389004 0.00000000
0.19819839 0.31944442 0.00000000
0.23723022 0.32787597 0.00000000
0.28293702 0.33872301 0.04530455
0.33615729 0.35166610 0.07420274
0.39829465 0.36617924 0.09286951
0.47291972 0.38105606 0.09601654
0.56010358 0.39147834 0.08007930
0.64914964 0.39132001 0.06051586
0.73468071 0.38119987 0.06126092
0.81353816 0.36279467 0.08195375
0.88357059 0.33883604 0.10831981
0.94132702 0.31662416 0.14198465
0.97827788 0.31697794 0.19213907
0.99263572 0.34623127 0.24816662
0.99753035 0.37938273 0.29328557
0.99874129 0.40848548 0.32841493
0.99868005 0.43237240 0.35554495
0.99833863 0.45174118 0.37652635
0.99784886 0.46739550 0.39275722
0.99737681 0.47982914 0.40507235
0.99696240 0.48960861 0.41424102
0.99660385 0.49720882 0.42087375
0.99632230 0.50299472 0.42542936
0.99635530 0.50728950 0.42828535
0.99680248 0.51020661 0.42959280
0.06166259 0.37480509 0.10789648
0.06166259 0.37480509 0.10789648
0.06166259 0.37480509 0.10789648
0.06186937 0.37480228 0.10741210
0.07189984 0.37462899 0.08990270
0.09854198 0.37419987 0.07020463
0.13228574 0.37401954 0.05328918
0.16659244 0.37566199 0.03693731
0.20250012 0.37985228 0.00000000
0.24228048 0.38674245 0.00000000
0.28798306 0.39617430 0.00000000
0.34119834 0.40781238 0.03962307
0.40308437 0.42132366 0.06999138
0.47509828 0.43594766 0.08920930
0.55761407 0.44837855 0.09302925
0.64417538 0.45181429 0.08525287
0.73037249 0.44555227 0.08252967
0.81211954 0.43072835 0.09536151
0.88567292 0.41030683 0.12159637
0.94591207 0.39162169 0.16046232
0.98076600 0.39433104 0.22137762
0.99362476 0.41695318 0.28228896
0.99751551 0.44276833 0.33039250
0.99807974 0.46601887 0.36720523
0.99763892 0.48547415 0.39531442
0.99696297 0.50141440 0.41684252
0.99631822 0.51436151 0.43326789
0.99578984 0.52479115 0.44571681
0.99537904 0.53311809 0.45503105
0.99509593 0.53966794 0.46182339
0.99494271 0.54471685 0.46656925
0.99498045 0.54846373 0.46960132
0.99541359 0.55098719 0.47107244
0.04823514 0.44406355 0.12523464
0.04823514 0.44406355 0.12523464
0.04823514 0.44406355 0.12523464
0.04834252 0.44406083 0.12480366
0.05468150 0.44393343 0.10892868
0.08174774 0.44368832 0.08849844
0.12077490 0.44355986 0.06778798
0.16152515 0.44464519 0.05208311
0.20171195 0.44775182 0.03358910
0.24389414 0.45315459 0.00000000
0.29048526 0.46120545 0.00000000
0.34377376 0.47164155 0.00000000
0.40552088 0.48417792 0.00000000
0.47713378 0.49836372 0.06031837
0.55780674 0.51111164 0.07832327
0.64286922 0.51642866 0.08053274
0.72954114 0.51292029 0.08106127
0.81392519 0.50083828 0.09530843
0.89126781 0.48269513 0.12730191
0.95442560 0.46578588 0.17612301
0.98686931 0.46971784 0.25249777
0.99792614 0.48809416 0.32055963
1.00000000 0.50882580 0.37316407
1.00000000 0.52767454 0.41285699
0.99892531 0.54365316 0.44262859
0.99781763 0.55685271 0.46511280
0.99694403 0.56761316 0.48212942
0.99631475 0.57632003 0.49491651
0.99586211 0.58330748 0.50444476
0.99553740 0.58884401 0.51141588
0.99534900 0.59313358 0.51632870
0.99535106 0.59633191 0.51953983
0.99576255 0.59848592 0.52120784
0.00000000 0.51590269 0.14105078
0.00000000 0.51590269 0.14105078
0.00000000 0.51590269 0.14105078
0.00000000 0.51590038 0.14067139
0.00000000 0.51581183 0.12652411
0.04879759 0.51567540 0.10773377
0.09587425 0.51573974 0.08316059
0.14667526 0.51657484 0.06357808
0.19328607 0.51893620 0.04744126
0.23920588 0.52334752 0.01234486
0.28784523 0.53006316 0.00000000
0.34161589 0.53941571 0.00000000
0.40293561 0.55117101 0.00000000
0.47379727 0.56500133 0.00000000
0.55389518 0.57834957 0.03907812
0.63856724 0.58494858 0.04551681
0.72619095 0.58352807 0.04787617
0.81357786 0.57367776 0.07145455
0.89571581 0.55703496 0.11687825
0.96378324 0.54014196 0.18068897
0.99673632 0.54225031 0.27627657
1.00000000 0.55643245 0.35503231
1.00000000 0.57312465 0.41439305
1.00000000 0.58854042 0.45853929
1.00000000 0.60172312 0.49116598
1.00000000 0.61272099 0.51533131
1.00000000 0.62174473 0.53335577
1.00000000 0.62905423 0.54681790
0.99971699 0.63494217 0.55679237
0.99928209 0.63962284 0.56408137
0.99901019 0.64326828 0.56926016
0.99895201 0.64599443 0.57271268
0.99930549 0.64783874 0.57463360
0.00000000 0.57994926 0.15119446
0.00000000 0.57994926 0.15119446
0.00000000 0.57994926 0.15119446
0.00000000 0.57994777 0.15086132
0.00000000 0.57990247 0.13833224
0.00000000 0.57985493 0.12157665
0.06715860 0.58004757 0.09869326
0.12390836 0.58097695 0.07324980
0.17773052 0.58301228 0.05557604
0.22717538 0.58684559 0.03644395
0.27755975 0.59283549 0.00000000
0.33128550 0.60155126 0.00000000
0.39157215 0.61287439 0.00000000
0.46053142 0.62679029 0.00000000
0.53861602 0.64104939 0.00000000
0.62235974 0.65000531 0.00000000
0.70988019 0.65131807 0.00000000
0.79932440 0.64449014 0.00000000
0.88605326 0.63016110 0.09898716
0.96095809 0.61316779 0.17619246
1.00000000 0.60980807 0.28589436
1.00000000 0.61856499 0.37761200
1.00000000 0.63095592 0.44617142
1.00000000 0.64314269 0.49636928
1.00000000 0.65377974 0.53294540
1.00000000 0.66274053 0.55962937
1.00000000 0.67019760 0.57917347
1.00000000 0.67629705 0.59357792
1.00000000 0.68121757 0.60421787
1.00000000 0.68514700 0.61197383
1.00000000 0.68821230 0.61749622
1.00000000 0.69050585 0.62122940
1.00000000 0.69205750 0.62341690
0.00000000 0.63667176 0.15583159
0.00000000 0.63667176 0.15583159
0.00000000 0.63667176 0.15583159
0.00000000 0.63667112 0.15553864
0.00000000 0.63666307 0.14445606
0.00000000 0.63668514 0.12959598
0.02090711 0.63697587 0.10893714
0.09804669 0.63803433 0.08161743
0.15827660 0.63999551 0.06119516
0.21100334 0.64350997 0.04476351
0.26182334 0.64918785 0.01059167
0.31563977 0.65732503 0.00000000
0.37403744 0.66853850 0.00000000
0.44048753 0.68267876 0.00000000
0.51558385 0.69781558 0.00000000
0.59669373 0.70882907 0.00000000
0.68301477 0.71376684 0.00000000
0.77236786 0.71068517 0.00000000
0.86202136 0.69983544 0.08810875
0.94396369 0.68386479 0.16798952
0.99804943 0.67415799 0.28043986
1.00000000 0.67678501 0.38773476
1.00000000 0.68436531 0.46808979
1.00000000 0.69296282 0.52634979
1.00000000 0.70095621 0.56802496
1.00000000 0.70781870 0.59790116
1.00000000 0.71359069 0.61943174
1.00000000 0.71840270 0.63501205
1.00000000 0.72232978 0.64635418
1.00000000 0.72546255 0.65460430
1.00000000 0.72792475 0.66049335
1.00000000 0.72977206 0.66452229
1.00000000 0.73101293 0.66697496
0.00000000 0.68685755 0.15550422
0.00000000 0.68685755 0.15550422
0.00000000 0.68685755 0.15550422
0.00000000 0.68685760 0.15524483
0.00000000 0.68687676 0.14539732
0.00000000 0.68694721 0.13218625
0.00000000 0.68729966 0.11374209
0.07657034 0.68841283 0.08865081
0.13811952 0.69043530 0.06473951
0.19321564 0.69379874 0.04822562
0.24396292 0.69927867 0.02666443
0.29640067 0.70715329 0.00000000
0.35283302 0.71825602 0.00000000
0.41619888 0.73253534 0.00000000
0.48776974 0.74846800 0.03457597
0.56530295 0.76119072 0.04360321
0.64853905 0.76897616 0.04076863
0.73665040 0.77038902 0.05072404
0.82671119 0.76368919 0.08945624
0.91411744 0.75024101 0.15622707
0.98476586 0.73577111 0.25548493
1.00000000 0.73232434 0.38299551
1.00000000 0.73469789 0.47869377
1.00000000 0.73929384 0.54769131
1.00000000 0.74426402 0.59630442
1.00000000 0.74885487 0.63032092
1.00000000 0.75279145 0.65430619
1.00000000 0.75612478 0.67136855
1.00000000 0.75892623 0.68355871
1.00000000 0.76121084 0.69232014
1.00000000 0.76299449 0.69857314
1.00000000 0.76432947 0.70287100
1.00000000 0.76520115 0.70555188
0.00000000 0.73117431 0.15078772
0.00000000 0.73117431 0.15078772
0.00000000 0.73117431 0.15078772
0.00000000 0.73117484 0.15055524
0.00000000 0.73121089 0.14171474
0.00000000 0.73131079 0.12986173
0.00000000 0.73169621 0.11329668
0.06094556 0.73282732 0.09055177
0.12091206 0.73489571 0.06541191
0.17592482 0.73821022 0.04904845
0.22621389 0.74350278 0.03164218
0.27614602 0.75129011 0.00000000
0.32978234 0.76221860 0.00000000
0.38988043 0.77668901 0.00000000
0.45720660 0.79331795 0.04496182
0.53072735 0.80742206 0.05718423
0.60999706 0.81746563 0.06378842
0.69474789 0.82220699 0.07208502
0.78391404 0.82050369 0.09731800
0.87335352 0.81087652 0.14729564
0.95524634 0.79619902 0.22952400
1.00000000 0.78605223 0.36089012
1.00000000 0.78294436 0.47533986
1.00000000 0.78316007 0.55878582
1.00000000 0.78474540 0.61702400
1.00000000 0.78670642 0.65686915
1.00000000 0.78861818 0.68410031
1.00000000 0.79028673 0.70296073
1.00000000 0.79173027 0.71616783
1.00000000 0.79298284 0.72547827
1.00000000 0.79398850 0.73203356
1.00000000 0.79470576 0.73655127
1.00000000 0.79512184 0.73940735
0.00734254 0.77019722 0.14185194
0.00734254 0.77019722 0.14185194
0.00734254 0.77019722 0.14185194
0.00651433 0.77019802 0.14163934
0.00000000 0.77024153 0.13355327
0.00000000 0.77035529 0.12270966
0.00000000 0.77075081 0.10754186
0.05557642 0.77186905 0.08666831
0.11026393 0.77392752 0.06253255
0.16229145 0.77720853 0.04700238
0.20967507 0.78241305 0.03257792
0.25687060 0.79016201 0.00000000
0.30702231 0.80091642 0.00000000
0.36251185 0.81561041 0.01125165
0.42602132 0.83262282 0.05026672
0.49487704 0.84783303 0.06655621
0.56969575 0.85975562 0.07621361
0.65016506 0.86720159 0.08661208
0.73589092 0.86908921 0.10618005
0.82532890 0.86463871 0.14384093
0.91247528 0.85271184 0.20815633
0.98434280 0.83812112 0.31385952
1.00000000 0.82971176 0.45372571
1.00000000 0.82543036 0.55715167
1.00000000 0.82332690 0.62901750
1.00000000 0.82234146 0.67718142
1.00000000 0.82188018 0.70904371
1.00000000 0.82167921 0.73027094
1.00000000 0.82155916 0.74465259
1.00000000 0.82152292 0.75455388
1.00000000 0.82155047 0.76138510
1.00000000 0.82153847 0.76603336
1.00000000 0.82137933 0.76898719
0.03751967 0.80441318 0.12858488
0.03751967 0.80441318 0.12858488
0.03751967 0.80441318 0.12858488
0.03682143 0.80441403 0.12838428
0.00000000 0.80445667 0.12076762
0.00000000 0.80457086 0.11054455
0.01067364 0.80495616 0.09626286
0.06446621 0.80603255 0.07680390
0.10974471 0.80802206 0.05615842
0.15485134 0.81126295 0.04274743
0.19716734 0.81640025 0.03087220
0.23928402 0.82416448 0.00000000
0.28625513 0.83473509 0.00000000
0.33658879 0.84953925 0.01674775
0.39521144 0.86685493 0.05700485
0.45966473 0.88293148 0.07265226
0.52947839 0.89634564 0.08682461
0.60532955 0.90591503 0.10179342
0.68656275 0.91080943 0.11962316
0.77261969 0.91004112 0.14890687
0.86129704 0.90321528 0.19683341
0.94404265 0.88953837 0.27595402
1.00000000 0.87582961 0.41137328
1.00000000 0.86671778 0.53944178
1.00000000 0.86073542 0.63048370
1.00000000 0.85655408 0.69071159
1.00000000 0.85346525 0.72926737
1.00000000 0.85106798 0.75382871
1.00000000 0.84917360 0.76968400
1.00000000 0.84762797 0.78016161
1.00000000 0.84640274 0.78719109
1.00000000 0.84544040 0.79186684
1.00000000 0.84457869 0.79479070
0.05540900 0.83423720 0.11037336
0.05540900 0.83423720 0.11037336
0.05540900 0.83423720 0.11037336
0.05529566 0.83423786 0.11017558
0.04945098 0.83427062 0.10269920
0.04981862 0.83437089 0.09267521
0.06105390 0.83472338 0.07887643
0.08483261 0.83572674 0.06100728
0.11981077 0.83761481 0.04699784
0.15511050 0.84080945 0.03722468
0.19028343 0.84588885 0.02795076
0.22651794 0.85356314 0.00000000
0.26780842 0.86416970 0.00898195
0.31418421 0.87879597 0.03406196
0.36715438 0.89641750 0.06385522
0.42622930 0.91320114 0.08228750
0.49205671 0.92754934 0.10318800
0.56296740 0.93880670 0.12400128
0.63955017 0.94593926 0.14711519
0.72081870 0.94829128 0.17348885
0.80586928 0.94519778 0.20788231
0.89209017 0.93649897 0.26066928
0.96844891 0.92144875 0.34851760
1.00000000 0.90761537 0.50150873
1.00000000 0.89741986 0.61925177
1.00000000 0.88987144 0.69675235
1.00000000 0.88398369 0.74490720
