Luts Download/Canon Luts/3dlut/33grid-3dlut/full-to-full-range/CinemaGamut_CanonLog3-to-BT2020_HLGKnee-Vivid_33_FF_Ver.2.0.cube
# Gamut : Cinema Gamut to BT.2020
# Gamma : Canon Log 3 to HLGKnee-Vivid
# Range : Full in / Full out
# Version : 2.0 2019/10/24
# Copyright(c) 2019 Canon Inc. All Rights Reserved.
LUT_3D_SIZE 33
# LUT_3D_INPUT_RANGE 0.0 1.0
0.00000002 0.00000000 0.00000006
0.00000002 0.00000000 0.00000006
0.00000002 0.00000000 0.00000006
0.00000002 0.00000000 0.00000006
0.00000002 0.00000000 0.00000006
0.10285328 0.03916359 0.04344586
0.16145816 0.04285809 0.05274891
0.21483930 0.04106659 0.05861208
0.26638318 0.03675062 0.06414511
0.31822330 0.02967544 0.07004968
0.37116260 0.02206121 0.07757627
0.42645316 0.01219760 0.08642292
0.48514499 0.00000000 0.09617821
0.54434252 0.00000000 0.10669991
0.59711875 0.00000000 0.11817291
0.64497494 0.00000000 0.13147494
0.68993208 0.00000000 0.14472152
0.73264324 0.00000000 0.15814628
0.77357475 0.00000000 0.17191193
0.81309147 0.00000000 0.18605101
0.85142023 0.00000000 0.20077626
0.88882053 0.00000000 0.21591872
0.92121595 0.00000000 0.22746572
0.94613919 0.03793901 0.23271433
0.96607421 0.07463391 0.23520665
0.98174017 0.12889401 0.24042836
0.99304728 0.21563707 0.26066152
0.99779651 0.35101952 0.31791443
0.99998995 0.47588636 0.38867062
1.00000000 0.57772585 0.46517311
1.00000000 0.64815428 0.54105037
1.00000000 0.70046116 0.60145179
1.00000000 0.73867524 0.64515176
0.00000002 0.00000000 0.00000006
0.00000002 0.00000000 0.00000006
0.00000002 0.00000000 0.00000006
0.00000002 0.00000000 0.00000006
0.00000002 0.00000000 0.00000006
0.10285328 0.03916359 0.04344586
0.16145816 0.04285809 0.05274891
0.21483930 0.04106659 0.05861208
0.26638318 0.03675062 0.06414511
0.31822330 0.02967544 0.07004968
0.37116260 0.02206121 0.07757627
0.42645316 0.01219760 0.08642292
0.48514499 0.00000000 0.09617821
0.54434252 0.00000000 0.10669991
0.59711875 0.00000000 0.11817291
0.64497494 0.00000000 0.13147494
0.68993208 0.00000000 0.14472152
0.73264324 0.00000000 0.15814628
0.77357475 0.00000000 0.17191193
0.81309147 0.00000000 0.18605101
0.85142023 0.00000000 0.20077626
0.88882053 0.00000000 0.21591872
0.92121595 0.00000000 0.22746572
0.94613919 0.03793901 0.23271433
0.96607421 0.07463391 0.23520665
0.98174017 0.12889401 0.24042836
0.99304728 0.21563707 0.26066152
0.99779651 0.35101952 0.31791443
0.99998995 0.47588636 0.38867062
1.00000000 0.57772585 0.46517311
1.00000000 0.64815428 0.54105037
1.00000000 0.70046116 0.60145179
1.00000000 0.73867524 0.64515176
0.00000002 0.00000000 0.00000006
0.00000002 0.00000000 0.00000006
0.00000002 0.00000000 0.00000006
0.00000002 0.00000000 0.00000006
0.00000002 0.00000000 0.00000006
0.10285328 0.03916359 0.04344586
0.16145816 0.04285809 0.05274891
0.21483930 0.04106659 0.05861208
0.26638318 0.03675062 0.06414511
0.31822330 0.02967544 0.07004968
0.37116260 0.02206121 0.07757627
0.42645316 0.01219760 0.08642292
0.48514499 0.00000000 0.09617821
0.54434252 0.00000000 0.10669991
0.59711875 0.00000000 0.11817291
0.64497494 0.00000000 0.13147494
0.68993208 0.00000000 0.14472152
0.73264324 0.00000000 0.15814628
0.77357475 0.00000000 0.17191193
0.81309147 0.00000000 0.18605101
0.85142023 0.00000000 0.20077626
0.88882053 0.00000000 0.21591872
0.92121595 0.00000000 0.22746572
0.94613919 0.03793901 0.23271433
0.96607421 0.07463391 0.23520665
0.98174017 0.12889401 0.24042836
0.99304728 0.21563707 0.26066152
0.99779651 0.35101952 0.31791443
0.99998995 0.47588636 0.38867062
1.00000000 0.57772585 0.46517311
1.00000000 0.64815428 0.54105037
1.00000000 0.70046116 0.60145179
1.00000000 0.73867524 0.64515176
0.00000002 0.00000000 0.00000006
0.05811044 0.07403053 0.02993028
0.12125065 0.13178942 0.08754433
0.15422725 0.15999416 0.10728227
0.10284502 0.10248430 0.02128483
0.10285328 0.03916359 0.04344586
0.16145816 0.04285809 0.05274891
0.21483930 0.04106659 0.05861208
0.26638318 0.03675062 0.06414511
0.31822330 0.02967544 0.07004968
0.37116260 0.02206121 0.07757627
0.42645316 0.01219760 0.08642292
0.48514499 0.00000000 0.09617821
0.54434252 0.00000000 0.10669991
0.59711875 0.00000000 0.11817291
0.64497494 0.00000000 0.13147494
0.68993208 0.00000000 0.14472152
0.73264324 0.00000000 0.15814628
0.77357475 0.00000000 0.17191193
0.81309147 0.00000000 0.18605101
0.85142023 0.00000000 0.20077626
0.88882053 0.00000000 0.21591872
0.92121595 0.00000000 0.22746572
0.94613919 0.03793901 0.23271433
0.96607421 0.07463391 0.23520665
0.98174017 0.12889401 0.24042836
0.99304728 0.21563707 0.26066152
0.99779651 0.35101952 0.31791443
0.99998995 0.47588636 0.38867062
1.00000000 0.57772585 0.46517311
1.00000000 0.64815428 0.54105037
1.00000000 0.70046116 0.60145179
1.00000000 0.73867524 0.64515176
0.03270980 0.06122066 0.00000000
0.09496403 0.11392704 0.07159170
0.14532781 0.16277334 0.10675726
0.18654369 0.20098952 0.12844067
0.16873552 0.17660852 0.09250064
0.10285328 0.03916359 0.04344586
0.16145816 0.04285809 0.05274891
0.21483930 0.04106659 0.05861208
0.26638318 0.03675062 0.06414511
0.31822330 0.02967544 0.07004968
0.37116260 0.02206121 0.07757627
0.42645316 0.01219760 0.08642292
0.48514499 0.00000000 0.09617821
0.54434252 0.00000000 0.10669991
0.59711875 0.00000000 0.11817291
0.64497494 0.00000000 0.13147494
0.68993208 0.00000000 0.14472152
0.73264324 0.00000000 0.15814628
0.77357475 0.00000000 0.17191193
0.81309147 0.00000000 0.18605101
0.85142023 0.00000000 0.20077626
0.88882053 0.00000000 0.21591872
0.92121595 0.00000000 0.22746572
0.94613919 0.03793901 0.23271433
0.96607421 0.07463391 0.23520665
0.98174017 0.12889401 0.24042836
0.99304728 0.21563707 0.26066152
0.99779651 0.35101952 0.31791443
0.99998995 0.47588636 0.38867062
1.00000000 0.57772585 0.46517311
1.00000000 0.64815428 0.54105037
1.00000000 0.70046116 0.60145179
1.00000000 0.73867524 0.64515176
0.05973245 0.09044213 0.05237499
0.05973245 0.09044213 0.05237499
0.05973245 0.09044213 0.05237499
0.05973245 0.09044213 0.05237499
0.05973245 0.09044213 0.05237499
0.10412345 0.10828026 0.05232925
0.15177648 0.11702925 0.04642021
0.20394670 0.11932169 0.02711925
0.25695433 0.11785211 0.00000000
0.32263862 0.09986597 0.00000000
0.37873524 0.08897410 0.00000000
0.43730640 0.07408095 0.00000000
0.49931152 0.05122362 0.00000000
0.55896062 0.00000000 0.00000000
0.61190443 0.00000000 0.00000000
0.64643558 0.07593927 0.08458875
0.69161594 0.06868925 0.10193472
0.73457985 0.05792380 0.11810404
0.77561637 0.04510809 0.13457261
0.81511136 0.02968488 0.15155517
0.85337900 0.00000000 0.16903514
0.89068552 0.00000000 0.18684486
0.92300967 0.00000000 0.20110226
0.94781165 0.01783195 0.20908501
0.96757781 0.06696543 0.21448348
0.98294531 0.12824177 0.22351295
0.99362596 0.22205798 0.24968886
0.99806791 0.35699371 0.31127986
1.00000000 0.48092678 0.38466227
1.00000000 0.58094725 0.46282191
1.00000000 0.65034731 0.53998792
1.00000000 0.70209223 0.60114756
1.00000000 0.74017082 0.64543376
0.07723226 0.13633636 0.06076856
0.07723226 0.13633636 0.06076856
0.07723226 0.13633636 0.06076856
0.07723226 0.13633636 0.06076856
0.07723226 0.13633636 0.06076856
0.11155080 0.15008203 0.04953240
0.15234280 0.15965854 0.04761526
0.19592693 0.16657322 0.04352633
0.24424344 0.17047559 0.02206028
0.29691356 0.17110345 0.00000000
0.35219334 0.16974011 0.00000000
0.41016883 0.16710731 0.00000000
0.47167665 0.16326782 0.00000000
0.53515993 0.15815240 0.00000000
0.59180215 0.15135621 0.01177442
0.64270229 0.14357629 0.04169509
0.68997059 0.13264208 0.05974064
0.73449553 0.11778516 0.07543481
0.77656143 0.10070803 0.09276843
0.81653973 0.08401102 0.11264274
0.85510365 0.06527024 0.13298778
0.89251209 0.04418536 0.15393134
0.92490126 0.02472052 0.17141422
0.94964166 0.03495877 0.18273396
0.96924611 0.07275203 0.19178689
0.98428332 0.13507785 0.20563613
0.99419047 0.23412500 0.23938187
0.99831838 0.36647841 0.30558855
1.00000000 0.48842324 0.38157252
1.00000000 0.58552696 0.46133921
1.00000000 0.65342476 0.53964607
1.00000000 0.70438108 0.60144177
1.00000000 0.74221833 0.64626671
0.06729574 0.18379339 0.00000000
0.06729574 0.18379339 0.00000000
0.06729574 0.18379339 0.00000000
0.06729574 0.18379339 0.00000000
0.06729574 0.18379339 0.00000000
0.11893418 0.18887408 0.04497045
0.15544417 0.19799976 0.03779241
0.19557556 0.20554574 0.03843646
0.23853373 0.21186554 0.03868331
0.28590711 0.21661093 0.02614169
0.33856731 0.21910660 0.00000000
0.39589025 0.21951112 0.00000000
0.45748998 0.21831076 0.00000000
0.52275251 0.21565045 0.00000000
0.58210665 0.21139347 0.00000000
0.63531772 0.20537210 0.00000000
0.68436946 0.19692532 0.01025655
0.73040368 0.18514651 0.03724650
0.77406644 0.16931147 0.05466890
0.81572501 0.14909259 0.07175265
0.85570765 0.12356284 0.08992628
0.89376192 0.10015534 0.11380033
0.92660107 0.07896009 0.13488577
0.95148504 0.07274827 0.15041505
0.97102924 0.09328290 0.16430951
0.98575492 0.14983051 0.18467650
0.99474206 0.25185863 0.22852506
0.99853357 0.37984814 0.30010265
1.00000000 0.49877749 0.37893586
1.00000000 0.59167167 0.46043821
1.00000000 0.65756207 0.53989995
1.00000000 0.70766320 0.60253775
1.00000000 0.74493830 0.64765247
0.10074567 0.21912582 0.05846172
0.10074567 0.21912582 0.05846172
0.10074567 0.21912582 0.05846172
0.10074567 0.21912582 0.05846172
0.10074567 0.21912582 0.05846172
0.12742196 0.22719664 0.04055450
0.16012379 0.23553725 0.02885289
0.19729120 0.24320228 0.02568322
0.23776861 0.25014727 0.03097268
0.28154527 0.25643041 0.03580364
0.32980131 0.26179263 0.03216187
0.38384309 0.26554272 0.00708223
0.44377644 0.26736985 0.00000000
0.50925285 0.26738367 0.00000000
0.57111884 0.26570815 0.00000000
0.62632084 0.26219895 0.00000000
0.67690719 0.25656049 0.00000000
0.72416250 0.24830483 0.00000000
0.76896055 0.23672328 0.01372718
0.81182812 0.22094133 0.03830135
0.85305433 0.19996595 0.05627182
0.89279388 0.17323422 0.07484859
0.92715214 0.14357707 0.09323452
0.95271588 0.12706476 0.11242192
0.97252537 0.13198170 0.13215868
0.98712977 0.17589926 0.16092391
0.99516884 0.27641492 0.21761486
0.99866059 0.39782405 0.29509732
1.00000000 0.51225576 0.37695089
1.00000000 0.59961802 0.46032846
1.00000000 0.66309017 0.54112582
1.00000000 0.71203827 0.60452461
1.00000000 0.74844644 0.64970677
0.11213376 0.26041733 0.05349877
0.11213376 0.26041733 0.05349877
0.11213376 0.26041733 0.05349877
0.11213376 0.26041733 0.05349877
0.11213376 0.26041733 0.05349877
0.13707500 0.26660871 0.03537025
0.16680879 0.27386903 0.02123483
0.20099663 0.28127798 0.01151987
0.23902203 0.28849973 0.01609181
0.28067372 0.29540924 0.02690415
0.32620228 0.30192941 0.03553085
0.37659019 0.30783635 0.03684076
0.43312320 0.31254563 0.02703546
0.49638502 0.31555536 0.00000000
0.55969628 0.31672779 0.00000000
0.61640174 0.31603122 0.00000000
0.66834425 0.31336517 0.00000000
0.71678887 0.30841281 0.00000000
0.76256047 0.30075952 0.00000000
0.80627862 0.28971192 0.00000000
0.84837649 0.27432241 0.03220985
0.88909948 0.25363692 0.04999781
0.92469811 0.22876003 0.06695271
0.95164573 0.20642982 0.08382183
0.97250714 0.19659814 0.10444898
0.98765710 0.22068214 0.13930747
0.99516742 0.31027185 0.20857861
0.99856484 0.42166769 0.29138727
1.00000000 0.52903106 0.37616244
1.00000000 0.60999117 0.46181203
1.00000000 0.67048831 0.54395157
1.00000000 0.71758414 0.60748522
1.00000000 0.75288219 0.65258244
0.12451689 0.30311995 0.04715676
0.12451689 0.30311995 0.04715676
0.12451689 0.30311995 0.04715676
0.12451689 0.30311995 0.04715676
0.12451689 0.30311995 0.04715676
0.14819322 0.30779219 0.02998307
0.17554284 0.31396524 0.01495011
0.20698604 0.32088119 0.00000000
0.24241385 0.32809478 0.00000000
0.28181040 0.33536349 0.01025450
0.32535115 0.34251149 0.02548944
0.37338856 0.34941584 0.03589832
0.42678622 0.35587493 0.04016989
0.48675112 0.36140334 0.03614331
0.54952920 0.36542552 0.02269986
0.60675366 0.36761136 0.00000000
0.65957086 0.36783114 0.00000000
0.70894127 0.36593652 0.00000000
0.75563956 0.36157673 0.00000000
0.80017391 0.35438524 0.00000000
0.84298908 0.34373036 0.00256031
0.88442312 0.32870978 0.03161736
0.92099626 0.30904365 0.04992769
0.94892123 0.28839841 0.06836726
0.97066501 0.27484016 0.09139820
0.98656369 0.28564869 0.12999244
0.99480275 0.35300927 0.20261154
0.99846263 0.45195334 0.28963553
1.00000000 0.54952221 0.37748838
1.00000000 0.62293404 0.46525507
1.00000000 0.67959750 0.54818414
1.00000000 0.72444952 0.61159701
1.00000000 0.75839947 0.65646291
0.13851121 0.34794839 0.04032753
0.13851121 0.34794839 0.04032753
0.13851121 0.34794839 0.04032753
0.13851121 0.34794839 0.04032753
0.13851121 0.34794839 0.04032753
0.16100448 0.35145806 0.02474381
0.18628822 0.35668878 0.00906599
0.21529472 0.36297101 0.00000000
0.24818791 0.36986287 0.00000000
0.28515066 0.37720305 0.00000000
0.32651060 0.38475170 0.00868186
0.37257746 0.39230005 0.02548798
0.42377024 0.39969296 0.03658466
0.48089633 0.40675401 0.04294477
0.54186654 0.41303797 0.04196902
0.59843322 0.41796403 0.03393599
0.65127420 0.42107815 0.01805183
0.70113964 0.42210848 0.00000000
0.74847079 0.42088432 0.00000000
0.79372004 0.41704013 0.00000000
0.83723851 0.41009803 0.00000000
0.87930530 0.39951295 0.00258584
0.91676462 0.38425763 0.03489890
0.94557162 0.36587278 0.05794124
0.96817595 0.35093508 0.08458765
0.98495314 0.35325587 0.12561041
0.99428295 0.40159020 0.19887619
0.99832466 0.48805733 0.28956306
1.00000000 0.57262341 0.38045944
1.00000000 0.63812812 0.47052617
1.00000000 0.69051308 0.55400322
1.00000000 0.73279704 0.61708928
1.00000000 0.76515933 0.66155960
0.15449086 0.39554783 0.03385146
0.15449086 0.39554783 0.03385146
0.15449086 0.39554783 0.03385146
0.15449086 0.39554783 0.03385146
0.15449086 0.39554783 0.03385146
0.17567149 0.39819724 0.02007733
0.19906749 0.40264865 0.00000000
0.22592640 0.40807595 0.00000000
0.25639126 0.41456559 0.00000000
0.29095561 0.42177895 0.00000000
0.32994706 0.42943268 0.00000000
0.37383003 0.43741386 0.00958535
0.42301178 0.44548175 0.02594664
0.47796167 0.45345614 0.03747308
0.53696318 0.46116956 0.04480033
0.59218531 0.46820366 0.04577602
0.64422590 0.47398762 0.04076192
0.69384181 0.47797152 0.02995870
0.74141585 0.47976156 0.01082275
0.78712836 0.47910130 0.00000000
0.83120752 0.47560569 0.00000000
0.87389940 0.46866936 0.00000000
0.91230555 0.45685774 0.01314585
0.94200451 0.44038288 0.04830807
0.96547047 0.42481357 0.07921963
0.98317621 0.42136411 0.12280243
0.99367193 0.45500714 0.19644522
0.99815893 0.52833321 0.29125569
1.00000000 0.59792043 0.38544958
1.00000000 0.65557343 0.47804690
1.00000000 0.70336620 0.56171811
1.00000000 0.74277627 0.62421441
1.00000000 0.77330734 0.66808261
0.17253742 0.44655681 0.02781688
0.17253742 0.44655681 0.02781688
0.17253742 0.44655681 0.02781688
0.17253742 0.44655681 0.02781688
0.17253742 0.44655681 0.02781688
0.19233508 0.44855942 0.01607099
0.21403801 0.45220847 0.00000000
0.23882836 0.45702524 0.00000000
0.26710698 0.46290854 0.00000000
0.29933232 0.46970818 0.00000000
0.33594803 0.47732544 0.00000000
0.37745646 0.48548322 0.00000000
0.42439921 0.49401615 0.01015984
0.47726583 0.50269449 0.02623819
0.53438177 0.51112322 0.03778819
0.58808861 0.51910946 0.04577435
0.63890472 0.52632198 0.04835473
0.68768712 0.53230051 0.04537504
0.73487032 0.53657364 0.03694909
0.78064679 0.53877208 0.02297207
0.82506771 0.53860509 0.00000000
0.86823514 0.53561621 0.00000000
0.90763871 0.52782441 0.00000000
0.93835442 0.51386676 0.03790428
0.96275490 0.49812972 0.07387489
0.98141678 0.49054063 0.12020473
0.99308893 0.51251853 0.19463547
0.99800625 0.56843130 0.29464253
1.00000000 0.62518901 0.39299891
1.00000000 0.67521113 0.48852687
1.00000000 0.71823487 0.57164040
1.00000000 0.75450000 0.63321886
1.00000000 0.78300815 0.67631870
0.19277561 0.50157726 0.02239077
0.19277561 0.50157726 0.02239077
0.19277561 0.50157726 0.02239077
0.19277561 0.50157726 0.02239077
0.19277561 0.50157726 0.02239077
0.21114007 0.50307822 0.01278593
0.23123222 0.50601571 0.00000000
0.25409243 0.51017289 0.00000000
0.28038192 0.51508717 0.00000000
0.31036523 0.52107390 0.00000000
0.34469147 0.52769229 0.00000000
0.38377224 0.53496830 0.00000000
0.42827838 0.54260327 0.00000000
0.47882237 0.55041926 0.00946697
0.53382176 0.55820215 0.02587278
0.58588698 0.56576420 0.03753235
0.63533874 0.57300659 0.04633037
0.68299809 0.57964610 0.05020784
0.72936100 0.58528121 0.04868125
0.77467776 0.58946266 0.04158181
0.81903943 0.59178926 0.02827757
0.86245858 0.59185645 0.00000000
0.90272179 0.58796812 0.00000000
0.93457306 0.57775606 0.02917708
0.96002809 0.56487020 0.06967764
0.97972822 0.55606281 0.11814723
0.99258264 0.56674745 0.19361083
0.99789688 0.60790660 0.29985132
1.00000000 0.65399760 0.40330204
1.00000000 0.69693813 0.50249529
1.00000000 0.73516703 0.58430562
1.00000000 0.76812875 0.64453708
1.00000000 0.79441549 0.68660319
0.21535823 0.55543036 0.01778028
0.21535823 0.55543036 0.01778028
0.21535823 0.55543036 0.01778028
0.21535823 0.55543036 0.01778028
0.21535823 0.55543036 0.01778028
0.23227513 0.55636655 0.01049463
0.25078417 0.55836508 0.00540795
0.27195435 0.56129984 0.00000000
0.29626009 0.56502170 0.00000000
0.32426687 0.56949113 0.00000000
0.35626469 0.57486125 0.00000000
0.39301273 0.58080328 0.00000000
0.43502048 0.58733011 0.00000000
0.48302181 0.59423862 0.00000000
0.53537912 0.60136849 0.00694744
0.58547031 0.60851267 0.02507489
0.63340478 0.61548937 0.03723370
0.67980292 0.62222155 0.04676644
0.72512313 0.62845505 0.05159327
0.76964654 0.63383180 0.05103846
0.81351644 0.63791380 0.04428110
0.85678500 0.64024480 0.02803900
0.89771601 0.63921444 0.00000000
0.93066103 0.63186028 0.02754008
0.95724292 0.62111195 0.06782322
0.97808710 0.61202212 0.11776088
0.99211237 0.61617336 0.19441743
0.99783103 0.64675175 0.30767665
1.00000000 0.68405180 0.41680983
1.00000000 0.72054123 0.51987691
1.00000000 0.75408638 0.59978049
1.00000000 0.78366444 0.65851829
1.00000000 0.80765846 0.69932698
0.24045155 0.60454402 0.01401292
0.24045155 0.60454402 0.01401292
0.24045155 0.60454402 0.01401292
0.24045155 0.60454402 0.01401292
0.24045155 0.60454402 0.01401292
0.25595079 0.60513451 0.00933067
0.27294567 0.60651945 0.00818730
0.29254891 0.60860646 0.00077343
0.31495826 0.61146945 0.00000000
0.34099482 0.61485336 0.00000000
0.37091872 0.61901988 0.00000000
0.40531923 0.62394976 0.00000000
0.44489920 0.62944615 0.00000000
0.49029567 0.63545769 0.00000000
0.53940020 0.64186747 0.00000000
0.58695134 0.64852431 0.00000000
0.63310224 0.65522468 0.02391828
0.67807076 0.66178730 0.03690524
0.72219870 0.66815445 0.04720778
0.76573988 0.67408743 0.05266580
0.80884258 0.67925651 0.05245370
0.85159645 0.68321249 0.04423199
0.89277336 0.68453907 0.02575321
0.92674918 0.67950993 0.03418290
0.95445701 0.67061346 0.06868548
0.97644965 0.66188265 0.11934052
0.99167399 0.66210059 0.19772785
0.99778067 0.68501018 0.31903526
1.00000000 0.71509580 0.43477869
1.00000000 0.74579174 0.54051704
1.00000000 0.77483482 0.61820499
1.00000000 0.80105892 0.67524986
1.00000000 0.82268691 0.71470202
0.26826594 0.65034660 0.01105729
0.26826594 0.65034660 0.01105729
0.26826594 0.65034660 0.01105729
0.26826594 0.65034660 0.01105729
0.26826594 0.65034660 0.01105729
0.28239441 0.65071701 0.00884169
0.29794489 0.65168605 0.00994528
0.31598085 0.65318865 0.00867034
0.33678915 0.65528713 0.00204768
0.36082487 0.65798644 0.00000000
0.38879888 0.66118387 0.00000000
0.42098087 0.66515430 0.00000000
0.45813521 0.66974884 0.00000000
0.50095098 0.67492788 0.00000000
0.54619169 0.68057315 0.00000000
0.59065400 0.68662877 0.00000000
0.63453735 0.69294915 0.00000000
0.67786159 0.69933331 0.02273355
0.72062346 0.70559276 0.03657927
0.76302130 0.71168775 0.04745086
0.80518052 0.71739328 0.05344690
0.84717537 0.72238529 0.05268875
0.88823472 0.72552898 0.04301630
0.92296828 0.72262726 0.04523455
0.95175199 0.71542281 0.07254318
0.97491432 0.70733281 0.12238811
0.99129463 0.70530989 0.20313473
0.99776401 0.72256932 0.33457386
1.00000000 0.74679387 0.45811521
1.00000000 0.77238102 0.56480633
1.00000000 0.79725980 0.63979400
1.00000000 0.82017730 0.69488733
1.00000000 0.83947258 0.73288895
0.29907644 0.69373708 0.00934811
0.29907644 0.69373708 0.00934811
0.29907644 0.69373708 0.00934811
0.29907644 0.69373708 0.00934811
0.29907644 0.69373708 0.00934811
0.31190564 0.69396271 0.00934709
0.32609120 0.69464197 0.01168159
0.34264046 0.69572647 0.01207617
0.36192726 0.69726367 0.01032874
0.38415138 0.69934641 0.00473463
0.41009264 0.70188657 0.00000000
0.44024088 0.70496630 0.00000000
0.47499439 0.70879252 0.00000000
0.51486657 0.71313831 0.00000000
0.55584920 0.71808510 0.00000000
0.59688975 0.72346233 0.00000000
0.63802490 0.72926102 0.00000000
0.67926409 0.73533719 0.00000000
0.72048868 0.74149234 0.02102460
0.76156686 0.74752421 0.03593202
0.80261692 0.75341609 0.04776815
0.84368279 0.75894922 0.05437666
0.88431174 0.76337713 0.05341164
0.91959584 0.76231062 0.05461369
0.94924634 0.75677338 0.07804319
0.97351949 0.74954861 0.12727829
0.99104192 0.74627729 0.21072716
0.99787813 0.75929042 0.35395404
1.00000000 0.77874600 0.48746056
1.00000000 0.79997963 0.59275600
1.00000000 0.82106550 0.66484157
1.00000000 0.84089992 0.71772597
1.00000000 0.85788069 0.75404640
0.33317298 0.73531554 0.00900672
0.33317298 0.73531554 0.00900672
0.33317298 0.73531554 0.00900672
0.33317298 0.73531554 0.00900672
0.33317298 0.73531554 0.00900672
0.34478261 0.73544409 0.01041353
0.35767801 0.73591806 0.01313090
0.37281118 0.73669953 0.01421486
0.39054707 0.73782984 0.01389527
0.41122862 0.73937631 0.01178675
0.43513323 0.74142913 0.00384061
0.46322072 0.74383849 0.00581595
0.49587195 0.74684628 0.00000000
0.53166416 0.75054774 0.00000000
0.56838368 0.75470345 0.00000000
0.60577078 0.75947678 0.00000000
0.64386786 0.76465585 0.00000000
0.68258908 0.77026586 0.00000000
0.72185931 0.77616239 0.00000000
0.76148784 0.78215201 0.01860623
0.80125374 0.78801514 0.03587912
0.84123040 0.79375967 0.04942340
0.88117257 0.79896804 0.05799526
0.91673451 0.79947397 0.06271237
0.94711129 0.79545256 0.08396187
0.97235616 0.78926506 0.13340238
0.99093060 0.78544824 0.22120689
0.99813886 0.79520429 0.37830672
1.00000000 0.81073738 0.52263872
1.00000000 0.82813807 0.62389695
1.00000000 0.84587264 0.69322783
1.00000000 0.86286369 0.74380354
1.00000000 0.87773205 0.77837518
0.37083908 0.77549988 0.00881840
0.37083908 0.77549988 0.00881840
0.37083908 0.77549988 0.00881840
0.37083908 0.77549988 0.00881840
0.37083908 0.77549988 0.00881840
0.38131621 0.77556255 0.01096231
0.39301221 0.77588870 0.01392820
0.40680895 0.77644806 0.01536835
0.42306910 0.77727464 0.01579779
0.44219001 0.77842024 0.01497553
0.46442781 0.77996474 0.01247459
0.49031441 0.78195990 0.00414099
0.52007499 0.78430002 0.00823462
0.55131466 0.78723898 0.00000000
0.58361833 0.79084178 0.00000000
0.61735532 0.79485171 0.00000000
0.65218469 0.79949487 0.00000000
0.68813413 0.80452531 0.00000000
0.72505149 0.80999566 0.00000000
0.76282510 0.81576148 0.00000000
0.80121631 0.82163476 0.01766638
0.83993685 0.82737727 0.03856675
0.87895365 0.83297044 0.05645771
0.91456125 0.83475400 0.06766592
0.94542036 0.83211238 0.09054393
0.97148778 0.82700604 0.14184742
0.99097866 0.82314603 0.23554241
0.99861386 0.83029950 0.40870234
1.00000000 0.84254086 0.56107836
1.00000000 0.85661935 0.65819332
1.00000000 0.87127981 0.72477252
1.00000000 0.88569007 0.77303265
1.00000000 0.89866593 0.80593526
0.41249031 0.81458465 0.01015742
0.41249031 0.81458465 0.01015742
0.41249031 0.81458465 0.01015742
0.41249031 0.81458465 0.01015742
0.41249031 0.81458465 0.01015742
0.42192874 0.81460227 0.01248629
0.43251029 0.81482132 0.01532468
0.44505629 0.81521659 0.01695451
0.45991991 0.81581533 0.01789618
0.47749006 0.81665997 0.01814696
0.49819073 0.81780483 0.01712359
0.52134857 0.81933915 0.01458044
0.54630108 0.82126393 0.00987910
0.57317610 0.82357880 0.01099808
0.60162232 0.82645769 0.00000000
0.63148247 0.82997238 0.00000000
0.66306941 0.83387663 0.00000000
0.69601381 0.83842035 0.00000000
0.73035452 0.84333819 0.00000000
0.76590170 0.84870515 0.00000000
0.80251471 0.85437773 0.00000000
0.83993191 0.86017560 0.02276454
0.87778559 0.86584802 0.05024091
0.91321425 0.86866426 0.06927705
0.94432104 0.86721209 0.09706189
0.97102491 0.86315505 0.15246193
0.99131120 0.85949063 0.25448130
