Luts Download/Canon Luts/3dlut/33grid-3dlut/full-to-full-range/CinemaGamut_CanonLog2-to-BT2020_709WideDR_33_FF_Ver.2.0.cube
# Gamut : Cinema Gamut to BT.2020
# Gamma : Canon Log 2 to Wide DR
# Range : Full in / Full out
# Version : 2.0 2019/10/24
# Copyright(c) 2019 Canon Inc. All Rights Reserved.
LUT_3D_SIZE 9
# LUT_3D_INPUT_RANGE 0.0 1.0
0.00000000 0.00000000 0.00000000
0.01499141 0.00196786 0.00246269
0.14576050 0.00060866 0.00576125
0.35605378 0.00000000 0.01292384
0.62382369 0.00000000 0.02257855
0.83269997 0.00455716 0.01469717
0.95554784 0.04890317 0.01004498
0.98982037 0.27856329 0.14649474
1.00000000 0.67249634 0.54286819
0.00542529 0.01380202 0.00389814
0.01809445 0.01965005 0.00390829
0.14772339 0.02206102 0.00498300
0.36111248 0.01260585 0.00796659
0.63047186 0.00323139 0.01698589
0.83888210 0.01067828 0.01338839
0.95878463 0.06276957 0.01445515
0.98920651 0.28877835 0.15564383
1.00000000 0.67665968 0.54793814
0.02335374 0.11918021 0.00361217
0.03361944 0.12727478 0.00234047
0.14020399 0.15193207 0.00000000
0.35102432 0.16460364 0.00000000
0.64324099 0.13580233 0.00156491
0.87275472 0.08616860 0.00694912
0.97640331 0.15917094 0.05123302
0.98836508 0.35053219 0.21135422
1.00000000 0.70577962 0.58357556
0.08166267 0.30451393 0.00070063
0.09236259 0.30839566 0.00065023
0.16834328 0.32927859 0.00000000
0.34107888 0.36307907 0.00000000
0.63763361 0.36664086 0.00018871
0.90152751 0.31790318 0.05420824
0.99208295 0.35964568 0.18931226
0.98782320 0.48975967 0.34698229
1.00000000 0.78715959 0.68685748
0.19909282 0.54423847 0.00039739
0.20437519 0.54658668 0.00061649
0.24481103 0.56201872 0.00000000
0.35741110 0.59932004 0.00000000
0.60339893 0.63962702 0.00000000
0.93467829 0.58608679 0.02402822
1.00000000 0.60265132 0.36260144
0.99774406 0.68422423 0.55326919
1.00000000 0.93005487 0.87749597
0.30773186 0.73292083 0.00069356
0.31017511 0.73485388 0.00095217
0.32867100 0.74845981 0.00088335
0.38655118 0.78677032 0.00000000
0.53870154 0.85080193 0.00575415
0.81157510 0.86084213 0.02235764
1.00000000 0.80928341 0.41316874
1.00000000 0.83841468 0.71342056
1.00000000 1.00000000 1.00000000
0.38579150 0.85247347 0.00374871
0.38721980 0.85421914 0.00413390
0.39799758 0.86671316 0.00650183
0.42988053 0.90425692 0.00952790
0.52876453 0.97309615 0.06548447
0.73110775 1.00000000 0.29655746
0.93832927 0.99383056 0.41939267
1.00000000 0.96169041 0.84934507
1.00000000 1.00000000 1.00000000
0.52258136 0.96407117 0.15977973
0.52434192 0.96529972 0.16200909
0.53812404 0.97381010 0.17987920
0.60957508 0.98755453 0.29314235
0.76051048 1.00000000 0.53682465
0.89576862 1.00000000 0.77324613
0.98488966 1.00000000 0.93942422
1.00000000 1.00000000 1.00000000
1.00000000 1.00000000 1.00000000
1.00000000 1.00000000 1.00000000
1.00000000 1.00000000 1.00000000
1.00000000 1.00000000 1.00000000
1.00000000 1.00000000 1.00000000
1.00000000 1.00000000 1.00000000
1.00000000 1.00000000 1.00000000
1.00000000 1.00000000 1.00000000
1.00000000 1.00000000 1.00000000
1.00000000 1.00000000 1.00000000
0.00111198 0.00015502 0.01035001
0.01354761 0.00000000 0.01569880
0.14237525 0.00000000 0.02475241
0.35394497 0.00000000 0.03315010
0.62332147 0.00000000 0.03163366
0.83327488 0.00000000 0.01477438
0.95768316 0.03199049 0.00493096
0.99089809 0.27251548 0.14133308
1.00000000 0.66987061 0.53982369
0.00316548 0.01767608 0.01707817
0.01903558 0.01903558 0.01903558
0.15823518 0.01134376 0.01752269
0.36188307 0.00686357 0.02449239
0.63094543 0.00000000 0.02399810
0.83852545 0.00317804 0.01477942
0.96066104 0.04705934 0.00977217
0.99007053 0.28333549 0.15100107
1.00000000 0.67406365 0.54492945
0.01719881 0.14672278 0.00478025
0.02920293 0.15248151 0.00233364
0.14976626 0.16196509 0.00000000
0.36162437 0.15980542 0.00000000
0.65076145 0.12133768 0.00010639
0.87800269 0.06535289 0.00286369
0.97526280 0.15690534 0.05162767
0.98799258 0.34802414 0.20936169
1.00000000 0.70352644 0.58093632
0.07697553 0.31755734 0.00077189
0.08851155 0.32105567 0.00065230
0.16928040 0.33952257 0.00000000
0.34571287 0.36793473 0.00000000
0.64287022 0.36587518 0.00026900
0.90497146 0.31523387 0.05449680
0.99194144 0.35977109 0.19096807
0.98760075 0.48925663 0.34682513
1.00000000 0.78569790 0.68509358
0.19763544 0.55141576 0.00027039
0.20309722 0.55367799 0.00055452
0.24447586 0.56859825 0.00000000
0.35862879 0.60449281 0.00000000
0.60601536 0.64236756 0.00000000
0.93740555 0.58706421 0.02631800
1.00000000 0.60443906 0.36624623
0.99758926 0.68521693 0.55489149
1.00000000 0.92968597 0.87710307
0.30820659 0.73784713 0.00067002
0.31068095 0.73974765 0.00096700
0.32946796 0.75311498 0.00128465
0.38739447 0.79093690 0.00012865
0.53997674 0.85387937 0.00600811
0.81345300 0.86282289 0.02376820
1.00000000 0.81115411 0.41865925
1.00000000 0.83973834 0.71599982
1.00000000 1.00000000 1.00000000
0.38707949 0.85642911 0.00394567
0.38851662 0.85815531 0.00435908
0.39941686 0.87049978 0.00705100
0.43161586 0.90765430 0.01100053
0.53198012 0.97526844 0.07291417
0.73532662 1.00000000 0.30816061
0.93954581 0.99424439 0.44261750
1.00000000 0.96280726 0.85418025
1.00000000 1.00000000 1.00000000
0.52580006 0.96667198 0.16425256
0.52757930 0.96787892 0.16651777
0.54248221 0.97589128 0.18678716
0.61611361 0.98822430 0.30422207
0.76558957 1.00000000 0.54634174
0.89898925 1.00000000 0.78018054
0.98694396 1.00000000 0.94454089
1.00000000 1.00000000 1.00000000
1.00000000 1.00000000 1.00000000
1.00000000 1.00000000 1.00000000
1.00000000 1.00000000 1.00000000
1.00000000 1.00000000 1.00000000
1.00000000 1.00000000 1.00000000
1.00000000 1.00000000 1.00000000
1.00000000 1.00000000 1.00000000
1.00000000 1.00000000 1.00000000
1.00000000 1.00000000 1.00000000
1.00000000 1.00000000 1.00000000
0.00841375 0.00053931 0.09933728
0.01332851 0.00000000 0.09400967
0.11899561 0.00000000 0.12765952
0.33102625 0.00000000 0.17034656
0.60656993 0.00000000 0.17466128
0.82298773 0.00000000 0.10407024
0.95386092 0.02161758 0.01645538
0.99049559 0.26260277 0.13715631
1.00000000 0.65982727 0.52863578
0.00407419 0.00636601 0.12067987
0.00941905 0.00000000 0.12062934
0.12859543 0.00000000 0.13882698
0.34124859 0.00000000 0.16880194
0.61330427 0.00134559 0.16958234
0.82718157 0.00762405 0.10402920
0.95643339 0.03645772 0.02137858
0.98940365 0.27357637 0.14675855
1.00000000 0.66368755 0.53329452
0.00580728 0.14388304 0.13911612
0.01450609 0.14655803 0.14217147
0.14520997 0.14520997 0.14520997
0.37002006 0.12709860 0.14213826
0.64768458 0.09565340 0.13452222
0.85801191 0.08994169 0.09527399
0.96745457 0.15387161 0.06752203
0.98620128 0.33931385 0.20507567
1.00000000 0.69065488 0.56601234
0.01881211 0.39092462 0.06436932
0.02752715 0.39207707 0.05933232
0.14633458 0.39271094 0.04635956
0.36596681 0.38725301 0.04634166
0.67079151 0.35500732 0.04799076
0.91608492 0.30409749 0.08320736
0.99128091 0.35677088 0.20089496
0.99163416 0.47988207 0.33892224
1.00000000 0.77345574 0.67010036
0.17075425 0.60494180 0.00114374
0.17759314 0.60683898 0.00097965
0.23039141 0.61840224 0.00000000
0.36188960 0.64376712 0.00000000
0.62483178 0.66207894 0.00000000
0.95941865 0.59191262 0.04094307
1.00000000 0.61454210 0.38830584
0.99865473 0.69075802 0.56403024
1.00000000 0.92630322 0.87312299
0.30789645 0.77410870 0.00000000
0.31045998 0.77593342 0.00000000
0.33116272 0.78797715 0.00191012
0.39144131 0.82194715 0.00143870
0.54836428 0.87660493 0.00883485
0.82707546 0.87721957 0.03671650
1.00000000 0.82403426 0.45639176
1.00000000 0.84881381 0.73329600
1.00000000 1.00000000 1.00000000
0.39587313 0.88533227 0.00587385
0.39728454 0.88703744 0.00622982
0.40893273 0.89841248 0.01089809
0.44580331 0.93211915 0.02734274
0.56300250 0.98822258 0.14709836
0.76727192 1.00000000 0.39602802
0.94923440 0.99829917 0.56030966
1.00000000 0.97069997 0.88550657
1.00000000 1.00000000 1.00000000
0.56279743 0.98064558 0.22459530
0.56628991 0.98108819 0.23032396
0.59084975 0.98425747 0.26963648
0.66280867 0.99215223 0.38326155
0.80003648 1.00000000 0.61110667
0.92083845 1.00000000 0.82641510
1.00000000 1.00000000 1.00000000
1.00000000 1.00000000 1.00000000
1.00000000 1.00000000 1.00000000
1.00000000 1.00000000 1.00000000
1.00000000 1.00000000 1.00000000
1.00000000 1.00000000 1.00000000
1.00000000 1.00000000 1.00000000
1.00000000 1.00000000 1.00000000
1.00000000 1.00000000 1.00000000
1.00000000 1.00000000 1.00000000
1.00000000 1.00000000 1.00000000
1.00000000 1.00000000 1.00000000
0.02806441 0.00090603 0.27289544
0.03379944 0.00052124 0.26026986
0.10187681 0.00000000 0.23300550
0.30425981 0.00000000 0.30957416
0.57790836 0.00000000 0.34946289
0.80329767 0.00000000 0.27537577
0.94330045 0.01308335 0.14375652
0.98722662 0.25160492 0.14797994
1.00000000 0.65885961 0.53087201
0.02293514 0.00218352 0.29124010
0.02917200 0.00091598 0.27966340
0.09661964 0.00000000 0.23982372
0.30753204 0.00000000 0.31344452
0.58335381 0.00000000 0.34922833
0.80853956 0.00000000 0.27253851
0.94724823 0.01196524 0.14227545
0.98755757 0.25600325 0.15100297
1.00000000 0.66297114 0.53574181
0.00000000 0.09226688 0.29611660
0.00000000 0.08319102 0.30814936
0.10461848 0.04126517 0.38809960
0.34165086 0.04693702 0.36469699
0.62252851 0.04065267 0.34955765
0.84241599 0.04717958 0.27065199
0.96471708 0.10991766 0.16797436
0.98357953 0.32447439 0.20660007
1.00000000 0.69274988 0.57136115
0.01919431 0.34781540 0.33869209
0.02397587 0.34955191 0.34062145
0.09544627 0.35798570 0.35082333
0.34979522 0.34979522 0.34979522
0.64617722 0.32925678 0.34364056
0.87729471 0.30783562 0.30997714
0.96218787 0.36531047 0.29424790
0.98061931 0.48260391 0.35441894
1.00000000 0.77830619 0.67779555
0.10363404 0.66947952 0.21479510
0.11410581 0.67001334 0.21476952
0.17965550 0.67367373 0.20968741
0.35950652 0.67593357 0.22856113
0.63846777 0.67087587 0.23451851
0.95922659 0.60011638 0.25031316
1.00000000 0.63586589 0.45759733
0.99758035 0.70975583 0.59640406
1.00000000 0.93345370 0.88292412
0.27372395 0.89252292 0.00000000
0.27691577 0.89402447 0.00000000
0.30325826 0.90372021 0.00000000
0.38979076 0.92099925 0.00706944
0.57410019 0.94205652 0.05006730
0.86535835 0.91776621 0.08870351
1.00000000 0.85515839 0.52760266
1.00000000 0.87260756 0.77086473
1.00000000 1.00000000 1.00000000
0.44049507 0.97189088 0.05723286
0.44293432 0.97309471 0.06026559
0.46203788 0.98096384 0.08546778
0.53557469 0.99587045 0.19029721
0.69242225 1.00000000 0.39839678
0.84852046 1.00000000 0.60026607
0.98165454 1.00000000 0.79718687
1.00000000 0.99413104 0.95663644
1.00000000 1.00000000 1.00000000
0.71508250 0.99719850 0.47757419
0.71795526 0.99719940 0.48238300
0.73783722 0.99744963 0.51555788
0.79242322 0.99888776 0.60823295
0.88915101 1.00000000 0.77839777
0.97775262 1.00000000 0.93858649
1.00000000 1.00000000 1.00000000
1.00000000 1.00000000 1.00000000
1.00000000 1.00000000 1.00000000
1.00000000 1.00000000 1.00000000
1.00000000 1.00000000 1.00000000
1.00000000 1.00000000 1.00000000
1.00000000 1.00000000 1.00000000
1.00000000 1.00000000 1.00000000
1.00000000 1.00000000 1.00000000
1.00000000 1.00000000 1.00000000
1.00000000 1.00000000 1.00000000
1.00000000 1.00000000 1.00000000
0.06663421 0.00081651 0.49857834
0.07124571 0.00201346 0.48917232
0.10828316 0.00139427 0.43026955
0.26754663 0.00000000 0.44995753
0.54040009 0.00000000 0.53743417
0.76989104 0.00000000 0.48458282
0.92464829 0.00000000 0.33277179
0.99038992 0.21499861 0.24079804
1.00000000 0.64438266 0.52865613
0.06287351 0.00000000 0.51138493
0.06768196 0.00104780 0.50195636
0.10622636 0.00125452 0.44038702
0.26534965 0.00000000 0.45125952
0.54164710 0.00000000 0.53878578
0.77209524 0.00000000 0.48482363
0.92686583 0.00000000 0.33231295
0.99050309 0.21836506 0.24231337
1.00000000 0.64582391 0.53026388
0.02271078 0.02625038 0.57719773
0.02738936 0.02043868 0.57532464
0.07490338 0.00009720 0.53006886
0.25625415 0.00000000 0.49905256
0.56076212 0.00000000 0.56087612
0.79859854 0.00000000 0.48927729
0.95034747 0.00000000 0.33081224
0.99245620 0.25429254 0.26100168
1.00000000 0.66697672 0.55425266
0.00000000 0.26081549 0.55301206
0.00000000 0.25791440 0.56004976
0.01374087 0.25625378 0.62212733
0.29799854 0.23970387 0.67392829
0.62755348 0.20470430 0.65966467
0.89456650 0.16138992 0.53460893
0.98115230 0.27516454 0.41020677
0.99087829 0.43285116 0.38950035
1.00000000 0.76196684 0.66702689
0.00000000 0.61904105 0.60386909
0.00000000 0.62002269 0.60495667
0.04347186 0.62616959 0.61204463
0.29440780 0.62936745 0.61879741
0.61787795 0.61787795 0.61787795
0.85849802 0.60462769 0.60847749
0.97104823 0.62230332 0.59628896
0.98710399 0.70305610 0.63962390
1.00000000 0.94594227 0.90180452
0.34120818 0.85804720 0.38762317
0.34628675 0.85824902 0.38962156
0.38259358 0.85953704 0.40346789
0.47839237 0.86446348 0.44603531
0.64700929 0.87937830 0.52644563
0.84779389 0.88236556 0.54763935
1.00000000 0.85608044 0.67321253
1.00000000 0.90843327 0.84983070
1.00000000 1.00000000 1.00000000
0.54387155 0.98858229 0.29836600
0.54591947 0.98908548 0.30034618
0.56102591 0.99268447 0.31440145
0.65435717 0.98458386 0.43702019
0.77157565 0.99628785 0.58233401
0.89475898 1.00000000 0.73939247
0.99155554 1.00000000 0.88466469
1.00000000 1.00000000 1.00000000
1.00000000 1.00000000 1.00000000
0.87778801 1.00000000 0.75949561
0.87935981 1.00000000 0.76229938
0.89047645 1.00000000 0.78196000
0.92357335 1.00000000 0.84042187
1.00000000 1.00000000 1.00000000
1.00000000 1.00000000 1.00000000
1.00000000 1.00000000 1.00000000
1.00000000 1.00000000 1.00000000
1.00000000 1.00000000 1.00000000
1.00000000 1.00000000 1.00000000
1.00000000 1.00000000 1.00000000
1.00000000 1.00000000 1.00000000
1.00000000 1.00000000 1.00000000
1.00000000 1.00000000 1.00000000
1.00000000 1.00000000 1.00000000
1.00000000 1.00000000 1.00000000
1.00000000 1.00000000 1.00000000
1.00000000 1.00000000 1.00000000
0.09633581 0.00246170 0.68163462
0.09823921 0.00395472 0.67540702
0.11440011 0.01086208 0.63220296
0.17470767 0.00000000 0.59955640
0.46523529 0.00000000 0.71266686
0.71741113 0.00096863 0.70287995
0.88620383 0.00246602 0.56622037
0.98943404 0.17514016 0.41162664
1.00000000 0.61943505 0.57812742
0.09527623 0.00155873 0.68983241
0.09724521 0.00321855 0.68343039
0.11366691 0.01076118 0.63911210
0.17114798 0.00000000 0.59980100
0.46465186 0.00000000 0.71354370
0.71814798 0.00065562 0.70363912
0.88731517 0.00234425 0.56659231
0.98963322 0.17737763 0.41217332
1.00000000 0.62057735 0.57916284
0.08162138 0.00000000 0.75376972
0.08399395 0.00000000 0.74753039
0.10364868 0.00822574 0.69711079
0.15049985 0.00000000 0.61945254
0.46177438 0.00000000 0.73197364
0.72708605 0.00000000 0.71402445
0.89908417 0.00000000 0.56960118
0.99194084 0.19205966 0.41549073
1.00000000 0.62937210 0.58710571
0.01673234 0.10113125 0.90321918
0.01911503 0.09415588 0.90417625
0.04438867 0.02969077 0.91183360
0.18245701 0.11664937 0.82701576
0.52810781 0.10054852 0.87160375
0.80675292 0.08593699 0.79191400
0.96584458 0.15327743 0.62390254
0.99522415 0.36393245 0.49548385
1.00000000 0.72294985 0.68147392
0.02337353 0.51751822 0.89568697
0.02912551 0.51875961 0.89731979
0.08619228 0.52722344 0.90452902
0.28856804 0.54026899 0.90422019
0.57117705 0.55417500 0.88735390
0.85121802 0.52705093 0.85553288
0.99012159 0.55055555 0.73482469
0.99695527 0.65787599 0.69161977
1.00000000 0.92399750 0.89986200
0.00000000 0.83581917 0.81552000
0.00000000 0.83645424 0.81619903
0.00324224 0.84039199 0.82054981
0.24657562 0.84742957 0.82924302
0.58142790 0.84352182 0.83248774
0.83311348 0.83311348 0.83311348
0.97520560 0.83259175 0.83206350
0.99888438 0.89309239 0.88080447
1.00000000 1.00000000 1.00000000
0.47326111 0.97312328 0.49498736
0.47680860 0.97330303 0.49717065
0.50235653 0.97454642 0.51288523
0.57614472 0.97861631 0.56236038
0.74533743 0.97728137 0.70031716
0.88088642 0.98856142 0.81502179
0.98154109 0.99619607 0.88771812
1.00000000 1.00000000 1.00000000
1.00000000 1.00000000 1.00000000
0.87880187 1.00000000 0.78206526
0.88042228 1.00000000 0.78468383
0.89191523 1.00000000 0.80311746
0.92684830 1.00000000 0.85954028
1.00000000 1.00000000 1.00000000
1.00000000 1.00000000 1.00000000
1.00000000 1.00000000 1.00000000
1.00000000 1.00000000 1.00000000
1.00000000 1.00000000 1.00000000
1.00000000 1.00000000 1.00000000
1.00000000 1.00000000 1.00000000
1.00000000 1.00000000 1.00000000
1.00000000 1.00000000 1.00000000
1.00000000 1.00000000 1.00000000
1.00000000 1.00000000 1.00000000
1.00000000 1.00000000 1.00000000
1.00000000 1.00000000 1.00000000
1.00000000 1.00000000 1.00000000
0.10919983 0.01346514 0.79347499
0.10962600 0.02106291 0.78268078
0.11299786 0.02662062 0.75273828
0.12040439 0.00000000 0.70909717
0.30665006 0.00000000 0.89718995
0.61405820 0.00000000 0.90250669
0.82546664 0.00770254 0.80046352
0.97318190 0.12382337 0.64014658
1.00000000 0.59896905 0.68674800
0.10965839 0.01255042 0.79980512
0.11002621 0.01723588 0.79199070
0.11347259 0.02716531 0.75739270
0.12031618 0.00000000 0.71134505
0.30541997 0.00000000 0.89708557
0.61406817 0.00000000 0.90312835
0.82601723 0.00766166 0.80101320
0.97344616 0.12552762 0.64045209
1.00000000 0.59993443 0.68734154
0.11170515 0.00271042 0.85184414
0.11194113 0.00717699 0.84402788
0.11569022 0.02880423 0.79706531
0.12154552 0.00372776 0.73386250
0.29542428 0.00000000 0.90267453
0.61495144 0.00000000 0.91202796
0.83143494 0.00040923 0.80683656
0.97605991 0.13598025 0.64274769
1.00000000 0.60721611 0.69171226
0.12087329 0.06301805 0.96989116
0.12124124 0.05997809 0.96828578
0.12516417 0.04667654 0.94601399
0.13211325 0.02464807 0.85258635
0.33080226 0.13661042 0.98340138
0.66795663 0.09874380 0.98106785
0.89277277 0.07128302 0.86403728
0.98837149 0.28778346 0.67867176
1.00000000 0.68745553 0.75005379
0.19937186 0.41362651 1.00000000
0.20387492 0.41616394 0.99996665
0.23592903 0.43330807 0.98584237
0.32175801 0.47796048 0.95500346
0.47724203 0.54231956 0.96359126
0.75950180 0.52226566 0.98415361
0.96347958 0.49902102 0.91564828
0.99665139 0.61417015 0.79426000
1.00000000 0.89941890 0.92014300
0.35713303 0.72180800 1.00000000
0.36056538 0.72274511 1.00000000
0.38562655 0.72936509 1.00000000
0.45856696 0.74955228 0.99470579
0.62435913 0.78302778 0.97768736
0.80232808 0.80258289 0.98134072
0.97005088 0.79400248 0.96157205
1.00000000 0.86690636 0.91663580
1.00000000 1.00000000 1.00000000
0.24246919 0.95212532 0.92942142
0.24809068 0.95250512 0.92983642
0.28999237 0.95481464 0.93246628
0.41554530 0.95914771 0.93823911
0.64031034 0.96533641 0.94965973
0.81183404 0.97975861 0.97121427
0.97244176 0.97244176 0.97244176
1.00000000 1.00000000 1.00000000
1.00000000 1.00000000 1.00000000
0.84898206 1.00000000 0.82982215
0.85079193 1.00000000 0.83170578
0.86376015 1.00000000 0.84522723
0.90362846 1.00000000 0.88767755
1.00000000 1.00000000 1.00000000
1.00000000 1.00000000 1.00000000
1.00000000 1.00000000 1.00000000
1.00000000 1.00000000 1.00000000
1.00000000 1.00000000 1.00000000
1.00000000 1.00000000 1.00000000
1.00000000 1.00000000 1.00000000
1.00000000 1.00000000 1.00000000
1.00000000 1.00000000 1.00000000
1.00000000 1.00000000 1.00000000
1.00000000 1.00000000 1.00000000
1.00000000 1.00000000 1.00000000
1.00000000 1.00000000 1.00000000
1.00000000 1.00000000 1.00000000
0.12903596 0.02002160 0.91727866
0.12871701 0.02051981 0.91433918
0.12683301 0.02379392 0.89260121
0.11800494 0.01467365 0.83407850
0.20380657 0.01795371 0.96056514
0.39275957 0.15060070 1.00000000
0.69749104 0.07638916 0.98543958
0.92044694 0.09704010 0.88238484
1.00000000 0.57862943 0.83028160
0.12998425 0.02130760 0.92060179
0.12967054 0.02173844 0.91772835
0.12773101 0.02482461 0.89591665
0.11893979 0.01594352 0.83697283
0.20289900 0.01710333 0.95979148
0.39236711 0.15051084 1.00000000
0.69754272 0.07670905 0.98562768
0.92075604 0.09766196 0.88265952
1.00000000 0.57941298 0.83053380
0.13642931 0.02944724 0.94723614
0.13606822 0.03005832 0.94398273
0.13428466 0.03457076 0.92079091
0.12572578 0.02702659 0.85878689
0.19544415 0.00777477 0.95579053
0.38910333 0.14832983 1.00000000
0.69816577 0.07637954 0.98823578
0.92328205 0.10098542 0.88499050
1.00000000 0.58523653 0.83236812
0.16457028 0.14281386 0.97684291
0.16396813 0.14038110 0.97615135
0.15980905 0.12314996 0.96761316
0.14885618 0.08001404 0.92675850
0.21241352 0.10064916 0.97639508
0.40952883 0.23150287 1.00000000
0.72285271 0.16685115 1.00000000
0.94759011 0.18440694 0.90425658
1.00000000 0.64468422 0.85494183
0.26769838 0.37865005 0.99172660
0.26693894 0.37727600 0.99196471
0.26128812 0.36614192 0.99398513
0.31511222 0.41668174 0.97126098
0.43040055 0.50777290 0.97794842
0.57786031 0.56301678 1.00000000
0.82731347 0.52944608 0.99859940
0.98008987 0.56407211 0.92248575
1.00000000 0.86685429 0.95866842
0.46212736 0.64763248 1.00000000
0.46415566 0.64893687 1.00000000
0.47897779 0.65826516 1.00000000
0.52438843 0.68653939 0.99870085
0.62422393 0.74454532 0.99367821
0.73646833 0.79322482 1.00000000
0.90078037 0.79100947 0.99973337
0.99346836 0.83525750 0.96268399
1.00000000 1.00000000 1.00000000
0.57628365 0.82530579 1.00000000
0.57838340 0.82613239 1.00000000
0.59380313 0.83207470 1.00000000
0.64169191 0.85045231 1.00000000
0.74710358 0.89065344 0.99892355
0.86292207 0.92831091 0.99924439
0.95020085 0.95192698 1.00000000
1.00000000 1.00000000 1.00000000
1.00000000 1.00000000 1.00000000
0.78909866 0.98667137 0.97465530
0.79137116 0.98690045 0.97498339
0.80753896 0.98869194 0.97748796
0.85659184 0.99489454 0.98596850
0.96005483 1.00000000 1.00000000
1.00000000 1.00000000 1.00000000
1.00000000 1.00000000 1.00000000
1.00000000 1.00000000 1.00000000
1.00000000 1.00000000 1.00000000
1.00000000 1.00000000 1.00000000
1.00000000 1.00000000 1.00000000
1.00000000 1.00000000 1.00000000
1.00000000 1.00000000 1.00000000
1.00000000 1.00000000 1.00000000
1.00000000 1.00000000 1.00000000
1.00000000 1.00000000 1.00000000
1.00000000 1.00000000 1.00000000
1.00000000 1.00000000 1.00000000
0.26135184 0.29913324 1.00000000
0.26097148 0.29836290 1.00000000
0.25828133 0.29270863 1.00000000
0.24972612 0.27533997 1.00000000
0.22267877 0.20917643 1.00000000
0.27707581 0.23128694 1.00000000
0.43926211 0.26671477 1.00000000
0.76501267 0.22547811 1.00000000
1.00000000 0.53776236 0.99074972
0.26218105 0.30079024 1.00000000
0.26179194 0.30000417 1.00000000
0.25909875 0.29432479 1.00000000
0.25048548 0.27679502 1.00000000
0.22349119 0.21104646 1.00000000
0.27652058 0.23040886 1.00000000
0.43890159 0.26628721 1.00000000
0.76481264 0.22526463 1.00000000
1.00000000 0.53803305 0.99069968
0.26822346 0.31311217 1.00000000
0.26783091 0.31231050 1.00000000
0.26504625 0.30640654 1.00000000
0.25597379 0.28771350 1.00000000
0.22931657 0.22449544 1.00000000
0.27215102 0.22364820 1.00000000
0.43605019 0.26301653 1.00000000
0.76329438 0.22353177 1.00000000
1.00000000 0.54003062 0.99031505
0.29057191 0.35520504 1.00000000
0.29005455 0.35425963 1.00000000
0.28634563 0.34721515 1.00000000
0.27562158 0.32614511 1.00000000
0.24891478 0.26634576 1.00000000
0.25605699 0.19691865 1.00000000
0.42606746 0.24872969 1.00000000
0.75791874 0.21621588 1.00000000
1.00000000 0.54919675 0.98601341
0.35625583 0.45668901 1.00000000
0.35562263 0.45581695 1.00000000
0.35098304 0.44918352 1.00000000
0.33474836 0.42552205 1.00000000
0.30195845 0.36973527 1.00000000
0.35362319 0.38980385 1.00000000
0.50830274 0.42976600 1.00000000
0.80419756 0.42083848 0.99793186
1.00000000 0.70936996 0.98537810
0.44361126 0.57963523 1.00000000
0.44294633 0.57896192 1.00000000
0.43810451 0.57385903 1.00000000
0.42159651 0.55567269 1.00000000
0.45405801 0.57581441 1.00000000
0.56017094 0.64776756 1.00000000
0.67574050 0.68069817 1.00000000
0.88960120 0.69549687 0.98924738
1.00000000 0.94324956 1.00000000
0.50301636 0.69112405 1.00000000
0.50238820 0.69060653 1.00000000
0.49795686 0.68665091 1.00000000
0.50619452 0.68935784 1.00000000
0.60178890 0.75105079 1.00000000
0.70117175 0.80692674 1.00000000
0.78095152 0.83107530 0.98999736
0.92808941 0.86687985 0.98013325
1.00000000 1.00000000 1.00000000
0.66018868 0.84718317 0.97518902
0.66207616 0.84797971 0.97521873
0.67572473 0.85377178 0.97551229
0.71822282 0.87176175 0.97638826
0.81002849 0.91220784 0.98150828
0.90321894 0.95501539 0.99091391
0.96143627 0.98183256 1.00000000
1.00000000 1.00000000 1.00000000
1.00000000 1.00000000 1.00000000
1.00000000 1.00000000 1.00000000
1.00000000 1.00000000 1.00000000
1.00000000 1.00000000 1.00000000
1.00000000 1.00000000 1.00000000
1.00000000 1.00000000 1.00000000
1.00000000 1.00000000 1.00000000
1.00000000 1.00000000 1.00000000
1.00000000 1.00000000 1.00000000
1.00000000 1.00000000 1.00000000
