Luts Download/Canon Luts/3dlut/33grid-3dlut/full-to-full-range/CinemaGamut_CanonLog2-to-BT2020_HLGKnee-Vivid_33_FF_Ver.2.0.cube
# Gamut : Cinema Gamut to BT.2020
# Gamma : Canon Log 2 to HLGKnee-Vivid
# Range : Full in / Full out
# Version : 2.0 2019/10/24
# Copyright(c) 2019 Canon Inc. All Rights Reserved.
LUT_3D_SIZE 33
# LUT_3D_INPUT_RANGE 0.0 1.0
0.00000004 0.00000000 0.00000002
0.00000004 0.00000000 0.00000002
0.00000004 0.00000000 0.00000002
0.00811000 0.00811000 0.00811000
0.05239606 0.01878422 0.02111504
0.08553954 0.02208692 0.02743096
0.11839980 0.02229196 0.03200291
0.15250172 0.02027319 0.03620269
0.18893138 0.01754905 0.04132178
0.22901384 0.01377857 0.04741894
0.27401485 0.00475827 0.05424304
0.32468798 0.00000000 0.06246340
0.38227624 0.00000000 0.07190118
0.44834654 0.00000000 0.08187509
0.52323309 0.00000000 0.09245609
0.59407255 0.00000000 0.10376011
0.65899323 0.00000000 0.11592086
0.72000100 0.00000000 0.12908612
0.77826524 0.00439997 0.14355061
0.83450262 0.01708379 0.15979233
0.88913772 0.03319320 0.17857462
0.93348417 0.06576284 0.19548996
0.96380738 0.12139693 0.21085910
0.98400387 0.21214717 0.23749744
0.99466153 0.36569256 0.30440020
0.99952476 0.52765782 0.40242782
1.00000000 0.64189037 0.51628923
1.00000000 0.72087197 0.61578697
1.00000000 0.78160080 0.69533242
1.00000000 0.83109397 0.76198549
1.00000000 0.87291106 0.81913471
1.00000000 0.90897732 0.86805503
1.00000000 0.94038211 0.90810739
0.00000004 0.00000000 0.00000002
0.00000004 0.00000000 0.00000002
0.00000004 0.00000000 0.00000002
0.00811000 0.00811000 0.00811000
0.05239606 0.01878422 0.02111504
0.08553954 0.02208692 0.02743096
0.11839980 0.02229196 0.03200291
0.15250172 0.02027319 0.03620269
0.18893138 0.01754905 0.04132178
0.22901384 0.01377857 0.04741894
0.27401485 0.00475827 0.05424304
0.32468798 0.00000000 0.06246340
0.38227624 0.00000000 0.07190118
0.44834654 0.00000000 0.08187509
0.52323309 0.00000000 0.09245609
0.59407255 0.00000000 0.10376011
0.65899323 0.00000000 0.11592086
0.72000100 0.00000000 0.12908612
0.77826524 0.00439997 0.14355061
0.83450262 0.01708379 0.15979233
0.88913772 0.03319320 0.17857462
0.93348417 0.06576284 0.19548996
0.96380738 0.12139693 0.21085910
0.98400387 0.21214717 0.23749744
0.99466153 0.36569256 0.30440020
0.99952476 0.52765782 0.40242782
1.00000000 0.64189037 0.51628923
1.00000000 0.72087197 0.61578697
1.00000000 0.78160080 0.69533242
1.00000000 0.83109397 0.76198549
1.00000000 0.87291106 0.81913471
1.00000000 0.90897732 0.86805503
1.00000000 0.94038211 0.90810739
0.00000004 0.00000000 0.00000002
0.01451004 0.02552096 0.00000000
0.05315186 0.05600074 0.02571229
0.00811000 0.00811000 0.00811000
0.05239606 0.01878422 0.02111504
0.08553954 0.02208692 0.02743096
0.11839980 0.02229196 0.03200291
0.15250172 0.02027319 0.03620269
0.18893138 0.01754905 0.04132178
0.22901384 0.01377857 0.04741894
0.27401485 0.00475827 0.05424304
0.32468798 0.00000000 0.06246340
0.38227624 0.00000000 0.07190118
0.44834654 0.00000000 0.08187509
0.52323309 0.00000000 0.09245609
0.59407255 0.00000000 0.10376011
0.65899323 0.00000000 0.11592086
0.72000100 0.00000000 0.12908612
0.77826524 0.00439997 0.14355061
0.83450262 0.01708379 0.15979233
0.88913772 0.03319320 0.17857462
0.93348417 0.06576284 0.19548996
0.96380738 0.12139693 0.21085910
0.98400387 0.21214717 0.23749744
0.99466153 0.36569256 0.30440020
0.99952476 0.52765782 0.40242782
1.00000000 0.64189037 0.51628923
1.00000000 0.72087197 0.61578697
1.00000000 0.78160080 0.69533242
1.00000000 0.83109397 0.76198549
1.00000000 0.87291106 0.81913471
1.00000000 0.90897732 0.86805503
1.00000000 0.94038211 0.90810739
0.00811000 0.00811000 0.00811000
0.00811000 0.00811000 0.00811000
0.00811000 0.00811000 0.00811000
0.00811000 0.00811000 0.00811000
0.05239606 0.01878422 0.02111504
0.08601189 0.02269891 0.02762057
0.11862114 0.02299132 0.03187069
0.15285046 0.02080703 0.03443047
0.18923756 0.01805373 0.03932477
0.22931370 0.01412528 0.04522506
0.27433086 0.00407494 0.05186814
0.32476267 0.00000000 0.06185177
0.38234798 0.00000000 0.07134397
0.44842064 0.00000000 0.08135651
0.52330187 0.00000000 0.09198149
0.59412566 0.00000000 0.10333122
0.65903481 0.00000000 0.11553995
0.72003397 0.00000000 0.12875262
0.77829149 0.00364352 0.14326294
0.83452366 0.01601341 0.15954703
0.88915479 0.03274849 0.17836703
0.93349784 0.06559007 0.19531820
0.96381826 0.12132511 0.21072405
0.98401191 0.21212772 0.23740068
0.99466540 0.36570823 0.30434577
0.99952667 0.52767499 0.40239757
1.00000000 0.64190086 0.51627394
1.00000000 0.72087887 0.61578197
1.00000000 0.78160556 0.69533149
1.00000000 0.83109737 0.76198627
1.00000000 0.87291353 0.81913614
1.00000000 0.90897916 0.86805665
1.00000000 0.94038408 0.90810957
0.02921742 0.04609959 0.02499577
0.02921742 0.04609959 0.02499577
0.02921742 0.04609959 0.02499577
0.02921742 0.04609959 0.02499577
0.05277852 0.05493959 0.02561881
0.08108510 0.05995928 0.02295177
0.11363674 0.06106851 0.01375406
0.14843284 0.06003602 0.00740340
0.18576855 0.05795237 0.01171484
0.22695189 0.05460905 0.01911570
0.28152480 0.00000000 0.00000000
0.33415608 0.00000000 0.00000000
0.38307693 0.03710540 0.04930063
0.44954408 0.03019590 0.06156732
0.52462456 0.02061997 0.07414911
0.59532069 0.00000000 0.08739103
0.66008698 0.00000000 0.10144190
0.72094847 0.00000000 0.11642040
0.77907827 0.00000000 0.13259970
0.83519635 0.00000000 0.15042249
0.88973057 0.00974030 0.17061825
0.93399795 0.05760825 0.18890685
0.96423225 0.11790718 0.20568064
0.98432416 0.21103515 0.23378617
0.99482228 0.36609587 0.30229875
0.99960649 0.52822009 0.40125701
1.00000000 0.64225670 0.51569827
1.00000000 0.72112066 0.61559422
1.00000000 0.78177584 0.69529703
1.00000000 0.83122058 0.76201646
1.00000000 0.87300398 0.81919076
1.00000000 0.90904711 0.86811854
1.00000000 0.94045689 0.90819223
0.03939214 0.07133960 0.03011564
0.03939214 0.07133960 0.03011564
0.03939214 0.07133960 0.03011564
0.04030637 0.07256523 0.03078703
0.05731669 0.07932548 0.02498456
0.08095795 0.08487971 0.02461505
0.10820680 0.08911097 0.02266028
0.14082413 0.09125398 0.00780629
0.17826845 0.09117350 0.00000000
0.22004183 0.08956025 0.00000000
0.26695037 0.08647044 0.00000000
0.31980031 0.08187910 0.00916995
0.37971725 0.07541613 0.02549263
0.44808066 0.06581978 0.03841682
0.52460792 0.05394004 0.05201034
0.59593867 0.04105903 0.06736404
0.66093926 0.02536085 0.08363054
0.72184581 0.00000000 0.10081493
0.77993812 0.00000000 0.11908751
0.83598160 0.00000000 0.13884875
0.89043561 0.00000000 0.16076467
0.93463314 0.05125177 0.18077574
0.96477157 0.11552332 0.19932819
0.98473704 0.21069073 0.22930773
0.99502095 0.36727165 0.29990882
0.99970771 0.52930710 0.40001017
1.00000000 0.64289474 0.51513431
1.00000000 0.72153407 0.61546016
1.00000000 0.78206063 0.69532481
1.00000000 0.83142499 0.76210697
1.00000000 0.87315423 0.81929969
1.00000000 0.90916083 0.86822895
1.00000000 0.94057329 0.90832725
0.04817573 0.09815070 0.03151251
0.04817573 0.09815070 0.03151251
0.04817573 0.09815070 0.03151251
0.04844117 0.09849174 0.03142168
0.06244428 0.10339372 0.02320041
0.08302355 0.10859443 0.01920975
0.10776910 0.11329386 0.02050243
0.13637632 0.11745238 0.02156717
0.17057375 0.12044212 0.01237832
0.21124626 0.12146731 0.00000000
0.25809877 0.12064737 0.00000000
0.31144133 0.11812886 0.00000000
0.37225008 0.11378908 0.00000000
0.44177731 0.10677048 0.01520996
0.52054838 0.09598020 0.03045947
0.59457232 0.08052515 0.04426122
0.66097610 0.06249965 0.06111661
0.72247433 0.04315537 0.08055793
0.78078720 0.01879813 0.10138873
0.83688488 0.00000000 0.12358880
0.89131107 0.00000000 0.14773754
0.93546482 0.04667463 0.17001979
0.96549605 0.11391617 0.19097706
0.98529882 0.21100420 0.22350675
0.99528147 0.36936167 0.29697572
0.99983768 0.53105695 0.39857445
1.00000000 0.64388904 0.51456004
1.00000000 0.72216736 0.61538640
1.00000000 0.78249331 0.69543063
1.00000000 0.83173463 0.76227606
1.00000000 0.87338198 0.81948063
1.00000000 0.90933370 0.86840425
1.00000000 0.94074631 0.90853276
0.05586909 0.12531569 0.02951514
0.05586909 0.12531569 0.02951514
0.05586909 0.12531569 0.02951514
0.05611176 0.12550920 0.02932958
0.06860849 0.12899177 0.02064262
0.08661365 0.13349458 0.01412905
0.10910272 0.13821660 0.01252485
0.13576041 0.14285745 0.01748894
0.16686590 0.14730087 0.02177676
0.20405621 0.15101579 0.01772359
0.24886928 0.15305510 0.00000000
0.30157548 0.15311192 0.00000000
0.36243011 0.15120687 0.00000000
0.43233551 0.14697786 0.00000000
0.51231966 0.13983292 0.00769433
0.58925917 0.12841265 0.02601463
0.65825513 0.11139861 0.04045653
0.72189566 0.08752077 0.05646924
0.78113716 0.06467826 0.07911244
0.83767870 0.04051521 0.10385403
0.89227334 0.01801236 0.13064804
0.93648323 0.04960356 0.15584397
0.96642847 0.11453609 0.18002108
0.98603573 0.21263465 0.21602650
0.99561169 0.37282932 0.29339801
1.00000000 0.53374197 0.39693762
1.00000000 0.64539074 0.51402013
1.00000000 0.72311948 0.61543198
1.00000000 0.78314275 0.69567238
1.00000000 0.83219904 0.76257562
1.00000000 0.87372338 0.81977784
1.00000000 0.90959248 0.86868113
1.00000000 0.94099868 0.90883990
0.06446155 0.15450559 0.02616388
0.06446155 0.15450559 0.02616388
0.06446155 0.15450559 0.02616388
0.06471763 0.15462380 0.02596675
0.07622596 0.15705664 0.01783882
0.09218153 0.16076717 0.01027575
0.11234651 0.16520441 0.00249635
0.13693565 0.17000709 0.00773425
0.16621146 0.17497520 0.01660785
0.20073070 0.17991000 0.02292193
0.24209631 0.18434044 0.02199212
0.29214977 0.18731545 0.01016046
0.35177090 0.18818862 0.00000000
0.42137824 0.18677418 0.00000000
0.50183170 0.18268034 0.00000000
0.58152319 0.17522188 0.00000000
0.65269901 0.16300443 0.02241232
0.71838598 0.14422205 0.03775638
0.77991623 0.11785675 0.05507108
0.83789070 0.08832756 0.07899314
0.89314277 0.06209351 0.10821987
0.93766020 0.06521403 0.13701386
0.96761111 0.11916683 0.16549694
0.98700910 0.21622269 0.20627123
0.99603431 0.37824904 0.28902786
1.00000000 0.53774345 0.39511797
1.00000000 0.64761141 0.51359737
1.00000000 0.72452122 0.61567548
1.00000000 0.78409699 0.69611929
1.00000000 0.83288096 0.76306560
1.00000000 0.87422474 0.82024228
1.00000000 0.90997247 0.86910328
1.00000000 0.94136274 0.90929228
0.07475370 0.18664350 0.02235189
0.07475370 0.18664350 0.02235189
0.07475370 0.18664350 0.02235189
0.07501772 0.18671848 0.02217796
0.08566498 0.18839405 0.01531727
0.09990823 0.19137583 0.00789708
0.11792921 0.19532189 0.00000000
0.14025757 0.19999732 0.00000000
0.16744783 0.20519718 0.00465482
0.20009076 0.21070647 0.01652765
0.23891727 0.21627381 0.02396770
0.28554946 0.22147435 0.02523823
0.34204607 0.22535939 0.01788098
0.40980109 0.22703587 0.00000000
0.48955904 0.22606521 0.00000000
0.57222210 0.22197033 0.00000000
0.64557489 0.21404501 0.00000000
0.71292758 0.20079358 0.01826619
0.77615561 0.18013096 0.03585379
0.83619719 0.15077447 0.05485854
0.89328829 0.11487182 0.08043830
0.93871635 0.09879886 0.11267437
0.96893840 0.13298693 0.14673305
0.98818231 0.22411864 0.19397846
0.99651771 0.38685493 0.28396190
1.00000000 0.54367486 0.39327431
1.00000000 0.65086360 0.51346757
1.00000000 0.72656392 0.61625486
1.00000000 0.78548478 0.69688492
1.00000000 0.83387229 0.76384111
1.00000000 0.87495398 0.82095363
1.00000000 0.91052547 0.86973840
1.00000000 0.94188460 0.90995372
0.08720612 0.22262553 0.01862602
0.08720612 0.22262553 0.01862602
0.08720612 0.22262553 0.01862602
0.08746396 0.22267473 0.01848941
0.09721723 0.22383139 0.01327147
0.10996094 0.22619607 0.00687937
0.12608683 0.22950738 0.00000000
0.14618331 0.23383579 0.00000000
0.17106035 0.23900575 0.00000000
0.20150269 0.24480463 0.00032474
0.23830410 0.25101942 0.01650802
0.28235370 0.25735691 0.02492506
0.33536877 0.26341667 0.02781438
0.39960881 0.26823787 0.02277396
0.47690584 0.27073018 0.00428784
0.56128507 0.27019108 0.00000000
0.63697786 0.26600723 0.00000000
0.70615849 0.25744068 0.00000000
0.77088426 0.24296295 0.01349878
0.83240974 0.22025730 0.03494480
0.89124362 0.18795001 0.05668258
0.93886497 0.15453835 0.08445667
0.96999240 0.16439936 0.12434405
0.98929745 0.24150329 0.17992237
0.99693570 0.40080816 0.27875459
1.00000000 0.55241621 0.39178850
1.00000000 0.65558242 0.51394098
1.00000000 0.72951985 0.61739769
1.00000000 0.78749045 0.69814844
1.00000000 0.83530512 0.76504893
1.00000000 0.87600939 0.82203421
1.00000000 0.91132765 0.87069212
1.00000000 0.94262979 0.91091789
0.10213651 0.26338264 0.01526607
0.10213651 0.26338264 0.01526607
0.10213651 0.26338264 0.01526607
0.10237701 0.26341598 0.01517207
0.11118550 0.26422047 0.01170827
0.12260091 0.26602745 0.00755278
0.13695644 0.26883943 0.00000000
0.15504142 0.27260442 0.00000000
0.17758981 0.27745808 0.00000000
0.20557663 0.28326920 0.00000000
0.23998516 0.28983152 0.00000000
0.28179353 0.29691380 0.01649243
0.33205398 0.30416449 0.02575866
0.39265016 0.31119886 0.02997124
0.46605638 0.31702325 0.02652272
0.54983606 0.32037479 0.01336368
0.62705647 0.32026886 0.00000000
0.69804958 0.31593968 0.00000000
0.76435174 0.30657237 0.00000000
0.82717754 0.29071267 0.00803905
0.88737228 0.26620837 0.03696684
0.93670336 0.23586498 0.06607792
0.96972733 0.22368771 0.10532450
0.98947278 0.27923209 0.16901592
0.99702171 0.42331210 0.27471214
1.00000000 0.56506089 0.39135665
1.00000000 0.66237965 0.51558350
1.00000000 0.73377339 0.61947902
1.00000000 0.79037583 0.70019234
1.00000000 0.83736866 0.76691657
1.00000000 0.87753326 0.82367402
1.00000000 0.91268749 0.87233735
1.00000000 0.94369027 0.91231994
0.11984743 0.30991146 0.01229563
0.11984743 0.30991146 0.01229563
0.11984743 0.30991146 0.01229563
0.12006447 0.30993467 0.01224322
0.12791211 0.31049813 0.01046825
0.13805423 0.31187884 0.00831730
0.15088310 0.31416236 0.00269321
0.16707901 0.31738815 0.00000000
0.18744103 0.32173813 0.00000000
0.21295294 0.32724834 0.00000000
0.24468160 0.33385388 0.00000000
0.28382991 0.34134812 0.00000000
0.33157822 0.34947061 0.01615539
0.38914595 0.35779592 0.02658349
0.45864525 0.36594611 0.03203222
0.53984585 0.37287377 0.02984710
0.61692705 0.37714137 0.01850712
0.68886357 0.37747836 0.00000000
0.75661637 0.37293988 0.00000000
0.82083904 0.36267245 0.00000000
0.88219295 0.34556563 0.00978623
0.93312402 0.32045737 0.05171721
0.96774776 0.30206517 0.09528210
0.98905371 0.33294222 0.16138463
0.99704891 0.45676218 0.27306841
1.00000000 0.58303341 0.39337102
1.00000000 0.67225324 0.51958229
1.00000000 0.73993637 0.62320120
1.00000000 0.79454213 0.70350018
1.00000000 0.84041453 0.76988811
1.00000000 0.87995924 0.82640623
1.00000000 0.91462341 0.87474335
1.00000000 0.94518897 0.91433607
0.14075140 0.36329938 0.01002175
0.14075140 0.36329938 0.01002175
0.14075140 0.36329938 0.01002175
0.14094309 0.36331580 0.01000720
0.14785009 0.36371067 0.00977368
0.15679642 0.36476271 0.00918952
0.16823568 0.36655236 0.00714583
0.18265719 0.36932080 0.00000000
0.20101721 0.37301227 0.00000000
0.22408993 0.37806220 0.00000000
0.25312599 0.38436030 0.00000000
0.28930447 0.39192375 0.00000000
0.33406096 0.40053485 0.00000000
0.38879320 0.40989253 0.01558103
0.45490145 0.41946998 0.02744322
0.53280246 0.42889994 0.03417956
0.60826380 0.43705573 0.03308517
0.67966013 0.44231676 0.02292682
0.74798994 0.44311507 0.00000000
0.81341234 0.43832534 0.00000000
0.87605182 0.42717730 0.00000000
0.92861747 0.40727359 0.03780814
0.96489360 0.38643996 0.08847024
0.98813249 0.39843457 0.15605254
0.99689518 0.50132999 0.27393563
1.00000000 0.60663334 0.39870836
1.00000000 0.68629407 0.52745133
1.00000000 0.74922739 0.63008901
1.00000000 0.80107617 0.70940865
1.00000000 0.84517797 0.77486452
1.00000000 0.88352126 0.83055989
1.00000000 0.91733521 0.87818975
1.00000000 0.94729049 0.91720174
0.16526981 0.42476068 0.00819044
0.16526981 0.42476068 0.00819044
0.16526981 0.42476068 0.00819044
0.16543678 0.42477231 0.00820783
0.17145320 0.42504511 0.00918018
0.17928866 0.42584140 0.00966185
0.18939523 0.42723555 0.00923247
0.20233608 0.42942959 0.00680636
0.21866388 0.43269681 0.00000000
0.23957177 0.43695147 0.00000000
0.26587153 0.44284084 0.00000000
0.29905254 0.45006906 0.00000000
0.34047173 0.45877226 0.00000000
0.39180567 0.46870722 0.00000000
0.45470604 0.47952202 0.01460442
0.52918735 0.49055216 0.02838768
0.60216769 0.50144673 0.03656385
0.67189530 0.51077663 0.03654512
0.73947223 0.51682378 0.02743706
0.80523640 0.51804069 0.00000000
0.86891398 0.51327326 0.00000000
0.92343933 0.49805074 0.02460771
0.96146882 0.47652819 0.08410489
0.98641271 0.47737775 0.15571377
0.99646822 0.55326571 0.27854600
1.00000000 0.63538321 0.40826917
1.00000000 0.70438741 0.53926018
1.00000000 0.76156260 0.64010866
1.00000000 0.80991684 0.71791121
1.00000000 0.85169063 0.78195786
1.00000000 0.88842628 0.83644367
1.00000000 0.92109120 0.88305550
1.00000000 0.95021604 0.92124511
0.19393092 0.49565573 0.00653634
0.19393092 0.49565573 0.00653634
0.19393092 0.49565573 0.00653634
0.19407514 0.49566382 0.00658177
0.19927952 0.49584440 0.00856285
0.20609597 0.49643906 0.00976248
0.21496400 0.49751180 0.01025319
0.22643832 0.49923581 0.00968581
0.24111245 0.50186334 0.00675939
0.25975742 0.50558521 0.00000000
0.28365067 0.51040971 0.00000000
0.31373373 0.51693625 0.00000000
0.35176518 0.52467930 0.00000000
0.39931187 0.53373874 0.00000000
0.45832772 0.54376409 0.00000000
0.52917279 0.55430441 0.01298491
0.59906175 0.56462665 0.02945572
0.66642336 0.57450454 0.03940315
0.73234760 0.58294915 0.04055121
0.79724645 0.58857799 0.03273867
0.86111733 0.58994863 0.00759491
0.91750894 0.58242886 0.02624971
0.95766349 0.56552322 0.08379596
0.98439065 0.56003042 0.15895867
0.99592463 0.60655551 0.28700188
1.00000000 0.66894929 0.42352226
1.00000000 0.72690182 0.55630248
1.00000000 0.77745393 0.65416583
1.00000000 0.82153648 0.72970749
1.00000000 0.86041211 0.79184043
1.00000000 0.89507768 0.84465006
1.00000000 0.92622736 0.88983061
1.00000000 0.95425021 0.92689673
0.22737769 0.56854242 0.00536651
0.22737769 0.56854242 0.00536651
0.22737769 0.56854242 0.00536651
0.22750160 0.56854668 0.00543929
0.23197850 0.56863205 0.00817775
0.23787593 0.56897307 0.00986407
0.24560931 0.56961000 0.01097310
0.25570354 0.57065451 0.01146377
0.26879243 0.57226649 0.01072155
0.28549627 0.57468020 0.00717577
0.30683738 0.57801102 0.00000000
0.33422816 0.58241150 0.00000000
0.36871859 0.58830777 0.00000000
0.41240180 0.59534219 0.00000000
0.46708873 0.60359539 0.00000000
0.53301739 0.61278525 0.00000000
0.59917821 0.62249779 0.01017445
0.66364500 0.63200165 0.03090592
0.72730318 0.64114642 0.04300373
0.79058833 0.64904346 0.04582420
0.85352562 0.65445205 0.04056454
0.91114628 0.65260281 0.04341976
0.95347744 0.64008905 0.09007637
0.98229176 0.63201891 0.16680094
0.99539800 0.66006993 0.30058410
1.00000000 0.70652787 0.44573074
1.00000000 0.75381785 0.57933202
1.00000000 0.79728276 0.67337367
1.00000000 0.83646047 0.74578366
1.00000000 0.87181786 0.80529999
1.00000000 0.90391640 0.85586465
1.00000000 0.93314445 0.89913089
1.00000000 0.95974275 0.93469684
0.26630822 0.63504788 0.00473463
0.26630822 0.63504788 0.00473463
0.26630822 0.63504788 0.00473463
0.26641428 0.63504995 0.00482390
0.27025046 0.63508190 0.00802439
0.27532997 0.63527351 0.01000798
0.28203560 0.63565036 0.01151005
0.29085184 0.63628635 0.01258554
0.30238129 0.63729096 0.01301845
0.31735973 0.63881429 0.01206787
0.33641623 0.64108445 0.00742378
0.36090253 0.64417235 0.00000000
0.39236620 0.64830418 0.00000000
0.43198273 0.65380464 0.00000000
0.48223314 0.66039642 0.00000000
0.54192323 0.66814645 0.00000000
0.60271470 0.67681706 0.00000000
0.66383149 0.68601754 0.00575100
0.72473495 0.69499743 0.03334600
0.78583725 0.70368290 0.04857626
0.84718861 0.71128744 0.05510352
0.90503238 0.71380911 0.06273995
0.94931065 0.70514565 0.10137274
0.98025041 0.69672930 0.17958938
0.99493364 0.71331480 0.32173120
1.00000000 0.74730784 0.47775846
1.00000000 0.78476333 0.60871094
1.00000000 0.82103938 0.69834659
1.00000000 0.85496597 0.76704960
1.00000000 0.88635621 0.82320573
1.00000000 0.91536137 0.87079273
1.00000000 0.94225869 0.91160026
1.00000000 0.96707928 0.94520911
0.31153354 0.69742431 0.00523933
0.31153354 0.69742431 0.00523933
0.31153354 0.69742431 0.00523933
0.31162412 0.69742512 0.00531986
0.31490296 0.69742702 0.00845386
0.31926099 0.69752956 0.01049113
0.32504504 0.69774849 0.01215728
0.33270014 0.69813230 0.01358909
0.34278688 0.69875481 0.01472480
0.35599463 0.69972077 0.01518093
0.37316015 0.70117279 0.01388284
0.39494516 0.70333644 0.00805179
0.42311325 0.70627878 0.00000000
0.45928089 0.71021028 0.00000000
0.50479184 0.71544469 0.00000000
0.55662221 0.72174405 0.00000000
0.61084396 0.72916830 0.00000000
0.66713054 0.73751096 0.00000000
0.72494839 0.74639828 0.00569319
0.78340074 0.75505695 0.03942044
0.84262732 0.76351804 0.06065138
0.90000270 0.76896265 0.07808581
0.94562960 0.76385276 0.11570260
0.97862327 0.75618928 0.19658787
0.99478614 0.76564229 0.35103750
1.00000000 0.79014844 0.52179557
1.00000000 0.81912531 0.64525520
1.00000000 0.84848031 0.72960424
1.00000000 0.87697564 0.79398654
1.00000000 0.90418936 0.84629822
1.00000000 0.92986074 0.89034057
1.00000000 0.95397391 0.92791740
1.00000000 0.97665271 0.95897907
0.36403279 0.75699399 0.00842165
0.36403279 0.75699399 0.00842165
0.36403279 0.75699399 0.00842165
0.36410998 0.75699408 0.00847149
0.36690573 0.75697931 0.01074897
0.37063470 0.75702783 0.01249260
0.37560641 0.75714882 0.01408569
0.38221956 0.75737373 0.01560608
0.39098481 0.75775154 0.01703610
0.40254511 0.75835360 0.01821549
0.41769118 0.75928054 0.01864451
0.43738561 0.76066948 0.01707640
0.46234248 0.76275731 0.01088596
0.49475916 0.76558573 0.00000000
0.53419489 0.76936920 0.00000000
0.57726930 0.77441429 0.00000000
0.62431926 0.78051385 0.00000000
0.67473127 0.78772612 0.00000000
0.72805702 0.79587019 0.00000000
0.78362685 0.80459531 0.02176818
0.84028466 0.81312073 0.05705015
0.89647583 0.82025467 0.08998533
0.94294570 0.81811491 0.13195205
0.97768915 0.81184457 0.21817125
0.99518496 0.81680522 0.39054263
1.00000000 0.83395808 0.57273595
1.00000000 0.85572258 0.68862115
1.00000000 0.87891106 0.76752161
1.00000000 0.90217621 0.82691181
1.00000000 0.92507549 0.87466761
1.00000000 0.94732198 0.91466602
1.00000000 0.96860178 0.94854709
1.00000000 0.98881415 0.97632802
0.42508613 0.81457429 0.01619988
0.42508613 0.81457429 0.01619988
0.42508613 0.81457429 0.01619988
0.42515179 0.81457399 0.01622623
0.42753067 0.81455062 0.01752803
0.43071157 0.81456659 0.01867374
0.43496674 0.81462675 0.01983838
0.44065194 0.81475102 0.02109146
0.44822469 0.81497133 0.02242769
0.45827084 0.81533524 0.02377959
0.47152344 0.81591166 0.02489760
0.48889311 0.81679778 0.02525798
0.51126396 0.81812657 0.02367032
0.53751749 0.82016703 0.01831129
0.56845626 0.82288763 0.01333862
0.60393353 0.82655532 0.00000000
0.64345678 0.83145730 0.00000000
0.68743832 0.83741760 0.00000000
0.73531479 0.84449656 0.00000000
0.78661701 0.85254173 0.00000000
0.84057296 0.86125152 0.05466637
0.89493289 0.86914660 0.09981210
0.94156741 0.86937346 0.15241356
0.97762228 0.86466543 0.24824775
0.99632058 0.86670043 0.44463876
1.00000000 0.87794749 0.62976394
1.00000000 0.89347625 0.73828775
1.00000000 0.91107966 0.81147547
1.00000000 0.92971815 0.86564550
1.00000000 0.94863694 0.90833203
1.00000000 0.96742741 0.94342368
1.00000000 0.98582418 0.97265672
1.00000000 1.00000000 1.00000000
0.49429283 0.86856304 0.03112165
0.49429283 0.86856304 0.03112165
0.49429283 0.86856304 0.03112165
0.49434813 0.86856255 0.03113545
0.49635429 0.86853773 0.03183166
0.49904310 0.86853826 0.03248884
0.50263773 0.86856661 0.03320618
0.50738756 0.86863577 0.03403655
0.51362043 0.86876697 0.03502446
0.52172161 0.86899267 0.03614691
0.53212717 0.86936083 0.03730199
0.54530950 0.86994062 0.03828525
0.56174627 0.87082949 0.03868251
0.58186885 0.87217582 0.03753818
0.60557811 0.87424558 0.03366461
0.63399224 0.87697680 0.03202887
0.66703498 0.88068917 0.02669238
0.70439476 0.88564417 0.01320855
0.74650570 0.89171194 0.01356366
0.79286209 0.89894144 0.03583591
0.84293392 0.90722057 0.06960029
0.89546767 0.91607027 0.12050170
0.94178150 0.91832345 0.18308675
0.97873490 0.91516624 0.29194352
0.99857068 0.91503694 0.52047547
1.00000000 0.92130041 0.69379577
1.00000000 0.93126461 0.79425710
