Luts Download/Canon Luts/3dlut/33grid-3dlut/full-to-full-range/CinemaGamut_CanonLog3-to-BT2020_HLGKnee-Vivid_33_FF_Ver.2.0.cube
# Gamut : Cinema Gamut to BT.2020
# Gamma : Canon Log 3 to HLGKnee-Vivid
# Range : Full in / Full out
# Version : 2.0 2019/10/24
# Copyright(c) 2019 Canon Inc. All Rights Reserved.
LUT_3D_SIZE 5
# LUT_3D_INPUT_RANGE 0.0 1.0
0.00000002 0.00000000 0.00000006
0.26638318 0.03675062 0.06414511
0.68993208 0.00000000 0.14472152
0.96607421 0.07463391 0.23520665
1.00000000 0.73867524 0.64515176
0.10074567 0.21912582 0.05846172
0.23776861 0.25014727 0.03097268
0.67690719 0.25656049 0.00000000
0.97252537 0.13198170 0.13215868
1.00000000 0.74844644 0.64970677
0.24045155 0.60454402 0.01401292
0.31495826 0.61146945 0.00000000
0.63310224 0.65522468 0.02391828
0.95445701 0.67061346 0.06868548
1.00000000 0.82268691 0.71470202
0.54384893 0.90814657 0.02336931
0.57072116 0.90877769 0.02875354
0.69614945 0.92019702 0.03386989
0.93688113 0.95725176 0.15960619
1.00000000 0.98214285 0.94031125
0.91735737 1.00000000 0.81505071
0.91955271 1.00000000 0.81872372
0.93993800 1.00000000 0.85827716
1.00000000 1.00000000 1.00000000
1.00000000 1.00000000 1.00000000
0.07619613 0.02720980 0.23324810
0.23188162 0.00000000 0.24870065
0.67734626 0.00000000 0.33012875
0.96242002 0.06647327 0.36248218
1.00000000 0.73347281 0.64711400
0.06257258 0.24517137 0.24029468
0.24181371 0.24181371 0.24181371
0.69512230 0.16858185 0.23367942
0.96945358 0.11640017 0.28297994
1.00000000 0.74226155 0.64983045
0.14769868 0.64769479 0.01155965
0.27756001 0.65006407 0.02019459
0.64580291 0.66786383 0.01007856
0.96146710 0.65620617 0.09097823
1.00000000 0.81976851 0.71565219
0.52479389 0.91429536 0.02154025
0.55576029 0.91479098 0.02849840
0.69258734 0.92511019 0.04084401
0.93856752 0.95897472 0.16899774
1.00000000 0.98230055 0.94193864
0.92095602 1.00000000 0.82456748
0.92299845 1.00000000 0.82797012
0.94276718 1.00000000 0.86595329
1.00000000 1.00000000 1.00000000
1.00000000 1.00000000 1.00000000
0.20354166 0.02270198 0.64261124
0.25634270 0.00000000 0.57294556
0.63049435 0.00000000 0.64328501
0.94388546 0.07404469 0.70645696
1.00000000 0.71942028 0.73268622
0.08149700 0.13235244 0.66815024
0.19397924 0.00000000 0.64023929
0.63473062 0.00000000 0.65608801
0.95005657 0.06581193 0.69318956
1.00000000 0.72820738 0.73304000
0.15323588 0.64709925 0.63772601
0.17876052 0.65101882 0.64267414
0.63952564 0.63952564 0.63952564
0.97546118 0.55737597 0.61652869
1.00000000 0.80312178 0.76407020
0.28920894 0.97034333 0.25938244
0.04967173 0.97507822 0.04092308
0.64009907 0.97465903 0.10823018
0.95606544 0.97647067 0.30063979
1.00000000 0.98430759 0.95357085
0.95456742 1.00000000 0.90349594
0.95597411 1.00000000 0.90575397
0.96921256 1.00000000 0.92972278
1.00000000 1.00000000 1.00000000
1.00000000 1.00000000 1.00000000
0.34885816 0.02497371 0.90644768
0.37934801 0.05073188 0.89183855
0.54026701 0.00000000 0.80649280
0.90787850 0.02508790 0.90623445
1.00000000 0.66581937 0.85477862
0.31296673 0.00000000 0.92220017
0.34859986 0.02656537 0.90804494
0.51774759 0.00000000 0.81140626
0.90831951 0.01706350 0.90662418
1.00000000 0.66887058 0.85361693
0.00000000 0.51758165 0.88922252
0.00000000 0.48264543 0.90565906
0.44745672 0.14139855 0.93859840
0.92983851 0.17656480 0.94872712
1.00000000 0.73734195 0.86057449
0.22345757 0.94756687 0.93893010
0.24691364 0.94813282 0.93972354
0.49288564 0.95216466 0.94524772
0.94441540 0.94441540 0.94441540
1.00000000 0.98996475 0.98908461
1.00000000 1.00000000 1.00000000
1.00000000 1.00000000 1.00000000
1.00000000 1.00000000 1.00000000
1.00000000 1.00000000 1.00000000
1.00000000 1.00000000 1.00000000
0.48255190 0.41492314 1.00000000
0.49255478 0.40406169 1.00000000
0.54605161 0.31260201 1.00000000
0.80536634 0.13146058 1.00000000
1.00000000 0.56499379 0.99052282
0.47377146 0.42985572 1.00000000
0.48314657 0.41767845 1.00000000
0.53865987 0.32463585 1.00000000
0.80218276 0.13596866 1.00000000
1.00000000 0.56633908 0.99042196
0.42994697 0.55178435 1.00000000
0.43890030 0.54308394 1.00000000
0.49144482 0.44824898 1.00000000
0.77410133 0.09366372 1.00000000
1.00000000 0.57995957 0.98942578
0.57398582 0.83515323 1.00000000
0.57588112 0.83370696 1.00000000
0.64507318 0.84131678 1.00000000
0.87373806 0.88427401 1.00000000
1.00000000 0.94296637 0.99747561
1.00000000 1.00000000 1.00000000
1.00000000 1.00000000 1.00000000
1.00000000 1.00000000 1.00000000
1.00000000 1.00000000 1.00000000
1.00000000 1.00000000 1.00000000
