Luts Download/1) O & T/teal and orange (1).cube
#Generated with IWLTBAP LUT Generator
#Website: http://luts.iwltbap.com
TITLE "Teal And Orange Basic 2-2"
#LUT size
LUT_3D_SIZE 5
#LUT data points
0.101961 0.101961 0.094118
0.243137 0.105882 0.098039
0.580392 0.145098 0.039216
0.882353 0.207843 0.000000
1.000000 0.231373 0.000000
0.145098 0.164706 0.086275
0.301961 0.188235 0.070588
0.615686 0.262745 0.000000
0.898039 0.298039 0.003922
0.996078 0.294118 0.000000
0.329412 0.388235 0.000000
0.443137 0.400000 0.000000
0.713725 0.439216 0.000000
0.925490 0.443137 0.000000
0.996078 0.423529 0.000000
0.556863 0.666667 0.000000
0.635294 0.658824 0.000000
0.823529 0.650980 0.000000
0.960784 0.611765 0.000000
1.000000 0.580392 0.011765
0.756863 0.878431 0.000000
0.803922 0.874510 0.000000
0.949020 0.874510 0.000000
0.996078 0.796078 0.000000
1.000000 0.701961 0.223529
0.007843 0.152941 0.227451
0.152941 0.121569 0.219608
0.576471 0.117647 0.160784
0.882353 0.219608 0.074510
1.000000 0.278431 0.003922
0.000000 0.227451 0.239216
0.227451 0.227451 0.219608
0.607843 0.250980 0.176471
0.886275 0.290196 0.066667
0.992157 0.333333 0.007843
0.129412 0.443137 0.196078
0.392157 0.443137 0.172549
0.686275 0.454902 0.149020
0.917647 0.447059 0.078431
1.000000 0.435294 0.000000
0.466667 0.698039 0.141176
0.592157 0.682353 0.117647
0.800000 0.666667 0.035294
0.964706 0.619608 0.086275
1.000000 0.584314 0.003922
0.698039 0.882353 0.184314
0.764706 0.886275 0.184314
0.913725 0.878431 0.129412
0.996078 0.803922 0.058824
1.000000 0.709804 0.227451
0.000000 0.349020 0.537255
0.000000 0.349020 0.541176
0.360784 0.239216 0.541176
0.835294 0.298039 0.462745
0.996078 0.372549 0.419608
0.003922 0.403922 0.552941
0.000000 0.396078 0.552941
0.400000 0.325490 0.552941
0.835294 0.396078 0.482353
1.000000 0.411765 0.415686
0.000000 0.541176 0.580392
0.000000 0.549020 0.584314
0.545098 0.552941 0.549020
0.858824 0.545098 0.509804
0.992157 0.509804 0.388235
0.003922 0.737255 0.552941
0.254902 0.733333 0.541176
0.670588 0.729412 0.505882
0.901961 0.690196 0.501961
1.000000 0.650980 0.431373
0.517647 0.898039 0.509804
0.600000 0.898039 0.505882
0.803922 0.894118 0.486275
1.000000 0.847059 0.462745
0.996078 0.749020 0.439216
0.000000 0.521569 0.780392
0.000000 0.521569 0.784314
0.003922 0.482353 0.807843
0.600000 0.478431 0.784314
0.960784 0.607843 0.756863
0.000000 0.552941 0.780392
0.000000 0.545098 0.796078
0.000000 0.517647 0.803922
0.619608 0.533333 0.788235
0.949020 0.643137 0.745098
0.000000 0.627451 0.792157
0.003922 0.615686 0.803922
0.011765 0.607843 0.800000
0.701961 0.647059 0.776471
0.964706 0.713725 0.776471
0.011765 0.752941 0.815686
0.000000 0.760784 0.800000
0.250980 0.768627 0.807843
0.788235 0.784314 0.776471
0.996078 0.772549 0.752941
0.011765 0.941176 0.807843
0.000000 0.937255 0.792157
0.560784 0.929412 0.784314
0.862745 0.901961 0.764706
0.964706 0.839216 0.749020
0.003922 0.603922 0.941176
0.003922 0.615686 0.945098
0.000000 0.611765 0.941176
0.407843 0.698039 0.937255
0.819608 0.792157 0.913725
0.000000 0.619608 0.937255
0.007843 0.627451 0.945098
0.007843 0.627451 0.945098
0.435294 0.713725 0.917647
0.835294 0.800000 0.913725
0.000000 0.654902 0.937255
0.003922 0.650980 0.937255
0.000000 0.658824 0.941176
0.466667 0.741176 0.933333
0.858824 0.827451 0.909804
0.003922 0.737255 0.929412
0.000000 0.733333 0.933333
0.000000 0.729412 0.929412
0.396078 0.780392 0.925490
0.894118 0.882353 0.909804
0.011765 0.850980 0.913725
0.003922 0.862745 0.909804
0.000000 0.870588 0.898039
0.635294 0.894118 0.894118
0.901961 0.894118 0.905882
