Luts Download/1) O & T/teal and orange (1).cube
#Generated with IWLTBAP LUT Generator
#Website: http://luts.iwltbap.com
TITLE "Teal And Orange Basic 2-2"
#LUT size
LUT_3D_SIZE 25
#LUT data points
0.101961 0.101961 0.094118
0.101961 0.101961 0.101961
0.098039 0.105882 0.101961
0.113725 0.098039 0.101961
0.156863 0.098039 0.109804
0.200000 0.105882 0.113725
0.243137 0.105882 0.098039
0.286275 0.109804 0.090196
0.341176 0.109804 0.086275
0.392157 0.117647 0.086275
0.454902 0.125490 0.082353
0.517647 0.133333 0.058824
0.580392 0.145098 0.039216
0.647059 0.160784 0.027451
0.709804 0.172549 0.007843
0.752941 0.180392 0.000000
0.800000 0.188235 0.000000
0.843137 0.192157 0.000000
0.882353 0.207843 0.000000
0.921569 0.211765 0.000000
0.964706 0.219608 0.000000
0.992157 0.223529 0.003922
1.000000 0.223529 0.000000
1.000000 0.223529 0.000000
1.000000 0.231373 0.000000
0.105882 0.098039 0.109804
0.101961 0.101961 0.094118
0.101961 0.101961 0.094118
0.109804 0.101961 0.105882
0.164706 0.101961 0.101961
0.192157 0.109804 0.090196
0.247059 0.113725 0.105882
0.290196 0.113725 0.086275
0.345098 0.121569 0.086275
0.400000 0.125490 0.086275
0.458824 0.133333 0.078431
0.521569 0.137255 0.054902
0.584314 0.149020 0.035294
0.647059 0.168627 0.023529
0.698039 0.176471 0.007843
0.760784 0.188235 0.000000
0.807843 0.196078 0.003922
0.850980 0.203922 0.000000
0.890196 0.215686 0.003922
0.929412 0.219608 0.003922
0.960784 0.223529 0.003922
0.992157 0.231373 0.000000
0.996078 0.227451 0.000000
0.996078 0.235294 0.003922
0.992157 0.243137 0.000000
0.101961 0.101961 0.109804
0.101961 0.101961 0.094118
0.109804 0.105882 0.098039
0.133333 0.101961 0.094118
0.164706 0.109804 0.098039
0.200000 0.121569 0.094118
0.250980 0.121569 0.101961
0.294118 0.125490 0.090196
0.352941 0.133333 0.082353
0.403922 0.141176 0.078431
0.462745 0.145098 0.070588
0.525490 0.156863 0.058824
0.584314 0.168627 0.035294
0.639216 0.180392 0.011765
0.705882 0.188235 0.000000
0.760784 0.200000 0.003922
0.803922 0.203922 0.000000
0.843137 0.211765 0.000000
0.890196 0.223529 0.000000
0.925490 0.227451 0.000000
0.960784 0.231373 0.000000
0.996078 0.235294 0.003922
1.000000 0.231373 0.003922
0.996078 0.247059 0.003922
0.988235 0.247059 0.000000
0.109804 0.101961 0.105882
0.098039 0.101961 0.109804
0.113725 0.109804 0.094118
0.141176 0.121569 0.098039
0.188235 0.121569 0.094118
0.223529 0.137255 0.094118
0.254902 0.137255 0.090196
0.305882 0.141176 0.086275
0.352941 0.145098 0.082353
0.415686 0.156863 0.070588
0.470588 0.168627 0.066667
0.529412 0.176471 0.043137
0.584314 0.188235 0.023529
0.650980 0.196078 0.000000
0.705882 0.207843 0.007843
0.760784 0.219608 0.007843
0.803922 0.223529 0.003922
0.847059 0.231373 0.000000
0.890196 0.235294 0.000000
0.925490 0.239216 0.000000
0.952941 0.243137 0.000000
0.988235 0.247059 0.000000
1.000000 0.254902 0.000000
0.996078 0.254902 0.003922
1.000000 0.258824 0.007843
0.109804 0.105882 0.098039
0.117647 0.113725 0.105882
0.129412 0.113725 0.101961
0.149020 0.129412 0.105882
0.188235 0.133333 0.090196
0.231373 0.145098 0.094118
0.262745 0.149020 0.086275
0.305882 0.156863 0.074510
0.364706 0.168627 0.078431
0.415686 0.176471 0.066667
0.478431 0.188235 0.050980
0.529412 0.196078 0.035294
0.603922 0.211765 0.015686
0.654902 0.219608 0.003922
0.705882 0.227451 0.000000
0.764706 0.239216 0.000000
0.811765 0.243137 0.000000
0.850980 0.247059 0.003922
0.890196 0.250980 0.000000
0.925490 0.258824 0.000000
0.960784 0.258824 0.000000
0.984314 0.258824 0.003922
1.000000 0.258824 0.000000
0.992157 0.262745 0.000000
0.996078 0.266667 0.003922
0.129412 0.141176 0.105882
0.133333 0.137255 0.105882
0.141176 0.141176 0.094118
0.168627 0.145098 0.090196
0.203922 0.152941 0.090196
0.235294 0.164706 0.086275
0.278431 0.168627 0.082353
0.325490 0.180392 0.078431
0.372549 0.192157 0.062745
0.427451 0.200000 0.054902
0.494118 0.215686 0.043137
0.549020 0.223529 0.019608
0.611765 0.235294 0.007843
0.670588 0.247059 0.000000
0.721569 0.254902 0.000000
0.764706 0.258824 0.000000
0.815686 0.266667 0.000000
0.854902 0.266667 0.000000
0.894118 0.274510 0.000000
0.925490 0.274510 0.000000
0.964706 0.278431 0.000000
0.992157 0.278431 0.000000
1.000000 0.278431 0.000000
1.000000 0.278431 0.000000
0.996078 0.282353 0.000000
0.145098 0.164706 0.086275
0.164706 0.156863 0.098039
0.160784 0.168627 0.086275
0.196078 0.164706 0.086275
0.223529 0.164706 0.082353
0.250980 0.184314 0.066667
0.301961 0.188235 0.070588
0.341176 0.200000 0.066667
0.388235 0.211765 0.050980
0.447059 0.227451 0.039216
0.498039 0.235294 0.019608
0.560784 0.247059 0.000000
0.615686 0.262745 0.000000
0.674510 0.270588 0.000000
0.725490 0.278431 0.000000
0.772549 0.286275 0.003922
0.811765 0.294118 0.003922
0.858824 0.298039 0.007843
0.898039 0.298039 0.003922
0.929412 0.294118 0.000000
0.968627 0.298039 0.000000
1.000000 0.298039 0.000000
1.000000 0.294118 0.000000
1.000000 0.294118 0.000000
0.996078 0.294118 0.000000
0.172549 0.196078 0.086275
0.172549 0.188235 0.082353
0.180392 0.192157 0.078431
0.211765 0.192157 0.078431
0.231373 0.207843 0.074510
0.274510 0.200000 0.070588
0.309804 0.215686 0.066667
0.356863 0.227451 0.058824
0.411765 0.243137 0.039216
0.458824 0.254902 0.027451
0.513725 0.258824 0.000000
0.576471 0.274510 0.000000
0.631373 0.286275 0.003922
0.682353 0.294118 0.000000
0.733333 0.309804 0.000000
0.776471 0.313725 0.000000
0.819608 0.317647 0.000000
0.854902 0.321569 0.000000
0.894118 0.321569 0.000000
0.933333 0.321569 0.000000
0.972549 0.321569 0.000000
0.996078 0.321569 0.000000
0.996078 0.321569 0.000000
0.996078 0.317647 0.000000
1.000000 0.321569 0.011765
0.192157 0.223529 0.062745
0.211765 0.219608 0.062745
0.219608 0.223529 0.066667
0.235294 0.227451 0.066667
0.270588 0.227451 0.058824
0.290196 0.235294 0.058824
0.337255 0.247059 0.050980
0.384314 0.258824 0.035294
0.427451 0.266667 0.015686
0.486275 0.282353 0.000000
0.537255 0.286275 0.000000
0.596078 0.298039 0.003922
0.654902 0.305882 0.007843
0.698039 0.321569 0.000000
0.745098 0.329412 0.000000
0.788235 0.333333 0.000000
0.823529 0.341176 0.003922
0.862745 0.341176 0.000000
0.901961 0.341176 0.003922
0.933333 0.341176 0.000000
0.968627 0.341176 0.003922
1.000000 0.345098 0.007843
1.000000 0.337255 0.000000
1.000000 0.337255 0.003922
0.984314 0.337255 0.000000
0.223529 0.262745 0.058824
0.223529 0.262745 0.054902
0.235294 0.262745 0.050980
0.266667 0.262745 0.050980
0.286275 0.258824 0.043137
0.317647 0.270588 0.035294
0.356863 0.282353 0.023529
0.400000 0.290196 0.003922
0.454902 0.301961 0.000000
0.501961 0.309804 0.000000
0.560784 0.325490 0.000000
0.611765 0.329412 0.000000
0.674510 0.337255 0.003922
0.713725 0.345098 0.003922
0.756863 0.349020 0.000000
0.800000 0.356863 0.003922
0.835294 0.360784 0.003922
0.870588 0.364706 0.007843
0.901961 0.368627 0.007843
0.937255 0.372549 0.003922
0.980392 0.368627 0.000000
0.996078 0.368627 0.000000
1.000000 0.368627 0.000000
0.996078 0.360784 0.000000
1.000000 0.356863 0.003922
0.250980 0.298039 0.039216
0.262745 0.298039 0.043137
0.278431 0.298039 0.039216
0.298039 0.301961 0.035294
0.321569 0.305882 0.027451
0.345098 0.309804 0.015686
0.380392 0.313725 0.000000
0.431373 0.329412 0.000000
0.474510 0.333333 0.000000
0.521569 0.345098 0.000000
0.576471 0.356863 0.000000
0.627451 0.368627 0.000000
0.682353 0.376471 0.000000
0.729412 0.384314 0.000000
0.764706 0.380392 0.000000
0.807843 0.384314 0.000000
0.843137 0.392157 0.000000
0.878431 0.388235 0.000000
0.913725 0.392157 0.000000
0.941176 0.388235 0.000000
0.976471 0.388235 0.007843
0.996078 0.388235 0.003922
1.000000 0.388235 0.007843
1.000000 0.384314 0.003922
1.000000 0.380392 0.011765
0.290196 0.341176 0.027451
0.290196 0.349020 0.015686
0.309804 0.341176 0.015686
0.333333 0.352941 0.023529
0.337255 0.349020 0.007843
0.380392 0.352941 0.007843
0.411765 0.360784 0.000000
0.450980 0.356863 0.003922
0.501961 0.372549 0.000000
0.549020 0.384314 0.000000
0.596078 0.392157 0.000000
0.650980 0.403922 0.000000
0.694118 0.407843 0.000000
0.741176 0.407843 0.003922
0.780392 0.411765 0.000000
0.815686 0.415686 0.000000
0.850980 0.419608 0.000000
0.886275 0.415686 0.000000
0.917647 0.415686 0.000000
0.949020 0.411765 0.000000
0.976471 0.419608 0.000000
1.000000 0.419608 0.003922
0.996078 0.415686 0.000000
0.996078 0.407843 0.000000
0.996078 0.407843 0.000000
0.329412 0.388235 0.000000
0.325490 0.388235 0.003922
0.345098 0.388235 0.000000
0.356863 0.396078 0.007843
0.384314 0.384314 0.000000
0.415686 0.396078 0.003922
0.443137 0.400000 0.000000
0.478431 0.403922 0.000000
0.525490 0.411765 0.011765
0.568627 0.415686 0.011765
0.611765 0.423529 0.000000
0.658824 0.435294 0.000000
0.713725 0.439216 0.000000
0.752941 0.439216 0.000000
0.792157 0.439216 0.000000
0.823529 0.443137 0.003922
0.858824 0.443137 0.003922
0.890196 0.447059 0.000000
0.925490 0.443137 0.000000
0.956863 0.439216 0.003922
0.984314 0.447059 0.007843
1.000000 0.439216 0.000000
1.000000 0.439216 0.000000
1.000000 0.435294 0.015686
0.996078 0.423529 0.000000
0.364706 0.427451 0.000000
0.364706 0.435294 0.003922
0.384314 0.427451 0.015686
0.403922 0.435294 0.000000
0.411765 0.443137 0.000000
0.447059 0.439216 0.000000
0.478431 0.439216 0.000000
0.513725 0.443137 0.003922
0.549020 0.447059 0.003922
0.592157 0.454902 0.000000
0.627451 0.462745 0.000000
0.666667 0.462745 0.000000
0.721569 0.470588 0.000000
0.756863 0.474510 0.003922
0.796078 0.474510 0.011765
0.827451 0.466667 0.000000
0.862745 0.478431 0.000000
0.901961 0.474510 0.007843
0.929412 0.474510 0.000000
0.964706 0.470588 0.000000
0.992157 0.462745 0.000000
0.996078 0.466667 0.003922
1.000000 0.466667 0.003922
0.992157 0.458824 0.000000
0.996078 0.450980 0.007843
0.403922 0.478431 0.000000
0.419608 0.482353 0.003922
0.419608 0.474510 0.000000
0.439216 0.482353 0.003922
0.458824 0.482353 0.000000
0.482353 0.482353 0.003922
0.505882 0.482353 0.003922
0.541176 0.486275 0.003922
0.572549 0.490196 0.000000
0.611765 0.498039 0.000000
0.658824 0.505882 0.000000
0.698039 0.505882 0.000000
0.733333 0.501961 0.000000
0.772549 0.501961 0.000000
0.807843 0.505882 0.000000
0.839216 0.505882 0.000000
0.874510 0.501961 0.000000
0.905882 0.501961 0.000000
0.929412 0.498039 0.000000
0.964706 0.494118 0.000000
0.992157 0.494118 0.011765
1.000000 0.494118 0.003922
1.000000 0.494118 0.000000
0.996078 0.490196 0.000000
1.000000 0.474510 0.000000
0.439216 0.525490 0.000000
0.454902 0.521569 0.003922
0.462745 0.533333 0.007843
0.474510 0.529412 0.000000
0.490196 0.529412 0.000000
0.513725 0.529412 0.000000
0.537255 0.529412 0.000000
0.580392 0.533333 0.000000
0.603922 0.541176 0.003922
0.639216 0.537255 0.000000
0.678431 0.537255 0.000000
0.717647 0.537255 0.000000
0.756863 0.537255 0.000000
0.788235 0.541176 0.003922
0.823529 0.533333 0.003922
0.862745 0.533333 0.007843
0.886275 0.537255 0.003922
0.917647 0.529412 0.000000
0.949020 0.525490 0.000000
0.968627 0.529412 0.000000
0.992157 0.521569 0.003922
1.000000 0.517647 0.000000
1.000000 0.513725 0.000000
0.996078 0.509804 0.000000
0.988235 0.501961 0.000000
0.482353 0.576471 0.000000
0.490196 0.568627 0.000000
0.509804 0.580392 0.000000
0.501961 0.572549 0.000000
0.533333 0.580392 0.000000
0.552941 0.576471 0.000000
0.576471 0.576471 0.000000
0.603922 0.580392 0.000000
0.643137 0.584314 0.000000
0.674510 0.580392 0.000000
0.701961 0.576471 0.000000
0.737255 0.580392 0.000000
0.772549 0.576471 0.003922
0.807843 0.568627 0.007843
0.835294 0.568627 0.000000
0.866667 0.564706 0.007843
0.894118 0.560784 0.003922
0.925490 0.552941 0.000000
0.949020 0.552941 0.003922
0.972549 0.552941 0.003922
0.992157 0.549020 0.000000
1.000000 0.541176 0.000000
1.000000 0.537255 0.003922
0.996078 0.533333 0.000000
0.996078 0.525490 0.007843
0.517647 0.615686 0.003922
0.529412 0.623529 0.003922
0.541176 0.619608 0.000000
0.549020 0.615686 0.000000
0.572549 0.615686 0.000000
0.588235 0.615686 0.007843
0.611765 0.615686 0.003922
0.639216 0.615686 0.000000
0.674510 0.619608 0.000000
0.701961 0.623529 0.007843
0.729412 0.619608 0.000000
0.760784 0.619608 0.000000
0.792157 0.611765 0.003922
0.819608 0.603922 0.007843
0.854902 0.607843 0.000000
0.886275 0.600000 0.000000
0.909804 0.592157 0.000000
0.937255 0.584314 0.000000
0.960784 0.580392 0.000000
0.984314 0.572549 0.003922
0.992157 0.576471 0.007843
1.000000 0.568627 0.000000
1.000000 0.560784 0.000000
1.000000 0.560784 0.000000
1.000000 0.556863 0.007843
0.556863 0.666667 0.000000
0.572549 0.654902 0.000000
0.576471 0.662745 0.000000
0.584314 0.658824 0.000000
0.596078 0.658824 0.000000
0.615686 0.662745 0.003922
0.635294 0.658824 0.000000
0.666667 0.654902 0.000000
0.694118 0.662745 0.000000
0.733333 0.670588 0.000000
0.760784 0.666667 0.007843
0.784314 0.654902 0.000000
0.823529 0.650980 0.000000
0.850980 0.643137 0.003922
0.886275 0.635294 0.007843
0.905882 0.635294 0.003922
0.925490 0.631373 0.000000
0.945098 0.623529 0.000000
0.960784 0.611765 0.000000
0.984314 0.607843 0.000000
1.000000 0.600000 0.000000
1.000000 0.592157 0.000000
1.000000 0.584314 0.003922
1.000000 0.580392 0.000000
1.000000 0.580392 0.011765
0.592157 0.701961 0.000000
0.592157 0.698039 0.003922
0.600000 0.698039 0.000000
0.611765 0.690196 0.000000
0.627451 0.701961 0.000000
0.650980 0.701961 0.003922
0.670588 0.698039 0.000000
0.698039 0.701961 0.000000
0.725490 0.698039 0.000000
0.749020 0.698039 0.003922
0.784314 0.701961 0.007843
0.815686 0.694118 0.003922
0.843137 0.686275 0.000000
0.866667 0.682353 0.000000
0.890196 0.670588 0.000000
0.913725 0.662745 0.000000
0.941176 0.654902 0.000000
0.960784 0.650980 0.003922
0.984314 0.639216 0.003922
1.000000 0.631373 0.003922
1.000000 0.627451 0.000000
1.000000 0.611765 0.000000
1.000000 0.611765 0.003922
1.000000 0.607843 0.000000
1.000000 0.600000 0.000000
0.623529 0.737255 0.000000
0.631373 0.733333 0.000000
0.635294 0.741176 0.000000
0.639216 0.737255 0.000000
0.662745 0.737255 0.003922
0.678431 0.741176 0.007843
0.690196 0.737255 0.000000
0.713725 0.741176 0.000000
0.741176 0.737255 0.000000
0.772549 0.737255 0.000000
0.811765 0.737255 0.000000
0.835294 0.737255 0.000000
0.862745 0.721569 0.007843
0.882353 0.717647 0.011765
0.905882 0.705882 0.003922
0.941176 0.701961 0.003922
0.956863 0.694118 0.003922
0.980392 0.682353 0.000000
0.992157 0.670588 0.000000
0.992157 0.662745 0.000000
1.000000 0.650980 0.000000
1.000000 0.639216 0.000000
1.000000 0.631373 0.003922
0.996078 0.635294 0.011765
0.996078 0.623529 0.000000
0.639216 0.772549 0.000000
0.654902 0.776471 0.000000
0.666667 0.764706 0.011765
0.666667 0.780392 0.000000
0.690196 0.768627 0.000000
0.694118 0.780392 0.000000
0.725490 0.768627 0.015686
0.745098 0.768627 0.007843
0.780392 0.772549 0.003922
0.803922 0.772549 0.000000
0.827451 0.772549 0.000000
0.858824 0.772549 0.000000
0.882353 0.764706 0.003922
0.905882 0.752941 0.003922
0.933333 0.749020 0.000000
0.949020 0.729412 0.003922
0.976471 0.725490 0.000000
0.992157 0.717647 0.000000
1.000000 0.705882 0.000000
1.000000 0.698039 0.000000
1.000000 0.686275 0.000000
1.000000 0.674510 0.000000
0.996078 0.666667 0.000000
1.000000 0.650980 0.000000
1.000000 0.643137 0.011765
0.678431 0.811765 0.000000
0.694118 0.803922 0.000000
0.694118 0.807843 0.000000
0.701961 0.811765 0.000000
0.709804 0.807843 0.000000
0.729412 0.815686 0.000000
0.733333 0.807843 0.000000
0.764706 0.811765 0.000000
0.796078 0.811765 0.000000
0.819608 0.811765 0.000000
0.847059 0.803922 0.000000
0.874510 0.803922 0.003922
0.905882 0.800000 0.003922
0.933333 0.788235 0.000000
0.945098 0.780392 0.000000
0.976471 0.772549 0.000000
0.992157 0.756863 0.000000
0.996078 0.749020 0.000000
1.000000 0.737255 0.003922
1.000000 0.725490 0.003922
1.000000 0.717647 0.000000
1.000000 0.705882 0.000000
0.996078 0.694118 0.011765
0.992157 0.678431 0.003922
0.992157 0.662745 0.000000
0.709804 0.847059 0.000000
0.713725 0.847059 0.000000
0.725490 0.839216 0.000000
0.729412 0.843137 0.000000
0.745098 0.835294 0.000000
0.749020 0.839216 0.000000
0.776471 0.843137 0.000000
0.788235 0.843137 0.000000
0.815686 0.839216 0.000000
0.839216 0.843137 0.000000
0.862745 0.843137 0.007843
0.894118 0.839216 0.007843
0.933333 0.843137 0.000000
0.945098 0.827451 0.000000
0.976471 0.819608 0.000000
0.992157 0.803922 0.000000
0.996078 0.796078 0.000000
1.000000 0.784314 0.003922
1.000000 0.768627 0.007843
1.000000 0.756863 0.000000
1.000000 0.741176 0.000000
0.996078 0.721569 0.000000
1.000000 0.705882 0.000000
1.000000 0.690196 0.000000
0.996078 0.674510 0.000000
0.756863 0.878431 0.000000
0.741176 0.878431 0.000000
0.752941 0.878431 0.000000
0.760784 0.878431 0.007843
0.764706 0.874510 0.003922
0.788235 0.874510 0.003922
0.803922 0.874510 0.000000
0.815686 0.874510 0.000000
0.843137 0.874510 0.000000
0.866667 0.874510 0.007843
0.890196 0.878431 0.000000
0.925490 0.874510 0.000000
0.949020 0.874510 0.000000
0.976471 0.866667 0.000000
0.992157 0.858824 0.000000
1.000000 0.847059 0.000000
1.000000 0.831373 0.003922
0.996078 0.815686 0.003922
0.996078 0.796078 0.000000
1.000000 0.772549 0.000000
0.984314 0.756863 0.000000
0.996078 0.741176 0.003922
0.996078 0.729412 0.074510
1.000000 0.713725 0.172549
1.000000 0.701961 0.223529
0.098039 0.105882 0.101961
0.098039 0.105882 0.101961
0.090196 0.105882 0.101961
0.105882 0.105882 0.098039
0.145098 0.098039 0.098039
0.188235 0.105882 0.101961
0.243137 0.109804 0.101961
0.286275 0.117647 0.094118
0.341176 0.129412 0.098039
0.392157 0.133333 0.086275
0.450980 0.141176 0.074510
0.509804 0.152941 0.050980
0.576471 0.160784 0.035294
0.639216 0.172549 0.015686
0.694118 0.188235 0.000000
0.749020 0.196078 0.000000
0.803922 0.203922 0.000000
0.839216 0.207843 0.000000
0.886275 0.219608 0.000000
0.917647 0.227451 0.000000
0.960784 0.231373 0.007843
0.992157 0.231373 0.000000
1.000000 0.231373 0.000000
1.000000 0.231373 0.000000
1.000000 0.231373 0.003922
0.090196 0.105882 0.109804
0.101961 0.101961 0.101961
0.101961 0.094118 0.098039
0.121569 0.105882 0.101961
0.149020 0.105882 0.090196
0.203922 0.113725 0.094118
0.243137 0.105882 0.098039
0.282353 0.125490 0.086275
0.333333 0.129412 0.078431
0.388235 0.141176 0.082353
0.450980 0.149020 0.070588
0.517647 0.160784 0.054902
0.580392 0.172549 0.027451
0.643137 0.184314 0.011765
0.698039 0.200000 0.000000
0.760784 0.207843 0.000000
0.803922 0.211765 0.000000
0.850980 0.219608 0.000000
0.882353 0.223529 0.000000
0.921569 0.223529 0.000000
0.960784 0.231373 0.000000
0.988235 0.239216 0.000000
1.000000 0.239216 0.000000
0.988235 0.247059 0.000000
0.996078 0.239216 0.000000
0.105882 0.105882 0.105882
0.105882 0.105882 0.105882
0.101961 0.101961 0.101961
0.125490 0.109804 0.105882
0.164706 0.109804 0.105882
0.211765 0.121569 0.098039
0.243137 0.125490 0.094118
0.294118 0.125490 0.090196
0.345098 0.133333 0.086275
0.403922 0.145098 0.082353
0.458824 0.152941 0.062745
0.521569 0.172549 0.047059
0.588235 0.188235 0.031373
0.635294 0.196078 0.007843
0.701961 0.203922 0.003922
0.752941 0.207843 0.007843
0.800000 0.219608 0.007843
0.839216 0.227451 0.000000
0.886275 0.235294 0.000000
0.921569 0.239216 0.000000
0.960784 0.243137 0.000000
0.992157 0.243137 0.000000
0.996078 0.250980 0.000000
1.000000 0.243137 0.000000
1.000000 0.247059 0.003922
0.101961 0.101961 0.101961
0.101961 0.101961 0.109804
0.125490 0.109804 0.098039
0.129412 0.117647 0.090196
0.180392 0.121569 0.094118
0.211765 0.133333 0.098039
0.250980 0.133333 0.086275
0.298039 0.145098 0.086275
0.349020 0.149020 0.074510
0.407843 0.152941 0.066667
0.462745 0.168627 0.054902
0.529412 0.184314 0.039216
0.584314 0.200000 0.023529
0.643137 0.215686 0.000000
0.698039 0.219608 0.000000
0.756863 0.231373 0.000000
0.807843 0.235294 0.003922
0.847059 0.239216 0.000000
0.890196 0.243137 0.000000
0.929412 0.250980 0.000000
0.956863 0.247059 0.000000
0.992157 0.250980 0.003922
1.000000 0.250980 0.000000
1.000000 0.254902 0.007843
0.992157 0.262745 0.007843
0.109804 0.117647 0.098039
0.113725 0.125490 0.098039
0.125490 0.121569 0.101961
0.156863 0.121569 0.094118
0.188235 0.141176 0.086275
0.223529 0.149020 0.086275
0.266667 0.152941 0.082353
0.313725 0.152941 0.082353
0.368627 0.164706 0.082353
0.427451 0.176471 0.078431
0.482353 0.192157 0.054902
0.533333 0.200000 0.039216
0.603922 0.211765 0.007843
0.654902 0.227451 0.007843
0.713725 0.235294 0.003922
0.760784 0.247059 0.000000
0.811765 0.250980 0.000000
0.850980 0.262745 0.000000
0.886275 0.266667 0.000000
0.917647 0.266667 0.000000
0.964706 0.262745 0.003922
0.988235 0.266667 0.000000
0.996078 0.266667 0.000000
0.996078 0.266667 0.003922
0.996078 0.274510 0.007843
0.117647 0.141176 0.094118
0.129412 0.141176 0.098039
0.145098 0.145098 0.098039
0.176471 0.152941 0.090196
0.211765 0.149020 0.082353
0.239216 0.156863 0.082353
0.286275 0.164706 0.082353
0.325490 0.180392 0.078431
0.372549 0.188235 0.070588
0.427451 0.200000 0.054902
0.482353 0.215686 0.039216
0.541176 0.223529 0.015686
0.603922 0.235294 0.000000
0.662745 0.250980 0.000000
0.721569 0.262745 0.000000
0.764706 0.270588 0.003922
0.815686 0.274510 0.000000
0.854902 0.274510 0.000000
0.890196 0.282353 0.000000
0.925490 0.282353 0.003922
0.964706 0.282353 0.003922
0.988235 0.282353 0.003922
1.000000 0.286275 0.007843
1.000000 0.286275 0.007843
1.000000 0.286275 0.003922
0.137255 0.168627 0.070588
0.149020 0.168627 0.074510
0.164706 0.168627 0.098039
0.184314 0.176471 0.090196
0.215686 0.176471 0.078431
0.247059 0.184314 0.082353
0.298039 0.196078 0.074510
0.349020 0.196078 0.074510
0.392157 0.203922 0.054902
0.447059 0.219608 0.035294
0.505882 0.235294 0.019608
0.556863 0.243137 0.000000
0.611765 0.258824 0.000000
0.670588 0.266667 0.003922
0.721569 0.278431 0.003922
0.772549 0.294118 0.000000
0.815686 0.298039 0.003922
0.862745 0.301961 0.003922
0.894118 0.298039 0.003922
0.925490 0.301961 0.003922
0.964706 0.301961 0.000000
0.992157 0.309804 0.003922
1.000000 0.305882 0.003922
0.996078 0.298039 0.007843
1.000000 0.301961 0.000000
0.156863 0.192157 0.070588
0.164706 0.203922 0.066667
0.196078 0.196078 0.086275
0.211765 0.200000 0.070588
0.231373 0.207843 0.082353
0.274510 0.215686 0.062745
0.313725 0.211765 0.074510
0.360784 0.227451 0.050980
0.415686 0.235294 0.035294
0.466667 0.250980 0.027451
0.525490 0.258824 0.003922
0.580392 0.274510 0.000000
0.631373 0.278431 0.000000
0.690196 0.290196 0.000000
0.737255 0.301961 0.000000
0.784314 0.309804 0.000000
0.827451 0.313725 0.000000
0.858824 0.317647 0.000000
0.894118 0.317647 0.003922
0.933333 0.321569 0.000000
0.964706 0.321569 0.003922
0.996078 0.321569 0.007843
1.000000 0.317647 0.007843
1.000000 0.317647 0.007843
0.996078 0.321569 0.000000
0.172549 0.231373 0.078431
0.203922 0.227451 0.086275
0.207843 0.235294 0.062745
0.243137 0.231373 0.070588
0.254902 0.235294 0.070588
0.301961 0.235294 0.054902
0.333333 0.243137 0.039216
0.384314 0.258824 0.035294
0.431373 0.270588 0.011765
0.486275 0.282353 0.000000
0.533333 0.290196 0.000000
0.596078 0.298039 0.003922
0.650980 0.309804 0.000000
0.698039 0.325490 0.003922
0.741176 0.325490 0.000000
0.788235 0.333333 0.000000
0.819608 0.337255 0.000000
0.862745 0.341176 0.000000
0.898039 0.345098 0.003922
0.937255 0.349020 0.007843
0.964706 0.349020 0.007843
0.992157 0.341176 0.003922
0.996078 0.341176 0.000000
0.996078 0.341176 0.000000
1.000000 0.337255 0.003922
0.215686 0.266667 0.058824
0.227451 0.266667 0.062745
0.239216 0.266667 0.066667
0.258824 0.270588 0.062745
0.290196 0.266667 0.062745
0.321569 0.270588 0.054902
0.360784 0.286275 0.027451
0.400000 0.290196 0.003922
0.450980 0.298039 0.000000
0.501961 0.309804 0.000000
0.549020 0.321569 0.000000
0.607843 0.333333 0.000000
0.658824 0.337255 0.000000
0.705882 0.349020 0.003922
0.756863 0.349020 0.000000
0.796078 0.364706 0.000000
0.835294 0.364706 0.000000
0.870588 0.364706 0.000000
0.901961 0.368627 0.000000
0.937255 0.372549 0.000000
0.980392 0.368627 0.003922
0.996078 0.368627 0.000000
1.000000 0.372549 0.000000
1.000000 0.368627 0.000000
0.996078 0.360784 0.000000
0.247059 0.305882 0.050980
0.258824 0.305882 0.054902
0.274510 0.309804 0.062745
0.286275 0.313725 0.050980
0.313725 0.309804 0.047059
0.341176 0.317647 0.027451
0.388235 0.321569 0.015686
0.431373 0.329412 0.000000
