Luts Download/1) O & T/teal and orange (1).cube
#Generated with IWLTBAP LUT Generator
#Website: http://luts.iwltbap.com
TITLE "Teal And Orange Basic 2-2"
#LUT size
LUT_3D_SIZE 9
#LUT data points
0.101961 0.101961 0.094118
0.113725 0.098039 0.101961
0.243137 0.105882 0.098039
0.392157 0.117647 0.086275
0.580392 0.145098 0.039216
0.752941 0.180392 0.000000
0.882353 0.207843 0.000000
0.992157 0.223529 0.003922
1.000000 0.231373 0.000000
0.109804 0.101961 0.105882
0.141176 0.121569 0.098039
0.254902 0.137255 0.090196
0.415686 0.156863 0.070588
0.584314 0.188235 0.023529
0.760784 0.219608 0.007843
0.890196 0.235294 0.000000
0.988235 0.247059 0.000000
1.000000 0.258824 0.007843
0.145098 0.164706 0.086275
0.196078 0.164706 0.086275
0.301961 0.188235 0.070588
0.447059 0.227451 0.039216
0.615686 0.262745 0.000000
0.772549 0.286275 0.003922
0.898039 0.298039 0.003922
1.000000 0.298039 0.000000
0.996078 0.294118 0.000000
0.223529 0.262745 0.058824
0.266667 0.262745 0.050980
0.356863 0.282353 0.023529
0.501961 0.309804 0.000000
0.674510 0.337255 0.003922
0.800000 0.356863 0.003922
0.901961 0.368627 0.007843
0.996078 0.368627 0.000000
1.000000 0.356863 0.003922
0.329412 0.388235 0.000000
0.356863 0.396078 0.007843
0.443137 0.400000 0.000000
0.568627 0.415686 0.011765
0.713725 0.439216 0.000000
0.823529 0.443137 0.003922
0.925490 0.443137 0.000000
1.000000 0.439216 0.000000
0.996078 0.423529 0.000000
0.439216 0.525490 0.000000
0.474510 0.529412 0.000000
0.537255 0.529412 0.000000
0.639216 0.537255 0.000000
0.756863 0.537255 0.000000
0.862745 0.533333 0.007843
0.949020 0.525490 0.000000
1.000000 0.517647 0.000000
0.988235 0.501961 0.000000
0.556863 0.666667 0.000000
0.584314 0.658824 0.000000
0.635294 0.658824 0.000000
0.733333 0.670588 0.000000
0.823529 0.650980 0.000000
0.905882 0.635294 0.003922
0.960784 0.611765 0.000000
1.000000 0.592157 0.000000
1.000000 0.580392 0.011765
0.639216 0.772549 0.000000
0.666667 0.780392 0.000000
0.725490 0.768627 0.015686
0.803922 0.772549 0.000000
0.882353 0.764706 0.003922
0.949020 0.729412 0.003922
1.000000 0.705882 0.000000
1.000000 0.674510 0.000000
1.000000 0.643137 0.011765
0.756863 0.878431 0.000000
0.760784 0.878431 0.007843
0.803922 0.874510 0.000000
0.866667 0.874510 0.007843
0.949020 0.874510 0.000000
1.000000 0.847059 0.000000
0.996078 0.796078 0.000000
0.996078 0.741176 0.003922
1.000000 0.701961 0.223529
0.090196 0.109804 0.121569
0.109804 0.101961 0.121569
0.239216 0.086275 0.105882
0.388235 0.113725 0.086275
0.580392 0.152941 0.035294
0.756863 0.203922 0.003922
0.878431 0.247059 0.003922
0.996078 0.254902 0.003922
1.000000 0.250980 0.003922
0.074510 0.129412 0.129412
0.129412 0.121569 0.125490
0.243137 0.129412 0.113725
0.407843 0.145098 0.082353
0.588235 0.184314 0.027451
0.760784 0.227451 0.000000
0.886275 0.254902 0.000000
0.988235 0.270588 0.003922
0.996078 0.274510 0.007843
0.094118 0.188235 0.125490
0.172549 0.203922 0.121569
0.290196 0.192157 0.105882
0.443137 0.215686 0.078431
0.611765 0.254902 0.011765
0.772549 0.282353 0.000000
0.890196 0.305882 0.007843
0.988235 0.317647 0.003922
0.996078 0.313725 0.003922
0.184314 0.286275 0.109804
0.250980 0.286275 0.109804
0.352941 0.290196 0.086275
0.498039 0.321569 0.058824
0.658824 0.345098 0.003922
0.792157 0.356863 0.003922
0.913725 0.372549 0.000000
0.996078 0.376471 0.003922
0.996078 0.368627 0.000000
0.309804 0.400000 0.078431
0.349020 0.411765 0.062745
0.443137 0.411765 0.027451
0.568627 0.427451 0.000000
0.705882 0.443137 0.000000
0.811765 0.447059 0.000000
0.925490 0.443137 0.000000
0.996078 0.443137 0.000000
1.000000 0.435294 0.000000
0.415686 0.545098 0.000000
0.454902 0.541176 0.003922
0.525490 0.541176 0.000000
0.639216 0.549020 0.000000
0.749020 0.541176 0.000000
0.847059 0.537255 0.003922
0.941176 0.525490 0.000000
1.000000 0.521569 0.000000
0.996078 0.509804 0.000000
0.545098 0.670588 0.000000
0.560784 0.662745 0.000000
0.631373 0.666667 0.000000
0.721569 0.666667 0.003922
0.815686 0.654902 0.000000
0.901961 0.631373 0.000000
0.972549 0.619608 0.007843
0.992157 0.596078 0.000000
1.000000 0.568627 0.000000
0.639216 0.772549 0.000000
0.674510 0.776471 0.003922
0.705882 0.776471 0.000000
0.788235 0.772549 0.000000
0.878431 0.768627 0.000000
0.945098 0.737255 0.000000
1.000000 0.705882 0.000000
1.000000 0.678431 0.003922
1.000000 0.643137 0.003922
0.737255 0.874510 0.000000
0.756863 0.874510 0.003922
0.792157 0.878431 0.000000
0.858824 0.878431 0.000000
0.945098 0.874510 0.003922
1.000000 0.847059 0.000000
1.000000 0.800000 0.000000
1.000000 0.741176 0.007843
1.000000 0.701961 0.223529
0.007843 0.152941 0.227451
0.000000 0.156863 0.223529
0.152941 0.121569 0.219608
0.368627 0.125490 0.207843
0.576471 0.117647 0.160784
0.749020 0.168627 0.121569
0.882353 0.219608 0.074510
0.984314 0.258824 0.003922
1.000000 0.278431 0.003922
0.000000 0.176471 0.239216
0.011765 0.164706 0.231373
0.172549 0.160784 0.227451
0.380392 0.160784 0.211765
0.584314 0.172549 0.168627
0.760784 0.211765 0.129412
0.894118 0.243137 0.062745
0.992157 0.278431 0.000000
0.992157 0.298039 0.000000
0.000000 0.227451 0.239216
0.000000 0.231373 0.254902
0.227451 0.227451 0.219608
0.407843 0.231373 0.203922
0.607843 0.250980 0.176471
0.776471 0.274510 0.129412
0.886275 0.290196 0.066667
0.992157 0.317647 0.000000
0.992157 0.333333 0.007843
0.003922 0.321569 0.247059
0.054902 0.321569 0.231373
0.301961 0.329412 0.207843
0.478431 0.337255 0.196078
0.643137 0.352941 0.176471
0.784314 0.360784 0.125490
0.909804 0.364706 0.070588
0.996078 0.376471 0.003922
1.000000 0.384314 0.003922
0.129412 0.443137 0.196078
0.239216 0.443137 0.184314
0.392157 0.443137 0.172549
0.537255 0.450980 0.152941
0.686275 0.454902 0.149020
0.811765 0.454902 0.141176
0.917647 0.447059 0.078431
0.988235 0.447059 0.000000
1.000000 0.435294 0.000000
0.345098 0.564706 0.168627
0.388235 0.572549 0.164706
0.498039 0.560784 0.141176
0.619608 0.576471 0.121569
0.741176 0.564706 0.074510
0.839216 0.549020 0.121569
0.933333 0.533333 0.098039
1.000000 0.525490 0.003922
0.992157 0.513725 0.000000
0.466667 0.698039 0.141176
0.513725 0.686275 0.133333
0.592157 0.682353 0.117647
0.686275 0.690196 0.090196
0.800000 0.666667 0.035294
0.886275 0.643137 0.003922
0.964706 0.619608 0.086275
1.000000 0.600000 0.058824
1.000000 0.584314 0.003922
0.600000 0.784314 0.133333
0.607843 0.792157 0.109804
0.678431 0.784314 0.129412
0.764706 0.780392 0.094118
0.862745 0.784314 0.031373
0.925490 0.749020 0.000000
0.996078 0.713725 0.000000
1.000000 0.686275 0.062745
0.996078 0.650980 0.023529
0.698039 0.882353 0.184314
0.709804 0.886275 0.188235
0.764706 0.886275 0.184314
0.839216 0.886275 0.156863
0.913725 0.878431 0.129412
1.000000 0.862745 0.066667
0.996078 0.803922 0.058824
1.000000 0.752941 0.113725
1.000000 0.709804 0.227451
0.000000 0.243137 0.380392
0.000000 0.247059 0.376471
0.000000 0.219608 0.388235
0.239216 0.164706 0.384314
0.533333 0.168627 0.352941
0.733333 0.156863 0.298039
0.874510 0.200000 0.254902
0.984314 0.258824 0.219608
1.000000 0.278431 0.152941
0.000000 0.278431 0.384314
0.007843 0.270588 0.376471
0.000000 0.247059 0.384314
0.266667 0.196078 0.392157
0.537255 0.200000 0.345098
0.741176 0.200000 0.301961
0.878431 0.243137 0.262745
0.992157 0.274510 0.219608
0.996078 0.298039 0.164706
0.000000 0.313725 0.403922
0.000000 0.309804 0.392157
0.007843 0.298039 0.396078
0.305882 0.262745 0.388235
0.552941 0.286275 0.345098
0.745098 0.294118 0.313725
0.878431 0.309804 0.266667
0.992157 0.329412 0.223529
1.000000 0.333333 0.160784
0.000000 0.388235 0.411765
0.003922 0.392157 0.415686
0.000000 0.380392 0.407843
0.380392 0.372549 0.384314
0.600000 0.388235 0.356863
0.756863 0.392157 0.325490
0.890196 0.392157 0.286275
0.984314 0.392157 0.239216
0.996078 0.388235 0.168627
0.000000 0.501961 0.411765
0.000000 0.505882 0.403922
0.121569 0.498039 0.392157
0.466667 0.498039 0.352941
0.654902 0.490196 0.349020
0.784314 0.490196 0.345098
0.905882 0.482353 0.301961
1.000000 0.466667 0.250980
0.996078 0.454902 0.172549
0.000000 0.607843 0.372549
0.011765 0.607843 0.345098
0.333333 0.611765 0.345098
0.541176 0.607843 0.325490
0.721569 0.596078 0.301961
0.815686 0.576471 0.321569
0.917647 0.564706 0.321569
1.000000 0.545098 0.266667
1.000000 0.525490 0.192157
0.305882 0.713725 0.341176
0.368627 0.709804 0.333333
0.490196 0.701961 0.325490
0.623529 0.709804 0.317647
0.764706 0.705882 0.301961
0.870588 0.670588 0.258824
0.949020 0.647059 0.309804
1.000000 0.627451 0.305882
0.996078 0.603922 0.235294
0.486275 0.803922 0.341176
0.525490 0.803922 0.341176
0.596078 0.792157 0.341176
0.713725 0.796078 0.321569
0.811765 0.796078 0.301961
0.921569 0.768627 0.270588
0.988235 0.725490 0.266667
1.000000 0.709804 0.290196
0.992157 0.666667 0.266667
0.631373 0.890196 0.356863
0.647059 0.890196 0.360784
0.705882 0.894118 0.352941
0.776471 0.886275 0.349020
0.878431 0.886275 0.325490
0.972549 0.878431 0.298039
0.996078 0.815686 0.278431
1.000000 0.764706 0.278431
1.000000 0.725490 0.290196
0.000000 0.349020 0.537255
0.003922 0.360784 0.533333
0.000000 0.349020 0.541176
0.000000 0.298039 0.556863
0.360784 0.239216 0.541176
0.686275 0.250980 0.521569
0.835294 0.298039 0.462745
0.952941 0.352941 0.431373
0.996078 0.372549 0.419608
0.000000 0.380392 0.533333
0.000000 0.372549 0.537255
0.000000 0.360784 0.545098
0.003922 0.317647 0.556863
0.376471 0.266667 0.556863
0.694118 0.282353 0.513725
0.835294 0.337255 0.466667
0.949020 0.372549 0.447059
0.996078 0.392157 0.403922
0.003922 0.403922 0.552941
0.000000 0.407843 0.552941
0.000000 0.396078 0.552941
0.000000 0.356863 0.560784
0.400000 0.325490 0.552941
0.694118 0.364706 0.513725
0.835294 0.396078 0.482353
0.956863 0.419608 0.450980
1.000000 0.411765 0.415686
0.011765 0.454902 0.572549
0.000000 0.458824 0.568627
0.000000 0.450980 0.564706
0.007843 0.439216 0.568627
0.462745 0.427451 0.549020
0.690196 0.462745 0.521569
0.835294 0.474510 0.494118
0.964706 0.462745 0.450980
1.000000 0.447059 0.400000
0.000000 0.541176 0.580392
0.003922 0.545098 0.584314
0.000000 0.549020 0.584314
0.098039 0.545098 0.576471
0.545098 0.552941 0.549020
0.725490 0.549020 0.529412
0.858824 0.545098 0.509804
0.972549 0.529412 0.466667
0.992157 0.509804 0.388235
0.003922 0.647059 0.584314
0.000000 0.650980 0.580392
0.003922 0.647059 0.572549
0.333333 0.647059 0.549020
0.607843 0.643137 0.521569
0.756863 0.635294 0.525490
0.874510 0.623529 0.517647
0.980392 0.603922 0.470588
1.000000 0.576471 0.415686
0.003922 0.737255 0.552941
0.011765 0.737255 0.541176
0.254902 0.733333 0.541176
0.474510 0.737255 0.525490
0.670588 0.729412 0.505882
0.831373 0.709804 0.458824
0.901961 0.690196 0.501961
0.992157 0.674510 0.490196
1.000000 0.650980 0.431373
0.313725 0.815686 0.521569
0.368627 0.815686 0.513725
0.458824 0.815686 0.513725
0.600000 0.811765 0.505882
0.733333 0.819608 0.498039
0.870588 0.807843 0.466667
0.964706 0.764706 0.439216
1.000000 0.741176 0.466667
1.000000 0.705882 0.450980
0.517647 0.898039 0.509804
0.545098 0.901961 0.529412
0.600000 0.898039 0.505882
0.698039 0.901961 0.517647
0.803922 0.894118 0.486275
0.929412 0.894118 0.482353
1.000000 0.847059 0.462745
0.996078 0.796078 0.447059
0.996078 0.749020 0.439216
0.003922 0.443137 0.670588
0.015686 0.447059 0.678431
0.007843 0.447059 0.674510
0.000000 0.415686 0.674510
0.000000 0.360784 0.694118
0.478431 0.337255 0.678431
0.788235 0.372549 0.654902
0.909804 0.462745 0.611765
0.984314 0.541176 0.611765
0.007843 0.466667 0.666667
0.003922 0.470588 0.666667
0.003922 0.450980 0.686275
0.000000 0.435294 0.686275
0.000000 0.380392 0.698039
0.494118 0.364706 0.682353
0.792157 0.403922 0.666667
0.901961 0.482353 0.607843
0.984314 0.556863 0.631373
0.000000 0.498039 0.674510
0.011765 0.486275 0.690196
0.000000 0.478431 0.682353
0.007843 0.462745 0.694118
0.000000 0.423529 0.686275
0.517647 0.411765 0.682353
0.796078 0.454902 0.662745
0.901961 0.525490 0.631373
0.992157 0.584314 0.643137
0.000000 0.525490 0.694118
0.000000 0.529412 0.686275
0.011765 0.517647 0.709804
0.003922 0.513725 0.694118
0.000000 0.494118 0.709804
0.568627 0.490196 0.698039
0.792157 0.533333 0.650980
0.905882 0.584314 0.643137
0.996078 0.600000 0.639216
0.003922 0.588235 0.705882
0.000000 0.584314 0.698039
0.000000 0.584314 0.694118
0.003922 0.576471 0.705882
0.223529 0.580392 0.694118
0.607843 0.588235 0.682353
0.796078 0.615686 0.654902
0.913725 0.631373 0.654902
0.992157 0.619608 0.611765
0.003922 0.662745 0.701961
0.000000 0.662745 0.705882
0.000000 0.662745 0.705882
0.000000 0.682353 0.713725
0.400000 0.670588 0.690196
0.682353 0.674510 0.678431
0.819608 0.686275 0.650980
0.937255 0.674510 0.643137
0.996078 0.658824 0.607843
0.007843 0.768627 0.705882
0.000000 0.768627 0.713725
0.011765 0.772549 0.709804
0.188235 0.764706 0.694118
0.513725 0.760784 0.686275
0.733333 0.752941 0.666667
0.858824 0.737255 0.658824
0.941176 0.737255 0.650980
1.000000 0.713725 0.619608
0.003922 0.839216 0.682353
0.000000 0.850980 0.682353
0.184314 0.839216 0.666667
0.435294 0.831373 0.666667
0.615686 0.831373 0.666667
0.780392 0.823529 0.654902
0.909804 0.807843 0.619608
0.976471 0.788235 0.639216
1.000000 0.768627 0.619608
0.325490 0.921569 0.670588
0.368627 0.921569 0.686275
0.466667 0.913725 0.674510
0.588235 0.909804 0.658824
0.705882 0.901961 0.654902
0.847059 0.905882 0.635294
0.960784 0.886275 0.615686
0.996078 0.831373 0.603922
0.996078 0.792157 0.607843
0.000000 0.521569 0.780392
0.000000 0.529412 0.788235
0.000000 0.521569 0.784314
0.007843 0.498039 0.780392
0.003922 0.482353 0.807843
0.000000 0.458824 0.800000
0.600000 0.478431 0.784314
0.850980 0.521569 0.772549
0.960784 0.607843 0.756863
0.000000 0.533333 0.776471
0.011765 0.537255 0.784314
0.007843 0.537255 0.796078
0.000000 0.517647 0.788235
0.000000 0.478431 0.796078
0.000000 0.474510 0.792157
0.603922 0.494118 0.784314
0.858824 0.529412 0.764706
0.952941 0.619608 0.749020
0.000000 0.552941 0.780392
0.000000 0.556863 0.784314
0.000000 0.545098 0.796078
0.007843 0.529412 0.792157
0.000000 0.517647 0.803922
0.164706 0.501961 0.796078
0.619608 0.533333 0.788235
0.870588 0.568627 0.788235
0.949020 0.643137 0.745098
0.003922 0.580392 0.784314
0.003922 0.580392 0.792157
0.000000 0.572549 0.796078
0.000000 0.564706 0.800000
0.000000 0.556863 0.807843
0.294118 0.560784 0.800000
0.658824 0.596078 0.788235
0.858824 0.623529 0.772549
0.956863 0.678431 0.752941
0.000000 0.627451 0.792157
0.003922 0.623529 0.800000
0.003922 0.615686 0.803922
0.003922 0.615686 0.803922
0.011765 0.607843 0.800000
0.384314 0.627451 0.780392
0.701961 0.647059 0.776471
0.866667 0.678431 0.764706
0.964706 0.713725 0.776471
0.003922 0.678431 0.803922
0.000000 0.686275 0.807843
0.000000 0.686275 0.807843
0.011765 0.686275 0.811765
0.003922 0.690196 0.803922
0.474510 0.701961 0.788235
0.737255 0.721569 0.788235
0.866667 0.745098 0.776471
0.980392 0.749020 0.764706
0.011765 0.752941 0.815686
0.000000 0.756863 0.807843
0.000000 0.760784 0.800000
0.000000 0.768627 0.811765
0.250980 0.768627 0.807843
0.588235 0.780392 0.803922
0.788235 0.784314 0.776471
0.898039 0.780392 0.772549
0.996078 0.772549 0.752941
0.000000 0.862745 0.823529
0.007843 0.858824 0.815686
0.000000 0.870588 0.819608
0.003922 0.858824 0.823529
0.443137 0.858824 0.811765
0.670588 0.854902 0.784314
0.831373 0.847059 0.780392
0.929412 0.839216 0.768627
0.976471 0.823529 0.764706
0.011765 0.941176 0.807843
0.000000 0.937255 0.803922
0.000000 0.937255 0.792157
0.356863 0.925490 0.788235
0.560784 0.929412 0.784314
0.725490 0.921569 0.768627
0.862745 0.901961 0.764706
0.949020 0.874510 0.749020
0.964706 0.839216 0.749020
0.000000 0.572549 0.874510
0.007843 0.576471 0.878431
0.003922 0.580392 0.882353
0.003922 0.572549 0.866667
0.000000 0.556863 0.878431
0.000000 0.556863 0.894118
0.454902 0.607843 0.878431
0.721569 0.639216 0.870588
0.901961 0.654902 0.862745
0.000000 0.580392 0.870588
0.000000 0.584314 0.874510
0.003922 0.584314 0.866667
0.000000 0.584314 0.882353
0.003922 0.568627 0.886275
0.003922 0.560784 0.890196
0.466667 0.615686 0.870588
0.721569 0.647059 0.862745
0.898039 0.666667 0.854902
0.000000 0.600000 0.866667
0.000000 0.611765 0.874510
0.003922 0.607843 0.882353
0.000000 0.592157 0.878431
0.003922 0.580392 0.882353
0.000000 0.588235 0.874510
0.486275 0.643137 0.882353
0.733333 0.666667 0.870588
0.909804 0.682353 0.870588
0.000000 0.627451 0.878431
0.000000 0.635294 0.882353
0.003922 0.627451 0.886275
0.000000 0.619608 0.878431
0.000000 0.611765 0.882353
0.000000 0.619608 0.878431
0.529412 0.666667 0.886275
0.752941 0.690196 0.866667
0.913725 0.717647 0.870588
0.011765 0.654902 0.886275
0.003922 0.658824 0.894118
0.000000 0.658824 0.874510
0.000000 0.647059 0.894118
0.003922 0.647059 0.886275
0.003922 0.658824 0.894118
0.564706 0.709804 0.874510
0.772549 0.725490 0.866667
0.921569 0.756863 0.850980
0.000000 0.701961 0.890196
0.003922 0.705882 0.894118
0.003922 0.705882 0.894118
0.000000 0.694118 0.894118
0.000000 0.694118 0.882353
0.000000 0.717647 0.882353
0.600000 0.752941 0.882353
0.803922 0.772549 0.870588
0.941176 0.788235 0.870588
0.003922 0.768627 0.886275
0.003922 0.764706 0.894118
0.000000 0.760784 0.890196
0.007843 0.768627 0.898039
0.000000 0.776471 0.886275
0.247059 0.776471 0.882353
0.643137 0.803922 0.882353
0.839216 0.823529 0.878431
0.945098 0.839216 0.874510
0.003922 0.839216 0.886275
0.007843 0.835294 0.894118
0.003922 0.839216 0.894118
0.000000 0.850980 0.890196
0.000000 0.858824 0.882353
0.478431 0.866667 0.890196
0.717647 0.870588 0.882353
0.870588 0.870588 0.870588
0.929412 0.866667 0.866667
0.000000 0.937255 0.894118
0.000000 0.937255 0.894118
0.000000 0.933333 0.909804
0.000000 0.933333 0.901961
0.286275 0.937255 0.890196
0.600000 0.925490 0.878431
0.788235 0.913725 0.862745
0.898039 0.894118 0.874510
0.921569 0.886275 0.858824
0.003922 0.603922 0.941176
0.000000 0.607843 0.937255
0.003922 0.615686 0.945098
0.000000 0.619608 0.945098
0.000000 0.611765 0.941176
0.000000 0.631373 0.945098
0.407843 0.698039 0.937255
0.713725 0.768627 0.913725
0.819608 0.792157 0.913725
0.000000 0.611765 0.945098
0.000000 0.611765 0.941176
0.000000 0.619608 0.937255
0.003922 0.623529 0.941176
0.000000 0.619608 0.937255
0.007843 0.623529 0.925490
0.427451 0.694118 0.933333
0.709804 0.764706 0.909804
0.835294 0.792157 0.909804
0.000000 0.619608 0.937255
0.003922 0.623529 0.941176
0.007843 0.627451 0.945098
0.000000 0.631373 0.937255
0.007843 0.627451 0.945098
0.007843 0.647059 0.941176
0.435294 0.713725 0.917647
0.721569 0.776471 0.921569
0.835294 0.800000 0.913725
0.000000 0.639216 0.933333
0.003922 0.635294 0.941176
0.000000 0.639216 0.941176
0.003922 0.643137 0.937255
0.003922 0.643137 0.945098
0.007843 0.654902 0.945098
0.474510 0.725490 0.913725
0.733333 0.792157 0.921569
0.847059 0.815686 0.913725
0.000000 0.654902 0.937255
0.003922 0.643137 0.937255
0.003922 0.650980 0.937255
0.003922 0.662745 0.937255
0.000000 0.658824 0.941176
0.000000 0.686275 0.937255
0.466667 0.741176 0.933333
0.749020 0.803922 0.905882
0.858824 0.827451 0.909804
0.000000 0.686275 0.933333
0.000000 0.686275 0.933333
0.003922 0.690196 0.937255
0.003922 0.682353 0.933333
0.003922 0.682353 0.941176
0.003922 0.690196 0.929412
0.474510 0.760784 0.929412
0.764706 0.831373 0.909804
0.878431 0.850980 0.913725
0.003922 0.737255 0.929412
0.000000 0.733333 0.933333
0.000000 0.733333 0.933333
0.000000 0.733333 0.925490
0.000000 0.729412 0.929412
0.007843 0.725490 0.929412
0.396078 0.780392 0.925490
0.780392 0.843137 0.901961
0.894118 0.882353 0.909804
0.003922 0.788235 0.921569
0.007843 0.792157 0.925490
0.003922 0.792157 0.925490
0.000000 0.788235 0.921569
0.003922 0.792157 0.925490
0.000000 0.807843 0.925490
0.435294 0.819608 0.909804
0.772549 0.858824 0.901961
0.898039 0.905882 0.894118
0.011765 0.850980 0.913725
0.000000 0.854902 0.921569
0.003922 0.862745 0.909804
0.007843 0.866667 0.913725
0.000000 0.870588 0.898039
0.168627 0.886275 0.909804
0.635294 0.894118 0.894118
0.858824 0.898039 0.894118
0.901961 0.894118 0.905882
