Luts Download/gamut - BaseLUTs/BaseLUTs - Apple Log (Low ISO).cube
TITLE "BaseLUTs - Apple Log (Low ISO) Conversion LUT by Gamut"
# Designed for converting Apple Log / Rec2020 to Rec709 Color Space. Use when filming on Standard Lens in ISO 400 or lower. Version 1.1 - 12/08/2023 -  Copyright 2023 Gamut, LLC
LUT_3D_SIZE 33
0.0000000000 0.0000000000 0.0000000000
0.0000000000 0.0000000000 0.0000000000
0.0000000000 0.0000000000 0.0000000000
0.0000000000 0.0000000000 0.0000000000
0.0000000000 0.0000000000 0.0000000000
0.0000000000 0.0000000000 0.0000000000
0.0032036875 0.0000000000 0.0000000000
0.0132579375 0.0000000000 0.0000000000
0.0343030000 0.0000000000 0.0007890000
0.0609402187 0.0000000000 0.0021440938
0.0863042500 0.0000000000 0.0010352500
0.1172787187 0.0000000000 0.0002712187
0.1522351250 0.0000000000 0.0000000000
0.1960385625 0.0000000000 0.0000000000
0.2563490000 0.0000000000 0.0000000000
0.3389714687 0.0004191562 0.0000000000
0.4287300000 0.0055200000 0.0019715000
0.5077816250 0.0183589687 0.0135781875
0.5711710000 0.0277480625 0.0256287500
0.6248528438 0.0332927813 0.0369395000
0.6771836250 0.0368657500 0.0453516250
0.7307034375 0.0399669687 0.0499024062
0.7826145000 0.0434369375 0.0501358125
0.8298010312 0.0502973125 0.0493683438
0.8703285000 0.0614515000 0.0545682500
0.9029263437 0.0760661563 0.0715630312
0.9284168125 0.0953843750 0.1070441875
0.9494514063 0.1240833125 0.1647169063
0.9676407500 0.1656262500 0.2432067500
0.9809842187 0.2193120312 0.3368056562
0.9890119375 0.2824148750 0.4402553125
0.9939019062 0.3517593750 0.5496784375
0.9977430000 0.4236960000 0.6617120000
0.0000000000 0.0000000000 0.0000000000
0.0000000000 0.0000000000 0.0000000000
0.0000000000 0.0000000000 0.0000000000
0.0000000000 0.0000000000 0.0000000000
0.0000000000 0.0000000000 0.0000000000
0.0000000000 0.0000000000 0.0000000000
0.0032036875 0.0000000000 0.0000000000
0.0165845312 0.0000000000 0.0006164062
0.0373584375 0.0000000000 0.0015523750
0.0633615938 0.0000000000 0.0015770000
0.0862421563 0.0000000000 0.0010352500
0.1172198125 0.0000000000 0.0002712187
0.1553765313 0.0000000000 0.0000000000
0.1996627188 0.0000000000 0.0000000000
0.2613493125 0.0000000000 0.0000000000
0.3428238437 0.0004191562 0.0000000000
0.4311779062 0.0055200000 0.0019715000
0.5088031562 0.0183589687 0.0139726875
0.5715712187 0.0277480625 0.0260473750
0.6248528438 0.0332927813 0.0369395000
0.6771671250 0.0368657500 0.0453516250
0.7305063438 0.0399669687 0.0499024062
0.7824852500 0.0434369375 0.0501358125
0.8298010312 0.0502973125 0.0493683438
0.8703205000 0.0614515000 0.0544170000
0.9028720937 0.0760661563 0.0715630312
0.9283877500 0.0954545000 0.1070441875
0.9495158437 0.1243600625 0.1647169062
0.9676275000 0.1656262500 0.2432067500
0.9809536875 0.2193120312 0.3368056562
0.9890119375 0.2824294375 0.4402595000
0.9939019062 0.3518559375 0.5497321562
0.9977430000 0.4236960000 0.6616674375
0.0000000000 0.0000000000 0.0000000000
0.0000000000 0.0000000000 0.0000000000
0.0000000000 0.0000000000 0.0000000000
0.0000000000 0.0000000000 0.0000000000
0.0000000000 0.0000000000 0.0000000000
0.0033269063 0.0000000000 0.0000000000
0.0101035625 0.0000000000 0.0000000000
0.0265648750 0.0000000000 0.0013553125
0.0526650625 0.0000000000 0.0021687500
0.0849324375 0.0000000000 0.0017989063
0.1200110625 0.0000000000 0.0002465625
0.1559128125 0.0000000000 0.0000000000
0.1984420625 0.0000000000 0.0000000000
0.2469851875 0.0000000000 0.0000000000
0.3041051875 0.0000000000 0.0000000000
0.3707126250 0.0008377812 0.0004191562
0.4432019375 0.0070477500 0.0034992500
0.5126643438 0.0195173437 0.0147365625
0.5720828125 0.0281918750 0.0260720000
0.6247445625 0.0332927813 0.0369395000
0.6769734375 0.0368657500 0.0458097500
0.7304998750 0.0399669687 0.0499024062
0.7826477500 0.0434369375 0.0501358125
0.8299152188 0.0502973125 0.0493683438
0.8704098750 0.0615900000 0.0544170000
0.9030017187 0.0760661563 0.0715630312
0.9283808125 0.0957680000 0.1070441875
0.9494931875 0.1243600625 0.1647169062
0.9676731250 0.1658514375 0.2433548750
0.9809756250 0.2194928750 0.3369139688
0.9890085625 0.2825550625 0.4402553125
0.9939019062 0.3518619687 0.5497355937
0.9977430000 0.4236960000 0.6616660000
0.0000000000 0.0000000000 0.0000000000
0.0000000000 0.0000000000 0.0000000000
0.0000000000 0.0000000000 0.0000000000
0.0000000000 0.0000000000 0.0000000000
0.0000000000 0.0000000000 0.0000000000
0.0033269063 0.0000000000 0.0000000000
0.0160670000 0.0000000000 0.0006410625
0.0366437813 0.0000000000 0.0014046250
0.0652813437 0.0000000000 0.0015770000
0.1052984375 0.0000000000 0.0008628750
0.1485737813 0.0000000000 0.0000000000
0.1944255000 0.0000000000 0.0000000000
0.2427490313 0.0000000000 0.0000000000
0.2957744063 0.0000000000 0.0000000000
0.3512813437 0.0000000000 0.0000000000
0.4079655312 0.0012569375 0.0004191562
0.4638787187 0.0104981562 0.0058405313
0.5186375313 0.0210696875 0.0159195313
0.5716552500 0.0281918750 0.0260720000
0.6236670937 0.0332927813 0.0369395000
0.6767237187 0.0368657500 0.0453516250
0.7307708125 0.0399669687 0.0499024062
0.7829726875 0.0434369375 0.0501358125
0.8301006562 0.0504784375 0.0491773750
0.8705270625 0.0615900000 0.0544170000
0.9030659062 0.0765150937 0.0715630312
0.9284439062 0.0958638750 0.1070441875
0.9495070000 0.1246813437 0.1649590938
0.9676852812 0.1660835000 0.2433815000
0.9809536875 0.2198094375 0.3370111562
0.9889621563 0.2828198750 0.4404026875
0.9938546563 0.3520651563 0.5498450938
0.9977430000 0.4238590000 0.6616660000
0.0000000000 0.0000000000 0.0000000000
0.0000000000 0.0000000000 0.0000000000
0.0000000000 0.0000000000 0.0000000000
0.0000000000 0.0000000000 0.0000000000
0.0000000000 0.0000000000 0.0000000000
0.0065795313 0.0000000000 0.0000000000
0.0202564375 0.0000000000 0.0000000000
0.0433865000 0.0000000000 0.0014046250
0.0766492500 0.0000000000 0.0015770000
0.1194660313 0.0000000000 0.0002219062
0.1672280000 0.0000000000 0.0000000000
0.2146962188 0.0000000000 0.0000000000
0.2626198750 0.0000000000 0.0000000000
0.3148070000 0.0000000000 0.0000000000
0.3676141250 0.0000000000 0.0000000000
0.4184613437 0.0012569375 0.0004191562
0.4665757500 0.0102515000 0.0059145000
0.5156109688 0.0200839062 0.0153031250
0.5676873750 0.0275015000 0.0260720000
0.6216071250 0.0326028125 0.0366193750
0.6767790000 0.0368657500 0.0453516250
0.7315481562 0.0399669687 0.0499024062
0.7835986875 0.0434369375 0.0501358125
0.8307518438 0.0508845625 0.0493683438
0.8708852500 0.0621742500 0.0544170000
0.9032495000 0.0769939062 0.0715630312
0.9285460000 0.0966276250 0.1074250000
0.9494500625 0.1252801562 0.1654116563
0.9675568750 0.1665811250 0.2437976250
0.9808196250 0.2201882813 0.3373162500
0.9889570000 0.2831918750 0.4406225000
0.9938495937 0.3523526250 0.5499516875
0.9977430000 0.4239298750 0.6617465000
0.0006657187 0.0034501875 0.0006657187
0.0013305937 0.0041150625 0.0006657187
0.0014538750 0.0062345000 0.0000000000
0.0015031250 0.0069987813 0.0007150312
0.0014785000 0.0070481250 0.0007890000
0.0056929063 0.0070235000 0.0006657187
0.0271070000 0.0007889063 0.0007890000
0.0547235312 0.0000493125 0.0021934063
0.0835429688 0.0000000000 0.0017742500
0.1242120625 0.0000000000 0.0002219062
0.1724139062 0.0000000000 0.0000000000
0.2189409375 0.0000000000 0.0000000000
0.2648292812 0.0000000000 0.0000000000
0.3134014063 0.0000000000 0.0000000000
0.3639169375 0.0000000000 0.0000000000
0.4129048750 0.0012569375 0.0004191562
0.4609793750 0.0094630000 0.0051255000
0.5105474375 0.0189014062 0.0145396250
0.5640265000 0.0266143125 0.0256287500
0.6205871563 0.0325041875 0.0369395000
0.6775150937 0.0368657500 0.0458097500
0.7329544375 0.0402299375 0.0499024062
0.7849221875 0.0443977500 0.0501358125
0.8316337188 0.0517100312 0.0493683438
0.8715309688 0.0632390312 0.0545682500
0.9035359062 0.0780585937 0.0721865937
0.9286205938 0.0977627188 0.1081519375
0.9494446250 0.1264825313 0.1661190938
0.9674668750 0.1676885625 0.2444081563
0.9807703750 0.2211680000 0.3379272812
0.9888767500 0.2839099063 0.4409878750
0.9938479062 0.3527211875 0.5501712500
0.9977430000 0.4240210000 0.6617580000
0.0030062500 0.0225726250 0.0007890000
0.0030062500 0.0228190312 0.0007890000
0.0023660000 0.0293748125 0.0000493125
0.0016509688 0.0317399375 0.0000739688
0.0017249375 0.0320356250 0.0001479375
0.0021688750 0.0326520312 0.0000000000
0.0206013750 0.0304586250 0.0000000000
0.0671749687 0.0126913438 0.0001479375
0.0952661250 0.0021688125 0.0007890000
0.1297166563 0.0012813125 0.0001479375
0.1712163125 0.0007395625 0.0000000000
0.2135366250 0.0012813125 0.0000000000
0.2577868750 0.0006410625 0.0000000000
0.3052997813 0.0006410625 0.0000000000
0.3546650000 0.0006410625 0.0000000000
0.4052733750 0.0018974687 0.0004191562
0.4558690000 0.0101035625 0.0047315000
0.5080346250 0.0196895937 0.0144165000
0.5631500000 0.0272549375 0.0259242500
0.6211942188 0.0331448437 0.0372600312
0.6793249375 0.0378023125 0.0458097500
0.7350764063 0.0416286250 0.0499024062
0.7867918125 0.0460743125 0.0494552500
0.8330218125 0.0535303125 0.0493683438
0.8722259375 0.0652743750 0.0553542500
0.9038541562 0.0802673125 0.0732208437
0.9285805625 0.0997206875 0.1095187500
0.9492642500 0.1285862500 0.1675091250
0.9671941875 0.1695343125 0.2458839375
0.9804800000 0.2226583438 0.3390120937
0.9887358750 0.2850183750 0.4417669375
0.9937946250 0.3533945625 0.5505585625
0.9977868750 0.4241526250 0.6618040000
0.0003449688 0.0649474688 0.0000000000
0.0003449688 0.0633778437 0.0000000000
0.0001725938 0.0694232188 0.0000000000
0.0001725938 0.0710733125 0.0000000000
0.0001725938 0.0711332188 0.0000000000
0.0000493125 0.0708408750 0.0000000000
0.0017003125 0.0709784375 0.0000000000
0.0490036250 0.0670856250 0.0000000000
0.1071189063 0.0462323750 0.0000000000
0.1441229375 0.0281419375 0.0000000000
0.1755822812 0.0204045000 0.0000000000
0.2113337813 0.0188029063 0.0000000000
0.2516566250 0.0156485000 0.0000000000
0.2965052500 0.0107197500 0.0000000000
0.3457707500 0.0086985312 0.0000000000
0.3973689062 0.0107444687 0.0004191562
0.4510313437 0.0169295000 0.0057419063
0.5063766250 0.0246427500 0.0164365312
0.5639808438 0.0314443750 0.0274766250
0.6231678437 0.0367178437 0.0380191250
0.6817277812 0.0413303125 0.0458097500
0.7375365625 0.0449923750 0.0492201250
0.7887637812 0.0501030938 0.0496690000
0.8343739375 0.0577883750 0.0500866563
0.8728535937 0.0694863750 0.0570990313
0.9039841875 0.0842029062 0.0759013437
0.9283305313 0.1036884063 0.1123092813
0.9487807187 0.1321073750 0.1703957500
0.9666831875 0.1728048125 0.2483830000
0.9801083437 0.2253927813 0.3410298438
0.9884387813 0.2868942500 0.4432085313
0.9936756562 0.3544171250 0.5513071875
0.9977970000 0.4244082813 0.6619218750
0.0000000000 0.1061907500 0.0000000000
0.0000000000 0.1057090000 0.0000000000
0.0000000000 0.1081238750 0.0000000000
0.0000000000 0.1077260000 0.0000000000
0.0000000000 0.1068223750 0.0000000000
0.0000000000 0.1060767500 0.0000000000
0.0006410625 0.1053260000 0.0000000000
0.0180141250 0.1051069375 0.0000000000
0.0813150000 0.1006012500 0.0000000000
0.1461792500 0.0802102188 0.0000000000
0.1868650000 0.0608282500 0.0000000000
0.2208715000 0.0522921563 0.0000000000
0.2560983750 0.0485722500 0.0000000000
0.2951448125 0.0428692500 0.0000000000
0.3403008750 0.0364590625 0.0000000000
0.3907704687 0.0330953437 0.0012569375
0.4456380000 0.0345002500 0.0098572500
0.5040990937 0.0385740625 0.0215130000
0.5645450000 0.0430242500 0.0322330000
0.6252930313 0.0462677813 0.0411646250
0.6841570000 0.0494472500 0.0473196250
0.7396440000 0.0529707187 0.0504092500
0.7904600625 0.0579121250 0.0508903750
0.8352690937 0.0662818125 0.0532281875
0.8730530000 0.0771927500 0.0611200000
0.9035869687 0.0911734375 0.0807382812
0.9276110000 0.1100323125 0.1176136250
0.9478830312 0.1381358125 0.1752282500
0.9658275000 0.1780780000 0.2525903750
0.9793774375 0.2297106563 0.3443614375
0.9879963750 0.2900926875 0.4454068125
0.9934596562 0.3562899688 0.5524860625
0.9979110000 0.4249110000 0.6620225000
0.0000000000 0.1426955000 0.0000000000
0.0000000000 0.1426955000 0.0000000000
0.0000000000 0.1429542500 0.0000000000
0.0000000000 0.1417197813 0.0000000000
0.0000000000 0.1401420313 0.0000000000
0.0000000000 0.1392924063 0.0000000000
0.0000000000 0.1388371563 0.0000000000
0.0016263438 0.1385780938 0.0000000000
0.0419425000 0.1381273750 0.0000000000
0.1158697187 0.1338960000 0.0000000000
0.1824297187 0.1145751563 0.0000000000
0.2272375625 0.0959497500 0.0000000000
0.2656448750 0.0857156562 0.0000000000
0.3042976875 0.0797120313 0.0000000000
0.3450405000 0.0728781250 0.0000000000
0.3905843437 0.0657930312 0.0012569375
0.4433110000 0.0618953437 0.0122225000
0.5020126563 0.0617197500 0.0261708125
0.5639770937 0.0628531563 0.0380085313
0.6259767188 0.0640090313 0.0467775937
0.6853099687 0.0655017813 0.0516632188
0.7407029063 0.0678636250 0.0544243437
0.7908269375 0.0725427812 0.0563140313
0.8349093125 0.0799480000 0.0594849375
0.8720575000 0.0897935625 0.0685490625
0.9021581563 0.1024496250 0.0889827813
0.9260120000 0.1202885312 0.1260233438
0.9462583125 0.1475604375 0.1832130000
0.9643044688 0.1863649062 0.2592769062
0.9782187500 0.2363165000 0.3493908125
0.9872569063 0.2949257500 0.4488653750
0.9931886875 0.3590605625 0.5542906563
0.9980086250 0.4258013750 0.6623052500
0.0000000000 0.1769445000 0.0000000000
0.0000000000 0.1770936875 0.0000000000
0.0000000000 0.1769445000 0.0000000000
0.0000000000 0.1748782500 0.0000000000
0.0000000000 0.1738684375 0.0000000000
0.0000000000 0.1736228125 0.0000000000
0.0000000000 0.1736975625 0.0000000000
0.0000739688 0.1737515937 0.0000000000
0.0079843750 0.1735301875 0.0000000000
0.0709030000 0.1724996875 0.0000000000
0.1496288750 0.1674043750 0.0000000000
0.2169091563 0.1495542500 0.0000000000
0.2673343750 0.1316336250 0.0000000000
0.3118790625 0.1196797813 0.0000000000
0.3550093125 0.1117838125 0.0000000000
0.3995461563 0.1038480000 0.0008377812
0.4477493750 0.0964961875 0.0086248750
0.5030596875 0.0918854688 0.0258507500
0.5639059375 0.0898810000 0.0408646250
0.6256847812 0.0896745000 0.0517851250
0.6850218125 0.0899791250 0.0585928750
0.7400655937 0.0914041562 0.0621005313
0.7896228750 0.0948359375 0.0649010000
0.8329329062 0.1003186875 0.0696737812
0.8697046250 0.1081671250 0.0802238125
0.8994553750 0.1189572187 0.1014699688
0.9232711875 0.1356371250 0.1386381875
0.9436767812 0.1614682500 0.1948571250
0.9619734375 0.1985399375 0.2689359375
0.9765354063 0.2460675313 0.3566924687
0.9862000000 0.3019712500 0.4537065625
0.9927373438 0.3634236875 0.5569320625
0.9981935625 0.4272667500 0.6627451250
0.0000000000 0.2101733750 0.0000000000
0.0000000000 0.2101733750 0.0000000000
0.0000000000 0.2103038125 0.0000000000
0.0000000000 0.2092304063 0.0000000000
0.0000000000 0.2086200313 0.0000000000
0.0000000000 0.2089881563 0.0000000000
0.0000000000 0.2097784375 0.0000000000
0.0000000000 0.2104038438 0.0000000000
0.0019223438 0.2105708125 0.0000000000
0.0303207500 0.2094178125 0.0000000000
0.1030852187 0.2083951875 0.0000000000
0.1821630000 0.2020418125 0.0000000000
0.2516441250 0.1854446875 0.0000000000
0.3093412187 0.1681264375 0.0000000000
0.3604568750 0.1553015937 0.0000000000
0.4090905938 0.1456736563 0.0000000000
0.4577850937 0.1368728438 0.0033020937
0.5095305313 0.1294769063 0.0186794063
0.5663841563 0.1244560625 0.0383149375
0.6259036875 0.1218622812 0.0532082500
0.6840613125 0.1210576250 0.0635228438
0.7381314375 0.1216380625 0.0704807500
0.7867859375 0.1235655000 0.0759783125
0.8294298125 0.1272955625 0.0831975625
0.8655701563 0.1329288437 0.0957440000
0.8952193437 0.1419666875 0.1182092813
0.9192442813 0.1569605937 0.1556140000
0.9399172500 0.1810119375 0.2105513438
0.9587582188 0.2153625000 0.2818860313
0.9741905937 0.2595554688 0.3663113125
0.9848345000 0.3116886563 0.4601435625
0.9922696875 0.3695823750 0.5604129688
0.9985390313 0.4297882188 0.6634862188
0.0000000000 0.2448125000 0.0000000000
0.0000000000 0.2450199687 0.0000000000
0.0000000000 0.2457605625 0.0000000000
0.0000000000 0.2457521250 0.0000000000
0.0000000000 0.2460133750 0.0000000000
0.0000000000 0.2466099688 0.0000000000
0.0000000000 0.2478636250 0.0000000000
0.0000000000 0.2489005313 0.0000000000
0.0000986250 0.2492173750 0.0000000000
0.0055939687 0.2492332188 0.0000000000
0.0558365625 0.2482133125 0.0000000000
0.1332571250 0.2457578438 0.0000000000
0.2145688750 0.2385281250 0.0000000000
0.2894460937 0.2231445000 0.0000000000
0.3545229375 0.2068235000 0.0000000000
0.4118091250 0.1936947187 0.0000000000
0.4652637500 0.1829862500 0.0011830000
0.5181030937 0.1737719375 0.0084524688
0.5722744375 0.1664663125 0.0294731250
0.6281926875 0.1615567500 0.0499540312
0.6835740000 0.1589898750 0.0651602500
0.7356605625 0.1580980000 0.0769093750
0.7830441875 0.1586295000 0.0868421875
0.8246910937 0.1605116250 0.0977649688
0.8603880000 0.1643075000 0.1135957500
0.8899340625 0.1715877812 0.1383468125
0.9141611250 0.1848405625 0.1761281875
0.9351836563 0.2064532188 0.2294340625
0.9547461250 0.2373856250 0.2975533750
0.9712715938 0.2771574375 0.3781443438
0.9831840625 0.3248403750 0.4680968750
0.9917035625 0.3781142500 0.5648825312
0.9989432500 0.4337461250 0.6645962500
0.0000000000 0.2827452500 0.0000000000
0.0000000000 0.2830573750 0.0000000000
0.0000000000 0.2841902187 0.0000000000
0.0000000000 0.2853969687 0.0000000000
0.0000000000 0.2864286563 0.0000000000
0.0000000000 0.2874795937 0.0000000000
0.0000000000 0.2887149688 0.0000000000
0.0000000000 0.2903057500 0.0000000000
0.0000000000 0.2912673125 0.0000000000
0.0013305937 0.2914413437 0.0000000000
0.0192213750 0.2909887187 0.0000000000
0.0827448750 0.2893955000 0.0000000000
0.1651700625 0.2866200937 0.0000000000
0.2509640938 0.2781829063 0.0000000000
0.3313745313 0.2640055625 0.0000000000
0.4018145000 0.2489241563 0.0000000000
0.4637066562 0.2358044062 0.0003945000
0.5213744375 0.2247784063 0.0042142813
0.5769594375 0.2155918750 0.0202810937
0.6311768750 0.2084532500 0.0427589688
0.6838647500 0.2037765938 0.0633784062
0.7335929688 0.2009550937 0.0807719375
0.7791920937 0.1996894375 0.0961552813
0.8197064375 0.1997498437 0.1121726250
0.8547859375 0.2019291875 0.1320691250
0.8842028750 0.2076073125 0.1597240000
0.9086362188 0.2187912812 0.1984191875
0.9299750000 0.2375526250 0.2503364687
0.9501013125 0.2644183437 0.3152346875
0.9678760625 0.2992899063 0.3916189063
0.9813281563 0.3416589375 0.4774497500
0.9911244375 0.3894578125 0.5702856563
0.9994186875 0.4398480312 0.6662583125
0.0000000000 0.3243040000 0.0000000000
0.0000000000 0.3246307813 0.0000000000
0.0000000000 0.3260055625 0.0000000000
0.0000000000 0.3278620313 0.0000000000
0.0000000000 0.3294871250 0.0000000000
0.0000000000 0.3310123437 0.0000000000
0.0000000000 0.3323915625 0.0000000000
0.0000000000 0.3340966875 0.0000000000
0.0000000000 0.3356252500 0.0000000000
0.0005670937 0.3363694687 0.0000000000
0.0059635000 0.3362166250 0.0000000000
0.0452591250 0.3356025937 0.0000000000
0.1185435625 0.3343710625 0.0000000000
0.2056191562 0.3306010625 0.0000000000
0.2946103750 0.3214012500 0.0000000000
0.3773384687 0.3080928438 0.0000000000
0.4502577500 0.2939331875 0.0003945000
0.5150319688 0.2812097500 0.0030554375
0.5746623750 0.2703813125 0.0147366875
0.6305581875 0.2615130937 0.0372956250
0.6829751875 0.2546255625 0.0616335625
0.7315465625 0.2496723438 0.0837617187
0.7758302500 0.2464202500 0.1047381875
0.8153003437 0.2446874687 0.1258447188
0.8496421250 0.2452803125 0.1503035000
0.8789002500 0.2490738125 0.1810924063
0.9035786250 0.2581128125 0.2210726875
0.9251057813 0.2737034375 0.2718871562
0.9454473750 0.2961772500 0.3339238125
0.9642848125 0.3257970000 0.4063263437
0.9793195625 0.3622650625 0.4879325000
0.9905097500 0.4042666875 0.5766840313
0.9997955625 0.4487487500 0.6686710000
0.0004191562 0.3686569687 0.0000000000
0.0008377812 0.3691257812 0.0000000000
0.0008377812 0.3704778125 0.0000000000
0.0008377812 0.3727515313 0.0000000000
0.0012569375 0.3747430312 0.0000000000
0.0012569375 0.3765525000 0.0000000000
0.0012569375 0.3783420312 0.0000000000
0.0016755625 0.3799986563 0.0000000000
0.0016755625 0.3817785000 0.0000000000
0.0022426563 0.3831142187 0.0000000000
0.0062595625 0.3837793438 0.0000000000
0.0308529375 0.3840701563 0.0000000000
0.0888054688 0.3837001875 0.0000000000
0.1686976250 0.3820500000 0.0000000000
0.2574894062 0.3768079375 0.0000000000
0.3459572188 0.3668230000 0.0000000000
0.4274188125 0.3539868750 0.0003945000
0.5001292813 0.3408545625 0.0030554375
0.5651100312 0.3288838750 0.0140463125
0.6242637813 0.3185606250 0.0362358438
0.6785448750 0.3099058125 0.0625491563
0.7280336875 0.3029926562 0.0884028125
0.7724457188 0.2977685000 0.1134990000
0.8116318125 0.2942485625 0.1394162500
0.8458307812 0.2930618125 0.1680204063
0.8749494688 0.2950821250 0.2018998750
0.8996647187 0.3016926250 0.2431574375
0.9210947187 0.3139096563 0.2933333750
0.9413534688 0.3323108437 0.3529641250
0.9608083750 0.3567162500 0.4219118125
0.9773013750 0.3872675938 0.4995517500
0.9898984375 0.4229664375 0.5841559687
0.9999746875 0.4612309688 0.6720421250
0.0070970000 0.4154340000 0.0000000000
0.0078613437 0.4159646250 0.0000000000
0.0078860000 0.4173653750 0.0000000000
0.0090685000 0.4196550625 0.0000000000
0.0105473750 0.4219473750 0.0000000000
0.0117053750 0.4240888437 0.0000000000
0.0126175000 0.4259822500 0.0000000000
0.0134055000 0.4278476875 0.0000000000
0.0138000000 0.4297515000 0.0000000000
0.0149334687 0.4317883750 0.0000000000
0.0198130625 0.4333678125 0.0000000000
0.0394505937 0.4343872813 0.0000000000
0.0832050000 0.4346845000 0.0000000000
0.1511085938 0.4339458438 0.0000000000
0.2330082500 0.4308438750 0.0000000000
0.3196854688 0.4236596250 0.0000000000
0.4038445000 0.4130270000 0.0003945000
0.4812859063 0.4008454687 0.0041891563
0.5509763750 0.3887006250 0.0167575625
0.6138349687 0.3776611563 0.0400648437
0.6707965000 0.3678515000 0.0677082500
0.7223443125 0.3595197500 0.0959853438
0.7683285000 0.3526103750 0.1242596250
0.8085785000 0.3473770625 0.1536100938
0.8433007500 0.3445150000 0.1856695000
0.8726422188 0.3446349687 0.2222062813
0.8974306875 0.3489063125 0.2647761250
0.9186440625 0.3580268438 0.3147634375
0.9383405000 0.3724828750 0.3726197500
0.9577942812 0.3921815312 0.4386437813
0.9754471250 0.4169093125 0.5124266250
0.9892962812 0.4463210312 0.5928821562
1.0000000000 0.4781470000 0.6767245000
0.0306802813 0.4642938750 0.0000000000
0.0314692812 0.4651716875 0.0000000000
0.0322572813 0.4665400937 0.0000000000
0.0337444375 0.4687055625 0.0000000000
0.0352630313 0.4710493438 0.0000000000
0.0367670938 0.4733513125 0.0000000000
0.0378376562 0.4754444688 0.0000000000
0.0390678437 0.4775366250 0.0000000000
0.0403597187 0.4797995625 0.0000000000
0.0426362188 0.4821250000 0.0000000000
0.0489456875 0.4843278750 0.0000000000
0.0655939375 0.4858764688 0.0000000000
0.1004131250 0.4866398125 0.0000000000
0.1561234687 0.4862429375 0.0000000000
0.2274850313 0.4839991875 0.0000000000
0.3066922500 0.4787741562 0.0003698438
0.3873869688 0.4702964375 0.0019222188
0.4647354375 0.4597122188 0.0076395625
0.5364398437 0.4484266250 0.0232382812
0.6019270625 0.4373456875 0.0475742188
0.6613477187 0.4270548750 0.0766757812
0.7151262500 0.4178127500 0.1069583438
0.7632574375 0.4097913125 0.1375746250
0.8054616250 0.4033011563 0.1696481875
0.8415900000 0.3988886250 0.2042736562
0.8718976250 0.3973817500 0.2428592500
0.8969288125 0.3993945000 0.2866673125
0.9179961250 0.4058013125 0.3366516250
0.9369613125 0.4168077188 0.3933508750
0.9557787187 0.4321597500 0.4568136563
0.9739549687 0.4516430312 0.5270749375
0.9887953750 0.4749650312 0.6034365625
1.0000000000 0.5004770000 0.6830355938
0.0637011250 0.5151410625 0.0000000000
0.0646072500 0.5161549687 0.0000000000
0.0653759375 0.5176925000 0.0000000000
0.0666955938 0.5196849375 0.0000000000
0.0683323125 0.5219801250 0.0000000000
0.0700542188 0.5242750938 0.0000000000
0.0713975000 0.5265110625 0.0000000000
0.0731507500 0.5288249062 0.0000000000
0.0754358125 0.5311260000 0.0000000000
0.0791385625 0.5336199062 0.0000000000
0.0867831250 0.5358901875 0.0000000000
0.1029768438 0.5377764375 0.0000000000
0.1325797500 0.5386526250 0.0000000000
0.1785700313 0.5384515000 0.0000000000
