Luts Download/gamut - BaseLUTs/BaseLUTs - Apple Log (Primary).cube
TITLE "BaseLUTs - Apple Log (Primary) Conversion LUT by Gamut"
# Designed for converting Apple Log / Rec2020 to Rec709 Color Space. Version 1.1 - 12/08/2023 -  Copyright 2023 Gamut, LLC
LUT_3D_SIZE 33
0.0000000000 0.0000000000 0.0000000000
0.0000000000 0.0000000000 0.0000000000
0.0000000000 0.0000000000 0.0000000000
0.0000000000 0.0000000000 0.0000000000
0.0000000000 0.0000000000 0.0000000000
0.0000000000 0.0000000000 0.0000000000
0.0032036875 0.0000000000 0.0000000000
0.0132579375 0.0000000000 0.0000000000
0.0343030000 0.0000000000 0.0007890000
0.0605348437 0.0000000000 0.0021440938
0.0860079375 0.0000000000 0.0015770000
0.1171501562 0.0000000000 0.0002712187
0.1530132500 0.0000000000 0.0000000000
0.1966002500 0.0000000000 0.0000000000
0.2567046875 0.0000000000 0.0000000000
0.3395067813 0.0004191562 0.0000000000
0.4289175000 0.0055200000 0.0019715000
0.5082212812 0.0183589687 0.0135781875
0.5715436250 0.0277480625 0.0256287500
0.6252996875 0.0332927813 0.0369395000
0.6776148750 0.0368657500 0.0453516250
0.7310136250 0.0399669687 0.0499024062
0.7827738750 0.0434369375 0.0501358125
0.8299260937 0.0502973125 0.0493683438
0.8703285000 0.0614515000 0.0545682500
0.9029263437 0.0760661563 0.0715630312
0.9284168125 0.0953843750 0.1070441875
0.9494335938 0.1240389375 0.1647169063
0.9676522500 0.1653856250 0.2432067500
0.9808665313 0.2191353750 0.3367885000
0.9888176250 0.2824148750 0.4401006250
0.9936554062 0.3517593750 0.5495587187
0.9973660000 0.4236150000 0.6614350000
0.0000000000 0.0000000000 0.0000000000
0.0000000000 0.0000000000 0.0000000000
0.0000000000 0.0000000000 0.0000000000
0.0000000000 0.0000000000 0.0000000000
0.0000000000 0.0000000000 0.0000000000
0.0000000000 0.0000000000 0.0000000000
0.0032036875 0.0000000000 0.0000000000
0.0165845312 0.0000000000 0.0006164062
0.0373584375 0.0000000000 0.0015523750
0.0633615938 0.0000000000 0.0015770000
0.0881590313 0.0000000000 0.0016016563
0.1193571875 0.0000000000 0.0002712187
0.1553765313 0.0000000000 0.0000000000
0.2005653750 0.0000000000 0.0000000000
0.2613493125 0.0000000000 0.0000000000
0.3436108438 0.0004191562 0.0000000000
0.4315335000 0.0055200000 0.0019715000
0.5092418750 0.0187283438 0.0139726875
0.5717704688 0.0281672188 0.0256287500
0.6251719063 0.0332927813 0.0369395000
0.6773981250 0.0368657500 0.0453516250
0.7308386250 0.0399669687 0.0499024062
0.7827626250 0.0434369375 0.0501358125
0.8299260937 0.0502973125 0.0493683438
0.8703205000 0.0614515000 0.0544170000
0.9028720937 0.0760661563 0.0715630312
0.9283877500 0.0954545000 0.1070441875
0.9494056562 0.1243498125 0.1647169062
0.9675997500 0.1656262500 0.2432067500
0.9808420313 0.2193064375 0.3367971250
0.9888176250 0.2824221250 0.4400940000
0.9936554063 0.3517593750 0.5495034062
0.9973660000 0.4236150000 0.6614350000
0.0000000000 0.0000000000 0.0000000000
0.0000000000 0.0000000000 0.0000000000
0.0000000000 0.0000000000 0.0000000000
0.0000000000 0.0000000000 0.0000000000
0.0000000000 0.0000000000 0.0000000000
0.0033269063 0.0000000000 0.0000000000
0.0101035625 0.0000000000 0.0000000000
0.0265648750 0.0000000000 0.0013553125
0.0549683125 0.0000000000 0.0021687500
0.0849324375 0.0000000000 0.0017989063
0.1195533125 0.0000000000 0.0002465625
0.1571923125 0.0000000000 0.0000000000
0.1988505000 0.0000000000 0.0000000000
0.2470443125 0.0000000000 0.0000000000
0.3043474375 0.0000000000 0.0000000000
0.3709792813 0.0008377812 0.0004191562
0.4432586250 0.0070477500 0.0034992500
0.5129801563 0.0195173437 0.0147365625
0.5723578125 0.0281918750 0.0260720000
0.6249860625 0.0332927813 0.0369395000
0.6771978750 0.0368657500 0.0453516250
0.7308386250 0.0399669687 0.0499024062
0.7828188750 0.0434369375 0.0501358125
0.8299730625 0.0502973125 0.0491773750
0.8704200000 0.0615900000 0.0544170000
0.9030113438 0.0760661563 0.0715630312
0.9283808125 0.0957680000 0.1070441875
0.9494886563 0.1243600625 0.1647481562
0.9675866250 0.1656262500 0.2432067500
0.9808630937 0.2194639063 0.3368899375
0.9888176250 0.2825550625 0.4401097500
0.9936030937 0.3518591562 0.5496112812
0.9973660000 0.4236150000 0.6614350000
0.0000000000 0.0000000000 0.0000000000
0.0000000000 0.0000000000 0.0000000000
0.0000000000 0.0000000000 0.0000000000
0.0000000000 0.0000000000 0.0000000000
0.0000000000 0.0000000000 0.0000000000
0.0033269063 0.0000000000 0.0000000000
0.0160670000 0.0000000000 0.0006410625
0.0366437813 0.0000000000 0.0014046250
0.0679672500 0.0000000000 0.0015770000
0.1057918437 0.0000000000 0.0008628750
0.1485737813 0.0000000000 0.0000000000
0.1944255000 0.0000000000 0.0000000000
0.2432101562 0.0000000000 0.0000000000
0.2962229687 0.0000000000 0.0000000000
0.3517928750 0.0000000000 0.0000000000
0.4083492187 0.0012569375 0.0004191562
0.4642036563 0.0104981562 0.0058405313
0.5190942813 0.0210696875 0.0159195313
0.5719332500 0.0281918750 0.0260720000
0.6239947188 0.0332927813 0.0369395000
0.6770692500 0.0368657500 0.0457410312
0.7310656250 0.0399669687 0.0499024062
0.7829867500 0.0434369375 0.0501358125
0.8302087812 0.0504784375 0.0491773750
0.8706728750 0.0615900000 0.0544170000
0.9030659062 0.0765150937 0.0715630312
0.9284439062 0.0958638750 0.1070441875
0.9495070000 0.1246813437 0.1649356563
0.9675542500 0.1660835000 0.2433650000
0.9807694687 0.2196495625 0.3369053437
0.9887626875 0.2827803437 0.4402438125
0.9936014063 0.3519484063 0.5496626875
0.9973660000 0.4237780000 0.6614810000
0.0000000000 0.0000000000 0.0000000000
0.0000000000 0.0000000000 0.0000000000
0.0000000000 0.0000000000 0.0000000000
0.0000000000 0.0000000000 0.0000000000
0.0000000000 0.0000000000 0.0000000000
0.0065795313 0.0000000000 0.0000000000
0.0202564375 0.0000000000 0.0000000000
0.0433865000 0.0000000000 0.0014046250
0.0783962500 0.0000000000 0.0015770000
0.1194660313 0.0000000000 0.0002219062
0.1674015000 0.0000000000 0.0000000000
0.2146962188 0.0000000000 0.0000000000
0.2632421250 0.0000000000 0.0000000000
0.3152008438 0.0000000000 0.0000000000
0.3680451875 0.0000000000 0.0000000000
0.4187153750 0.0012569375 0.0004191562
0.4671097500 0.0102515000 0.0059145000
0.5159283437 0.0200839062 0.0156236562
0.5679449375 0.0275015000 0.0260720000
0.6218378125 0.0326028125 0.0366193750
0.6770263750 0.0368657500 0.0453516250
0.7317102813 0.0399669687 0.0499024062
0.7837836250 0.0434369375 0.0501358125
0.8307734687 0.0508845625 0.0493683438
0.8710216250 0.0621742500 0.0544170000
0.9032495000 0.0769939062 0.0715630312
0.9285460000 0.0966276250 0.1073666875
0.9494500625 0.1252801562 0.1652014375
0.9675395000 0.1665811250 0.2436768750
0.9807136562 0.2201515625 0.3372088437
0.9887626875 0.2830599375 0.4404733750
0.9936014063 0.3522325625 0.5497748125
0.9973660000 0.4237780000 0.6614867500
0.0006657187 0.0034501875 0.0006657187
0.0013305937 0.0041150625 0.0000000000
0.0014538750 0.0062345000 0.0000000000
0.0015031250 0.0069987813 0.0007150312
0.0021442187 0.0071220000 0.0007890000
0.0056929063 0.0070235000 0.0006657187
0.0296704375 0.0014291563 0.0007890000
0.0547235312 0.0000493125 0.0021934063
0.0835429688 0.0000000000 0.0017742500
0.1244444063 0.0000000000 0.0002219062
0.1733644062 0.0000000000 0.0000000000
0.2192045938 0.0000000000 0.0000000000
0.2649625000 0.0000000000 0.0000000000
0.3139873750 0.0000000000 0.0000000000
0.3643535000 0.0000000000 0.0000000000
0.4133236250 0.0012569375 0.0004191562
0.4613092500 0.0094630000 0.0051255000
0.5108149375 0.0189014062 0.0145396250
0.5645144375 0.0266143125 0.0256287500
0.6208376562 0.0325041875 0.0369395000
0.6778822187 0.0368657500 0.0458097500
0.7332320937 0.0402299375 0.0499024062
0.7851066875 0.0443977500 0.0501358125
0.8318050313 0.0517100312 0.0493683438
0.8715309688 0.0632390312 0.0545682500
0.9035310625 0.0780585937 0.0721022188
0.9286228438 0.0977627188 0.1081519375
0.9494357187 0.1265331563 0.1661190938
0.9673550000 0.1676885625 0.2444081563
0.9805851563 0.2210066875 0.3378122187
0.9886446250 0.2837020938 0.4408495625
0.9935490938 0.3525179688 0.5499844688
0.9974343437 0.4237780000 0.6615198125
0.0030062500 0.0225726250 0.0007890000
0.0030062500 0.0228190312 0.0007890000
0.0023660000 0.0293748125 0.0000000000
0.0016509688 0.0317399375 0.0000739688
0.0017249375 0.0320356250 0.0001479375
0.0022920000 0.0326520312 0.0000000000
0.0212424375 0.0310996875 0.0000000000
0.0670467187 0.0128390937 0.0001479375
0.0952661250 0.0021688125 0.0007890000
0.1297166563 0.0012813125 0.0001479375
0.1711845625 0.0012813125 0.0000000000
0.2135366250 0.0012813125 0.0000000000
0.2579023750 0.0006410625 0.0000000000
0.3056453438 0.0006410625 0.0000000000
0.3550716875 0.0006410625 0.0000000000
0.4056584375 0.0018974687 0.0004191562
0.4561680000 0.0101035625 0.0047315000
0.5083581250 0.0196895937 0.0144165000
0.5634537500 0.0272549375 0.0259242500
0.6214351563 0.0331448437 0.0372600312
0.6795192500 0.0378023125 0.0458097500
0.7352453437 0.0416286250 0.0499024062
0.7869645625 0.0460743125 0.0494552500
0.8330850937 0.0535303125 0.0493683438
0.8723093125 0.0652743750 0.0553542500
0.9038541562 0.0802673125 0.0732208437
0.9285749375 0.0997206875 0.1095187500
0.9492642500 0.1285862500 0.1675091250
0.9671540625 0.1694891250 0.2457746250
0.9803843438 0.2226392188 0.3389430000
0.9884909375 0.2850111875 0.4416861250
0.9934858125 0.3532901563 0.5504278125
0.9974470000 0.4240058125 0.6616111875
0.0003449688 0.0649474688 0.0000000000
0.0003449688 0.0636457813 0.0000000000
0.0001725938 0.0706036875 0.0000000000
0.0001725938 0.0711332188 0.0000000000
0.0001725938 0.0711332188 0.0000000000
0.0000493125 0.0713111563 0.0000000000
0.0017003125 0.0709784375 0.0000000000
0.0490036250 0.0670856250 0.0000000000
0.1071189063 0.0462323750 0.0000000000
0.1441229375 0.0281419375 0.0000000000
0.1760298437 0.0205770937 0.0000000000
0.2115072500 0.0182851250 0.0000000000
0.2521220938 0.0156485000 0.0000000000
0.2971295312 0.0107197500 0.0000000000
0.3462913438 0.0086985312 0.0000000000
0.3977854687 0.0107444687 0.0004191562
0.4513538437 0.0169295000 0.0057419063
0.5067324375 0.0246427500 0.0164365312
0.5642440312 0.0314443750 0.0274766250
0.6234169687 0.0367178437 0.0380191250
0.6819312187 0.0413303125 0.0458097500
0.7377232813 0.0449923750 0.0492201250
0.7889282500 0.0501030938 0.0496690000
0.8344338125 0.0577883750 0.0500866563
0.8730063750 0.0694863750 0.0570990313
0.9039841875 0.0843070312 0.0756116562
0.9283305313 0.1036884063 0.1123092813
0.9487914375 0.1321073750 0.1703957500
0.9666697500 0.1728048125 0.2483668750
0.9799851562 0.2252590938 0.3409005938
0.9882484062 0.2868581875 0.4429987812
0.9933753750 0.3543155312 0.5511310625
0.9974470000 0.4242918438 0.6616918750
0.0000000000 0.1059767500 0.0000000000
0.0000000000 0.1059767500 0.0000000000
0.0000000000 0.1082015000 0.0000000000
0.0000000000 0.1083582500 0.0000000000
0.0000000000 0.1069265000 0.0000000000
0.0000000000 0.1061420625 0.0000000000
0.0006410625 0.1054840625 0.0000000000
0.0180141250 0.1051069375 0.0000000000
0.0813150000 0.1006012500 0.0000000000
0.1461634062 0.0803603438 0.0000000000
0.1870372500 0.0608282500 0.0000000000
0.2208715000 0.0520949063 0.0000000000
0.2566921250 0.0485722500 0.0000000000
0.2956191563 0.0427623750 0.0000000000
0.3407741875 0.0364590625 0.0000000000
0.3909459687 0.0330953437 0.0012569375
0.4459627500 0.0345002500 0.0100545000
0.5043795937 0.0389289062 0.0215130000
0.5648276875 0.0430242500 0.0320357500
0.6255089375 0.0462677813 0.0411646250
0.6843775000 0.0494472500 0.0473196250
0.7398199062 0.0529707187 0.0504092500
0.7905138750 0.0579121250 0.0513515000
0.8353250625 0.0662818125 0.0532281875
0.8731260000 0.0771927500 0.0611200000
0.9035869687 0.0911734375 0.0807382812
0.9276164375 0.1100323125 0.1176136250
0.9478830312 0.1381358125 0.1752282500
0.9657226250 0.1780780000 0.2525355000
0.9792665000 0.2296676562 0.3442560312
0.9877700000 0.2899643750 0.4452541250
0.9931549375 0.3561873125 0.5523094688
0.9975407500 0.4246885000 0.6618270000
0.0000000000 0.1432555937 0.0000000000
0.0000000000 0.1432555937 0.0000000000
0.0000000000 0.1434083750 0.0000000000
0.0000000000 0.1417777188 0.0000000000
0.0000000000 0.1403784375 0.0000000000
0.0000000000 0.1392924063 0.0000000000
0.0000000000 0.1390665937 0.0000000000
0.0016263438 0.1390665937 0.0000000000
0.0419425000 0.1381273750 0.0000000000
0.1162140625 0.1341943750 0.0000000000
0.1826584688 0.1148143750 0.0000000000
0.2276286875 0.0963589687 0.0000000000
0.2661141875 0.0861290313 0.0000000000
0.3044425312 0.0797120313 0.0000000000
0.3452975625 0.0728037500 0.0000000000
0.3909433125 0.0657930312 0.0012569375
0.4436882813 0.0621733437 0.0122225000
0.5023409375 0.0617197500 0.0261708125
0.5642455625 0.0630955313 0.0380085313
0.6262880625 0.0641805938 0.0467775937
0.6856426875 0.0655017813 0.0516632188
0.7408323125 0.0680423750 0.0546402187
0.7909020937 0.0725427812 0.0563140313
0.8349191563 0.0799480000 0.0594849375
0.8721547187 0.0897935625 0.0685490625
0.9022014687 0.1024496250 0.0889827813
0.9260120000 0.1202885312 0.1260233438
0.9462045312 0.1475604375 0.1832130000
0.9642613125 0.1863415312 0.2592614062
0.9781334063 0.2363030937 0.3492880313
0.9870265000 0.2948827500 0.4487102188
0.9928831250 0.3590241562 0.5541383437
0.9976662188 0.4255818750 0.6621209688
0.0000000000 0.1771690000 0.0000000000
0.0000000000 0.1774660000 0.0000000000
0.0000000000 0.1771690000 0.0000000000
0.0000000000 0.1750288125 0.0000000000
0.0000000000 0.1740203750 0.0000000000
0.0000000000 0.1736996875 0.0000000000
0.0000000000 0.1737747500 0.0000000000
0.0000739688 0.1737747500 0.0000000000
0.0079843750 0.1734530000 0.0000000000
0.0712619688 0.1728134375 0.0000000000
0.1498958750 0.1676421250 0.0000000000
0.2172669063 0.1497436875 0.0000000000
0.2677582500 0.1318161250 0.0000000000
0.3121149062 0.1197947812 0.0000000000
0.3552275625 0.1119756250 0.0000000000
0.3998230000 0.1039031562 0.0008377812
0.4480304375 0.0966911875 0.0086248750
0.5033509375 0.0919729687 0.0258507500
0.5641710625 0.0900621250 0.0416250625
0.6258991250 0.0896745000 0.0517851250
0.6852680625 0.0901278750 0.0585928750
0.7401981562 0.0914041562 0.0621005313
0.7896806875 0.0948359375 0.0649010000
0.8330460000 0.1003186875 0.0698160938
0.8697046250 0.1081671250 0.0802238125
0.8994553750 0.1189572187 0.1014699688
0.9232711875 0.1355393125 0.1386381875
0.9435968125 0.1614682500 0.1948571250
0.9618798125 0.1984752500 0.2689359375
0.9763872500 0.2460045938 0.3565840000
0.9860140625 0.3017790625 0.4535849375
0.9924908437 0.3633229687 0.5567581563
0.9978891250 0.4271867500 0.6625467500
0.0000000000 0.2103592187 0.0000000000
0.0000000000 0.2104946562 0.0000000000
0.0000000000 0.2106194375 0.0000000000
0.0000000000 0.2092987188 0.0000000000
0.0000000000 0.2087823437 0.0000000000
0.0000000000 0.2092126562 0.0000000000
0.0000000000 0.2098466875 0.0000000000
0.0000000000 0.2104038438 0.0000000000
0.0019223438 0.2105708125 0.0000000000
0.0303623750 0.2097784375 0.0000000000
0.1032280937 0.2085824687 0.0000000000
0.1819457812 0.2020418125 0.0000000000
0.2515948438 0.1854508125 0.0000000000
0.3096554688 0.1681400000 0.0000000000
0.3606907188 0.1554627500 0.0000000000
0.4093149375 0.1457055313 0.0000000000
0.4580329375 0.1369155000 0.0033020937
0.5095802188 0.1294769063 0.0186794063
0.5666092812 0.1244560625 0.0383149375
0.6261212500 0.1218622812 0.0534597188
0.6841887187 0.1211753750 0.0638915625
0.7381874687 0.1216380625 0.0706694688
0.7868930938 0.1236614375 0.0759783125
0.8294415000 0.1272955625 0.0831975625
0.8655701563 0.1329288437 0.0957440000
0.8952193437 0.1419666875 0.1181440938
0.9192030313 0.1569605937 0.1556140000
0.9398634375 0.1810119375 0.2104578437
0.9586836563 0.2152772813 0.2818005937
0.9740286875 0.2594610625 0.3661508438
0.9846138750 0.3116886563 0.4600409375
0.9919902812 0.3694263437 0.5602056562
0.9981623750 0.4296563750 0.6632266875
0.0000000000 0.2450302500 0.0000000000
0.0000000000 0.2450869687 0.0000000000
0.0000000000 0.2459267500 0.0000000000
0.0000000000 0.2458767188 0.0000000000
0.0000000000 0.2461277500 0.0000000000
0.0000000000 0.2468841250 0.0000000000
0.0000000000 0.2478943750 0.0000000000
0.0000000000 0.2490183438 0.0000000000
0.0000986250 0.2495553750 0.0000000000
0.0055939687 0.2494171250 0.0000000000
0.0558365625 0.2483151875 0.0000000000
0.1335494688 0.2461068437 0.0000000000
0.2147502500 0.2387866250 0.0000000000
0.2896485313 0.2233230938 0.0000000000
0.3547007500 0.2068343750 0.0000000000
0.4120177500 0.1936947187 0.0000000000
0.4655155000 0.1830113750 0.0011830000
0.5184022812 0.1738745938 0.0084524688
0.5724860000 0.1664663125 0.0294731250
0.6283900000 0.1616075000 0.0499540312
0.6837506250 0.1589898750 0.0651602500
0.7357844062 0.1581652188 0.0769093750
0.7830303125 0.1586295000 0.0868421875
0.8247523437 0.1605116250 0.0977649688
0.8603960000 0.1643075000 0.1136755000
0.8898600625 0.1714967813 0.1380561875
0.9141178125 0.1848405625 0.1760378125
0.9351280000 0.2063778438 0.2294114062
0.9546430000 0.2373672500 0.2975533750
0.9711256875 0.2771689688 0.3780150937
0.9829365625 0.3246847500 0.4679086875
0.9913950938 0.3779266875 0.5646565625
0.9986202500 0.4336381250 0.6643500000
0.0000000000 0.2828017187 0.0000000000
0.0000000000 0.2833452188 0.0000000000
0.0000000000 0.2843217500 0.0000000000
0.0000000000 0.2854098125 0.0000000000
0.0000000000 0.2865231250 0.0000000000
0.0000000000 0.2875478437 0.0000000000
0.0000000000 0.2888444375 0.0000000000
0.0000000000 0.2904591563 0.0000000000
0.0000000000 0.2914682188 0.0000000000
0.0013305937 0.2917909375 0.0000000000
0.0192213750 0.2911902188 0.0000000000
0.0830090938 0.2895414375 0.0000000000
0.1653078125 0.2866986562 0.0000000000
0.2510507813 0.2782600937 0.0000000000
0.3315938750 0.2641487188 0.0000000000
0.4019820938 0.2490111875 0.0000000000
0.4639248437 0.2358186562 0.0003945000
0.5215539375 0.2248535625 0.0042142813
0.5771157188 0.2156182812 0.0202810937
0.6312948125 0.2085349062 0.0427589688
0.6839752812 0.2037765938 0.0638199063
0.7336234688 0.2010010938 0.0807719375
0.7792530313 0.1996894375 0.0961552813
0.8197206563 0.1997498437 0.1121726250
0.8547614375 0.2019291875 0.1320691250
0.8841429375 0.2075683750 0.1596752188
0.9085939687 0.2187912812 0.1984191875
0.9299209688 0.2375293438 0.2502501250
0.9499503125 0.2644019687 0.3151670938
0.9676937500 0.2992289062 0.3914471562
0.9810882187 0.3414919688 0.4773348438
0.9908800625 0.3892380938 0.5700554062
0.9991770937 0.4396932188 0.6660293125
0.0000000000 0.3245288750 0.0000000000
0.0000000000 0.3249164062 0.0000000000
0.0000000000 0.3261153125 0.0000000000
0.0000000000 0.3280441250 0.0000000000
0.0000000000 0.3296478125 0.0000000000
0.0000000000 0.3310303125 0.0000000000
0.0000000000 0.3326383750 0.0000000000
0.0000000000 0.3343137812 0.0000000000
0.0000000000 0.3358201875 0.0000000000
0.0005670937 0.3365359062 0.0000000000
0.0059635000 0.3364175000 0.0000000000
0.0452591250 0.3357691250 0.0000000000
0.1188645625 0.3344301250 0.0000000000
0.2058093437 0.3307581875 0.0000000000
0.2947360625 0.3215146250 0.0000000000
0.3774801875 0.3081539375 0.0000000000
0.4503980625 0.2940518750 0.0003945000
0.5151880000 0.2812830625 0.0030554375
0.5747702500 0.2704557500 0.0147366875
0.6306429063 0.2615240000 0.0372956250
0.6829635000 0.2546255625 0.0616335625
0.7316183125 0.2496408438 0.0837617187
0.7758418125 0.2464202500 0.1047381875
0.8152771250 0.2446874687 0.1258447188
0.8496009375 0.2451238750 0.1503035000
0.8788536875 0.2489915625 0.1810495313
0.9034788750 0.2580595625 0.2209917500
0.9249322187 0.2736000000 0.2718679375
0.9452705625 0.2960520625 0.3338275625
0.9640844687 0.3256338438 0.4061938750
0.9790851875 0.3621553125 0.4877888125
0.9902986875 0.4040491875 0.5764330937
0.9996761875 0.4485218750 0.6683726875
0.0004191562 0.3687532500 0.0000000000
0.0008377812 0.3693152500 0.0000000000
0.0008377812 0.3705305313 0.0000000000
0.0008377812 0.3728465313 0.0000000000
0.0012569375 0.3749320625 0.0000000000
0.0012569375 0.3766309375 0.0000000000
0.0012569375 0.3783875000 0.0000000000
0.0016755625 0.3802059063 0.0000000000
0.0016755625 0.3818497813 0.0000000000
0.0022426563 0.3831587500 0.0000000000
0.0062595625 0.3838856250 0.0000000000
0.0308529375 0.3841834375 0.0000000000
0.0888054688 0.3837361875 0.0000000000
0.1687101875 0.3821830312 0.0000000000
0.2575678437 0.3768593750 0.0000000000
0.3460087813 0.3669197500 0.0000000000
0.4274989375 0.3539898750 0.0003945000
0.5001611563 0.3408545625 0.0030554375
0.5651100312 0.3288838750 0.0140463125
0.6242637813 0.3185606250 0.0362358438
0.6786297187 0.3099058125 0.0625491563
0.7280124062 0.3029926562 0.0884028125
0.7724457188 0.2977685000 0.1134990000
0.8116503750 0.2942485625 0.1393440000
0.8457414375 0.2929687500 0.1679669062
0.8747778125 0.2950182813 0.2017434687
0.8994797500 0.3015698438 0.2430770313
0.9209108125 0.3137930625 0.2932684688
0.9411127500 0.3321456563 0.3528511250
0.9605370625 0.3565583437 0.4217843125
0.9770652187 0.3871175000 0.4993774375
0.9896577188 0.4227638438 0.5838313750
0.9999085000 0.4609733750 0.6717467500
0.0070970000 0.4154340000 0.0000000000
0.0078613437 0.4160452500 0.0000000000
0.0078860000 0.4174137500 0.0000000000
0.0090685000 0.4196975625 0.0000000000
0.0105473750 0.4220320000 0.0000000000
0.0117053750 0.4241409688 0.0000000000
0.0126175000 0.4260500000 0.0000000000
0.0134055000 0.4279125313 0.0000000000
0.0138000000 0.4298345000 0.0000000000
0.0149334687 0.4318242500 0.0000000000
0.0198130625 0.4334848125 0.0000000000
0.0394505937 0.4344000937 0.0000000000
0.0834105000 0.4346845000 0.0000000000
0.1511085938 0.4339611250 0.0000000000
0.2330082500 0.4308080000 0.0000000000
0.3196854688 0.4236596250 0.0000000000
0.4038445000 0.4130270000 0.0003945000
0.4812859063 0.4008004687 0.0041891563
0.5510008750 0.3887006250 0.0167575625
0.6138161875 0.3776080000 0.0400648437
0.6707583750 0.3678051250 0.0677082500
0.7222621875 0.3594200625 0.0959853438
0.7682225000 0.3524900625 0.1242596250
0.8084364063 0.3473275625 0.1535440000
0.8431582500 0.3443852500 0.1856695000
0.8724768750 0.3444806875 0.2220658437
0.8971424375 0.3487048750 0.2645883750
0.9183274062 0.3578316250 0.3144735938
0.9380236250 0.3722693750 0.3724045000
0.9574506250 0.3918520312 0.4383258437
0.9750916250 0.4166533125 0.5121045625
0.9890424375 0.4460158437 0.5925342500
1.0000000000 0.4778330000 0.6762545000
0.0306802813 0.4642938750 0.0000000000
0.0314692812 0.4651716875 0.0000000000
0.0322572813 0.4665400937 0.0000000000
0.0337444375 0.4687055625 0.0000000000
0.0352630313 0.4711135625 0.0000000000
0.0364712188 0.4733900938 0.0000000000
0.0378376562 0.4754716563 0.0000000000
0.0390678437 0.4775681250 0.0000000000
0.0403597187 0.4797995625 0.0000000000
0.0426362188 0.4821649375 0.0000000000
0.0489456875 0.4843278750 0.0000000000
0.0655939375 0.4859008750 0.0000000000
0.1004131250 0.4866398125 0.0000000000
0.1561234687 0.4862429375 0.0000000000
0.2274850313 0.4839991875 0.0000000000
0.3067447500 0.4787741562 0.0003698438
0.3873869688 0.4702640938 0.0019222188
0.4647752813 0.4597122188 0.0076395625
0.5363795625 0.4483510000 0.0232382812
0.6018229688 0.4372629375 0.0475742188
0.6612624062 0.4269383125 0.0766757812
0.7149963125 0.4176652813 0.1067463750
0.7630478750 0.4095837500 0.1375288438
0.8051683750 0.4030668438 0.1695449687
0.8412750000 0.3986535000 0.2040380625
0.8715155938 0.3970393125 0.2426304375
0.8965029688 0.3990384062 0.2863255625
0.9175461563 0.4053557812 0.3362751875
0.9364657187 0.4162439375 0.3928525000
0.9552234375 0.4315619688 0.4562554687
0.9734320625 0.4509727812 0.5263944063
0.9884224688 0.4742655625 0.6026864063
1.0000000000 0.4997310313 0.6822293750
0.0637011250 0.5151410625 0.0000000000
0.0646072500 0.5161549687 0.0000000000
0.0653759375 0.5176925000 0.0000000000
0.0666955938 0.5196849375 0.0000000000
0.0683323125 0.5219271875 0.0000000000
0.0700542188 0.5242750938 0.0000000000
0.0713975000 0.5264848125 0.0000000000
0.0731507500 0.5287511875 0.0000000000
0.0754358125 0.5311456875 0.0000000000
0.0789866875 0.5335945313 0.0000000000
0.0867831250 0.5358901875 0.0000000000
0.1028238750 0.5376441250 0.0000000000
0.1325797500 0.5386018750 0.0000000000
0.1785700313 0.5384164375 0.0000000000
0.2386135625 0.5365836250 0.0003451875
0.3077359063 0.5325053125 0.0011090938
