Luts Download/gamut - BaseLUTs/BaseLUTs - Apple Log (Low ISO).cube
TITLE "BaseLUTs - Apple Log (Low ISO) Conversion LUT by Gamut"
# Designed for converting Apple Log / Rec2020 to Rec709 Color Space. Use when filming on Standard Lens in ISO 400 or lower. Version 1.1 - 12/08/2023 -  Copyright 2023 Gamut, LLC
LUT_3D_SIZE 5
0.0000000000 0.0000000000 0.0000000000
0.0343030000 0.0000000000 0.0007890000
0.4287300000 0.0055200000 0.0019715000
0.8703285000 0.0614515000 0.0545682500
0.9977430000 0.4236960000 0.6617120000
0.0000000000 0.1061907500 0.0000000000
0.0813150000 0.1006012500 0.0000000000
0.4456380000 0.0345002500 0.0098572500
0.8730530000 0.0771927500 0.0611200000
0.9979110000 0.4249110000 0.6620225000
0.0070970000 0.4154340000 0.0000000000
0.0138000000 0.4297515000 0.0000000000
0.4038445000 0.4130270000 0.0003945000
0.8433007500 0.3445150000 0.1856695000
1.0000000000 0.4781470000 0.6767245000
0.2721122500 0.8165275000 0.0258262500
0.2859947500 0.8264510000 0.0329710000
0.4358027500 0.8238315000 0.1650170000
0.8401397500 0.8222710000 0.4568395000
1.0000000000 0.8767997500 0.8496692500
0.3553530000 1.0000000000 1.0000000000
0.3827850000 1.0000000000 1.0000000000
0.5243390000 1.0000000000 1.0000000000
0.8769580000 1.0000000000 1.0000000000
1.0000000000 1.0000000000 1.0000000000
0.0013800000 0.0000000000 0.0447432500
0.0563302500 0.0000000000 0.0777090000
0.4637682500 0.0082800000 0.0378092500
0.8705705000 0.0614515000 0.0555272500
0.9977835000 0.4236960000 0.6616775000
0.0000000000 0.1111565000 0.1018222500
0.0789187500 0.1023192500 0.0926065000
0.4572005000 0.0254317500 0.0432520000
0.8728352500 0.0729402500 0.0609827500
0.9979110000 0.4247087500 0.6619765000
0.0000000000 0.4264900000 0.0063087500
0.0000000000 0.4422682500 0.0065057500
0.3985900000 0.4142662500 0.0400060000
0.8416102500 0.3356905000 0.1981125000
1.0000000000 0.4770475000 0.6763107500
0.2241042500 0.8205122500 0.0530967500
0.2420250000 0.8309992500 0.0621847500
0.4153267500 0.8249145000 0.1939837500
0.8311942500 0.8119855000 0.4499407500
1.0000000000 0.8751785000 0.8488782500
0.3431750000 1.0000000000 1.0000000000
0.3726267500 1.0000000000 1.0000000000
0.5164747500 1.0000000000 1.0000000000
0.8751195000 1.0000000000 1.0000000000
1.0000000000 1.0000000000 1.0000000000
0.0003945000 0.0000000000 0.3190330000
0.0618980000 0.0205030000 0.3312507500
0.4941850000 0.0007885000 0.4257975000
0.9060270000 0.0547237500 0.1908075000
0.9977160000 0.4246280000 0.6630930000
0.0003945000 0.0000000000 0.3299352500
0.0608617500 0.0252342500 0.3398350000
0.4934112500 0.0021685000 0.4436075000
0.9066270000 0.0622937500 0.2077320000
0.9978105000 0.4256575000 0.6636560000
0.0000000000 0.4243695000 0.4164115000
0.0000000000 0.4342630000 0.4151217500
0.4209835000 0.4300085000 0.4331045000
0.8441492500 0.3227622500 0.3519070000
1.0000000000 0.4735900000 0.6770380000
0.0796630000 0.8473887500 0.3722315000
0.0973785000 0.8510392500 0.3708385000
0.3261340000 0.8342280000 0.4219942500
0.8029355000 0.7937832500 0.5149465000
1.0000000000 0.8641607500 0.8435992500
0.3493420000 1.0000000000 1.0000000000
0.3665257500 1.0000000000 1.0000000000
0.4892945000 1.0000000000 1.0000000000
0.8605392500 1.0000000000 1.0000000000
1.0000000000 1.0000000000 1.0000000000
0.0195172500 0.2045932500 0.7165952500
0.0187282500 0.2009260000 0.7137617500
0.3663162500 0.2472757500 0.7903077500
0.8487802500 0.2654457500 0.7116165000
0.9971170000 0.4860235000 0.7333420000
0.0230655000 0.2135805000 0.7240622500
0.0220802500 0.2102327500 0.7211717500
0.3589450000 0.2569560000 0.7935567500
0.8433002500 0.2794467500 0.7244722500
0.9972245000 0.4897950000 0.7368702500
0.0272060000 0.2950842500 0.7502782500
0.0264170000 0.2915147500 0.7475575000
0.3134110000 0.3831787500 0.7892147500
0.8120965000 0.4154737500 0.7536145000
0.9995237500 0.5246237500 0.7501787500
0.0909935000 0.8183355000 0.8256195000
0.0955480000 0.8175847500 0.8187705000
0.2641767500 0.8154690000 0.8150217500
0.8415285000 0.8366505000 0.8448187500
1.0000000000 0.7888797500 0.8324127500
0.6497502500 1.0000000000 1.0000000000
0.6315607500 1.0000000000 1.0000000000
0.6109367500 1.0000000000 1.0000000000
0.8266452500 1.0000000000 1.0000000000
1.0000000000 1.0000000000 1.0000000000
0.3392120000 0.6911040000 1.0000000000
0.3340825000 0.6874747500 1.0000000000
0.3499045000 0.6772190000 1.0000000000
0.6392530000 0.6727705000 0.9947497500
1.0000000000 0.7896090000 1.0000000000
0.3616247500 0.7139362500 1.0000000000
0.3553022500 0.7076667500 1.0000000000
0.3669560000 0.6936797500 1.0000000000
0.6431937500 0.6862000000 0.9958367500
1.0000000000 0.8075382500 0.9999460000
0.4320480000 0.7918990000 1.0000000000
0.4225410000 0.7809652500 1.0000000000
0.4230510000 0.7564820000 1.0000000000
0.6703030000 0.7310440000 0.9981262500
1.0000000000 0.8535155000 0.9999060000
0.7613577500 0.9759475000 1.0000000000
0.7439102500 0.9685222500 1.0000000000
0.7170412500 0.9450395000 1.0000000000
0.8236190000 0.9032280000 1.0000000000
1.0000000000 0.9856930000 1.0000000000
1.0000000000 1.0000000000 1.0000000000
1.0000000000 1.0000000000 1.0000000000
1.0000000000 1.0000000000 1.0000000000
1.0000000000 1.0000000000 1.0000000000
1.0000000000 1.0000000000 1.0000000000
