Luts Download/gamut - BaseLUTs/BaseLUTs - Apple Log (Primary).cube
TITLE "BaseLUTs - Apple Log (Primary) Conversion LUT by Gamut"
# Designed for converting Apple Log / Rec2020 to Rec709 Color Space. Version 1.1 - 12/08/2023 -  Copyright 2023 Gamut, LLC
LUT_3D_SIZE 5
0.0000000000 0.0000000000 0.0000000000
0.0343030000 0.0000000000 0.0007890000
0.4289175000 0.0055200000 0.0019715000
0.8703285000 0.0614515000 0.0545682500
0.9973660000 0.4236150000 0.6614350000
0.0000000000 0.1059767500 0.0000000000
0.0813150000 0.1006012500 0.0000000000
0.4459627500 0.0345002500 0.0100545000
0.8731260000 0.0771927500 0.0611200000
0.9975407500 0.4246885000 0.6618270000
0.0070970000 0.4154340000 0.0000000000
0.0138000000 0.4298345000 0.0000000000
0.4038445000 0.4130270000 0.0003945000
0.8431582500 0.3443852500 0.1856695000
1.0000000000 0.4778330000 0.6762545000
0.2688530000 0.8116887500 0.0228687500
0.2822640000 0.8210030000 0.0293472500
0.4294090000 0.8161400000 0.1591367500
0.8056017500 0.7924847500 0.4165595000
1.0000000000 0.7937272500 0.7727965000
0.2607770000 1.0000000000 0.8774530000
0.2828460000 1.0000000000 0.8708182500
0.3905035000 1.0000000000 0.8568345000
0.6322817500 1.0000000000 0.8520617500
0.9992750000 0.9999460000 0.8599040000
0.0013800000 0.0000000000 0.0447432500
0.0563302500 0.0000000000 0.0777090000
0.4640002500 0.0082800000 0.0378092500
0.8705705000 0.0613012500 0.0555272500
0.9974470000 0.4236150000 0.6614350000
0.0000000000 0.1115140000 0.1025990000
0.0789187500 0.1025975000 0.0926065000
0.4575505000 0.0254317500 0.0436040000
0.8729400000 0.0729402500 0.0609827500
0.9975407500 0.4246075000 0.6617465000
0.0000000000 0.4264900000 0.0063087500
0.0000000000 0.4423480000 0.0065057500
0.3986357500 0.4142880000 0.0400060000
0.8414590000 0.3356080000 0.1980597500
1.0000000000 0.4766810000 0.6758960000
0.2210757500 0.8159147500 0.0500507500
0.2384505000 0.8256332500 0.0587382500
0.4092530000 0.8173767500 0.1880107500
0.7997940000 0.7850055000 0.4147312500
1.0000000000 0.7927340000 0.7725795000
0.2507142500 1.0000000000 0.8807930000
0.2748562500 1.0000000000 0.8730932500
0.3847565000 1.0000000000 0.8571717500
0.6304805000 1.0000000000 0.8522195000
0.9992750000 0.9999460000 0.8603630000
0.0003945000 0.0000000000 0.3198650000
0.0618980000 0.0205030000 0.3320882500
0.4944535000 0.0007885000 0.4260790000
0.9061040000 0.0547237500 0.1908075000
0.9974065000 0.4244660000 0.6628860000
0.0003945000 0.0000000000 0.3306237500
0.0610027500 0.0252342500 0.3407530000
0.4936800000 0.0021685000 0.4438570000
0.9066270000 0.0622937500 0.2077320000
0.9975010000 0.4254357500 0.6634145000
0.0000000000 0.4244535000 0.4164545000
0.0000000000 0.4343040000 0.4152080000
0.4209835000 0.4300085000 0.4331455000
0.8439560000 0.3226490000 0.3518047500
0.9999730000 0.4732375000 0.6766575000
0.0767695000 0.8414285000 0.3659980000
0.0941365000 0.8447860000 0.3644980000
0.3205820000 0.8265510000 0.4145330000
0.7801610000 0.7735425000 0.4934200000
1.0000000000 0.7867252500 0.7714102500
0.2547330000 1.0000000000 0.9041810000
0.2689000000 1.0000000000 0.8901832500
0.3638435000 1.0000000000 0.8618340000
0.6193487500 1.0000000000 0.8517720000
0.9993290000 1.0000000000 0.8614420000
0.0195172500 0.2047847500 0.7169700000
0.0187282500 0.2010787500 0.7140337500
0.3663397500 0.2472757500 0.7903980000
0.8486637500 0.2654132500 0.7115432500
0.9966120000 0.4857160000 0.7329697500
0.0230655000 0.2135805000 0.7241835000
0.0220802500 0.2102740000 0.7214815000
0.3590675000 0.2570317500 0.7937667500
0.8431325000 0.2794467500 0.7243500000
0.9967130000 0.4894742500 0.7364392500
0.0272060000 0.2951805000 0.7505030000
0.0264170000 0.2915832500 0.7477660000
0.3133830000 0.3831572500 0.7891787500
0.8118230000 0.4153070000 0.7534007500
0.9991140000 0.5240350000 0.7495140000
0.0837290000 0.8095342500 0.8136380000
0.0884532500 0.8090472500 0.8068335000
0.2557887500 0.8060310000 0.8018592500
0.8162132500 0.8112680000 0.8193987500
1.0000000000 0.7520505000 0.7959372500
0.4693885000 1.0000000000 0.9835397500
0.4564885000 1.0000000000 0.9657797500
0.4474105000 1.0000000000 0.9120665000
0.6149692500 1.0000000000 0.8737650000
0.9994165000 1.0000000000 0.8602232500
0.3389990000 0.6907990000 1.0000000000
0.3339735000 0.6871787500 1.0000000000
0.3497000000 0.6769060000 1.0000000000
0.6386867500 0.6722175000 0.9940262500
0.9998120000 0.7520730000 0.9995710000
0.3615255000 0.7136020000 1.0000000000
0.3550505000 0.7073172500 1.0000000000
0.3667617500 0.6933975000 1.0000000000
0.6424667500 0.6854850000 0.9949860000
0.9998660000 0.7610025000 0.9996240000
0.4300670000 0.7887195000 1.0000000000
0.4211362500 0.7787147500 1.0000000000
0.4223200000 0.7553580000 1.0000000000
0.6684710000 0.7291887500 0.9969755000
0.9999460000 0.7819405000 0.9997050000
0.6482150000 0.9212177500 1.0000000000
0.6394745000 0.9149305000 1.0000000000
0.6287912500 0.8973287500 1.0000000000
0.7741765000 0.8442287500 0.9996580000
1.0000000000 0.8333562500 0.9998255000
0.9740110000 0.9949930000 0.9997580000
0.9740110000 0.9949930000 0.9997580000
0.9739140000 0.9949930000 0.9997050000
0.9589027500 0.9961330000 1.0000000000
0.9998120000 1.0000000000 0.9987380000
