Luts Download/Canon Luts/1dlut/canonlog-to-gamma-1dlut/full-to-full-range/CanonLog_12-to-Cineon_FF_Ver.2.0.cube
# Gamma : Canon Log to Cineon
# Range : Full in / Full out
# Version : 2.0 2016/10/27
# Copyright(c) 2016 Canon Inc. All Rights Reserved.

LUT_1D_SIZE 4096
0.000000 0.000000 0.000000
0.000000 0.000000 0.000000
0.000000 0.000000 0.000000
0.000000 0.000000 0.000000
0.000000 0.000000 0.000000
0.000000 0.000000 0.000000
0.000000 0.000000 0.000000
0.000000 0.000000 0.000000
0.000000 0.000000 0.000000
0.000000 0.000000 0.000000
0.000000 0.000000 0.000000
0.000000 0.000000 0.000000
0.000000 0.000000 0.000000
0.000000 0.000000 0.000000
0.000000 0.000000 0.000000
0.000000 0.000000 0.000000
0.000000 0.000000 0.000000
0.000000 0.000000 0.000000
0.000000 0.000000 0.000000
0.000000 0.000000 0.000000
0.000000 0.000000 0.000000
0.000000 0.000000 0.000000
0.000000 0.000000 0.000000
0.000000 0.000000 0.000000
0.000000 0.000000 0.000000
0.000000 0.000000 0.000000
0.000000 0.000000 0.000000
0.000000 0.000000 0.000000
0.000000 0.000000 0.000000
0.000000 0.000000 0.000000
0.000000 0.000000 0.000000
0.000000 0.000000 0.000000
0.000000 0.000000 0.000000
0.000000 0.000000 0.000000
0.000000 0.000000 0.000000
0.000000 0.000000 0.000000
0.000000 0.000000 0.000000
0.000000 0.000000 0.000000
0.000000 0.000000 0.000000
0.000000 0.000000 0.000000
0.000000 0.000000 0.000000
0.000000 0.000000 0.000000
0.000000 0.000000 0.000000
0.000000 0.000000 0.000000
0.000000 0.000000 0.000000
0.000000 0.000000 0.000000
0.000000 0.000000 0.000000
0.000000 0.000000 0.000000
0.000000 0.000000 0.000000
0.000000 0.000000 0.000000
0.000000 0.000000 0.000000
0.000000 0.000000 0.000000
0.000000 0.000000 0.000000
0.000000 0.000000 0.000000
0.000000 0.000000 0.000000
0.000000 0.000000 0.000000
0.000000 0.000000 0.000000
0.000000 0.000000 0.000000
0.000000 0.000000 0.000000
0.000000 0.000000 0.000000
0.000000 0.000000 0.000000
0.000000 0.000000 0.000000
0.000000 0.000000 0.000000
0.000000 0.000000 0.000000
0.000000 0.000000 0.000000
0.000000 0.000000 0.000000
0.000000 0.000000 0.000000
0.000000 0.000000 0.000000
0.000000 0.000000 0.000000
0.000000 0.000000 0.000000
0.000000 0.000000 0.000000
0.000000 0.000000 0.000000
0.000000 0.000000 0.000000
0.000000 0.000000 0.000000
0.000000 0.000000 0.000000
0.000000 0.000000 0.000000
0.000000 0.000000 0.000000
0.000000 0.000000 0.000000
0.000000 0.000000 0.000000
0.000000 0.000000 0.000000
0.000000 0.000000 0.000000
0.000000 0.000000 0.000000
0.000000 0.000000 0.000000
0.000000 0.000000 0.000000
0.000000 0.000000 0.000000
0.000000 0.000000 0.000000
0.000000 0.000000 0.000000
0.000000 0.000000 0.000000
0.000000 0.000000 0.000000
0.000000 0.000000 0.000000
0.000000 0.000000 0.000000
0.000000 0.000000 0.000000
0.000000 0.000000 0.000000
0.000000 0.000000 0.000000
0.000000 0.000000 0.000000
0.000000 0.000000 0.000000
0.000000 0.000000 0.000000
0.000000 0.000000 0.000000
0.000000 0.000000 0.000000
0.000000 0.000000 0.000000
0.000000 0.000000 0.000000
0.000000 0.000000 0.000000
0.000000 0.000000 0.000000
0.000000 0.000000 0.000000
0.000000 0.000000 0.000000
0.000000 0.000000 0.000000
0.000000 0.000000 0.000000
0.000000 0.000000 0.000000
0.000000 0.000000 0.000000
0.000000 0.000000 0.000000
0.000000 0.000000 0.000000
0.000000 0.000000 0.000000
0.000000 0.000000 0.000000
0.000000 0.000000 0.000000
0.000000 0.000000 0.000000
0.000000 0.000000 0.000000
0.000000 0.000000 0.000000
0.000000 0.000000 0.000000
0.000000 0.000000 0.000000
0.000000 0.000000 0.000000
0.000000 0.000000 0.000000
0.000000 0.000000 0.000000
0.000000 0.000000 0.000000
0.000000 0.000000 0.000000
0.000000 0.000000 0.000000
0.000000 0.000000 0.000000
0.000000 0.000000 0.000000
0.000000 0.000000 0.000000
0.000000 0.000000 0.000000
0.000000 0.000000 0.000000
0.000000 0.000000 0.000000
0.000000 0.000000 0.000000
0.000000 0.000000 0.000000
0.000000 0.000000 0.000000
0.000000 0.000000 0.000000
0.000000 0.000000 0.000000
0.000000 0.000000 0.000000
0.000000 0.000000 0.000000
0.000000 0.000000 0.000000
0.000000 0.000000 0.000000
0.000000 0.000000 0.000000
0.000000 0.000000 0.000000
0.000000 0.000000 0.000000
0.000000 0.000000 0.000000
0.000000 0.000000 0.000000
0.000000 0.000000 0.000000
0.000000 0.000000 0.000000
0.000000 0.000000 0.000000
0.000000 0.000000 0.000000
0.000000 0.000000 0.000000
0.000000 0.000000 0.000000
0.000000 0.000000 0.000000
0.000000 0.000000 0.000000
0.000000 0.000000 0.000000
0.000000 0.000000 0.000000
0.000000 0.000000 0.000000
0.000000 0.000000 0.000000
0.000000 0.000000 0.000000
0.000000 0.000000 0.000000
0.000000 0.000000 0.000000
0.000000 0.000000 0.000000
0.000000 0.000000 0.000000
0.000000 0.000000 0.000000
0.000000 0.000000 0.000000
0.000000 0.000000 0.000000
0.000000 0.000000 0.000000
0.000000 0.000000 0.000000
0.000000 0.000000 0.000000
0.000000 0.000000 0.000000
0.000000 0.000000 0.000000
0.000000 0.000000 0.000000
0.000000 0.000000 0.000000
0.000000 0.000000 0.000000
0.000000 0.000000 0.000000
0.000000 0.000000 0.000000
0.000000 0.000000 0.000000
0.000000 0.000000 0.000000
0.000000 0.000000 0.000000
0.000000 0.000000 0.000000
0.000000 0.000000 0.000000
0.000000 0.000000 0.000000
0.000000 0.000000 0.000000
0.000000 0.000000 0.000000
0.000000 0.000000 0.000000
0.000000 0.000000 0.000000
0.000000 0.000000 0.000000
0.000000 0.000000 0.000000
0.000000 0.000000 0.000000
0.000000 0.000000 0.000000
0.000000 0.000000 0.000000
0.000000 0.000000 0.000000
0.000000 0.000000 0.000000
0.000000 0.000000 0.000000
0.000000 0.000000 0.000000
0.000000 0.000000 0.000000
0.000000 0.000000 0.000000
0.000000 0.000000 0.000000
0.000000 0.000000 0.000000
0.000000 0.000000 0.000000
0.000000 0.000000 0.000000
0.000000 0.000000 0.000000
0.000000 0.000000 0.000000
0.000000 0.000000 0.000000
0.000000 0.000000 0.000000
0.000000 0.000000 0.000000
0.000000 0.000000 0.000000
0.000000 0.000000 0.000000
0.000000 0.000000 0.000000
0.000000 0.000000 0.000000
0.000000 0.000000 0.000000
0.000000 0.000000 0.000000
0.000000 0.000000 0.000000
0.000000 0.000000 0.000000
0.000000 0.000000 0.000000
0.000000 0.000000 0.000000
0.000000 0.000000 0.000000
0.000000 0.000000 0.000000
0.000000 0.000000 0.000000
0.000000 0.000000 0.000000
0.000000 0.000000 0.000000
0.000000 0.000000 0.000000
0.000000 0.000000 0.000000
0.000000 0.000000 0.000000
0.000000 0.000000 0.000000
0.000000 0.000000 0.000000
0.000000 0.000000 0.000000
0.000000 0.000000 0.000000
0.000000 0.000000 0.000000
0.000000 0.000000 0.000000
0.000000 0.000000 0.000000
0.000000 0.000000 0.000000
0.000000 0.000000 0.000000
0.000000 0.000000 0.000000
0.000000 0.000000 0.000000
0.000000 0.000000 0.000000
0.000000 0.000000 0.000000
0.000000 0.000000 0.000000
0.000000 0.000000 0.000000
0.000000 0.000000 0.000000
0.000000 0.000000 0.000000
0.000000 0.000000 0.000000
0.000000 0.000000 0.000000
0.000000 0.000000 0.000000
0.000000 0.000000 0.000000
0.000000 0.000000 0.000000
0.000000 0.000000 0.000000
0.000000 0.000000 0.000000
0.000000 0.000000 0.000000
0.000000 0.000000 0.000000
0.000000 0.000000 0.000000
0.000000 0.000000 0.000000
0.000000 0.000000 0.000000
0.000000 0.000000 0.000000
0.000000 0.000000 0.000000
0.000000 0.000000 0.000000
0.000000 0.000000 0.000000
0.000000 0.000000 0.000000
0.000000 0.000000 0.000000
0.000000 0.000000 0.000000
0.000000 0.000000 0.000000
0.000000 0.000000 0.000000
0.000000 0.000000 0.000000
0.000000 0.000000 0.000000
0.000000 0.000000 0.000000
0.000000 0.000000 0.000000
0.000000 0.000000 0.000000
0.000000 0.000000 0.000000
0.000000 0.000000 0.000000
0.000000 0.000000 0.000000
0.000000 0.000000 0.000000
0.000000 0.000000 0.000000
0.000000 0.000000 0.000000
0.000000 0.000000 0.000000
0.000000 0.000000 0.000000
0.000000 0.000000 0.000000
0.000000 0.000000 0.000000
0.000000 0.000000 0.000000
0.000000 0.000000 0.000000
0.000000 0.000000 0.000000
0.000000 0.000000 0.000000
0.000000 0.000000 0.000000
0.000000 0.000000 0.000000
0.000000 0.000000 0.000000
0.000000 0.000000 0.000000
0.000000 0.000000 0.000000
0.000000 0.000000 0.000000
0.000000 0.000000 0.000000
0.000000 0.000000 0.000000
0.000000 0.000000 0.000000
0.000000 0.000000 0.000000
0.000000 0.000000 0.000000
0.000000 0.000000 0.000000
0.000000 0.000000 0.000000
0.000000 0.000000 0.000000
0.000000 0.000000 0.000000
0.000000 0.000000 0.000000
0.000000 0.000000 0.000000
0.000000 0.000000 0.000000
0.000000 0.000000 0.000000
0.000000 0.000000 0.000000
0.000000 0.000000 0.000000
0.000000 0.000000 0.000000
0.000000 0.000000 0.000000
0.000000 0.000000 0.000000
0.000000 0.000000 0.000000
0.000000 0.000000 0.000000
0.000000 0.000000 0.000000
0.000000 0.000000 0.000000
0.000000 0.000000 0.000000
0.000000 0.000000 0.000000
0.000000 0.000000 0.000000
0.000000 0.000000 0.000000
0.000000 0.000000 0.000000
0.000000 0.000000 0.000000
0.000000 0.000000 0.000000
0.000000 0.000000 0.000000
0.000000 0.000000 0.000000
0.000000 0.000000 0.000000
0.000000 0.000000 0.000000
0.000000 0.000000 0.000000
0.000000 0.000000 0.000000
0.000000 0.000000 0.000000
0.000000 0.000000 0.000000
0.000000 0.000000 0.000000
0.000000 0.000000 0.000000
0.000000 0.000000 0.000000
0.000000 0.000000 0.000000
0.000000 0.000000 0.000000
0.000000 0.000000 0.000000
0.000000 0.000000 0.000000
0.000000 0.000000 0.000000
0.000000 0.000000 0.000000
0.000000 0.000000 0.000000
0.000000 0.000000 0.000000
0.000000 0.000000 0.000000
0.000000 0.000000 0.000000
0.000000 0.000000 0.000000
0.000000 0.000000 0.000000
0.000000 0.000000 0.000000
0.000000 0.000000 0.000000
0.000000 0.000000 0.000000
0.000000 0.000000 0.000000
0.000000 0.000000 0.000000
0.000000 0.000000 0.000000
0.000000 0.000000 0.000000
0.000000 0.000000 0.000000
0.000000 0.000000 0.000000
0.000000 0.000000 0.000000
0.000000 0.000000 0.000000
0.000000 0.000000 0.000000
0.000000 0.000000 0.000000
0.000000 0.000000 0.000000
0.000000 0.000000 0.000000
0.000000 0.000000 0.000000
0.000000 0.000000 0.000000
0.000000 0.000000 0.000000
0.000000 0.000000 0.000000
0.000000 0.000000 0.000000
0.000000 0.000000 0.000000
0.000000 0.000000 0.000000
0.000000 0.000000 0.000000
0.000000 0.000000 0.000000
0.000000 0.000000 0.000000
0.000000 0.000000 0.000000
0.000000 0.000000 0.000000
0.000000 0.000000 0.000000
0.000000 0.000000 0.000000
0.000000 0.000000 0.000000
0.000000 0.000000 0.000000
0.000000 0.000000 0.000000
0.000000 0.000000 0.000000
0.000000 0.000000 0.000000
0.000000 0.000000 0.000000
0.000000 0.000000 0.000000
0.000000 0.000000 0.000000
0.000000 0.000000 0.000000
0.000000 0.000000 0.000000
0.000000 0.000000 0.000000
0.000000 0.000000 0.000000
0.000000 0.000000 0.000000
0.000000 0.000000 0.000000
0.000000 0.000000 0.000000
0.000000 0.000000 0.000000
0.000000 0.000000 0.000000
0.000000 0.000000 0.000000
0.000000 0.000000 0.000000
0.000000 0.000000 0.000000
0.000000 0.000000 0.000000
0.000000 0.000000 0.000000
0.000000 0.000000 0.000000
0.000000 0.000000 0.000000
0.000000 0.000000 0.000000
0.000000 0.000000 0.000000
0.000000 0.000000 0.000000
0.000000 0.000000 0.000000
0.000000 0.000000 0.000000
0.000000 0.000000 0.000000
0.000000 0.000000 0.000000
0.000000 0.000000 0.000000
0.000000 0.000000 0.000000
0.000000 0.000000 0.000000
0.000000 0.000000 0.000000
0.000000 0.000000 0.000000
0.000000 0.000000 0.000000
0.000000 0.000000 0.000000
0.000000 0.000000 0.000000
0.000000 0.000000 0.000000
0.000000 0.000000 0.000000
0.000000 0.000000 0.000000
0.000000 0.000000 0.000000
0.000000 0.000000 0.000000
0.000000 0.000000 0.000000
0.000000 0.000000 0.000000
0.000000 0.000000 0.000000
0.000000 0.000000 0.000000
0.000000 0.000000 0.000000
0.000000 0.000000 0.000000
0.000000 0.000000 0.000000
0.000000 0.000000 0.000000
0.000000 0.000000 0.000000
0.000000 0.000000 0.000000
0.000000 0.000000 0.000000
0.000190 0.000190 0.000190
0.000961 0.000961 0.000961
0.001736 0.001736 0.001736
0.002515 0.002515 0.002515
0.003298 0.003298 0.003298
0.004085 0.004085 0.004085
0.004875 0.004875 0.004875
0.005670 0.005670 0.005670
0.006468 0.006468 0.006468
0.007271 0.007271 0.007271
0.008077 0.008077 0.008077
0.008888 0.008888 0.008888
0.009703 0.009703 0.009703
0.010522 0.010522 0.010522
0.011345 0.011345 0.011345
0.012173 0.012173 0.012173
0.013005 0.013005 0.013005
0.013842 0.013842 0.013842
0.014683 0.014683 0.014683
0.015529 0.015529 0.015529
0.016379 0.016379 0.016379
0.017234 0.017234 0.017234
0.018093 0.018093 0.018093
0.018958 0.018958 0.018958
0.019827 0.019827 0.019827
0.020701 0.020701 0.020701
0.021580 0.021580 0.021580
0.022464 0.022464 0.022464
0.023353 0.023353 0.023353
0.024247 0.024247 0.024247
0.025147 0.025147 0.025147
0.026051 0.026051 0.026051
0.026961 0.026961 0.026961
0.027877 0.027877 0.027877
0.028798 0.028798 0.028798
0.029724 0.029724 0.029724
0.030656 0.030656 0.030656
0.031594 0.031594 0.031594
0.032538 0.032538 0.032538
0.033487 0.033487 0.033487
0.034443 0.034443 0.034443
0.035404 0.035404 0.035404
0.036372 0.036372 0.036372
0.037346 0.037346 0.037346
0.038326 0.038326 0.038326
0.039312 0.039312 0.039312
0.040305 0.040305 0.040305
0.041305 0.041305 0.041305
0.042311 0.042311 0.042311
0.043324 0.043324 0.043324
0.044344 0.044344 0.044344
0.045370 0.045370 0.045370
0.046404 0.046404 0.046404
0.047445 0.047445 0.047445
0.048493 0.048493 0.048493
0.049549 0.049549 0.049549
0.050612 0.050612 0.050612
0.051683 0.051683 0.051683
0.052761 0.052761 0.052761
0.053848 0.053848 0.053848
0.054942 0.054942 0.054942
0.056044 0.056044 0.056044
0.057155 0.057155 0.057155
0.058274 0.058274 0.058274
0.059402 0.059402 0.059402
0.060538 0.060538 0.060538
0.061683 0.061683 0.061683
0.062837 0.062837 0.062837
0.064000 0.064000 0.064000
0.065173 0.065173 0.065173
0.066354 0.066354 0.066354
0.067546 0.067546 0.067546
0.068747 0.068747 0.068747
0.069958 0.069958 0.069958
0.071179 0.071179 0.071179
0.072411 0.072411 0.072411
0.073653 0.073653 0.073653
0.074906 0.074906 0.074906
0.076169 0.076169 0.076169
0.077444 0.077444 0.077444
0.078730 0.078730 0.078730
0.080027 0.080027 0.080027
0.081336 0.081336 0.081336
0.082657 0.082657 0.082657
0.083991 0.083991 0.083991
0.085336 0.085336 0.085336
0.086695 0.086695 0.086695
0.088066 0.088066 0.088066
0.089451 0.089451 0.089451
0.090849 0.090849 0.090849
0.092261 0.092261 0.092261
0.093681 0.093681 0.093681
0.095090 0.095090 0.095090
0.096484 0.096484 0.096484
0.097866 0.097866 0.097866
0.099234 0.099234 0.099234
0.100589 0.100589 0.100589
0.101932 0.101932 0.101932
0.103262 0.103262 0.103262
0.104580 0.104580 0.104580
0.105886 0.105886 0.105886
0.107181 0.107181 0.107181
0.108464 0.108464 0.108464
0.109736 0.109736 0.109736
0.110997 0.110997 0.110997
0.112247 0.112247 0.112247
0.113486 0.113486 0.113486
0.114715 0.114715 0.114715
0.115934 0.115934 0.115934
0.117143 0.117143 0.117143
0.118341 0.118341 0.118341
0.119530 0.119530 0.119530
0.120710 0.120710 0.120710
0.121880 0.121880 0.121880
0.123041 0.123041 0.123041
0.124193 0.124193 0.124193
0.125336 0.125336 0.125336
0.126470 0.126470 0.126470
0.127595 0.127595 0.127595
0.128712 0.128712 0.128712
0.129821 0.129821 0.129821
0.130921 0.130921 0.130921
0.132014 0.132014 0.132014
0.133098 0.133098 0.133098
0.134175 0.134175 0.134175
0.135243 0.135243 0.135243
0.136305 0.136305 0.136305
0.137358 0.137358 0.137358
0.138405 0.138405 0.138405
0.139444 0.139444 0.139444
0.140476 0.140476 0.140476
0.141501 0.141501 0.141501
0.142519 0.142519 0.142519
0.143530 0.143530 0.143530
0.144535 0.144535 0.144535
0.145533 0.145533 0.145533
0.146524 0.146524 0.146524
0.147509 0.147509 0.147509
0.148487 0.148487 0.148487
0.149460 0.149460 0.149460
0.150426 0.150426 0.150426
0.151386 0.151386 0.151386
0.152340 0.152340 0.152340
0.153288 0.153288 0.153288
0.154230 0.154230 0.154230
0.155166 0.155166 0.155166
0.156097 0.156097 0.156097
0.157022 0.157022 0.157022
0.157942 0.157942 0.157942
0.158856 0.158856 0.158856
0.159765 0.159765 0.159765
0.160668 0.160668 0.160668
0.161566 0.161566 0.161566
0.162459 0.162459 0.162459
0.163347 0.163347 0.163347
0.164230 0.164230 0.164230
0.165108 0.165108 0.165108
0.165981 0.165981 0.165981
0.166848 0.166848 0.166848
0.167712 0.167712 0.167712
0.168570 0.168570 0.168570
0.169424 0.169424 0.169424
0.170273 0.170273 0.170273
0.171117 0.171117 0.171117
0.171957 0.171957 0.171957
0.172793 0.172793 0.172793
0.173624 0.173624 0.173624
0.174451 0.174451 0.174451
0.175273 0.175273 0.175273
0.176091 0.176091 0.176091
0.176905 0.176905 0.176905
0.177715 0.177715 0.177715
0.178520 0.178520 0.178520
0.179322 0.179322 0.179322
0.180119 0.180119 0.180119
0.180913 0.180913 0.180913
0.181702 0.181702 0.181702
0.182488 0.182488 0.182488
0.183270 0.183270 0.183270
0.184048 0.184048 0.184048
0.184822 0.184822 0.184822
0.185592 0.185592 0.185592
0.186359 0.186359 0.186359
0.187122 0.187122 0.187122
0.187882 0.187882 0.187882
0.188638 0.188638 0.188638
0.189390 0.189390 0.189390
0.190139 0.190139 0.190139
0.190885 0.190885 0.190885
0.191627 0.191627 0.191627
0.192366 0.192366 0.192366
0.193101 0.193101 0.193101
0.193833 0.193833 0.193833
0.194562 0.194562 0.194562
0.195287 0.195287 0.195287
0.196009 0.196009 0.196009
0.196728 0.196728 0.196728
0.197444 0.197444 0.197444
0.198157 0.198157 0.198157
0.198867 0.198867 0.198867
0.199573 0.199573 0.199573
0.200277 0.200277 0.200277
0.200978 0.200978 0.200978
0.201675 0.201675 0.201675
0.202370 0.202370 0.202370
0.203062 0.203062 0.203062
0.203751 0.203751 0.203751
0.204437 0.204437 0.204437
0.205120 0.205120 0.205120
0.205800 0.205800 0.205800
0.206478 0.206478 0.206478
0.207153 0.207153 0.207153
0.207825 0.207825 0.207825
0.208494 0.208494 0.208494
0.209161 0.209161 0.209161
0.209825 0.209825 0.209825
0.210486 0.210486 0.210486
0.211145 0.211145 0.211145
0.211801 0.211801 0.211801
0.212455 0.212455 0.212455
0.213106 0.213106 0.213106
0.213755 0.213755 0.213755
0.214401 0.214401 0.214401
0.215045 0.215045 0.215045
0.215686 0.215686 0.215686
0.216325 0.216325 0.216325
0.216961 0.216961 0.216961
0.217595 0.217595 0.217595
0.218227 0.218227 0.218227
0.218856 0.218856 0.218856
0.219483 0.219483 0.219483
0.220108 0.220108 0.220108
0.220731 0.220731 0.220731
0.221351 0.221351 0.221351
0.221969 0.221969 0.221969
0.222584 0.222584 0.222584
0.223198 0.223198 0.223198
0.223809 0.223809 0.223809
0.224418 0.224418 0.224418
0.225025 0.225025 0.225025
0.225630 0.225630 0.225630
0.226233 0.226233 0.226233
0.226834 0.226834 0.226834
0.227432 0.227432 0.227432
0.228029 0.228029 0.228029
0.228623 0.228623 0.228623
0.229216 0.229216 0.229216
0.229806 0.229806 0.229806
0.230394 0.230394 0.230394
0.230981 0.230981 0.230981
0.231565 0.231565 0.231565
0.232148 0.232148 0.232148
0.232728 0.232728 0.232728
0.233307 0.233307 0.233307
0.233884 0.233884 0.233884
0.234459 0.234459 0.234459
0.235032 0.235032 0.235032
0.235603 0.235603 0.235603
0.236172 0.236172 0.236172
0.236740 0.236740 0.236740
0.237305 0.237305 0.237305
0.237869 0.237869 0.237869
0.238431 0.238431 0.238431
0.238991 0.238991 0.238991
0.239550 0.239550 0.239550
0.240107 0.240107 0.240107
0.240662 0.240662 0.240662
0.241215 0.241215 0.241215
0.241766 0.241766 0.241766
0.242316 0.242316 0.242316
0.242864 0.242864 0.242864
0.243411 0.243411 0.243411
0.243956 0.243956 0.243956
0.244499 0.244499 0.244499
0.245040 0.245040 0.245040
0.245580 0.245580 0.245580
0.246119 0.246119 0.246119
0.246655 0.246655 0.246655
0.247191 0.247191 0.247191
0.247724 0.247724 0.247724
0.248256 0.248256 0.248256
0.248786 0.248786 0.248786
0.249315 0.249315 0.249315
0.249843 0.249843 0.249843
0.250368 0.250368 0.250368
0.250893 0.250893 0.250893
0.251415 0.251415 0.251415
0.251937 0.251937 0.251937
0.252457 0.252457 0.252457
0.252975 0.252975 0.252975
0.253492 0.253492 0.253492
0.254007 0.254007 0.254007
0.254521 0.254521 0.254521
0.255034 0.255034 0.255034
0.255545 0.255545 0.255545
0.256054 0.256054 0.256054
0.256563 0.256563 0.256563
0.257070 0.257070 0.257070
0.257575 0.257575 0.257575
0.258079 0.258079 0.258079
0.258582 0.258582 0.258582
0.259084 0.259084 0.259084
0.259584 0.259584 0.259584
0.260082 0.260082 0.260082
0.260580 0.260580 0.260580
0.261076 0.261076 0.261076
0.261571 0.261571 0.261571
0.262064 0.262064 0.262064
0.262556 0.262556 0.262556
0.263047 0.263047 0.263047
0.263537 0.263537 0.263537
0.264025 0.264025 0.264025
0.264512 0.264512 0.264512
0.264998 0.264998 0.264998
0.265482 0.265482 0.265482
0.265966 0.265966 0.265966
0.266448 0.266448 0.266448
0.266929 0.266929 0.266929
0.267408 0.267408 0.267408
0.267887 0.267887 0.267887
0.268364 0.268364 0.268364
0.268840 0.268840 0.268840
0.269315 0.269315 0.269315
0.269788 0.269788 0.269788
0.270261 0.270261 0.270261
0.270732 0.270732 0.270732
0.271203 0.271203 0.271203
0.271672 0.271672 0.271672
0.272139 0.272139 0.272139
0.272606 0.272606 0.272606
0.273072 0.273072 0.273072
0.273536 0.273536 0.273536
0.274000 0.274000 0.274000
0.274462 0.274462 0.274462
0.274923 0.274923 0.274923
0.275383 0.275383 0.275383
0.275842 0.275842 0.275842
0.276300 0.276300 0.276300
0.276757 0.276757 0.276757
0.277213 0.277213 0.277213
0.277667 0.277667 0.277667
0.278121 0.278121 0.278121
0.278574 0.278574 0.278574
0.279025 0.279025 0.279025
0.279476 0.279476 0.279476
0.279925 0.279925 0.279925
0.280374 0.280374 0.280374
0.280821 0.280821 0.280821
0.281267 0.281267 0.281267
0.281713 0.281713 0.281713
0.282157 0.282157 0.282157
0.282601 0.282601 0.282601
0.283043 0.283043 0.283043
0.283484 0.283484 0.283484
0.283925 0.283925 0.283925
0.284364 0.284364 0.284364
0.284803 0.284803 0.284803
0.285240 0.285240 0.285240
0.285677 0.285677 0.285677
0.286113 0.286113 0.286113
0.286547 0.286547 0.286547
0.286981 0.286981 0.286981
0.287414 0.287414 0.287414
0.287846 0.287846 0.287846
0.288277 0.288277 0.288277
0.288707 0.288707 0.288707
0.289136 0.289136 0.289136
0.289564 0.289564 0.289564
0.289991 0.289991 0.289991
0.290417 0.290417 0.290417
0.290843 0.290843 0.290843
0.291268 0.291268 0.291268
0.291691 0.291691 0.291691
0.292114 0.292114 0.292114
0.292536 0.292536 0.292536
0.292957 0.292957 0.292957
0.293377 0.293377 0.293377
0.293797 0.293797 0.293797
0.294215 0.294215 0.294215
0.294633 0.294633 0.294633
0.295049 0.295049 0.295049
0.295465 0.295465 0.295465
0.295880 0.295880 0.295880
0.296295 0.296295 0.296295
0.296708 0.296708 0.296708
0.297121 0.297121 0.297121
0.297533 0.297533 0.297533
0.297943 0.297943 0.297943
0.298354 0.298354 0.298354
0.298763 0.298763 0.298763
0.299171 0.299171 0.299171
0.299579 0.299579 0.299579
0.299986 0.299986 0.299986
0.300392 0.300392 0.300392
0.300797 0.300797 0.300797
0.301202 0.301202 0.301202
0.301606 0.301606 0.301606
0.302009 0.302009 0.302009
0.302411 0.302411 0.302411
0.302812 0.302812 0.302812
0.303213 0.303213 0.303213
0.303613 0.303613 0.303613
0.304012 0.304012 0.304012
0.304411 0.304411 0.304411
0.304808 0.304808 0.304808
0.305205 0.305205 0.305205
0.305601 0.305601 0.305601
0.305997 0.305997 0.305997
0.306391 0.306391 0.306391
0.306785 0.306785 0.306785
0.307179 0.307179 0.307179
0.307571 0.307571 0.307571
0.307963 0.307963 0.307963
0.308354 0.308354 0.308354
0.308744 0.308744 0.308744
0.309134 0.309134 0.309134
0.309523 0.309523 0.309523
0.309911 0.309911 0.309911
0.310298 0.310298 0.310298
0.310685 0.310685 0.310685
0.311071 0.311071 0.311071
0.311457 0.311457 0.311457
0.311842 0.311842 0.311842
0.312226 0.312226 0.312226
0.312609 0.312609 0.312609
0.312992 0.312992 0.312992
0.313374 0.313374 0.313374
0.313755 0.313755 0.313755
0.314136 0.314136 0.314136
0.314516 0.314516 0.314516
0.314895 0.314895 0.314895
0.315274 0.315274 0.315274
0.315652 0.315652 0.315652
0.316029 0.316029 0.316029
0.316406 0.316406 0.316406
0.316782 0.316782 0.316782
0.317158 0.317158 0.317158
0.317533 0.317533 0.317533
0.317907 0.317907 0.317907
0.318280 0.318280 0.318280
0.318653 0.318653 0.318653
0.319025 0.319025 0.319025
0.319397 0.319397 0.319397
0.319768 0.319768 0.319768
0.320139 0.320139 0.320139
0.320508 0.320508 0.320508
0.320878 0.320878 0.320878
0.321246 0.321246 0.321246
0.321614 0.321614 0.321614
0.321982 0.321982 0.321982
0.322348 0.322348 0.322348
0.322714 0.322714 0.322714
0.323080 0.323080 0.323080
0.323445 0.323445 0.323445
0.323809 0.323809 0.323809
0.324173 0.324173 0.324173
0.324536 0.324536 0.324536
0.324899 0.324899 0.324899
0.325261 0.325261 0.325261
0.325622 0.325622 0.325622
0.325983 0.325983 0.325983
