Luts Download/Canon Luts/1dlut/canonlog-to-gamma-1dlut/full-to-full-range/CanonLog_10-to-Cineon_FF_Ver.2.0.cube
# Gamma : Canon Log to Cineon
# Range : Full in / Full out
# Version : 2.0 2016/10/27
# Copyright(c) 2016 Canon Inc. All Rights Reserved.

LUT_1D_SIZE 1024
0.000000 0.000000 0.000000
0.000000 0.000000 0.000000
0.000000 0.000000 0.000000
0.000000 0.000000 0.000000
0.000000 0.000000 0.000000
0.000000 0.000000 0.000000
0.000000 0.000000 0.000000
0.000000 0.000000 0.000000
0.000000 0.000000 0.000000
0.000000 0.000000 0.000000
0.000000 0.000000 0.000000
0.000000 0.000000 0.000000
0.000000 0.000000 0.000000
0.000000 0.000000 0.000000
0.000000 0.000000 0.000000
0.000000 0.000000 0.000000
0.000000 0.000000 0.000000
0.000000 0.000000 0.000000
0.000000 0.000000 0.000000
0.000000 0.000000 0.000000
0.000000 0.000000 0.000000
0.000000 0.000000 0.000000
0.000000 0.000000 0.000000
0.000000 0.000000 0.000000
0.000000 0.000000 0.000000
0.000000 0.000000 0.000000
0.000000 0.000000 0.000000
0.000000 0.000000 0.000000
0.000000 0.000000 0.000000
0.000000 0.000000 0.000000
0.000000 0.000000 0.000000
0.000000 0.000000 0.000000
0.000000 0.000000 0.000000
0.000000 0.000000 0.000000
0.000000 0.000000 0.000000
0.000000 0.000000 0.000000
0.000000 0.000000 0.000000
0.000000 0.000000 0.000000
0.000000 0.000000 0.000000
0.000000 0.000000 0.000000
0.000000 0.000000 0.000000
0.000000 0.000000 0.000000
0.000000 0.000000 0.000000
0.000000 0.000000 0.000000
0.000000 0.000000 0.000000
0.000000 0.000000 0.000000
0.000000 0.000000 0.000000
0.000000 0.000000 0.000000
0.000000 0.000000 0.000000
0.000000 0.000000 0.000000
0.000000 0.000000 0.000000
0.000000 0.000000 0.000000
0.000000 0.000000 0.000000
0.000000 0.000000 0.000000
0.000000 0.000000 0.000000
0.000000 0.000000 0.000000
0.000000 0.000000 0.000000
0.000000 0.000000 0.000000
0.000000 0.000000 0.000000
0.000000 0.000000 0.000000
0.000000 0.000000 0.000000
0.000000 0.000000 0.000000
0.000000 0.000000 0.000000
0.000000 0.000000 0.000000
0.000000 0.000000 0.000000
0.000000 0.000000 0.000000
0.000000 0.000000 0.000000
0.000000 0.000000 0.000000
0.000000 0.000000 0.000000
0.000000 0.000000 0.000000
0.000000 0.000000 0.000000
0.000000 0.000000 0.000000
0.000000 0.000000 0.000000
0.000000 0.000000 0.000000
0.000000 0.000000 0.000000
0.000000 0.000000 0.000000
0.000000 0.000000 0.000000
0.000000 0.000000 0.000000
0.000000 0.000000 0.000000
0.000000 0.000000 0.000000
0.000000 0.000000 0.000000
0.000000 0.000000 0.000000
0.000000 0.000000 0.000000
0.000000 0.000000 0.000000
0.000000 0.000000 0.000000
0.000000 0.000000 0.000000
0.000000 0.000000 0.000000
0.000000 0.000000 0.000000
0.000000 0.000000 0.000000
0.000000 0.000000 0.000000
0.000000 0.000000 0.000000
0.000000 0.000000 0.000000
0.000000 0.000000 0.000000
0.000000 0.000000 0.000000
0.000000 0.000000 0.000000
0.000000 0.000000 0.000000
0.000000 0.000000 0.000000
0.000000 0.000000 0.000000
0.000000 0.000000 0.000000
0.000000 0.000000 0.000000
0.000000 0.000000 0.000000
0.000000 0.000000 0.000000
0.000000 0.000000 0.000000
0.000000 0.000000 0.000000
0.000000 0.000000 0.000000
0.000000 0.000000 0.000000
0.001979 0.001979 0.001979
0.005128 0.005128 0.005128
0.008340 0.008340 0.008340
0.011618 0.011618 0.011618
0.014966 0.014966 0.014966
0.018388 0.018388 0.018388
0.021886 0.021886 0.021886
0.025464 0.025464 0.025464
0.029128 0.029128 0.029128
0.032882 0.032882 0.032882
0.036729 0.036729 0.036729
0.040677 0.040677 0.040677
0.044731 0.044731 0.044731
0.048897 0.048897 0.048897
0.053182 0.053182 0.053182
0.057593 0.057593 0.057593
0.062140 0.062140 0.062140
0.066832 0.066832 0.066832
0.071678 0.071678 0.071678
0.076691 0.076691 0.076691
0.081883 0.081883 0.081883
0.087268 0.087268 0.087268
0.092862 0.092862 0.092862
0.098457 0.098457 0.098457
0.103842 0.103842 0.103842
0.109034 0.109034 0.109034
0.114047 0.114047 0.114047
0.118893 0.118893 0.118893
0.123585 0.123585 0.123585
0.128132 0.128132 0.128132
0.132544 0.132544 0.132544
0.136829 0.136829 0.136829
0.140995 0.140995 0.140995
0.145049 0.145049 0.145049
0.148996 0.148996 0.148996
0.152844 0.152844 0.152844
0.156598 0.156598 0.156598
0.160262 0.160262 0.160262
0.163841 0.163841 0.163841
0.167339 0.167339 0.167339
0.170760 0.170760 0.170760
0.174108 0.174108 0.174108
0.177387 0.177387 0.177387
0.180599 0.180599 0.180599
0.183747 0.183747 0.183747
0.186834 0.186834 0.186834
0.189864 0.189864 0.189864
0.192837 0.192837 0.192837
0.195757 0.195757 0.195757
0.198626 0.198626 0.198626
0.201445 0.201445 0.201445
0.204216 0.204216 0.204216
0.206942 0.206942 0.206942
0.209624 0.209624 0.209624
0.212264 0.212264 0.212264
0.214863 0.214863 0.214863
0.217422 0.217422 0.217422
0.219944 0.219944 0.219944
0.222428 0.222428 0.222428
0.224877 0.224877 0.224877
0.227292 0.227292 0.227292
0.229673 0.229673 0.229673
0.232023 0.232023 0.232023
0.234341 0.234341 0.234341
0.236629 0.236629 0.236629
0.238887 0.238887 0.238887
0.241117 0.241117 0.241117
0.243320 0.243320 0.243320
0.245496 0.245496 0.245496
0.247646 0.247646 0.247646
0.249771 0.249771 0.249771
0.251871 0.251871 0.251871
0.253947 0.253947 0.253947
0.256000 0.256000 0.256000
0.258031 0.258031 0.258031
0.260039 0.260039 0.260039
0.262026 0.262026 0.262026
0.263992 0.263992 0.263992
0.265938 0.265938 0.265938
0.267864 0.267864 0.267864
0.269771 0.269771 0.269771
0.271659 0.271659 0.271659
0.273528 0.273528 0.273528
0.275380 0.275380 0.275380
0.277214 0.277214 0.277214
0.279031 0.279031 0.279031
0.280831 0.280831 0.280831
0.282615 0.282615 0.282615
0.284383 0.284383 0.284383
0.286136 0.286136 0.286136
0.287873 0.287873 0.287873
0.289595 0.289595 0.289595
0.291303 0.291303 0.291303
0.292996 0.292996 0.292996
0.294676 0.294676 0.294676
0.296342 0.296342 0.296342
0.297994 0.297994 0.297994
0.299634 0.299634 0.299634
0.301260 0.301260 0.301260
0.302874 0.302874 0.302874
0.304476 0.304476 0.304476
0.306066 0.306066 0.306066
0.307643 0.307643 0.307643
0.309210 0.309210 0.309210
0.310764 0.310764 0.310764
0.312308 0.312308 0.312308
0.313841 0.313841 0.313841
0.315363 0.315363 0.315363
0.316874 0.316874 0.316874
0.318376 0.318376 0.318376
0.319867 0.319867 0.319867
0.321348 0.321348 0.321348
0.322819 0.322819 0.322819
0.324281 0.324281 0.324281
0.325733 0.325733 0.325733
0.327176 0.327176 0.327176
0.328610 0.328610 0.328610
0.330035 0.330035 0.330035
0.331451 0.331451 0.331451
0.332858 0.332858 0.332858
0.334257 0.334257 0.334257
0.335648 0.335648 0.335648
0.337031 0.337031 0.337031
0.338405 0.338405 0.338405
0.339771 0.339771 0.339771
0.341130 0.341130 0.341130
0.342481 0.342481 0.342481
0.343824 0.343824 0.343824
0.345160 0.345160 0.345160
0.346489 0.346489 0.346489
0.347811 0.347811 0.347811
0.349125 0.349125 0.349125
0.350432 0.350432 0.350432
0.351733 0.351733 0.351733
0.353027 0.353027 0.353027
0.354314 0.354314 0.354314
0.355594 0.355594 0.355594
0.356868 0.356868 0.356868
0.358136 0.358136 0.358136
0.359397 0.359397 0.359397
0.360653 0.360653 0.360653
0.361902 0.361902 0.361902
0.363145 0.363145 0.363145
0.364382 0.364382 0.364382
0.365613 0.365613 0.365613
0.366839 0.366839 0.366839
0.368059 0.368059 0.368059
0.369273 0.369273 0.369273
0.370482 0.370482 0.370482
0.371686 0.371686 0.371686
0.372884 0.372884 0.372884
0.374077 0.374077 0.374077
0.375264 0.375264 0.375264
0.376447 0.376447 0.376447
0.377624 0.377624 0.377624
0.378796 0.378796 0.378796
0.379964 0.379964 0.379964
0.381126 0.381126 0.381126
0.382284 0.382284 0.382284
0.383437 0.383437 0.383437
0.384586 0.384586 0.384586
0.385729 0.385729 0.385729
0.386869 0.386869 0.386869
0.388003 0.388003 0.388003
0.389133 0.389133 0.389133
0.390259 0.390259 0.390259
0.391381 0.391381 0.391381
0.392498 0.392498 0.392498
0.393611 0.393611 0.393611
0.394720 0.394720 0.394720
0.395825 0.395825 0.395825
0.396925 0.396925 0.396925
0.398022 0.398022 0.398022
0.399115 0.399115 0.399115
0.400203 0.400203 0.400203
0.401288 0.401288 0.401288
0.402369 0.402369 0.402369
0.403446 0.403446 0.403446
0.404520 0.404520 0.404520
0.405590 0.405590 0.405590
0.406656 0.406656 0.406656
0.407718 0.407718 0.407718
0.408777 0.408777 0.408777
0.409833 0.409833 0.409833
0.410885 0.410885 0.410885
0.411933 0.411933 0.411933
0.412979 0.412979 0.412979
0.414020 0.414020 0.414020
0.415059 0.415059 0.415059
0.416094 0.416094 0.416094
0.417126 0.417126 0.417126
0.418155 0.418155 0.418155
0.419180 0.419180 0.419180
0.420202 0.420202 0.420202
0.421222 0.421222 0.421222
0.422238 0.422238 0.422238
0.423251 0.423251 0.423251
0.424261 0.424261 0.424261
0.425268 0.425268 0.425268
0.426272 0.426272 0.426272
0.427274 0.427274 0.427274
0.428272 0.428272 0.428272
0.429268 0.429268 0.429268
0.430260 0.430260 0.430260
0.431250 0.431250 0.431250
0.432237 0.432237 0.432237
0.433222 0.433222 0.433222
0.434204 0.434204 0.434204
0.435183 0.435183 0.435183
0.436159 0.436159 0.436159
0.437133 0.437133 0.437133
0.438104 0.438104 0.438104
0.439073 0.439073 0.439073
0.440039 0.440039 0.440039
0.441002 0.441002 0.441002
0.441963 0.441963 0.441963
0.442922 0.442922 0.442922
0.443878 0.443878 0.443878
0.444832 0.444832 0.444832
0.445783 0.445783 0.445783
0.446732 0.446732 0.446732
0.447679 0.447679 0.447679
0.448623 0.448623 0.448623
0.449565 0.449565 0.449565
0.450505 0.450505 0.450505
0.451442 0.451442 0.451442
0.452378 0.452378 0.452378
0.453311 0.453311 0.453311
0.454242 0.454242 0.454242
0.455170 0.455170 0.455170
0.456097 0.456097 0.456097
0.457021 0.457021 0.457021
0.457944 0.457944 0.457944
0.458864 0.458864 0.458864
0.459782 0.459782 0.459782
0.460698 0.460698 0.460698
0.461612 0.461612 0.461612
0.462524 0.462524 0.462524
0.463434 0.463434 0.463434
0.464342 0.464342 0.464342
0.465248 0.465248 0.465248
0.466153 0.466153 0.466153
0.467055 0.467055 0.467055
0.467955 0.467955 0.467955
0.468854 0.468854 0.468854
0.469750 0.469750 0.469750
0.470645 0.470645 0.470645
0.471538 0.471538 0.471538
0.472429 0.472429 0.472429
0.473319 0.473319 0.473319
0.474206 0.474206 0.474206
0.475092 0.475092 0.475092
0.475976 0.475976 0.475976
0.476858 0.476858 0.476858
0.477739 0.477739 0.477739
0.478618 0.478618 0.478618
0.479495 0.479495 0.479495
0.480370 0.480370 0.480370
0.481244 0.481244 0.481244
0.482116 0.482116 0.482116
0.482987 0.482987 0.482987
0.483856 0.483856 0.483856
0.484723 0.484723 0.484723
0.485589 0.485589 0.485589
0.486453 0.486453 0.486453
0.487316 0.487316 0.487316
0.488177 0.488177 0.488177
0.489036 0.489036 0.489036
0.489894 0.489894 0.489894
0.490751 0.490751 0.490751
0.491606 0.491606 0.491606
0.492459 0.492459 0.492459
0.493311 0.493311 0.493311
0.494162 0.494162 0.494162
0.495011 0.495011 0.495011
0.495858 0.495858 0.495858
0.496705 0.496705 0.496705
0.497550 0.497550 0.497550
0.498393 0.498393 0.498393
0.499235 0.499235 0.499235
0.500076 0.500076 0.500076
0.500915 0.500915 0.500915
0.501753 0.501753 0.501753
0.502589 0.502589 0.502589
0.503425 0.503425 0.503425
0.504259 0.504259 0.504259
0.505091 0.505091 0.505091
0.505923 0.505923 0.505923
0.506753 0.506753 0.506753
0.507581 0.507581 0.507581
0.508409 0.508409 0.508409
0.509235 0.509235 0.509235
0.510060 0.510060 0.510060
0.510884 0.510884 0.510884
0.511706 0.511706 0.511706
0.512527 0.512527 0.512527
0.513348 0.513348 0.513348
0.514166 0.514166 0.514166
0.514984 0.514984 0.514984
0.515801 0.515801 0.515801
0.516616 0.516616 0.516616
0.517430 0.517430 0.517430
0.518243 0.518243 0.518243
0.519055 0.519055 0.519055
0.519865 0.519865 0.519865
0.520675 0.520675 0.520675
0.521484 0.521484 0.521484
0.522291 0.522291 0.522291
0.523097 0.523097 0.523097
0.523902 0.523902 0.523902
0.524706 0.524706 0.524706
0.525509 0.525509 0.525509
0.526311 0.526311 0.526311
0.527112 0.527112 0.527112
0.527912 0.527912 0.527912
0.528711 0.528711 0.528711
0.529508 0.529508 0.529508
0.530305 0.530305 0.530305
0.531101 0.531101 0.531101
0.531895 0.531895 0.531895
0.532689 0.532689 0.532689
0.533482 0.533482 0.533482
0.534273 0.534273 0.534273
0.535064 0.535064 0.535064
0.535854 0.535854 0.535854
0.536642 0.536642 0.536642
0.537430 0.537430 0.537430
0.538217 0.538217 0.538217
0.539003 0.539003 0.539003
0.539788 0.539788 0.539788
0.540572 0.540572 0.540572
0.541355 0.541355 0.541355
0.542137 0.542137 0.542137
0.542918 0.542918 0.542918
0.543698 0.543698 0.543698
0.544478 0.544478 0.544478
0.545256 0.545256 0.545256
0.546034 0.546034 0.546034
0.546810 0.546810 0.546810
0.547586 0.547586 0.547586
0.548361 0.548361 0.548361
0.549135 0.549135 0.549135
0.549909 0.549909 0.549909
0.550681 0.550681 0.550681
0.551453 0.551453 0.551453
0.552223 0.552223 0.552223
0.552993 0.552993 0.552993
0.553762 0.553762 0.553762
0.554531 0.554531 0.554531
0.555298 0.555298 0.555298
0.556065 0.556065 0.556065
0.556831 0.556831 0.556831
0.557596 0.557596 0.557596
0.558360 0.558360 0.558360
0.559123 0.559123 0.559123
0.559886 0.559886 0.559886
0.560648 0.560648 0.560648
0.561409 0.561409 0.561409
0.562169 0.562169 0.562169
0.562929 0.562929 0.562929
0.563688 0.563688 0.563688
0.564446 0.564446 0.564446
0.565203 0.565203 0.565203
0.565960 0.565960 0.565960
0.566716 0.566716 0.566716
0.567471 0.567471 0.567471
0.568225 0.568225 0.568225
0.568979 0.568979 0.568979
0.569732 0.569732 0.569732
0.570484 0.570484 0.570484
0.571236 0.571236 0.571236
0.571987 0.571987 0.571987
0.572737 0.572737 0.572737
0.573486 0.573486 0.573486
0.574235 0.574235 0.574235
0.574983 0.574983 0.574983
0.575731 0.575731 0.575731
0.576478 0.576478 0.576478
0.577224 0.577224 0.577224
0.577969 0.577969 0.577969
0.578714 0.578714 0.578714
0.579458 0.579458 0.579458
0.580202 0.580202 0.580202
0.580944 0.580944 0.580944
0.581687 0.581687 0.581687
0.582428 0.582428 0.582428
0.583169 0.583169 0.583169
0.583909 0.583909 0.583909
0.584649 0.584649 0.584649
0.585388 0.585388 0.585388
0.586127 0.586127 0.586127
0.586865 0.586865 0.586865
0.587602 0.587602 0.587602
0.588338 0.588338 0.588338
0.589074 0.589074 0.589074
0.589810 0.589810 0.589810
0.590545 0.590545 0.590545
0.591279 0.591279 0.591279
0.592013 0.592013 0.592013
0.592746 0.592746 0.592746
0.593478 0.593478 0.593478
0.594210 0.594210 0.594210
0.594942 0.594942 0.594942
0.595672 0.595672 0.595672
0.596403 0.596403 0.596403
0.597132 0.597132 0.597132
0.597861 0.597861 0.597861
0.598590 0.598590 0.598590
0.599318 0.599318 0.599318
0.600046 0.600046 0.600046
0.600773 0.600773 0.600773
0.601499 0.601499 0.601499
0.602225 0.602225 0.602225
0.602950 0.602950 0.602950
0.603675 0.603675 0.603675
0.604399 0.604399 0.604399
0.605123 0.605123 0.605123
0.605846 0.605846 0.605846
0.606569 0.606569 0.606569
0.607291 0.607291 0.607291
0.608013 0.608013 0.608013
0.608734 0.608734 0.608734
0.609455 0.609455 0.609455
0.610175 0.610175 0.610175
0.610895 0.610895 0.610895
0.611614 0.611614 0.611614
0.612333 0.612333 0.612333
0.613051 0.613051 0.613051
0.613769 0.613769 0.613769
0.614487 0.614487 0.614487
0.615203 0.615203 0.615203
0.615920 0.615920 0.615920
0.616636 0.616636 0.616636
0.617351 0.617351 0.617351
0.618066 0.618066 0.618066
0.618781 0.618781 0.618781
0.619495 0.619495 0.619495
0.620208 0.620208 0.620208
0.620922 0.620922 0.620922
0.621634 0.621634 0.621634
0.622346 0.622346 0.622346
0.623058 0.623058 0.623058
0.623770 0.623770 0.623770
0.624481 0.624481 0.624481
0.625191 0.625191 0.625191
0.625901 0.625901 0.625901
0.626611 0.626611 0.626611
0.627320 0.627320 0.627320
0.628029 0.628029 0.628029
0.628737 0.628737 0.628737
0.629445 0.629445 0.629445
0.630153 0.630153 0.630153
0.630860 0.630860 0.630860
0.631566 0.631566 0.631566
0.632273 0.632273 0.632273
0.632979 0.632979 0.632979
0.633684 0.633684 0.633684
0.634389 0.634389 0.634389
0.635094 0.635094 0.635094
0.635798 0.635798 0.635798
0.636502 0.636502 0.636502
0.637206 0.637206 0.637206
0.637909 0.637909 0.637909
0.638611 0.638611 0.638611
0.639314 0.639314 0.639314
0.640016 0.640016 0.640016
0.640717 0.640717 0.640717
0.641418 0.641418 0.641418
0.642119 0.642119 0.642119
0.642820 0.642820 0.642820
0.643520 0.643520 0.643520
0.644219 0.644219 0.644219
0.644919 0.644919 0.644919
0.645618 0.645618 0.645618
0.646316 0.646316 0.646316
0.647015 0.647015 0.647015
0.647712 0.647712 0.647712
0.648410 0.648410 0.648410
0.649107 0.649107 0.649107
0.649804 0.649804 0.649804
0.650500 0.650500 0.650500
0.651196 0.651196 0.651196
0.651892 0.651892 0.651892
0.652588 0.652588 0.652588
0.653283 0.653283 0.653283
0.653978 0.653978 0.653978
0.654672 0.654672 0.654672
0.655366 0.655366 0.655366
0.656060 0.656060 0.656060
0.656753 0.656753 0.656753
0.657446 0.657446 0.657446
0.658139 0.658139 0.658139
0.658831 0.658831 0.658831
0.659524 0.659524 0.659524
0.660215 0.660215 0.660215
0.660907 0.660907 0.660907
0.661598 0.661598 0.661598
0.662289 0.662289 0.662289
0.662979 0.662979 0.662979
0.663669 0.663669 0.663669
0.664359 0.664359 0.664359
0.665049 0.665049 0.665049
0.665738 0.665738 0.665738
0.666427 0.666427 0.666427
0.667116 0.667116 0.667116
0.667804 0.667804 0.667804
0.668492 0.668492 0.668492
0.669180 0.669180 0.669180
0.669868 0.669868 0.669868
0.670555 0.670555 0.670555
0.671242 0.671242 0.671242
0.671928 0.671928 0.671928
0.672614 0.672614 0.672614
0.673300 0.673300 0.673300
0.673986 0.673986 0.673986
0.674672 0.674672 0.674672
0.675357 0.675357 0.675357
0.676042 0.676042 0.676042
0.676726 0.676726 0.676726
0.677411 0.677411 0.677411
0.678095 0.678095 0.678095
0.678778 0.678778 0.678778
0.679462 0.679462 0.679462
0.680145 0.680145 0.680145
0.680828 0.680828 0.680828
0.681511 0.681511 0.681511
0.682193 0.682193 0.682193
0.682875 0.682875 0.682875
0.683557 0.683557 0.683557
0.684239 0.684239 0.684239
0.684920 0.684920 0.684920
0.685601 0.685601 0.685601
0.686282 0.686282 0.686282
0.686963 0.686963 0.686963
0.687643 0.687643 0.687643
0.688323 0.688323 0.688323
0.689003 0.689003 0.689003
0.689682 0.689682 0.689682
0.690362 0.690362 0.690362
0.691041 0.691041 0.691041
0.691720 0.691720 0.691720
0.692398 0.692398 0.692398
0.693077 0.693077 0.693077
0.693755 0.693755 0.693755
0.694432 0.694432 0.694432
0.695110 0.695110 0.695110
0.695787 0.695787 0.695787
0.696465 0.696465 0.696465
0.697142 0.697142 0.697142
0.697818 0.697818 0.697818
0.698495 0.698495 0.698495
0.699171 0.699171 0.699171
0.699847 0.699847 0.699847
0.700523 0.700523 0.700523
0.701198 0.701198 0.701198
0.701873 0.701873 0.701873
0.702548 0.702548 0.702548
0.703223 0.703223 0.703223
0.703898 0.703898 0.703898
0.704572 0.704572 0.704572
0.705246 0.705246 0.705246
0.705920 0.705920 0.705920
0.706594 0.706594 0.706594
0.707268 0.707268 0.707268
0.707941 0.707941 0.707941
0.708614 0.708614 0.708614
0.709287 0.709287 0.709287
0.709960 0.709960 0.709960
0.710632 0.710632 0.710632
0.711304 0.711304 0.711304
0.711976 0.711976 0.711976
0.712648 0.712648 0.712648
0.713320 0.713320 0.713320
0.713991 0.713991 0.713991
0.714662 0.714662 0.714662
0.715333 0.715333 0.715333
0.716004 0.716004 0.716004
0.716675 0.716675 0.716675
0.717345 0.717345 0.717345
0.718015 0.718015 0.718015
0.718685 0.718685 0.718685
0.719355 0.719355 0.719355
0.720025 0.720025 0.720025
0.720694 0.720694 0.720694
0.721364 0.721364 0.721364
0.722033 0.722033 0.722033
0.722701 0.722701 0.722701
0.723370 0.723370 0.723370
0.724039 0.724039 0.724039
0.724707 0.724707 0.724707
0.725375 0.725375 0.725375
0.726043 0.726043 0.726043
0.726711 0.726711 0.726711
0.727378 0.727378 0.727378
0.728046 0.728046 0.728046
0.728713 0.728713 0.728713
0.729380 0.729380 0.729380
0.730047 0.730047 0.730047
0.730713 0.730713 0.730713
0.731380 0.731380 0.731380
0.732046 0.732046 0.732046
0.732712 0.732712 0.732712
0.733378 0.733378 0.733378
0.734044 0.734044 0.734044
0.734709 0.734709 0.734709
0.735375 0.735375 0.735375
0.736040 0.736040 0.736040
0.736705 0.736705 0.736705
0.737370 0.737370 0.737370
0.738035 0.738035 0.738035
0.738699 0.738699 0.738699
0.739364 0.739364 0.739364
0.740028 0.740028 0.740028
0.740692 0.740692 0.740692
0.741356 0.741356 0.741356
0.742020 0.742020 0.742020
0.742684 0.742684 0.742684
0.743347 0.743347 0.743347
0.744010 0.744010 0.744010
0.744673 0.744673 0.744673
0.745336 0.745336 0.745336
0.745999 0.745999 0.745999
0.746662 0.746662 0.746662
0.747324 0.747324 0.747324
0.747987 0.747987 0.747987
0.748649 0.748649 0.748649
0.749311 0.749311 0.749311
0.749973 0.749973 0.749973
0.750634 0.750634 0.750634
0.751296 0.751296 0.751296
0.751957 0.751957 0.751957
0.752619 0.752619 0.752619
0.753280 0.753280 0.753280
0.753941 0.753941 0.753941
0.754602 0.754602 0.754602
0.755262 0.755262 0.755262
0.755923 0.755923 0.755923
0.756583 0.756583 0.756583
0.757244 0.757244 0.757244
0.757904 0.757904 0.757904
0.758564 0.758564 0.758564
0.759223 0.759223 0.759223
0.759883 0.759883 0.759883
0.760543 0.760543 0.760543
0.761202 0.761202 0.761202
0.761861 0.761861 0.761861
0.762521 0.762521 0.762521
0.763180 0.763180 0.763180
0.763838 0.763838 0.763838
0.764497 0.764497 0.764497
0.765156 0.765156 0.765156
0.765814 0.765814 0.765814
0.766473 0.766473 0.766473
0.767131 0.767131 0.767131
0.767789 0.767789 0.767789
0.768447 0.768447 0.768447
0.769105 0.769105 0.769105
0.769762 0.769762 0.769762
0.770420 0.770420 0.770420
0.771077 0.771077 0.771077
0.771734 0.771734 0.771734
0.772392 0.772392 0.772392
0.773049 0.773049 0.773049
0.773706 0.773706 0.773706
0.774362 0.774362 0.774362
0.775019 0.775019 0.775019
0.775676 0.775676 0.775676
0.776332 0.776332 0.776332
0.776988 0.776988 0.776988
0.777644 0.777644 0.777644
0.778301 0.778301 0.778301
0.778956 0.778956 0.778956
0.779612 0.779612 0.779612
0.780268 0.780268 0.780268
0.780924 0.780924 0.780924
0.781579 0.781579 0.781579
0.782234 0.782234 0.782234
0.782890 0.782890 0.782890
0.783545 0.783545 0.783545
0.784200 0.784200 0.784200
0.784855 0.784855 0.784855
0.785509 0.785509 0.785509
0.786164 0.786164 0.786164
0.786819 0.786819 0.786819
0.787473 0.787473 0.787473
0.788127 0.788127 0.788127
0.788781 0.788781 0.788781
0.789436 0.789436 0.789436
0.790090 0.790090 0.790090
0.790743 0.790743 0.790743
0.791397 0.791397 0.791397
0.792051 0.792051 0.792051
0.792704 0.792704 0.792704
0.793358 0.793358 0.793358
0.794011 0.794011 0.794011
0.794664 0.794664 0.794664
0.795318 0.795318 0.795318
0.795971 0.795971 0.795971
0.796623 0.796623 0.796623
0.797276 0.797276 0.797276
0.797929 0.797929 0.797929
0.798582 0.798582 0.798582
0.799234 0.799234 0.799234
0.799887 0.799887 0.799887
0.800539 0.800539 0.800539
0.801191 0.801191 0.801191
0.801843 0.801843 0.801843
0.802495 0.802495 0.802495
0.803147 0.803147 0.803147
0.803799 0.803799 0.803799
0.804451 0.804451 0.804451
0.805102 0.805102 0.805102
0.805754 0.805754 0.805754
0.806405 0.806405 0.806405
0.807056 0.807056 0.807056
0.807708 0.807708 0.807708
0.808359 0.808359 0.808359
0.809010 0.809010 0.809010
0.809661 0.809661 0.809661
0.810312 0.810312 0.810312
0.810962 0.810962 0.810962
0.811613 0.811613 0.811613
0.812264 0.812264 0.812264
0.812914 0.812914 0.812914
0.813565 0.813565 0.813565
0.814215 0.814215 0.814215
0.814865 0.814865 0.814865
0.815515 0.815515 0.815515
0.816165 0.816165 0.816165
0.816815 0.816815 0.816815
0.817465 0.817465 0.817465
0.818115 0.818115 0.818115
0.818765 0.818765 0.818765
0.819414 0.819414 0.819414
0.820064 0.820064 0.820064
0.820713 0.820713 0.820713
0.821362 0.821362 0.821362
0.822012 0.822012 0.822012
0.822661 0.822661 0.822661
0.823310 0.823310 0.823310
0.823959 0.823959 0.823959
0.824608 0.824608 0.824608
0.825257 0.825257 0.825257
0.825905 0.825905 0.825905
0.826554 0.826554 0.826554
0.827203 0.827203 0.827203
0.827851 0.827851 0.827851
0.828500 0.828500 0.828500
0.829148 0.829148 0.829148
0.829796 0.829796 0.829796
0.830445 0.830445 0.830445
0.831093 0.831093 0.831093
0.831741 0.831741 0.831741
0.832389 0.832389 0.832389
0.833037 0.833037 0.833037
0.833684 0.833684 0.833684
0.834332 0.834332 0.834332
0.834980 0.834980 0.834980
0.835627 0.835627 0.835627
0.836275 0.836275 0.836275
0.836922 0.836922 0.836922
0.837570 0.837570 0.837570
0.838217 0.838217 0.838217
0.838864 0.838864 0.838864
0.839511 0.839511 0.839511
0.840158 0.840158 0.840158
0.840805 0.840805 0.840805
0.841452 0.841452 0.841452
0.842099 0.842099 0.842099
0.842746 0.842746 0.842746
0.843392 0.843392 0.843392
0.844039 0.844039 0.844039
0.844686 0.844686 0.844686
0.845332 0.845332 0.845332
0.845978 0.845978 0.845978
0.846625 0.846625 0.846625
0.847271 0.847271 0.847271
