Luts Download/Canon Luts/1dlut/canonlog-to-gamma-1dlut/full-to-full-range/CanonLog_10-to-DCI_FF_Ver.2.0.cube
# Gamma : Canon Log to DCI
# Range : Full in / Full out
# Version : 2.0 2016/10/27
# Copyright(c) 2016 Canon Inc. All Rights Reserved.

LUT_1D_SIZE 1024
0.000000 0.000000 0.000000
0.000000 0.000000 0.000000
0.000000 0.000000 0.000000
0.000000 0.000000 0.000000
0.000000 0.000000 0.000000
0.000000 0.000000 0.000000
0.000000 0.000000 0.000000
0.000000 0.000000 0.000000
0.000000 0.000000 0.000000
0.000000 0.000000 0.000000
0.000000 0.000000 0.000000
0.000000 0.000000 0.000000
0.000000 0.000000 0.000000
0.000000 0.000000 0.000000
0.000000 0.000000 0.000000
0.000000 0.000000 0.000000
0.000000 0.000000 0.000000
0.000000 0.000000 0.000000
0.000000 0.000000 0.000000
0.000000 0.000000 0.000000
0.000000 0.000000 0.000000
0.000000 0.000000 0.000000
0.000000 0.000000 0.000000
0.000000 0.000000 0.000000
0.000000 0.000000 0.000000
0.000000 0.000000 0.000000
0.000000 0.000000 0.000000
0.000000 0.000000 0.000000
0.000000 0.000000 0.000000
0.000000 0.000000 0.000000
0.000000 0.000000 0.000000
0.000000 0.000000 0.000000
0.000000 0.000000 0.000000
0.000000 0.000000 0.000000
0.000000 0.000000 0.000000
0.000000 0.000000 0.000000
0.000000 0.000000 0.000000
0.000000 0.000000 0.000000
0.000000 0.000000 0.000000
0.000000 0.000000 0.000000
0.000000 0.000000 0.000000
0.000000 0.000000 0.000000
0.000000 0.000000 0.000000
0.000000 0.000000 0.000000
0.000000 0.000000 0.000000
0.000000 0.000000 0.000000
0.000000 0.000000 0.000000
0.000000 0.000000 0.000000
0.000000 0.000000 0.000000
0.000000 0.000000 0.000000
0.000000 0.000000 0.000000
0.000000 0.000000 0.000000
0.000000 0.000000 0.000000
0.000000 0.000000 0.000000
0.000000 0.000000 0.000000
0.000000 0.000000 0.000000
0.000000 0.000000 0.000000
0.000000 0.000000 0.000000
0.000000 0.000000 0.000000
0.000000 0.000000 0.000000
0.000000 0.000000 0.000000
0.000000 0.000000 0.000000
0.000000 0.000000 0.000000
0.000000 0.000000 0.000000
0.000000 0.000000 0.000000
0.000000 0.000000 0.000000
0.000000 0.000000 0.000000
0.000000 0.000000 0.000000
0.000000 0.000000 0.000000
0.000000 0.000000 0.000000
0.000000 0.000000 0.000000
0.000000 0.000000 0.000000
0.000000 0.000000 0.000000
0.000000 0.000000 0.000000
0.000000 0.000000 0.000000
0.000000 0.000000 0.000000
0.000000 0.000000 0.000000
0.000000 0.000000 0.000000
0.000000 0.000000 0.000000
0.000000 0.000000 0.000000
0.000000 0.000000 0.000000
0.000000 0.000000 0.000000
0.000000 0.000000 0.000000
0.000000 0.000000 0.000000
0.000000 0.000000 0.000000
0.000000 0.000000 0.000000
0.000000 0.000000 0.000000
0.000000 0.000000 0.000000
0.000000 0.000000 0.000000
0.000000 0.000000 0.000000
0.000000 0.000000 0.000000
0.000000 0.000000 0.000000
0.000000 0.000000 0.000000
0.000000 0.000000 0.000000
0.000000 0.000000 0.000000
0.000000 0.000000 0.000000
0.000000 0.000000 0.000000
0.000000 0.000000 0.000000
0.000000 0.000000 0.000000
0.000000 0.000000 0.000000
0.000000 0.000000 0.000000
0.000000 0.000000 0.000000
0.000000 0.000000 0.000000
0.000000 0.000000 0.000000
0.000000 0.000000 0.000000
0.000000 0.000000 0.000000
0.000000 0.000000 0.000000
0.000000 0.000000 0.000000
0.000000 0.000000 0.000000
0.000000 0.000000 0.000000
0.000000 0.000000 0.000000
0.000000 0.000000 0.000000
0.000000 0.000000 0.000000
0.000000 0.000000 0.000000
0.000000 0.000000 0.000000
0.000000 0.000000 0.000000
0.000000 0.000000 0.000000
0.000000 0.000000 0.000000
0.000000 0.000000 0.000000
0.000000 0.000000 0.000000
0.000000 0.000000 0.000000
0.000000 0.000000 0.000000
0.000000 0.000000 0.000000
0.000000 0.000000 0.000000
0.000000 0.000000 0.000000
0.000000 0.000000 0.000000
0.000000 0.000000 0.000000
0.000000 0.000000 0.000000
0.000000 0.000000 0.000000
0.002300 0.002300 0.002300
0.004612 0.004612 0.004612
0.006935 0.006935 0.006935
0.009270 0.009270 0.009270
0.011617 0.011617 0.011617
0.013975 0.013975 0.013975
0.016345 0.016345 0.016345
0.018727 0.018727 0.018727
0.021121 0.021121 0.021121
0.023527 0.023527 0.023527
0.025944 0.025944 0.025944
0.028374 0.028374 0.028374
0.030816 0.030816 0.030816
0.033270 0.033270 0.033270
0.035736 0.035736 0.035736
0.038215 0.038215 0.038215
0.040705 0.040705 0.040705
0.043209 0.043209 0.043209
0.045724 0.045724 0.045724
0.048252 0.048252 0.048252
0.050793 0.050793 0.050793
0.053347 0.053347 0.053347
0.055913 0.055913 0.055913
0.058492 0.058492 0.058492
0.061084 0.061084 0.061084
0.063688 0.063688 0.063688
0.066306 0.066306 0.066306
0.068937 0.068937 0.068937
0.071580 0.071580 0.071580
0.074237 0.074237 0.074237
0.076908 0.076908 0.076908
0.079591 0.079591 0.079591
0.082288 0.082288 0.082288
0.084998 0.084998 0.084998
0.087722 0.087722 0.087722
0.090459 0.090459 0.090459
0.093210 0.093210 0.093210
0.095975 0.095975 0.095975
0.098754 0.098754 0.098754
0.101546 0.101546 0.101546
0.104348 0.104348 0.104348
0.107127 0.107127 0.107127
0.109875 0.109875 0.109875
0.112593 0.112593 0.112593
0.115282 0.115282 0.115282
0.117944 0.117944 0.117944
0.120579 0.120579 0.120579
0.123189 0.123189 0.123189
0.125774 0.125774 0.125774
0.128335 0.128335 0.128335
0.130874 0.130874 0.130874
0.133391 0.133391 0.133391
0.135887 0.135887 0.135887
0.138362 0.138362 0.138362
0.140817 0.140817 0.140817
0.143253 0.143253 0.143253
0.145671 0.145671 0.145671
0.148071 0.148071 0.148071
0.150453 0.150453 0.150453
0.152819 0.152819 0.152819
0.155168 0.155168 0.155168
0.157502 0.157502 0.157502
0.159820 0.159820 0.159820
0.162124 0.162124 0.162124
0.164413 0.164413 0.164413
0.166689 0.166689 0.166689
0.168950 0.168950 0.168950
0.171199 0.171199 0.171199
0.173435 0.173435 0.173435
0.175658 0.175658 0.175658
0.177870 0.177870 0.177870
0.180069 0.180069 0.180069
0.182257 0.182257 0.182257
0.184434 0.184434 0.184434
0.186601 0.186601 0.186601
0.188757 0.188757 0.188757
0.190902 0.190902 0.190902
0.193038 0.193038 0.193038
0.195164 0.195164 0.195164
0.197280 0.197280 0.197280
0.199388 0.199388 0.199388
0.201486 0.201486 0.201486
0.203576 0.203576 0.203576
0.205657 0.205657 0.205657
0.207730 0.207730 0.207730
0.209794 0.209794 0.209794
0.211851 0.211851 0.211851
0.213900 0.213900 0.213900
0.215942 0.215942 0.215942
0.217976 0.217976 0.217976
0.220004 0.220004 0.220004
0.222024 0.222024 0.222024
0.224037 0.224037 0.224037
0.226044 0.226044 0.226044
0.228045 0.228045 0.228045
0.230039 0.230039 0.230039
0.232027 0.232027 0.232027
0.234009 0.234009 0.234009
0.235985 0.235985 0.235985
0.237955 0.237955 0.237955
0.239920 0.239920 0.239920
0.241879 0.241879 0.241879
0.243833 0.243833 0.243833
0.245782 0.245782 0.245782
0.247725 0.247725 0.247725
0.249664 0.249664 0.249664
0.251598 0.251598 0.251598
0.253527 0.253527 0.253527
0.255452 0.255452 0.255452
0.257372 0.257372 0.257372
0.259287 0.259287 0.259287
0.261199 0.261199 0.261199
0.263106 0.263106 0.263106
0.265009 0.265009 0.265009
0.266908 0.266908 0.266908
0.268803 0.268803 0.268803
0.270694 0.270694 0.270694
0.272582 0.272582 0.272582
0.274466 0.274466 0.274466
0.276346 0.276346 0.276346
0.278223 0.278223 0.278223
0.280097 0.280097 0.280097
0.281967 0.281967 0.281967
0.283834 0.283834 0.283834
0.285698 0.285698 0.285698
0.287559 0.287559 0.287559
0.289417 0.289417 0.289417
0.291272 0.291272 0.291272
0.293124 0.293124 0.293124
0.294974 0.294974 0.294974
0.296821 0.296821 0.296821
0.298665 0.298665 0.298665
0.300506 0.300506 0.300506
0.302345 0.302345 0.302345
0.304182 0.304182 0.304182
0.306016 0.306016 0.306016
0.307848 0.307848 0.307848
0.309678 0.309678 0.309678
0.311505 0.311505 0.311505
0.313331 0.313331 0.313331
0.315154 0.315154 0.315154
0.316975 0.316975 0.316975
0.318795 0.318795 0.318795
0.320612 0.320612 0.320612
0.322428 0.322428 0.322428
0.324242 0.324242 0.324242
0.326054 0.326054 0.326054
0.327864 0.327864 0.327864
0.329673 0.329673 0.329673
0.331480 0.331480 0.331480
0.333286 0.333286 0.333286
0.335090 0.335090 0.335090
0.336893 0.336893 0.336893
0.338694 0.338694 0.338694
0.340494 0.340494 0.340494
0.342293 0.342293 0.342293
0.344090 0.344090 0.344090
0.345886 0.345886 0.345886
0.347681 0.347681 0.347681
0.349475 0.349475 0.349475
0.351268 0.351268 0.351268
0.353060 0.353060 0.353060
0.354851 0.354851 0.354851
0.356640 0.356640 0.356640
0.358429 0.358429 0.358429
0.360217 0.360217 0.360217
0.362004 0.362004 0.362004
0.363791 0.363791 0.363791
0.365576 0.365576 0.365576
0.367361 0.367361 0.367361
0.369145 0.369145 0.369145
0.370928 0.370928 0.370928
0.372711 0.372711 0.372711
0.374493 0.374493 0.374493
0.376275 0.376275 0.376275
0.378056 0.378056 0.378056
0.379837 0.379837 0.379837
0.381617 0.381617 0.381617
0.383397 0.383397 0.383397
0.385176 0.385176 0.385176
0.386955 0.386955 0.386955
0.388734 0.388734 0.388734
0.390512 0.390512 0.390512
0.392290 0.392290 0.392290
0.394068 0.394068 0.394068
0.395845 0.395845 0.395845
0.397623 0.397623 0.397623
0.399400 0.399400 0.399400
0.401177 0.401177 0.401177
0.402954 0.402954 0.402954
0.404731 0.404731 0.404731
0.406508 0.406508 0.406508
0.408285 0.408285 0.408285
0.410062 0.410062 0.410062
0.411839 0.411839 0.411839
0.413616 0.413616 0.413616
0.415393 0.415393 0.415393
0.417171 0.417171 0.417171
0.418948 0.418948 0.418948
0.420726 0.420726 0.420726
0.422504 0.422504 0.422504
0.424282 0.424282 0.424282
0.426060 0.426060 0.426060
0.427839 0.427839 0.427839
0.429617 0.429617 0.429617
0.431397 0.431397 0.431397
0.433176 0.433176 0.433176
0.434956 0.434956 0.434956
0.436736 0.436736 0.436736
0.438517 0.438517 0.438517
0.440298 0.440298 0.440298
0.442080 0.442080 0.442080
0.443862 0.443862 0.443862
0.445645 0.445645 0.445645
0.447428 0.447428 0.447428
0.449212 0.449212 0.449212
0.450996 0.450996 0.450996
0.452781 0.452781 0.452781
0.454566 0.454566 0.454566
0.456352 0.456352 0.456352
0.458139 0.458139 0.458139
0.459927 0.459927 0.459927
0.461715 0.461715 0.461715
0.463504 0.463504 0.463504
0.465293 0.465293 0.465293
0.467084 0.467084 0.467084
0.468875 0.468875 0.468875
0.470667 0.470667 0.470667
0.472460 0.472460 0.472460
0.474253 0.474253 0.474253
0.476048 0.476048 0.476048
0.477843 0.477843 0.477843
0.479640 0.479640 0.479640
0.481437 0.481437 0.481437
0.483235 0.483235 0.483235
0.485034 0.485034 0.485034
0.486834 0.486834 0.486834
0.488635 0.488635 0.488635
0.490437 0.490437 0.490437
0.492240 0.492240 0.492240
0.494044 0.494044 0.494044
0.495850 0.495850 0.495850
0.497656 0.497656 0.497656
0.499463 0.499463 0.499463
0.501269 0.501269 0.501269
0.503068 0.503068 0.503068
0.504859 0.504859 0.504859
0.506643 0.506643 0.506643
0.508418 0.508418 0.508418
0.510186 0.510186 0.510186
0.511947 0.511947 0.511947
0.513700 0.513700 0.513700
0.515446 0.515446 0.515446
0.517184 0.517184 0.517184
0.518915 0.518915 0.518915
0.520639 0.520639 0.520639
0.522356 0.522356 0.522356
0.524066 0.524066 0.524066
0.525768 0.525768 0.525768
0.527464 0.527464 0.527464
0.529152 0.529152 0.529152
0.530834 0.530834 0.530834
0.532509 0.532509 0.532509
0.534177 0.534177 0.534177
0.535839 0.535839 0.535839
0.537493 0.537493 0.537493
0.539141 0.539141 0.539141
0.540783 0.540783 0.540783
0.542418 0.542418 0.542418
0.544046 0.544046 0.544046
0.545668 0.545668 0.545668
0.547284 0.547284 0.547284
0.548893 0.548893 0.548893
0.550497 0.550497 0.550497
0.552093 0.552093 0.552093
0.553684 0.553684 0.553684
0.555268 0.555268 0.555268
0.556847 0.556847 0.556847
0.558419 0.558419 0.558419
0.559985 0.559985 0.559985
0.561545 0.561545 0.561545
0.563099 0.563099 0.563099
0.564648 0.564648 0.564648
0.566190 0.566190 0.566190
0.567727 0.567727 0.567727
0.569258 0.569258 0.569258
0.570783 0.570783 0.570783
0.572303 0.572303 0.572303
0.573816 0.573816 0.573816
0.575325 0.575325 0.575325
0.576827 0.576827 0.576827
0.578324 0.578324 0.578324
0.579816 0.579816 0.579816
0.581302 0.581302 0.581302
0.582782 0.582782 0.582782
0.584258 0.584258 0.584258
0.585727 0.585727 0.585727
0.587192 0.587192 0.587192
0.588651 0.588651 0.588651
0.590105 0.590105 0.590105
0.591554 0.591554 0.591554
0.592997 0.592997 0.592997
0.594436 0.594436 0.594436
0.595869 0.595869 0.595869
0.597297 0.597297 0.597297
0.598720 0.598720 0.598720
0.600139 0.600139 0.600139
0.601552 0.601552 0.601552
0.602960 0.602960 0.602960
0.604363 0.604363 0.604363
0.605761 0.605761 0.605761
0.607155 0.607155 0.607155
0.608543 0.608543 0.608543
0.609927 0.609927 0.609927
0.611306 0.611306 0.611306
0.612680 0.612680 0.612680
0.614050 0.614050 0.614050
0.615414 0.615414 0.615414
0.616774 0.616774 0.616774
0.618130 0.618130 0.618130
0.619481 0.619481 0.619481
0.620827 0.620827 0.620827
0.622169 0.622169 0.622169
0.623506 0.623506 0.623506
0.624839 0.624839 0.624839
0.626167 0.626167 0.626167
0.627491 0.627491 0.627491
0.628810 0.628810 0.628810
0.630125 0.630125 0.630125
0.631435 0.631435 0.631435
0.632742 0.632742 0.632742
0.634043 0.634043 0.634043
0.635341 0.635341 0.635341
0.636634 0.636634 0.636634
0.637923 0.637923 0.637923
0.639208 0.639208 0.639208
0.640489 0.640489 0.640489
0.641765 0.641765 0.641765
0.643037 0.643037 0.643037
0.644305 0.644305 0.644305
0.645569 0.645569 0.645569
0.646829 0.646829 0.646829
0.648085 0.648085 0.648085
0.649337 0.649337 0.649337
0.650585 0.650585 0.650585
0.651828 0.651828 0.651828
0.653068 0.653068 0.653068
0.654304 0.654304 0.654304
0.655536 0.655536 0.655536
0.656764 0.656764 0.656764
0.657988 0.657988 0.657988
0.659208 0.659208 0.659208
0.660424 0.660424 0.660424
0.661637 0.661637 0.661637
0.662846 0.662846 0.662846
0.664050 0.664050 0.664050
0.665252 0.665252 0.665252
0.666449 0.666449 0.666449
0.667643 0.667643 0.667643
0.668832 0.668832 0.668832
0.670019 0.670019 0.670019
0.671201 0.671201 0.671201
0.672380 0.672380 0.672380
0.673555 0.673555 0.673555
0.674727 0.674727 0.674727
0.675895 0.675895 0.675895
0.677059 0.677059 0.677059
0.678220 0.678220 0.678220
0.679377 0.679377 0.679377
0.680531 0.680531 0.680531
0.681681 0.681681 0.681681
0.682828 0.682828 0.682828
0.683971 0.683971 0.683971
0.685111 0.685111 0.685111
0.686247 0.686247 0.686247
0.687380 0.687380 0.687380
0.688509 0.688509 0.688509
0.689635 0.689635 0.689635
0.690758 0.690758 0.690758
0.691877 0.691877 0.691877
0.692993 0.692993 0.692993
0.694106 0.694106 0.694106
0.695215 0.695215 0.695215
0.696321 0.696321 0.696321
0.697424 0.697424 0.697424
0.698523 0.698523 0.698523
0.699619 0.699619 0.699619
0.700712 0.700712 0.700712
0.701802 0.701802 0.701802
0.702888 0.702888 0.702888
0.703971 0.703971 0.703971
0.705051 0.705051 0.705051
0.706128 0.706128 0.706128
0.707202 0.707202 0.707202
0.708273 0.708273 0.708273
0.709340 0.709340 0.709340
0.710404 0.710404 0.710404
0.711466 0.711466 0.711466
0.712524 0.712524 0.712524
0.713579 0.713579 0.713579
0.714631 0.714631 0.714631
0.715680 0.715680 0.715680
0.716726 0.716726 0.716726
0.717769 0.717769 0.717769
0.718808 0.718808 0.718808
0.719845 0.719845 0.719845
0.720879 0.720879 0.720879
0.721910 0.721910 0.721910
0.722938 0.722938 0.722938
0.723963 0.723963 0.723963
0.724985 0.724985 0.724985
0.726004 0.726004 0.726004
0.727021 0.727021 0.727021
0.728034 0.728034 0.728034
0.729045 0.729045 0.729045
0.730052 0.730052 0.730052
0.731057 0.731057 0.731057
0.732059 0.732059 0.732059
0.733058 0.733058 0.733058
0.734054 0.734054 0.734054
0.735048 0.735048 0.735048
0.736038 0.736038 0.736038
0.737026 0.737026 0.737026
0.738011 0.738011 0.738011
0.738994 0.738994 0.738994
0.739973 0.739973 0.739973
0.740950 0.740950 0.740950
0.741924 0.741924 0.741924
0.742895 0.742895 0.742895
0.743864 0.743864 0.743864
0.744830 0.744830 0.744830
0.745793 0.745793 0.745793
0.746754 0.746754 0.746754
0.747712 0.747712 0.747712
0.748667 0.748667 0.748667
0.749619 0.749619 0.749619
0.750569 0.750569 0.750569
0.751517 0.751517 0.751517
0.752461 0.752461 0.752461
0.753404 0.753404 0.753404
0.754343 0.754343 0.754343
0.755280 0.755280 0.755280
0.756214 0.756214 0.756214
0.757146 0.757146 0.757146
0.758075 0.758075 0.758075
0.759002 0.759002 0.759002
0.759926 0.759926 0.759926
0.760848 0.760848 0.760848
0.761767 0.761767 0.761767
0.762683 0.762683 0.762683
0.763597 0.763597 0.763597
0.764509 0.764509 0.764509
0.765418 0.765418 0.765418
0.766325 0.766325 0.766325
0.767229 0.767229 0.767229
0.768130 0.768130 0.768130
0.769030 0.769030 0.769030
0.769926 0.769926 0.769926
0.770821 0.770821 0.770821
0.771713 0.771713 0.771713
0.772602 0.772602 0.772602
0.773489 0.773489 0.773489
0.774374 0.774374 0.774374
0.775256 0.775256 0.775256
0.776136 0.776136 0.776136
0.777014 0.777014 0.777014
0.777889 0.777889 0.777889
0.778762 0.778762 0.778762
0.779633 0.779633 0.779633
0.780501 0.780501 0.780501
0.781367 0.781367 0.781367
0.782230 0.782230 0.782230
0.783092 0.783092 0.783092
0.783950 0.783950 0.783950
0.784807 0.784807 0.784807
0.785661 0.785661 0.785661
0.786514 0.786514 0.786514
0.787363 0.787363 0.787363
0.788211 0.788211 0.788211
0.789056 0.789056 0.789056
0.789899 0.789899 0.789899
0.790740 0.790740 0.790740
0.791578 0.791578 0.791578
0.792415 0.792415 0.792415
0.793249 0.793249 0.793249
0.794081 0.794081 0.794081
0.794910 0.794910 0.794910
0.795738 0.795738 0.795738
0.796563 0.796563 0.796563
0.797386 0.797386 0.797386
0.798207 0.798207 0.798207
0.799026 0.799026 0.799026
0.799843 0.799843 0.799843
0.800657 0.800657 0.800657
0.801469 0.801469 0.801469
0.802279 0.802279 0.802279
0.803087 0.803087 0.803087
0.803893 0.803893 0.803893
0.804697 0.804697 0.804697
0.805499 0.805499 0.805499
0.806298 0.806298 0.806298
0.807096 0.807096 0.807096
0.807891 0.807891 0.807891
0.808684 0.808684 0.808684
0.809475 0.809475 0.809475
0.810265 0.810265 0.810265
0.811052 0.811052 0.811052
0.811837 0.811837 0.811837
0.812619 0.812619 0.812619
0.813400 0.813400 0.813400
0.814179 0.814179 0.814179
0.814956 0.814956 0.814956
0.815731 0.815731 0.815731
0.816503 0.816503 0.816503
0.817274 0.817274 0.817274
0.818043 0.818043 0.818043
0.818810 0.818810 0.818810
0.819574 0.819574 0.819574
0.820337 0.820337 0.820337
0.821098 0.821098 0.821098
0.821856 0.821856 0.821856
0.822613 0.822613 0.822613
0.823368 0.823368 0.823368
0.824121 0.824121 0.824121
0.824872 0.824872 0.824872
0.825621 0.825621 0.825621
0.826368 0.826368 0.826368
0.827113 0.827113 0.827113
0.827856 0.827856 0.827856
0.828597 0.828597 0.828597
0.829336 0.829336 0.829336
0.830073 0.830073 0.830073
0.830809 0.830809 0.830809
0.831542 0.831542 0.831542
0.832274 0.832274 0.832274
0.833004 0.833004 0.833004
0.833731 0.833731 0.833731
0.834457 0.834457 0.834457
0.835181 0.835181 0.835181
0.835904 0.835904 0.835904
0.836624 0.836624 0.836624
0.837342 0.837342 0.837342
0.838059 0.838059 0.838059
0.838774 0.838774 0.838774
0.839487 0.839487 0.839487
0.840198 0.840198 0.840198
0.840907 0.840907 0.840907
0.841614 0.841614 0.841614
0.842320 0.842320 0.842320
0.843024 0.843024 0.843024
0.843725 0.843725 0.843725
0.844426 0.844426 0.844426
0.845124 0.845124 0.845124
0.845820 0.845820 0.845820
0.846515 0.846515 0.846515
0.847208 0.847208 0.847208
0.847899 0.847899 0.847899
0.848588 0.848588 0.848588
0.849276 0.849276 0.849276
0.849962 0.849962 0.849962
0.850646 0.850646 0.850646
0.851328 0.851328 0.851328
0.852009 0.852009 0.852009
0.852687 0.852687 0.852687
0.853364 0.853364 0.853364
0.854040 0.854040 0.854040
0.854713 0.854713 0.854713
0.855385 0.855385 0.855385
0.856055 0.856055 0.856055
0.856723 0.856723 0.856723
0.857390 0.857390 0.857390
0.858055 0.858055 0.858055
0.858718 0.858718 0.858718
0.859379 0.859379 0.859379
0.860039 0.860039 0.860039
0.860697 0.860697 0.860697
0.861354 0.861354 0.861354
0.862008 0.862008 0.862008
0.862661 0.862661 0.862661
0.863313 0.863313 0.863313
0.863962 0.863962 0.863962
0.864610 0.864610 0.864610
0.865256 0.865256 0.865256
0.865901 0.865901 0.865901
0.866544 0.866544 0.866544
0.867185 0.867185 0.867185
0.867825 0.867825 0.867825
0.868463 0.868463 0.868463
0.869099 0.869099 0.869099
0.869734 0.869734 0.869734
0.870367 0.870367 0.870367
0.870999 0.870999 0.870999
0.871629 0.871629 0.871629
0.872257 0.872257 0.872257
0.872883 0.872883 0.872883
0.873508 0.873508 0.873508
0.874132 0.874132 0.874132
0.874754 0.874754 0.874754
0.875374 0.875374 0.875374
0.875992 0.875992 0.875992
0.876609 0.876609 0.876609
0.877225 0.877225 0.877225
0.877839 0.877839 0.877839
0.878451 0.878451 0.878451
0.879062 0.879062 0.879062
0.879671 0.879671 0.879671
0.880278 0.880278 0.880278
0.880884 0.880884 0.880884
0.881489 0.881489 0.881489
0.882091 0.882091 0.882091
0.882693 0.882693 0.882693
0.883292 0.883292 0.883292
0.883891 0.883891 0.883891
0.884487 0.884487 0.884487
0.885082 0.885082 0.885082
0.885676 0.885676 0.885676
0.886268 0.886268 0.886268
0.886858 0.886858 0.886858
0.887447 0.887447 0.887447
0.888035 0.888035 0.888035
0.888621 0.888621 0.888621
0.889205 0.889205 0.889205
0.889788 0.889788 0.889788
0.890369 0.890369 0.890369
0.890949 0.890949 0.890949
0.891528 0.891528 0.891528
0.892105 0.892105 0.892105
0.892680 0.892680 0.892680
0.893254 0.893254 0.893254
0.893826 0.893826 0.893826
0.894397 0.894397 0.894397
0.894967 0.894967 0.894967
0.895535 0.895535 0.895535
0.896101 0.896101 0.896101
0.896666 0.896666 0.896666
0.897230 0.897230 0.897230
0.897792 0.897792 0.897792
0.898353 0.898353 0.898353
0.898912 0.898912 0.898912
0.899470 0.899470 0.899470
0.900026 0.900026 0.900026
0.900581 0.900581 0.900581
0.901134 0.901134 0.901134
0.901686 0.901686 0.901686
0.902237 0.902237 0.902237
0.902786 0.902786 0.902786
0.903334 0.903334 0.903334
0.903880 0.903880 0.903880
0.904425 0.904425 0.904425
0.904968 0.904968 0.904968
0.905510 0.905510 0.905510
0.906051 0.906051 0.906051
0.906590 0.906590 0.906590
0.907128 0.907128 0.907128
0.907664 0.907664 0.907664
0.908199 0.908199 0.908199
0.908733 0.908733 0.908733
0.909265 0.909265 0.909265
0.909796 0.909796 0.909796
0.910326 0.910326 0.910326
0.910854 0.910854 0.910854
0.911380 0.911380 0.911380
0.911906 0.911906 0.911906
0.912429 0.912429 0.912429
0.912952 0.912952 0.912952
0.913473 0.913473 0.913473
0.913993 0.913993 0.913993
0.914511 0.914511 0.914511
0.915028 0.915028 0.915028
0.915544 0.915544 0.915544
0.916059 0.916059 0.916059
0.916572 0.916572 0.916572
0.917083 0.917083 0.917083
0.917594 0.917594 0.917594
0.918103 0.918103 0.918103
0.918610 0.918610 0.918610
0.919117 0.919117 0.919117
0.919622 0.919622 0.919622
0.920125 0.920125 0.920125
0.920628 0.920628 0.920628
0.921129 0.921129 0.921129
0.921628 0.921628 0.921628
0.922127 0.922127 0.922127
0.922624 0.922624 0.922624
0.923119 0.923119 0.923119
0.923614 0.923614 0.923614
0.924107 0.924107 0.924107
0.924599 0.924599 0.924599
0.925089 0.925089 0.925089
0.925579 0.925579 0.925579
0.926066 0.926066 0.926066
0.926553 0.926553 0.926553
0.927038 0.927038 0.927038
0.927523 0.927523 0.927523
0.928005 0.928005 0.928005
0.928487 0.928487 0.928487
0.928967 0.928967 0.928967
0.929446 0.929446 0.929446
0.929924 0.929924 0.929924
0.930400 0.930400 0.930400
0.930875 0.930875 0.930875
0.931349 0.931349 0.931349
0.931822 0.931822 0.931822
0.932293 0.932293 0.932293
0.932763 0.932763 0.932763
0.933232 0.933232 0.933232
0.933699 0.933699 0.933699
0.934166 0.934166 0.934166
0.934631 0.934631 0.934631
0.935095 0.935095 0.935095
0.935557 0.935557 0.935557
0.936018 0.936018 0.936018
0.936479 0.936479 0.936479
0.936937 0.936937 0.936937
0.937395 0.937395 0.937395
0.937852 0.937852 0.937852
0.938307 0.938307 0.938307
0.938761 0.938761 0.938761
0.939213 0.939213 0.939213
0.939665 0.939665 0.939665
0.940115 0.940115 0.940115
0.940564 0.940564 0.940564
0.941012 0.941012 0.941012
0.941459 0.941459 0.941459
0.941904 0.941904 0.941904
0.942349 0.942349 0.942349
0.942792 0.942792 0.942792
0.943234 0.943234 0.943234
0.943674 0.943674 0.943674
0.944114 0.944114 0.944114
0.944552 0.944552 0.944552
0.944989 0.944989 0.944989
0.945425 0.945425 0.945425
0.945860 0.945860 0.945860
0.946293 0.946293 0.946293
0.946726 0.946726 0.946726
0.947157 0.947157 0.947157
0.947587 0.947587 0.947587
0.948016 0.948016 0.948016
0.948444 0.948444 0.948444
0.948870 0.948870 0.948870
0.949295 0.949295 0.949295
0.949720 0.949720 0.949720
0.950143 0.950143 0.950143
0.950565 0.950565 0.950565
0.950985 0.950985 0.950985
0.951405 0.951405 0.951405
0.951823 0.951823 0.951823
0.952241 0.952241 0.952241
0.952657 0.952657 0.952657
0.953072 0.953072 0.953072
0.953485 0.953485 0.953485
0.953898 0.953898 0.953898
0.954310 0.954310 0.954310
