Luts Download/Canon Luts/1dlut/canonlog-to-gamma-1dlut/full-to-full-range/CanonLog_12-to-DCI_FF_Ver.2.0.cube
# Gamma : Canon Log to DCI
# Range : Full in / Full out
# Version : 2.0 2016/10/27
# Copyright(c) 2016 Canon Inc. All Rights Reserved.

LUT_1D_SIZE 4096
0.000000 0.000000 0.000000
0.000000 0.000000 0.000000
0.000000 0.000000 0.000000
0.000000 0.000000 0.000000
0.000000 0.000000 0.000000
0.000000 0.000000 0.000000
0.000000 0.000000 0.000000
0.000000 0.000000 0.000000
0.000000 0.000000 0.000000
0.000000 0.000000 0.000000
0.000000 0.000000 0.000000
0.000000 0.000000 0.000000
0.000000 0.000000 0.000000
0.000000 0.000000 0.000000
0.000000 0.000000 0.000000
0.000000 0.000000 0.000000
0.000000 0.000000 0.000000
0.000000 0.000000 0.000000
0.000000 0.000000 0.000000
0.000000 0.000000 0.000000
0.000000 0.000000 0.000000
0.000000 0.000000 0.000000
0.000000 0.000000 0.000000
0.000000 0.000000 0.000000
0.000000 0.000000 0.000000
0.000000 0.000000 0.000000
0.000000 0.000000 0.000000
0.000000 0.000000 0.000000
0.000000 0.000000 0.000000
0.000000 0.000000 0.000000
0.000000 0.000000 0.000000
0.000000 0.000000 0.000000
0.000000 0.000000 0.000000
0.000000 0.000000 0.000000
0.000000 0.000000 0.000000
0.000000 0.000000 0.000000
0.000000 0.000000 0.000000
0.000000 0.000000 0.000000
0.000000 0.000000 0.000000
0.000000 0.000000 0.000000
0.000000 0.000000 0.000000
0.000000 0.000000 0.000000
0.000000 0.000000 0.000000
0.000000 0.000000 0.000000
0.000000 0.000000 0.000000
0.000000 0.000000 0.000000
0.000000 0.000000 0.000000
0.000000 0.000000 0.000000
0.000000 0.000000 0.000000
0.000000 0.000000 0.000000
0.000000 0.000000 0.000000
0.000000 0.000000 0.000000
0.000000 0.000000 0.000000
0.000000 0.000000 0.000000
0.000000 0.000000 0.000000
0.000000 0.000000 0.000000
0.000000 0.000000 0.000000
0.000000 0.000000 0.000000
0.000000 0.000000 0.000000
0.000000 0.000000 0.000000
0.000000 0.000000 0.000000
0.000000 0.000000 0.000000
0.000000 0.000000 0.000000
0.000000 0.000000 0.000000
0.000000 0.000000 0.000000
0.000000 0.000000 0.000000
0.000000 0.000000 0.000000
0.000000 0.000000 0.000000
0.000000 0.000000 0.000000
0.000000 0.000000 0.000000
0.000000 0.000000 0.000000
0.000000 0.000000 0.000000
0.000000 0.000000 0.000000
0.000000 0.000000 0.000000
0.000000 0.000000 0.000000
0.000000 0.000000 0.000000
0.000000 0.000000 0.000000
0.000000 0.000000 0.000000
0.000000 0.000000 0.000000
0.000000 0.000000 0.000000
0.000000 0.000000 0.000000
0.000000 0.000000 0.000000
0.000000 0.000000 0.000000
0.000000 0.000000 0.000000
0.000000 0.000000 0.000000
0.000000 0.000000 0.000000
0.000000 0.000000 0.000000
0.000000 0.000000 0.000000
0.000000 0.000000 0.000000
0.000000 0.000000 0.000000
0.000000 0.000000 0.000000
0.000000 0.000000 0.000000
0.000000 0.000000 0.000000
0.000000 0.000000 0.000000
0.000000 0.000000 0.000000
0.000000 0.000000 0.000000
0.000000 0.000000 0.000000
0.000000 0.000000 0.000000
0.000000 0.000000 0.000000
0.000000 0.000000 0.000000
0.000000 0.000000 0.000000
0.000000 0.000000 0.000000
0.000000 0.000000 0.000000
0.000000 0.000000 0.000000
0.000000 0.000000 0.000000
0.000000 0.000000 0.000000
0.000000 0.000000 0.000000
0.000000 0.000000 0.000000
0.000000 0.000000 0.000000
0.000000 0.000000 0.000000
0.000000 0.000000 0.000000
0.000000 0.000000 0.000000
0.000000 0.000000 0.000000
0.000000 0.000000 0.000000
0.000000 0.000000 0.000000
0.000000 0.000000 0.000000
0.000000 0.000000 0.000000
0.000000 0.000000 0.000000
0.000000 0.000000 0.000000
0.000000 0.000000 0.000000
0.000000 0.000000 0.000000
0.000000 0.000000 0.000000
0.000000 0.000000 0.000000
0.000000 0.000000 0.000000
0.000000 0.000000 0.000000
0.000000 0.000000 0.000000
0.000000 0.000000 0.000000
0.000000 0.000000 0.000000
0.000000 0.000000 0.000000
0.000000 0.000000 0.000000
0.000000 0.000000 0.000000
0.000000 0.000000 0.000000
0.000000 0.000000 0.000000
0.000000 0.000000 0.000000
0.000000 0.000000 0.000000
0.000000 0.000000 0.000000
0.000000 0.000000 0.000000
0.000000 0.000000 0.000000
0.000000 0.000000 0.000000
0.000000 0.000000 0.000000
0.000000 0.000000 0.000000
0.000000 0.000000 0.000000
0.000000 0.000000 0.000000
0.000000 0.000000 0.000000
0.000000 0.000000 0.000000
0.000000 0.000000 0.000000
0.000000 0.000000 0.000000
0.000000 0.000000 0.000000
0.000000 0.000000 0.000000
0.000000 0.000000 0.000000
0.000000 0.000000 0.000000
0.000000 0.000000 0.000000
0.000000 0.000000 0.000000
0.000000 0.000000 0.000000
0.000000 0.000000 0.000000
0.000000 0.000000 0.000000
0.000000 0.000000 0.000000
0.000000 0.000000 0.000000
0.000000 0.000000 0.000000
0.000000 0.000000 0.000000
0.000000 0.000000 0.000000
0.000000 0.000000 0.000000
0.000000 0.000000 0.000000
0.000000 0.000000 0.000000
0.000000 0.000000 0.000000
0.000000 0.000000 0.000000
0.000000 0.000000 0.000000
0.000000 0.000000 0.000000
0.000000 0.000000 0.000000
0.000000 0.000000 0.000000
0.000000 0.000000 0.000000
0.000000 0.000000 0.000000
0.000000 0.000000 0.000000
0.000000 0.000000 0.000000
0.000000 0.000000 0.000000
0.000000 0.000000 0.000000
0.000000 0.000000 0.000000
0.000000 0.000000 0.000000
0.000000 0.000000 0.000000
0.000000 0.000000 0.000000
0.000000 0.000000 0.000000
0.000000 0.000000 0.000000
0.000000 0.000000 0.000000
0.000000 0.000000 0.000000
0.000000 0.000000 0.000000
0.000000 0.000000 0.000000
0.000000 0.000000 0.000000
0.000000 0.000000 0.000000
0.000000 0.000000 0.000000
0.000000 0.000000 0.000000
0.000000 0.000000 0.000000
0.000000 0.000000 0.000000
0.000000 0.000000 0.000000
0.000000 0.000000 0.000000
0.000000 0.000000 0.000000
0.000000 0.000000 0.000000
0.000000 0.000000 0.000000
0.000000 0.000000 0.000000
0.000000 0.000000 0.000000
0.000000 0.000000 0.000000
0.000000 0.000000 0.000000
0.000000 0.000000 0.000000
0.000000 0.000000 0.000000
0.000000 0.000000 0.000000
0.000000 0.000000 0.000000
0.000000 0.000000 0.000000
0.000000 0.000000 0.000000
0.000000 0.000000 0.000000
0.000000 0.000000 0.000000
0.000000 0.000000 0.000000
0.000000 0.000000 0.000000
0.000000 0.000000 0.000000
0.000000 0.000000 0.000000
0.000000 0.000000 0.000000
0.000000 0.000000 0.000000
0.000000 0.000000 0.000000
0.000000 0.000000 0.000000
0.000000 0.000000 0.000000
0.000000 0.000000 0.000000
0.000000 0.000000 0.000000
0.000000 0.000000 0.000000
0.000000 0.000000 0.000000
0.000000 0.000000 0.000000
0.000000 0.000000 0.000000
0.000000 0.000000 0.000000
0.000000 0.000000 0.000000
0.000000 0.000000 0.000000
0.000000 0.000000 0.000000
0.000000 0.000000 0.000000
0.000000 0.000000 0.000000
0.000000 0.000000 0.000000
0.000000 0.000000 0.000000
0.000000 0.000000 0.000000
0.000000 0.000000 0.000000
0.000000 0.000000 0.000000
0.000000 0.000000 0.000000
0.000000 0.000000 0.000000
0.000000 0.000000 0.000000
0.000000 0.000000 0.000000
0.000000 0.000000 0.000000
0.000000 0.000000 0.000000
0.000000 0.000000 0.000000
0.000000 0.000000 0.000000
0.000000 0.000000 0.000000
0.000000 0.000000 0.000000
0.000000 0.000000 0.000000
0.000000 0.000000 0.000000
0.000000 0.000000 0.000000
0.000000 0.000000 0.000000
0.000000 0.000000 0.000000
0.000000 0.000000 0.000000
0.000000 0.000000 0.000000
0.000000 0.000000 0.000000
0.000000 0.000000 0.000000
0.000000 0.000000 0.000000
0.000000 0.000000 0.000000
0.000000 0.000000 0.000000
0.000000 0.000000 0.000000
0.000000 0.000000 0.000000
0.000000 0.000000 0.000000
0.000000 0.000000 0.000000
0.000000 0.000000 0.000000
0.000000 0.000000 0.000000
0.000000 0.000000 0.000000
0.000000 0.000000 0.000000
0.000000 0.000000 0.000000
0.000000 0.000000 0.000000
0.000000 0.000000 0.000000
0.000000 0.000000 0.000000
0.000000 0.000000 0.000000
0.000000 0.000000 0.000000
0.000000 0.000000 0.000000
0.000000 0.000000 0.000000
0.000000 0.000000 0.000000
0.000000 0.000000 0.000000
0.000000 0.000000 0.000000
0.000000 0.000000 0.000000
0.000000 0.000000 0.000000
0.000000 0.000000 0.000000
0.000000 0.000000 0.000000
0.000000 0.000000 0.000000
0.000000 0.000000 0.000000
0.000000 0.000000 0.000000
0.000000 0.000000 0.000000
0.000000 0.000000 0.000000
0.000000 0.000000 0.000000
0.000000 0.000000 0.000000
0.000000 0.000000 0.000000
0.000000 0.000000 0.000000
0.000000 0.000000 0.000000
0.000000 0.000000 0.000000
0.000000 0.000000 0.000000
0.000000 0.000000 0.000000
0.000000 0.000000 0.000000
0.000000 0.000000 0.000000
0.000000 0.000000 0.000000
0.000000 0.000000 0.000000
0.000000 0.000000 0.000000
0.000000 0.000000 0.000000
0.000000 0.000000 0.000000
0.000000 0.000000 0.000000
0.000000 0.000000 0.000000
0.000000 0.000000 0.000000
0.000000 0.000000 0.000000
0.000000 0.000000 0.000000
0.000000 0.000000 0.000000
0.000000 0.000000 0.000000
0.000000 0.000000 0.000000
0.000000 0.000000 0.000000
0.000000 0.000000 0.000000
0.000000 0.000000 0.000000
0.000000 0.000000 0.000000
0.000000 0.000000 0.000000
0.000000 0.000000 0.000000
0.000000 0.000000 0.000000
0.000000 0.000000 0.000000
0.000000 0.000000 0.000000
0.000000 0.000000 0.000000
0.000000 0.000000 0.000000
0.000000 0.000000 0.000000
0.000000 0.000000 0.000000
0.000000 0.000000 0.000000
0.000000 0.000000 0.000000
0.000000 0.000000 0.000000
0.000000 0.000000 0.000000
0.000000 0.000000 0.000000
0.000000 0.000000 0.000000
0.000000 0.000000 0.000000
0.000000 0.000000 0.000000
0.000000 0.000000 0.000000
0.000000 0.000000 0.000000
0.000000 0.000000 0.000000
0.000000 0.000000 0.000000
0.000000 0.000000 0.000000
0.000000 0.000000 0.000000
0.000000 0.000000 0.000000
0.000000 0.000000 0.000000
0.000000 0.000000 0.000000
0.000000 0.000000 0.000000
0.000000 0.000000 0.000000
0.000000 0.000000 0.000000
0.000000 0.000000 0.000000
0.000000 0.000000 0.000000
0.000000 0.000000 0.000000
0.000000 0.000000 0.000000
0.000000 0.000000 0.000000
0.000000 0.000000 0.000000
0.000000 0.000000 0.000000
0.000000 0.000000 0.000000
0.000000 0.000000 0.000000
0.000000 0.000000 0.000000
0.000000 0.000000 0.000000
0.000000 0.000000 0.000000
0.000000 0.000000 0.000000
0.000000 0.000000 0.000000
0.000000 0.000000 0.000000
0.000000 0.000000 0.000000
0.000000 0.000000 0.000000
0.000000 0.000000 0.000000
0.000000 0.000000 0.000000
0.000000 0.000000 0.000000
0.000000 0.000000 0.000000
0.000000 0.000000 0.000000
0.000000 0.000000 0.000000
0.000000 0.000000 0.000000
0.000000 0.000000 0.000000
0.000000 0.000000 0.000000
0.000000 0.000000 0.000000
0.000000 0.000000 0.000000
0.000000 0.000000 0.000000
0.000000 0.000000 0.000000
0.000000 0.000000 0.000000
0.000000 0.000000 0.000000
0.000000 0.000000 0.000000
0.000000 0.000000 0.000000
0.000000 0.000000 0.000000
0.000000 0.000000 0.000000
0.000000 0.000000 0.000000
0.000000 0.000000 0.000000
0.000000 0.000000 0.000000
0.000000 0.000000 0.000000
0.000000 0.000000 0.000000
0.000000 0.000000 0.000000
0.000000 0.000000 0.000000
0.000000 0.000000 0.000000
0.000000 0.000000 0.000000
0.000000 0.000000 0.000000
0.000000 0.000000 0.000000
0.000000 0.000000 0.000000
0.000000 0.000000 0.000000
0.000000 0.000000 0.000000
0.000000 0.000000 0.000000
0.000000 0.000000 0.000000
0.000000 0.000000 0.000000
0.000000 0.000000 0.000000
0.000000 0.000000 0.000000
0.000000 0.000000 0.000000
0.000000 0.000000 0.000000
0.000000 0.000000 0.000000
0.000000 0.000000 0.000000
0.000000 0.000000 0.000000
0.000000 0.000000 0.000000
0.000000 0.000000 0.000000
0.000000 0.000000 0.000000
0.000000 0.000000 0.000000
0.000000 0.000000 0.000000
0.000000 0.000000 0.000000
0.000000 0.000000 0.000000
0.000000 0.000000 0.000000
0.000000 0.000000 0.000000
0.000000 0.000000 0.000000
0.000000 0.000000 0.000000
0.000000 0.000000 0.000000
0.000000 0.000000 0.000000
0.000000 0.000000 0.000000
0.000000 0.000000 0.000000
0.000000 0.000000 0.000000
0.000000 0.000000 0.000000
0.000000 0.000000 0.000000
0.000000 0.000000 0.000000
0.000000 0.000000 0.000000
0.000000 0.000000 0.000000
0.000000 0.000000 0.000000
0.000000 0.000000 0.000000
0.000000 0.000000 0.000000
0.000000 0.000000 0.000000
0.000000 0.000000 0.000000
0.000000 0.000000 0.000000
0.000000 0.000000 0.000000
0.000000 0.000000 0.000000
0.000000 0.000000 0.000000
0.000000 0.000000 0.000000
0.000000 0.000000 0.000000
0.000000 0.000000 0.000000
0.000000 0.000000 0.000000
0.000000 0.000000 0.000000
0.000000 0.000000 0.000000
0.000000 0.000000 0.000000
0.000000 0.000000 0.000000
0.000000 0.000000 0.000000
0.000000 0.000000 0.000000
0.000000 0.000000 0.000000
0.000000 0.000000 0.000000
0.000000 0.000000 0.000000
0.000000 0.000000 0.000000
0.000000 0.000000 0.000000
0.000000 0.000000 0.000000
0.000000 0.000000 0.000000
0.000000 0.000000 0.000000
0.000000 0.000000 0.000000
0.000000 0.000000 0.000000
0.000000 0.000000 0.000000
0.000000 0.000000 0.000000
0.000000 0.000000 0.000000
0.000000 0.000000 0.000000
0.000000 0.000000 0.000000
0.000000 0.000000 0.000000
0.000000 0.000000 0.000000
0.000000 0.000000 0.000000
0.000000 0.000000 0.000000
0.000000 0.000000 0.000000
0.000000 0.000000 0.000000
0.000000 0.000000 0.000000
0.000000 0.000000 0.000000
0.000000 0.000000 0.000000
0.000000 0.000000 0.000000
0.000000 0.000000 0.000000
0.000000 0.000000 0.000000
0.000000 0.000000 0.000000
0.000000 0.000000 0.000000
0.000000 0.000000 0.000000
0.000000 0.000000 0.000000
0.000000 0.000000 0.000000
0.000000 0.000000 0.000000
0.000000 0.000000 0.000000
0.000000 0.000000 0.000000
0.000000 0.000000 0.000000
0.000000 0.000000 0.000000
0.000000 0.000000 0.000000
0.000000 0.000000 0.000000
0.000000 0.000000 0.000000
0.000000 0.000000 0.000000
0.000000 0.000000 0.000000
0.000000 0.000000 0.000000
0.000000 0.000000 0.000000
0.000000 0.000000 0.000000
0.000000 0.000000 0.000000
0.000000 0.000000 0.000000
0.000000 0.000000 0.000000
0.000000 0.000000 0.000000
0.000000 0.000000 0.000000
0.000000 0.000000 0.000000
0.000000 0.000000 0.000000
0.000000 0.000000 0.000000
0.000000 0.000000 0.000000
0.000000 0.000000 0.000000
0.000000 0.000000 0.000000
0.000000 0.000000 0.000000
0.000000 0.000000 0.000000
0.000000 0.000000 0.000000
0.000000 0.000000 0.000000
0.000000 0.000000 0.000000
0.000000 0.000000 0.000000
0.000000 0.000000 0.000000
0.000000 0.000000 0.000000
0.000000 0.000000 0.000000
0.000000 0.000000 0.000000
0.000000 0.000000 0.000000
0.000000 0.000000 0.000000
0.000000 0.000000 0.000000
0.000000 0.000000 0.000000
0.000000 0.000000 0.000000
0.000000 0.000000 0.000000
0.000358 0.000358 0.000358
0.000932 0.000932 0.000932
0.001506 0.001506 0.001506
0.002082 0.002082 0.002082
0.002658 0.002658 0.002658
0.003235 0.003235 0.003235
0.003813 0.003813 0.003813
0.004391 0.004391 0.004391
0.004970 0.004970 0.004970
0.005550 0.005550 0.005550
0.006131 0.006131 0.006131
0.006712 0.006712 0.006712
0.007294 0.007294 0.007294
0.007876 0.007876 0.007876
0.008460 0.008460 0.008460
0.009044 0.009044 0.009044
0.009629 0.009629 0.009629
0.010214 0.010214 0.010214
0.010801 0.010801 0.010801
0.011388 0.011388 0.011388
0.011976 0.011976 0.011976
0.012564 0.012564 0.012564
0.013153 0.013153 0.013153
0.013743 0.013743 0.013743
0.014334 0.014334 0.014334
0.014925 0.014925 0.014925
0.015518 0.015518 0.015518
0.016110 0.016110 0.016110
0.016704 0.016704 0.016704
0.017298 0.017298 0.017298
0.017894 0.017894 0.017894
0.018489 0.018489 0.018489
0.019086 0.019086 0.019086
0.019683 0.019683 0.019683
0.020281 0.020281 0.020281
0.020880 0.020880 0.020880
0.021480 0.021480 0.021480
0.022080 0.022080 0.022080
0.022681 0.022681 0.022681
0.023283 0.023283 0.023283
0.023886 0.023886 0.023886
0.024489 0.024489 0.024489
0.025093 0.025093 0.025093
0.025698 0.025698 0.025698
0.026303 0.026303 0.026303
0.026910 0.026910 0.026910
0.027517 0.027517 0.027517
0.028124 0.028124 0.028124
0.028733 0.028733 0.028733
0.029342 0.029342 0.029342
0.029952 0.029952 0.029952
0.030563 0.030563 0.030563
0.031175 0.031175 0.031175
0.031787 0.031787 0.031787
0.032400 0.032400 0.032400
0.033014 0.033014 0.033014
0.033629 0.033629 0.033629
0.034244 0.034244 0.034244
0.034860 0.034860 0.034860
0.035477 0.035477 0.035477
0.036095 0.036095 0.036095
0.036713 0.036713 0.036713
0.037333 0.037333 0.037333
0.037952 0.037952 0.037952
0.038573 0.038573 0.038573
0.039195 0.039195 0.039195
0.039817 0.039817 0.039817
0.040440 0.040440 0.040440
0.041064 0.041064 0.041064
0.041689 0.041689 0.041689
0.042314 0.042314 0.042314
0.042940 0.042940 0.042940
0.043567 0.043567 0.043567
0.044195 0.044195 0.044195
0.044823 0.044823 0.044823
0.045453 0.045453 0.045453
0.046083 0.046083 0.046083
0.046714 0.046714 0.046714
0.047345 0.047345 0.047345
0.047978 0.047978 0.047978
0.048611 0.048611 0.048611
0.049245 0.049245 0.049245
0.049880 0.049880 0.049880
0.050515 0.050515 0.050515
0.051152 0.051152 0.051152
0.051789 0.051789 0.051789
0.052427 0.052427 0.052427
0.053065 0.053065 0.053065
0.053705 0.053705 0.053705
0.054345 0.054345 0.054345
0.054986 0.054986 0.054986
0.055628 0.055628 0.055628
0.056271 0.056271 0.056271
0.056915 0.056915 0.056915
0.057559 0.057559 0.057559
0.058204 0.058204 0.058204
0.058850 0.058850 0.058850
0.059497 0.059497 0.059497
0.060144 0.060144 0.060144
0.060792 0.060792 0.060792
0.061442 0.061442 0.061442
0.062091 0.062091 0.062091
0.062742 0.062742 0.062742
0.063394 0.063394 0.063394
0.064046 0.064046 0.064046
0.064699 0.064699 0.064699
0.065353 0.065353 0.065353
0.066008 0.066008 0.066008
0.066664 0.066664 0.066664
0.067320 0.067320 0.067320
0.067977 0.067977 0.067977
0.068635 0.068635 0.068635
0.069294 0.069294 0.069294
0.069954 0.069954 0.069954
0.070614 0.070614 0.070614
0.071276 0.071276 0.071276
0.071938 0.071938 0.071938
0.072601 0.072601 0.072601
0.073265 0.073265 0.073265
0.073929 0.073929 0.073929
0.074595 0.074595 0.074595
0.075261 0.075261 0.075261
0.075928 0.075928 0.075928
0.076596 0.076596 0.076596
0.077265 0.077265 0.077265
0.077934 0.077934 0.077934
0.078605 0.078605 0.078605
0.079276 0.079276 0.079276
0.079948 0.079948 0.079948
0.080621 0.080621 0.080621
0.081295 0.081295 0.081295
0.081969 0.081969 0.081969
0.082645 0.082645 0.082645
0.083321 0.083321 0.083321
0.083998 0.083998 0.083998
0.084676 0.084676 0.084676
0.085355 0.085355 0.085355
0.086034 0.086034 0.086034
0.086715 0.086715 0.086715
0.087396 0.087396 0.087396
0.088078 0.088078 0.088078
0.088761 0.088761 0.088761
0.089445 0.089445 0.089445
0.090130 0.090130 0.090130
0.090815 0.090815 0.090815
0.091502 0.091502 0.091502
0.092189 0.092189 0.092189
0.092877 0.092877 0.092877
0.093566 0.093566 0.093566
0.094256 0.094256 0.094256
0.094947 0.094947 0.094947
0.095638 0.095638 0.095638
0.096331 0.096331 0.096331
0.097024 0.097024 0.097024
0.097718 0.097718 0.097718
0.098413 0.098413 0.098413
0.099109 0.099109 0.099109
0.099805 0.099805 0.099805
0.100503 0.100503 0.100503
0.101201 0.101201 0.101201
0.101901 0.101901 0.101901
0.102601 0.102601 0.102601
0.103302 0.103302 0.103302
0.104002 0.104002 0.104002
0.104700 0.104700 0.104700
0.105397 0.105397 0.105397
0.106091 0.106091 0.106091
0.106783 0.106783 0.106783
0.107473 0.107473 0.107473
0.108162 0.108162 0.108162
0.108848 0.108848 0.108848
0.109532 0.109532 0.109532
0.110215 0.110215 0.110215
0.110896 0.110896 0.110896
0.111575 0.111575 0.111575
0.112252 0.112252 0.112252
0.112927 0.112927 0.112927
0.113601 0.113601 0.113601
0.114273 0.114273 0.114273
0.114943 0.114943 0.114943
0.115611 0.115611 0.115611
0.116278 0.116278 0.116278
0.116943 0.116943 0.116943
0.117606 0.117606 0.117606
0.118268 0.118268 0.118268
0.118928 0.118928 0.118928
0.119586 0.119586 0.119586
0.120243 0.120243 0.120243
0.120898 0.120898 0.120898
0.121551 0.121551 0.121551
0.122203 0.122203 0.122203
0.122854 0.122854 0.122854
0.123502 0.123502 0.123502
0.124150 0.124150 0.124150
0.124796 0.124796 0.124796
0.125440 0.125440 0.125440
0.126083 0.126083 0.126083
0.126724 0.126724 0.126724
0.127364 0.127364 0.127364
0.128003 0.128003 0.128003
0.128640 0.128640 0.128640
0.129275 0.129275 0.129275
0.129910 0.129910 0.129910
0.130542 0.130542 0.130542
0.131174 0.131174 0.131174
0.131804 0.131804 0.131804
0.132433 0.132433 0.132433
0.133060 0.133060 0.133060
0.133686 0.133686 0.133686
0.134311 0.134311 0.134311
0.134935 0.134935 0.134935
0.135557 0.135557 0.135557
0.136178 0.136178 0.136178
0.136797 0.136797 0.136797
0.137416 0.137416 0.137416
0.138033 0.138033 0.138033
0.138649 0.138649 0.138649
0.139263 0.139263 0.139263
0.139877 0.139877 0.139877
0.140489 0.140489 0.140489
0.141100 0.141100 0.141100
0.141710 0.141710 0.141710
0.142318 0.142318 0.142318
0.142926 0.142926 0.142926
0.143532 0.143532 0.143532
0.144137 0.144137 0.144137
0.144741 0.144741 0.144741
0.145344 0.145344 0.145344
0.145946 0.145946 0.145946
0.146547 0.146547 0.146547
0.147146 0.147146 0.147146
0.147745 0.147745 0.147745
0.148342 0.148342 0.148342
0.148938 0.148938 0.148938
0.149534 0.149534 0.149534
0.150128 0.150128 0.150128
0.150721 0.150721 0.150721
0.151313 0.151313 0.151313
0.151904 0.151904 0.151904
0.152494 0.152494 0.152494
0.153083 0.153083 0.153083
0.153671 0.153671 0.153671
0.154258 0.154258 0.154258
0.154844 0.154844 0.154844
0.155429 0.155429 0.155429
0.156013 0.156013 0.156013
0.156596 0.156596 0.156596
0.157178 0.157178 0.157178
0.157759 0.157759 0.157759
0.158339 0.158339 0.158339
0.158919 0.158919 0.158919
0.159497 0.159497 0.159497
0.160074 0.160074 0.160074
0.160651 0.160651 0.160651
0.161226 0.161226 0.161226
0.161801 0.161801 0.161801
0.162375 0.162375 0.162375
0.162947 0.162947 0.162947
0.163519 0.163519 0.163519
0.164090 0.164090 0.164090
0.164661 0.164661 0.164661
0.165230 0.165230 0.165230
0.165798 0.165798 0.165798
0.166366 0.166366 0.166366
0.166933 0.166933 0.166933
0.167499 0.167499 0.167499
0.168064 0.168064 0.168064
0.168628 0.168628 0.168628
0.169191 0.169191 0.169191
0.169754 0.169754 0.169754
0.170316 0.170316 0.170316
0.170877 0.170877 0.170877
0.171437 0.171437 0.171437
0.171996 0.171996 0.171996
0.172555 0.172555 0.172555
0.173113 0.173113 0.173113
0.173670 0.173670 0.173670
0.174226 0.174226 0.174226
0.174782 0.174782 0.174782
0.175336 0.175336 0.175336
0.175890 0.175890 0.175890
0.176444 0.176444 0.176444
0.176996 0.176996 0.176996
0.177548 0.177548 0.177548
0.178099 0.178099 0.178099
0.178649 0.178649 0.178649
0.179199 0.179199 0.179199
0.179748 0.179748 0.179748
0.180296 0.180296 0.180296
0.180843 0.180843 0.180843
0.181390 0.181390 0.181390
0.181936 0.181936 0.181936
0.182481 0.182481 0.182481
0.183026 0.183026 0.183026
0.183570 0.183570 0.183570
0.184113 0.184113 0.184113
0.184656 0.184656 0.184656
0.185198 0.185198 0.185198
0.185739 0.185739 0.185739
0.186279 0.186279 0.186279
0.186819 0.186819 0.186819
0.187359 0.187359 0.187359
0.187897 0.187897 0.187897
0.188435 0.188435 0.188435
0.188972 0.188972 0.188972
0.189509 0.189509 0.189509
0.190045 0.190045 0.190045
0.190581 0.190581 0.190581
0.191115 0.191115 0.191115
0.191650 0.191650 0.191650
0.192183 0.192183 0.192183
0.192716 0.192716 0.192716
0.193249 0.193249 0.193249
0.193780 0.193780 0.193780
0.194312 0.194312 0.194312
0.194842 0.194842 0.194842
0.195372 0.195372 0.195372
0.195901 0.195901 0.195901
0.196430 0.196430 0.196430
0.196958 0.196958 0.196958
0.197486 0.197486 0.197486
0.198013 0.198013 0.198013
0.198540 0.198540 0.198540
0.199066 0.199066 0.199066
0.199591 0.199591 0.199591
0.200116 0.200116 0.200116
0.200640 0.200640 0.200640
0.201164 0.201164 0.201164
0.201687 0.201687 0.201687
0.202210 0.202210 0.202210
0.202732 0.202732 0.202732
0.203253 0.203253 0.203253
0.203774 0.203774 0.203774
0.204295 0.204295 0.204295
0.204815 0.204815 0.204815
0.205334 0.205334 0.205334
0.205853 0.205853 0.205853
0.206371 0.206371 0.206371
0.206889 0.206889 0.206889
0.207407 0.207407 0.207407
0.207924 0.207924 0.207924
0.208440 0.208440 0.208440
0.208956 0.208956 0.208956
0.209471 0.209471 0.209471
0.209986 0.209986 0.209986
0.210500 0.210500 0.210500
0.211014 0.211014 0.211014
0.211528 0.211528 0.211528
0.212041 0.212041 0.212041
0.212553 0.212553 0.212553
0.213065 0.213065 0.213065
0.213577 0.213577 0.213577
0.214088 0.214088 0.214088
0.214598 0.214598 0.214598
0.215108 0.215108 0.215108
0.215618 0.215618 0.215618
0.216127 0.216127 0.216127
0.216636 0.216636 0.216636
0.217144 0.217144 0.217144
0.217652 0.217652 0.217652
0.218159 0.218159 0.218159
0.218666 0.218666 0.218666
0.219173 0.219173 0.219173
0.219679 0.219679 0.219679
0.220184 0.220184 0.220184
0.220690 0.220690 0.220690
0.221194 0.221194 0.221194
0.221699 0.221699 0.221699
0.222203 0.222203 0.222203
0.222706 0.222706 0.222706
