Luts Download/Canon Luts/1dlut/canonlog-to-gamma-1dlut/full-to-full-range/CanonLog_10-to-WideDR_FF_Ver.2.0.cube
# Gamma : Canon Log to Wide DR
# Range : Full in / Full out
# Version : 2.0 2016/10/27
# Copyright(c) 2016 Canon Inc. All Rights Reserved.

LUT_1D_SIZE 1024
0.000000 0.000000 0.000000
0.000000 0.000000 0.000000
0.000000 0.000000 0.000000
0.000000 0.000000 0.000000
0.000000 0.000000 0.000000
0.000000 0.000000 0.000000
0.000000 0.000000 0.000000
0.000000 0.000000 0.000000
0.000000 0.000000 0.000000
0.000000 0.000000 0.000000
0.000000 0.000000 0.000000
0.000000 0.000000 0.000000
0.000000 0.000000 0.000000
0.000000 0.000000 0.000000
0.000000 0.000000 0.000000
0.000000 0.000000 0.000000
0.000000 0.000000 0.000000
0.000000 0.000000 0.000000
0.000000 0.000000 0.000000
0.000000 0.000000 0.000000
0.000000 0.000000 0.000000
0.000000 0.000000 0.000000
0.000000 0.000000 0.000000
0.000000 0.000000 0.000000
0.000000 0.000000 0.000000
0.000000 0.000000 0.000000
0.000000 0.000000 0.000000
0.000000 0.000000 0.000000
0.000000 0.000000 0.000000
0.000000 0.000000 0.000000
0.000000 0.000000 0.000000
0.000000 0.000000 0.000000
0.000000 0.000000 0.000000
0.000000 0.000000 0.000000
0.000000 0.000000 0.000000
0.000000 0.000000 0.000000
0.000000 0.000000 0.000000
0.000000 0.000000 0.000000
0.000000 0.000000 0.000000
0.000000 0.000000 0.000000
0.000000 0.000000 0.000000
0.000000 0.000000 0.000000
0.000000 0.000000 0.000000
0.000000 0.000000 0.000000
0.000000 0.000000 0.000000
0.000000 0.000000 0.000000
0.000000 0.000000 0.000000
0.000000 0.000000 0.000000
0.000000 0.000000 0.000000
0.000000 0.000000 0.000000
0.000000 0.000000 0.000000
0.000000 0.000000 0.000000
0.000000 0.000000 0.000000
0.000000 0.000000 0.000000
0.000000 0.000000 0.000000
0.000000 0.000000 0.000000
0.000000 0.000000 0.000000
0.000000 0.000000 0.000000
0.000000 0.000000 0.000000
0.000000 0.000000 0.000000
0.000000 0.000000 0.000000
0.000000 0.000000 0.000000
0.000000 0.000000 0.000000
0.000000 0.000000 0.000000
0.000000 0.000000 0.000000
0.000000 0.000000 0.000000
0.000000 0.000000 0.000000
0.000000 0.000000 0.000000
0.000000 0.000000 0.000000
0.000000 0.000000 0.000000
0.000000 0.000000 0.000000
0.000000 0.000000 0.000000
0.000000 0.000000 0.000000
0.000000 0.000000 0.000000
0.000000 0.000000 0.000000
0.000000 0.000000 0.000000
0.000000 0.000000 0.000000
0.000000 0.000000 0.000000
0.000000 0.000000 0.000000
0.000000 0.000000 0.000000
0.000000 0.000000 0.000000
0.000000 0.000000 0.000000
0.000000 0.000000 0.000000
0.000000 0.000000 0.000000
0.000000 0.000000 0.000000
0.000000 0.000000 0.000000
0.000000 0.000000 0.000000
0.000000 0.000000 0.000000
0.000000 0.000000 0.000000
0.000000 0.000000 0.000000
0.000000 0.000000 0.000000
0.000000 0.000000 0.000000
0.000000 0.000000 0.000000
0.000000 0.000000 0.000000
0.000000 0.000000 0.000000
0.000000 0.000000 0.000000
0.000000 0.000000 0.000000
0.000000 0.000000 0.000000
0.000000 0.000000 0.000000
0.000000 0.000000 0.000000
0.000000 0.000000 0.000000
0.000000 0.000000 0.000000
0.000000 0.000000 0.000000
0.000000 0.000000 0.000000
0.000000 0.000000 0.000000
0.000000 0.000000 0.000000
0.000000 0.000000 0.000000
0.000000 0.000000 0.000000
0.000000 0.000000 0.000000
0.000000 0.000000 0.000000
0.000000 0.000000 0.000000
0.000000 0.000000 0.000000
0.000000 0.000000 0.000000
0.000000 0.000000 0.000000
0.000000 0.000000 0.000000
0.000000 0.000000 0.000000
0.000000 0.000000 0.000000
0.000000 0.000000 0.000000
0.000000 0.000000 0.000000
0.000000 0.000000 0.000000
0.000000 0.000000 0.000000
0.000000 0.000000 0.000000
0.000000 0.000000 0.000000
0.000000 0.000000 0.000000
0.000000 0.000000 0.000000
0.000000 0.000000 0.000000
0.000000 0.000000 0.000000
0.000000 0.000000 0.000000
0.000000 0.000000 0.000000
0.002285 0.002285 0.002285
0.004580 0.004580 0.004580
0.006878 0.006878 0.006878
0.009179 0.009179 0.009179
0.011479 0.011479 0.011479
0.013777 0.013777 0.013777
0.016072 0.016072 0.016072
0.018363 0.018363 0.018363
0.020649 0.020649 0.020649
0.022931 0.022931 0.022931
0.025208 0.025208 0.025208
0.027479 0.027479 0.027479
0.029745 0.029745 0.029745
0.032006 0.032006 0.032006
0.034262 0.034262 0.034262
0.036513 0.036513 0.036513
0.038760 0.038760 0.038760
0.041002 0.041002 0.041002
0.043240 0.043240 0.043240
0.045475 0.045475 0.045475
0.047706 0.047706 0.047706
0.049933 0.049933 0.049933
0.052158 0.052158 0.052158
0.054380 0.054380 0.054380
0.056599 0.056599 0.056599
0.058816 0.058816 0.058816
0.061032 0.061032 0.061032
0.063246 0.063246 0.063246
0.065458 0.065458 0.065458
0.067669 0.067669 0.067669
0.069880 0.069880 0.069880
0.072090 0.072090 0.072090
0.074299 0.074299 0.074299
0.076622 0.076622 0.076622
0.078819 0.078819 0.078819
0.080995 0.080995 0.080995
0.083153 0.083153 0.083153
0.085293 0.085293 0.085293
0.087415 0.087415 0.087415
0.089520 0.089520 0.089520
0.091609 0.091609 0.091609
0.093682 0.093682 0.093682
0.095741 0.095741 0.095741
0.097785 0.097785 0.097785
0.099815 0.099815 0.099815
0.101833 0.101833 0.101833
0.103837 0.103837 0.103837
0.105829 0.105829 0.105829
0.107809 0.107809 0.107809
0.109777 0.109777 0.109777
0.111734 0.111734 0.111734
0.113681 0.113681 0.113681
0.115617 0.115617 0.115617
0.117543 0.117543 0.117543
0.119459 0.119459 0.119459
0.121366 0.121366 0.121366
0.123263 0.123263 0.123263
0.125152 0.125152 0.125152
0.127032 0.127032 0.127032
0.128904 0.128904 0.128904
0.130768 0.130768 0.130768
0.132624 0.132624 0.132624
0.134472 0.134472 0.134472
0.136313 0.136313 0.136313
0.138147 0.138147 0.138147
0.139974 0.139974 0.139974
0.141794 0.141794 0.141794
0.143608 0.143608 0.143608
0.145415 0.145415 0.145415
0.147216 0.147216 0.147216
0.149011 0.149011 0.149011
0.150801 0.150801 0.150801
0.152584 0.152584 0.152584
0.154362 0.154362 0.154362
0.156135 0.156135 0.156135
0.157902 0.157902 0.157902
0.159664 0.159664 0.159664
0.161422 0.161422 0.161422
0.163174 0.163174 0.163174
0.164922 0.164922 0.164922
0.166665 0.166665 0.166665
0.168404 0.168404 0.168404
0.170138 0.170138 0.170138
0.171868 0.171868 0.171868
0.173594 0.173594 0.173594
0.175316 0.175316 0.175316
0.177034 0.177034 0.177034
0.178748 0.178748 0.178748
0.180459 0.180459 0.180459
0.182165 0.182165 0.182165
0.183869 0.183869 0.183869
0.185569 0.185569 0.185569
0.187265 0.187265 0.187265
0.188958 0.188958 0.188958
0.190648 0.190648 0.190648
0.192335 0.192335 0.192335
0.194019 0.194019 0.194019
0.195700 0.195700 0.195700
0.197378 0.197378 0.197378
0.199053 0.199053 0.199053
0.200725 0.200725 0.200725
0.202395 0.202395 0.202395
0.204062 0.204062 0.204062
0.205727 0.205727 0.205727
0.207389 0.207389 0.207389
0.209048 0.209048 0.209048
0.210705 0.210705 0.210705
0.212360 0.212360 0.212360
0.214013 0.214013 0.214013
0.215663 0.215663 0.215663
0.217311 0.217311 0.217311
0.218958 0.218958 0.218958
0.220602 0.220602 0.220602
0.222244 0.222244 0.222244
0.223884 0.223884 0.223884
0.225522 0.225522 0.225522
0.227159 0.227159 0.227159
0.228793 0.228793 0.228793
0.230426 0.230426 0.230426
0.232057 0.232057 0.232057
0.233687 0.233687 0.233687
0.235315 0.235315 0.235315
0.236941 0.236941 0.236941
0.238565 0.238565 0.238565
0.240189 0.240189 0.240189
0.241810 0.241810 0.241810
0.243431 0.243431 0.243431
0.245050 0.245050 0.245050
0.246667 0.246667 0.246667
0.248283 0.248283 0.248283
0.249898 0.249898 0.249898
0.251512 0.251512 0.251512
0.253124 0.253124 0.253124
0.254735 0.254735 0.254735
0.256345 0.256345 0.256345
0.257954 0.257954 0.257954
0.259562 0.259562 0.259562
0.261169 0.261169 0.261169
0.262775 0.262775 0.262775
0.264379 0.264379 0.264379
0.265983 0.265983 0.265983
0.267586 0.267586 0.267586
0.269188 0.269188 0.269188
0.270789 0.270789 0.270789
0.272389 0.272389 0.272389
0.273988 0.273988 0.273988
0.275587 0.275587 0.275587
0.277184 0.277184 0.277184
0.278781 0.278781 0.278781
0.280377 0.280377 0.280377
0.281973 0.281973 0.281973
0.283568 0.283568 0.283568
0.285162 0.285162 0.285162
0.286755 0.286755 0.286755
0.288348 0.288348 0.288348
0.289940 0.289940 0.289940
0.291532 0.291532 0.291532
0.293123 0.293123 0.293123
0.294713 0.294713 0.294713
0.296303 0.296303 0.296303
0.297892 0.297892 0.297892
0.299481 0.299481 0.299481
0.301070 0.301070 0.301070
0.302658 0.302658 0.302658
0.304246 0.304246 0.304246
0.305833 0.305833 0.305833
0.307420 0.307420 0.307420
0.309006 0.309006 0.309006
0.310592 0.310592 0.310592
0.312178 0.312178 0.312178
0.313763 0.313763 0.313763
0.315348 0.315348 0.315348
0.316933 0.316933 0.316933
0.318518 0.318518 0.318518
0.320102 0.320102 0.320102
0.321686 0.321686 0.321686
0.323270 0.323270 0.323270
0.324854 0.324854 0.324854
0.326437 0.326437 0.326437
0.328020 0.328020 0.328020
0.329603 0.329603 0.329603
0.331186 0.331186 0.331186
0.332769 0.332769 0.332769
0.334352 0.334352 0.334352
0.335934 0.335934 0.335934
0.337517 0.337517 0.337517
0.339099 0.339099 0.339099
0.340681 0.340681 0.340681
0.342263 0.342263 0.342263
0.343846 0.343846 0.343846
0.345428 0.345428 0.345428
0.347010 0.347010 0.347010
0.348592 0.348592 0.348592
0.350174 0.350174 0.350174
0.351756 0.351756 0.351756
0.353338 0.353338 0.353338
0.354921 0.354921 0.354921
0.356503 0.356503 0.356503
0.358085 0.358085 0.358085
0.359667 0.359667 0.359667
0.361250 0.361250 0.361250
0.362832 0.362832 0.362832
0.364415 0.364415 0.364415
0.365998 0.365998 0.365998
0.367581 0.367581 0.367581
0.369164 0.369164 0.369164
0.370747 0.370747 0.370747
0.372330 0.372330 0.372330
0.373913 0.373913 0.373913
0.375497 0.375497 0.375497
0.377081 0.377081 0.377081
0.378665 0.378665 0.378665
0.380249 0.380249 0.380249
0.381833 0.381833 0.381833
0.383418 0.383418 0.383418
0.385003 0.385003 0.385003
0.386588 0.386588 0.386588
0.388173 0.388173 0.388173
0.389759 0.389759 0.389759
0.391345 0.391345 0.391345
0.392931 0.392931 0.392931
0.394517 0.394517 0.394517
0.396104 0.396104 0.396104
0.397691 0.397691 0.397691
0.399278 0.399278 0.399278
0.400865 0.400865 0.400865
0.402453 0.402453 0.402453
0.404041 0.404041 0.404041
0.405630 0.405630 0.405630
0.407219 0.407219 0.407219
0.408808 0.408808 0.408808
0.410398 0.410398 0.410398
0.411987 0.411987 0.411987
0.413578 0.413578 0.413578
0.415168 0.415168 0.415168
0.416759 0.416759 0.416759
0.418351 0.418351 0.418351
0.419942 0.419942 0.419942
0.421535 0.421535 0.421535
0.423127 0.423127 0.423127
0.424720 0.424720 0.424720
0.426314 0.426314 0.426314
0.427907 0.427907 0.427907
0.429502 0.429502 0.429502
0.431096 0.431096 0.431096
0.432692 0.432692 0.432692
0.434287 0.434287 0.434287
0.435883 0.435883 0.435883
0.437480 0.437480 0.437480
0.439077 0.439077 0.439077
0.440674 0.440674 0.440674
0.442272 0.442272 0.442272
0.443871 0.443871 0.443871
0.445469 0.445469 0.445469
0.447069 0.447069 0.447069
0.448669 0.448669 0.448669
0.450269 0.450269 0.450269
0.451870 0.451870 0.451870
0.453471 0.453471 0.453471
0.455073 0.455073 0.455073
0.456672 0.456672 0.456672
0.458263 0.458263 0.458263
0.459848 0.459848 0.459848
0.461426 0.461426 0.461426
0.462997 0.462997 0.462997
0.464562 0.464562 0.464562
0.466121 0.466121 0.466121
0.467674 0.467674 0.467674
0.469221 0.469221 0.469221
0.470761 0.470761 0.470761
0.472296 0.472296 0.472296
0.473825 0.473825 0.473825
0.475349 0.475349 0.475349
0.476867 0.476867 0.476867
0.478379 0.478379 0.478379
0.479886 0.479886 0.479886
0.481387 0.481387 0.481387
0.482884 0.482884 0.482884
0.484375 0.484375 0.484375
0.485861 0.485861 0.485861
0.487342 0.487342 0.487342
0.488819 0.488819 0.488819
0.490290 0.490290 0.490290
0.491756 0.491756 0.491756
0.493218 0.493218 0.493218
0.494675 0.494675 0.494675
0.496128 0.496128 0.496128
0.497576 0.497576 0.497576
0.499019 0.499019 0.499019
0.500459 0.500459 0.500459
0.501893 0.501893 0.501893
0.503324 0.503324 0.503324
0.504750 0.504750 0.504750
0.506172 0.506172 0.506172
0.507590 0.507590 0.507590
0.509004 0.509004 0.509004
0.510413 0.510413 0.510413
0.511819 0.511819 0.511819
0.513221 0.513221 0.513221
0.514619 0.514619 0.514619
0.516013 0.516013 0.516013
0.517403 0.517403 0.517403
0.518790 0.518790 0.518790
0.520173 0.520173 0.520173
0.521552 0.521552 0.521552
0.522927 0.522927 0.522927
0.524299 0.524299 0.524299
0.525668 0.525668 0.525668
0.527033 0.527033 0.527033
0.528394 0.528394 0.528394
0.529752 0.529752 0.529752
0.531106 0.531106 0.531106
0.532458 0.532458 0.532458
0.533805 0.533805 0.533805
0.535150 0.535150 0.535150
0.536491 0.536491 0.536491
0.537829 0.537829 0.537829
0.539164 0.539164 0.539164
0.540495 0.540495 0.540495
0.541824 0.541824 0.541824
0.543149 0.543149 0.543149
0.544472 0.544472 0.544472
0.545791 0.545791 0.545791
0.547107 0.547107 0.547107
0.548420 0.548420 0.548420
0.549730 0.549730 0.549730
0.551037 0.551037 0.551037
0.552342 0.552342 0.552342
0.553643 0.553643 0.553643
0.554942 0.554942 0.554942
0.556237 0.556237 0.556237
0.557530 0.557530 0.557530
0.558820 0.558820 0.558820
0.560107 0.560107 0.560107
0.561392 0.561392 0.561392
0.562673 0.562673 0.562673
0.563952 0.563952 0.563952
0.565229 0.565229 0.565229
0.566502 0.566502 0.566502
0.567773 0.567773 0.567773
0.569041 0.569041 0.569041
0.570307 0.570307 0.570307
0.571570 0.571570 0.571570
0.572830 0.572830 0.572830
0.574088 0.574088 0.574088
0.575344 0.575344 0.575344
0.576596 0.576596 0.576596
0.577847 0.577847 0.577847
0.579094 0.579094 0.579094
0.580340 0.580340 0.580340
0.581582 0.581582 0.581582
0.582823 0.582823 0.582823
0.584061 0.584061 0.584061
0.585296 0.585296 0.585296
0.586529 0.586529 0.586529
0.587760 0.587760 0.587760
0.588988 0.588988 0.588988
0.590214 0.590214 0.590214
0.591437 0.591437 0.591437
0.592659 0.592659 0.592659
0.593877 0.593877 0.593877
0.595094 0.595094 0.595094
0.596308 0.596308 0.596308
0.597520 0.597520 0.597520
0.598730 0.598730 0.598730
0.599937 0.599937 0.599937
0.601142 0.601142 0.601142
0.602345 0.602345 0.602345
0.603546 0.603546 0.603546
0.604744 0.604744 0.604744
0.605940 0.605940 0.605940
0.607134 0.607134 0.607134
0.608326 0.608326 0.608326
0.609516 0.609516 0.609516
0.610703 0.610703 0.610703
0.611889 0.611889 0.611889
0.613072 0.613072 0.613072
0.614253 0.614253 0.614253
0.615432 0.615432 0.615432
0.616608 0.616608 0.616608
0.617783 0.617783 0.617783
0.618955 0.618955 0.618955
0.620126 0.620126 0.620126
0.621294 0.621294 0.621294
0.622460 0.622460 0.622460
0.623624 0.623624 0.623624
0.624786 0.624786 0.624786
0.625946 0.625946 0.625946
0.627104 0.627104 0.627104
0.628260 0.628260 0.628260
0.629414 0.629414 0.629414
0.630566 0.630566 0.630566
0.631715 0.631715 0.631715
0.632863 0.632863 0.632863
0.634009 0.634009 0.634009
0.635152 0.635152 0.635152
0.636294 0.636294 0.636294
0.637434 0.637434 0.637434
0.638571 0.638571 0.638571
0.639707 0.639707 0.639707
0.640841 0.640841 0.640841
0.641973 0.641973 0.641973
0.643102 0.643102 0.643102
0.644230 0.644230 0.644230
0.645356 0.645356 0.645356
0.646480 0.646480 0.646480
0.647602 0.647602 0.647602
0.648722 0.648722 0.648722
0.649840 0.649840 0.649840
0.650956 0.650956 0.650956
0.652070 0.652070 0.652070
0.653182 0.653182 0.653182
0.654293 0.654293 0.654293
0.655401 0.655401 0.655401
0.656508 0.656508 0.656508
0.657612 0.657612 0.657612
0.658715 0.658715 0.658715
0.659816 0.659816 0.659816
0.660915 0.660915 0.660915
0.662012 0.662012 0.662012
0.663107 0.663107 0.663107
0.664200 0.664200 0.664200
0.665291 0.665291 0.665291
0.666381 0.666381 0.666381
0.667469 0.667469 0.667469
0.668554 0.668554 0.668554
0.669638 0.669638 0.669638
0.670720 0.670720 0.670720
0.671800 0.671800 0.671800
0.672878 0.672878 0.672878
0.673955 0.673955 0.673955
0.675029 0.675029 0.675029
0.676102 0.676102 0.676102
0.677173 0.677173 0.677173
0.678242 0.678242 0.678242
0.679309 0.679309 0.679309
0.680374 0.680374 0.680374
0.681438 0.681438 0.681438
0.682499 0.682499 0.682499
0.683559 0.683559 0.683559
0.684617 0.684617 0.684617
0.685673 0.685673 0.685673
0.686727 0.686727 0.686727
0.687780 0.687780 0.687780
0.688830 0.688830 0.688830
0.689879 0.689879 0.689879
0.690926 0.690926 0.690926
0.691971 0.691971 0.691971
0.693015 0.693015 0.693015
0.694056 0.694056 0.694056
0.695096 0.695096 0.695096
0.696134 0.696134 0.696134
0.697170 0.697170 0.697170
0.698204 0.698204 0.698204
0.699237 0.699237 0.699237
0.700267 0.700267 0.700267
0.701296 0.701296 0.701296
0.702323 0.702323 0.702323
0.703348 0.703348 0.703348
0.704372 0.704372 0.704372
0.705393 0.705393 0.705393
0.706413 0.706413 0.706413
0.707431 0.707431 0.707431
0.708447 0.708447 0.708447
0.709462 0.709462 0.709462
0.710474 0.710474 0.710474
0.711485 0.711485 0.711485
0.712494 0.712494 0.712494
0.713501 0.713501 0.713501
0.714507 0.714507 0.714507
0.715511 0.715511 0.715511
0.716512 0.716512 0.716512
0.717512 0.717512 0.717512
0.718511 0.718511 0.718511
0.719507 0.719507 0.719507
0.720502 0.720502 0.720502
0.721495 0.721495 0.721495
0.722486 0.722486 0.722486
0.723475 0.723475 0.723475
0.724463 0.724463 0.724463
0.725448 0.725448 0.725448
0.726432 0.726432 0.726432
0.727415 0.727415 0.727415
0.728395 0.728395 0.728395
0.729374 0.729374 0.729374
0.730350 0.730350 0.730350
0.731326 0.731326 0.731326
0.732299 0.732299 0.732299
0.733270 0.733270 0.733270
0.734240 0.734240 0.734240
0.735208 0.735208 0.735208
0.736174 0.736174 0.736174
0.737138 0.737138 0.737138
0.738101 0.738101 0.738101
0.739062 0.739062 0.739062
0.740021 0.740021 0.740021
0.740978 0.740978 0.740978
0.741933 0.741933 0.741933
0.742887 0.742887 0.742887
0.743839 0.743839 0.743839
0.744789 0.744789 0.744789
0.745737 0.745737 0.745737
0.746684 0.746684 0.746684
0.747628 0.747628 0.747628
0.748571 0.748571 0.748571
0.749512 0.749512 0.749512
0.750452 0.750452 0.750452
0.751389 0.751389 0.751389
0.752325 0.752325 0.752325
0.753259 0.753259 0.753259
0.754192 0.754192 0.754192
0.755122 0.755122 0.755122
0.756051 0.756051 0.756051
0.756978 0.756978 0.756978
0.757903 0.757903 0.757903
0.758826 0.758826 0.758826
0.759748 0.759748 0.759748
0.760667 0.760667 0.760667
0.761585 0.761585 0.761585
0.762502 0.762502 0.762502
0.763416 0.763416 0.763416
0.764329 0.764329 0.764329
0.765240 0.765240 0.765240
0.766149 0.766149 0.766149
0.767056 0.767056 0.767056
0.767961 0.767961 0.767961
0.768865 0.768865 0.768865
0.769767 0.769767 0.769767
0.770667 0.770667 0.770667
0.771566 0.771566 0.771566
0.772462 0.772462 0.772462
0.773357 0.773357 0.773357
0.774250 0.774250 0.774250
0.775141 0.775141 0.775141
0.776031 0.776031 0.776031
0.776918 0.776918 0.776918
0.777804 0.777804 0.777804
0.778688 0.778688 0.778688
0.779571 0.779571 0.779571
0.780451 0.780451 0.780451
0.781330 0.781330 0.781330
0.782207 0.782207 0.782207
0.783082 0.783082 0.783082
0.783955 0.783955 0.783955
0.784827 0.784827 0.784827
0.785697 0.785697 0.785697
0.786565 0.786565 0.786565
0.787431 0.787431 0.787431
0.788295 0.788295 0.788295
0.789158 0.789158 0.789158
0.790019 0.790019 0.790019
0.790878 0.790878 0.790878
0.791735 0.791735 0.791735
0.792591 0.792591 0.792591
0.793444 0.793444 0.793444
0.794296 0.794296 0.794296
0.795147 0.795147 0.795147
0.795995 0.795995 0.795995
0.796841 0.796841 0.796841
0.797686 0.797686 0.797686
0.798529 0.798529 0.798529
0.799370 0.799370 0.799370
0.800210 0.800210 0.800210
0.801047 0.801047 0.801047
0.801883 0.801883 0.801883
0.802717 0.802717 0.802717
0.803549 0.803549 0.803549
0.804380 0.804380 0.804380
0.805209 0.805209 0.805209
0.806035 0.806035 0.806035
0.806861 0.806861 0.806861
0.807684 0.807684 0.807684
0.808505 0.808505 0.808505
0.809325 0.809325 0.809325
0.810143 0.810143 0.810143
0.810959 0.810959 0.810959
0.811774 0.811774 0.811774
0.812586 0.812586 0.812586
0.813397 0.813397 0.813397
0.814206 0.814206 0.814206
0.815013 0.815013 0.815013
0.815819 0.815819 0.815819
0.816622 0.816622 0.816622
0.817424 0.817424 0.817424
0.818224 0.818224 0.818224
0.819023 0.819023 0.819023
0.819819 0.819819 0.819819
0.820614 0.820614 0.820614
0.821407 0.821407 0.821407
0.822198 0.822198 0.822198
0.822987 0.822987 0.822987
0.823775 0.823775 0.823775
0.824561 0.824561 0.824561
0.825345 0.825345 0.825345
0.826127 0.826127 0.826127
0.826907 0.826907 0.826907
0.827686 0.827686 0.827686
0.828463 0.828463 0.828463
0.829238 0.829238 0.829238
0.830012 0.830012 0.830012
0.830783 0.830783 0.830783
0.831553 0.831553 0.831553
0.832321 0.832321 0.832321
0.833087 0.833087 0.833087
0.833852 0.833852 0.833852
0.834615 0.834615 0.834615
0.835376 0.835376 0.835376
0.836135 0.836135 0.836135
0.836892 0.836892 0.836892
0.837648 0.837648 0.837648
0.838402 0.838402 0.838402
0.839154 0.839154 0.839154
0.839904 0.839904 0.839904
0.840653 0.840653 0.840653
0.841399 0.841399 0.841399
0.842144 0.842144 0.842144
0.842888 0.842888 0.842888
0.843629 0.843629 0.843629
0.844369 0.844369 0.844369
0.845107 0.845107 0.845107
0.845843 0.845843 0.845843
0.846578 0.846578 0.846578
0.847310 0.847310 0.847310
0.848041 0.848041 0.848041
0.848771 0.848771 0.848771
0.849498 0.849498 0.849498
0.850224 0.850224 0.850224
0.850948 0.850948 0.850948
0.851670 0.851670 0.851670
0.852391 0.852391 0.852391
0.853109 0.853109 0.853109
0.853826 0.853826 0.853826
0.854542 0.854542 0.854542
0.855255 0.855255 0.855255
0.855967 0.855967 0.855967
0.856677 0.856677 0.856677
0.857385 0.857385 0.857385
0.858092 0.858092 0.858092
0.858797 0.858797 0.858797
0.859500 0.859500 0.859500
0.860201 0.860201 0.860201
0.860901 0.860901 0.860901
0.861599 0.861599 0.861599
0.862295 0.862295 0.862295
0.862990 0.862990 0.862990
0.863683 0.863683 0.863683
0.864374 0.864374 0.864374
0.865063 0.865063 0.865063
0.865751 0.865751 0.865751
0.866437 0.866437 0.866437
0.867121 0.867121 0.867121
0.867803 0.867803 0.867803
0.868484 0.868484 0.868484
0.869163 0.869163 0.869163
0.869841 0.869841 0.869841
0.870517 0.870517 0.870517
0.871191 0.871191 0.871191
0.871863 0.871863 0.871863
0.872534 0.872534 0.872534
0.873203 0.873203 0.873203
0.873870 0.873870 0.873870
0.874536 0.874536 0.874536
0.875200 0.875200 0.875200
0.875862 0.875862 0.875862
0.876523 0.876523 0.876523
0.877182 0.877182 0.877182
0.877839 0.877839 0.877839
0.878495 0.878495 0.878495
0.879149 0.879149 0.879149
0.879801 0.879801 0.879801
0.880452 0.880452 0.880452
0.881101 0.881101 0.881101
0.881748 0.881748 0.881748
0.882394 0.882394 0.882394
0.883038 0.883038 0.883038
0.883681 0.883681 0.883681
0.884322 0.884322 0.884322
0.884961 0.884961 0.884961
0.885598 0.885598 0.885598
0.886234 0.886234 0.886234
0.886869 0.886869 0.886869
0.887502 0.887502 0.887502
0.888133 0.888133 0.888133
0.888762 0.888762 0.888762
0.889390 0.889390 0.889390
0.890017 0.890017 0.890017
0.890641 0.890641 0.890641
0.891264 0.891264 0.891264
0.891886 0.891886 0.891886
0.892506 0.892506 0.892506
0.893124 0.893124 0.893124
0.893741 0.893741 0.893741
0.894357 0.894357 0.894357
0.894970 0.894970 0.894970
0.895582 0.895582 0.895582
0.896193 0.896193 0.896193
0.896802 0.896802 0.896802
0.897409 0.897409 0.897409
0.898015 0.898015 0.898015
0.898620 0.898620 0.898620
0.899223 0.899223 0.899223
0.899824 0.899824 0.899824
0.900424 0.900424 0.900424
0.901022 0.901022 0.901022
0.901619 0.901619 0.901619
0.902214 0.902214 0.902214
0.902808 0.902808 0.902808
0.903400 0.903400 0.903400
0.903991 0.903991 0.903991
0.904580 0.904580 0.904580
0.905168 0.905168 0.905168
0.905754 0.905754 0.905754
0.906339 0.906339 0.906339
0.906922 0.906922 0.906922
0.907504 0.907504 0.907504
0.908085 0.908085 0.908085
0.908664 0.908664 0.908664
0.909241 0.909241 0.909241
0.909817 0.909817 0.909817
0.910392 0.910392 0.910392
0.910965 0.910965 0.910965
0.911537 0.911537 0.911537
0.912107 0.912107 0.912107
0.912676 0.912676 0.912676
0.913244 0.913244 0.913244
0.913810 0.913810 0.913810
0.914375 0.914375 0.914375
0.914938 0.914938 0.914938
0.915500 0.915500 0.915500
0.916061 0.916061 0.916061
0.916620 0.916620 0.916620
0.917178 0.917178 0.917178
0.917735 0.917735 0.917735
0.918290 0.918290 0.918290
0.918844 0.918844 0.918844
0.919396 0.919396 0.919396
0.919947 0.919947 0.919947
0.920497 0.920497 0.920497
0.921046 0.921046 0.921046
0.921593 0.921593 0.921593
0.922139 0.922139 0.922139
0.922683 0.922683 0.922683
0.923227 0.923227 0.923227
0.923769 0.923769 0.923769
0.924310 0.924310 0.924310
0.924849 0.924849 0.924849
0.925387 0.925387 0.925387
0.925924 0.925924 0.925924
0.926460 0.926460 0.926460
0.926995 0.926995 0.926995
0.927528 0.927528 0.927528
0.928060 0.928060 0.928060
0.928591 0.928591 0.928591
0.929121 0.929121 0.929121
