Luts Download/Canon Luts/1dlut/canonlog-to-gamma-1dlut/full-to-full-range/CanonLog_12-to-WideDR_FF_Ver.2.0.cube
# Gamma : Canon Log to Wide DR
# Range : Full in / Full out
# Version : 2.0 2016/10/27
# Copyright(c) 2016 Canon Inc. All Rights Reserved.

LUT_1D_SIZE 4096
0.000000 0.000000 0.000000
0.000000 0.000000 0.000000
0.000000 0.000000 0.000000
0.000000 0.000000 0.000000
0.000000 0.000000 0.000000
0.000000 0.000000 0.000000
0.000000 0.000000 0.000000
0.000000 0.000000 0.000000
0.000000 0.000000 0.000000
0.000000 0.000000 0.000000
0.000000 0.000000 0.000000
0.000000 0.000000 0.000000
0.000000 0.000000 0.000000
0.000000 0.000000 0.000000
0.000000 0.000000 0.000000
0.000000 0.000000 0.000000
0.000000 0.000000 0.000000
0.000000 0.000000 0.000000
0.000000 0.000000 0.000000
0.000000 0.000000 0.000000
0.000000 0.000000 0.000000
0.000000 0.000000 0.000000
0.000000 0.000000 0.000000
0.000000 0.000000 0.000000
0.000000 0.000000 0.000000
0.000000 0.000000 0.000000
0.000000 0.000000 0.000000
0.000000 0.000000 0.000000
0.000000 0.000000 0.000000
0.000000 0.000000 0.000000
0.000000 0.000000 0.000000
0.000000 0.000000 0.000000
0.000000 0.000000 0.000000
0.000000 0.000000 0.000000
0.000000 0.000000 0.000000
0.000000 0.000000 0.000000
0.000000 0.000000 0.000000
0.000000 0.000000 0.000000
0.000000 0.000000 0.000000
0.000000 0.000000 0.000000
0.000000 0.000000 0.000000
0.000000 0.000000 0.000000
0.000000 0.000000 0.000000
0.000000 0.000000 0.000000
0.000000 0.000000 0.000000
0.000000 0.000000 0.000000
0.000000 0.000000 0.000000
0.000000 0.000000 0.000000
0.000000 0.000000 0.000000
0.000000 0.000000 0.000000
0.000000 0.000000 0.000000
0.000000 0.000000 0.000000
0.000000 0.000000 0.000000
0.000000 0.000000 0.000000
0.000000 0.000000 0.000000
0.000000 0.000000 0.000000
0.000000 0.000000 0.000000
0.000000 0.000000 0.000000
0.000000 0.000000 0.000000
0.000000 0.000000 0.000000
0.000000 0.000000 0.000000
0.000000 0.000000 0.000000
0.000000 0.000000 0.000000
0.000000 0.000000 0.000000
0.000000 0.000000 0.000000
0.000000 0.000000 0.000000
0.000000 0.000000 0.000000
0.000000 0.000000 0.000000
0.000000 0.000000 0.000000
0.000000 0.000000 0.000000
0.000000 0.000000 0.000000
0.000000 0.000000 0.000000
0.000000 0.000000 0.000000
0.000000 0.000000 0.000000
0.000000 0.000000 0.000000
0.000000 0.000000 0.000000
0.000000 0.000000 0.000000
0.000000 0.000000 0.000000
0.000000 0.000000 0.000000
0.000000 0.000000 0.000000
0.000000 0.000000 0.000000
0.000000 0.000000 0.000000
0.000000 0.000000 0.000000
0.000000 0.000000 0.000000
0.000000 0.000000 0.000000
0.000000 0.000000 0.000000
0.000000 0.000000 0.000000
0.000000 0.000000 0.000000
0.000000 0.000000 0.000000
0.000000 0.000000 0.000000
0.000000 0.000000 0.000000
0.000000 0.000000 0.000000
0.000000 0.000000 0.000000
0.000000 0.000000 0.000000
0.000000 0.000000 0.000000
0.000000 0.000000 0.000000
0.000000 0.000000 0.000000
0.000000 0.000000 0.000000
0.000000 0.000000 0.000000
0.000000 0.000000 0.000000
0.000000 0.000000 0.000000
0.000000 0.000000 0.000000
0.000000 0.000000 0.000000
0.000000 0.000000 0.000000
0.000000 0.000000 0.000000
0.000000 0.000000 0.000000
0.000000 0.000000 0.000000
0.000000 0.000000 0.000000
0.000000 0.000000 0.000000
0.000000 0.000000 0.000000
0.000000 0.000000 0.000000
0.000000 0.000000 0.000000
0.000000 0.000000 0.000000
0.000000 0.000000 0.000000
0.000000 0.000000 0.000000
0.000000 0.000000 0.000000
0.000000 0.000000 0.000000
0.000000 0.000000 0.000000
0.000000 0.000000 0.000000
0.000000 0.000000 0.000000
0.000000 0.000000 0.000000
0.000000 0.000000 0.000000
0.000000 0.000000 0.000000
0.000000 0.000000 0.000000
0.000000 0.000000 0.000000
0.000000 0.000000 0.000000
0.000000 0.000000 0.000000
0.000000 0.000000 0.000000
0.000000 0.000000 0.000000
0.000000 0.000000 0.000000
0.000000 0.000000 0.000000
0.000000 0.000000 0.000000
0.000000 0.000000 0.000000
0.000000 0.000000 0.000000
0.000000 0.000000 0.000000
0.000000 0.000000 0.000000
0.000000 0.000000 0.000000
0.000000 0.000000 0.000000
0.000000 0.000000 0.000000
0.000000 0.000000 0.000000
0.000000 0.000000 0.000000
0.000000 0.000000 0.000000
0.000000 0.000000 0.000000
0.000000 0.000000 0.000000
0.000000 0.000000 0.000000
0.000000 0.000000 0.000000
0.000000 0.000000 0.000000
0.000000 0.000000 0.000000
0.000000 0.000000 0.000000
0.000000 0.000000 0.000000
0.000000 0.000000 0.000000
0.000000 0.000000 0.000000
0.000000 0.000000 0.000000
0.000000 0.000000 0.000000
0.000000 0.000000 0.000000
0.000000 0.000000 0.000000
0.000000 0.000000 0.000000
0.000000 0.000000 0.000000
0.000000 0.000000 0.000000
0.000000 0.000000 0.000000
0.000000 0.000000 0.000000
0.000000 0.000000 0.000000
0.000000 0.000000 0.000000
0.000000 0.000000 0.000000
0.000000 0.000000 0.000000
0.000000 0.000000 0.000000
0.000000 0.000000 0.000000
0.000000 0.000000 0.000000
0.000000 0.000000 0.000000
0.000000 0.000000 0.000000
0.000000 0.000000 0.000000
0.000000 0.000000 0.000000
0.000000 0.000000 0.000000
0.000000 0.000000 0.000000
0.000000 0.000000 0.000000
0.000000 0.000000 0.000000
0.000000 0.000000 0.000000
0.000000 0.000000 0.000000
0.000000 0.000000 0.000000
0.000000 0.000000 0.000000
0.000000 0.000000 0.000000
0.000000 0.000000 0.000000
0.000000 0.000000 0.000000
0.000000 0.000000 0.000000
0.000000 0.000000 0.000000
0.000000 0.000000 0.000000
0.000000 0.000000 0.000000
0.000000 0.000000 0.000000
0.000000 0.000000 0.000000
0.000000 0.000000 0.000000
0.000000 0.000000 0.000000
0.000000 0.000000 0.000000
0.000000 0.000000 0.000000
0.000000 0.000000 0.000000
0.000000 0.000000 0.000000
0.000000 0.000000 0.000000
0.000000 0.000000 0.000000
0.000000 0.000000 0.000000
0.000000 0.000000 0.000000
0.000000 0.000000 0.000000
0.000000 0.000000 0.000000
0.000000 0.000000 0.000000
0.000000 0.000000 0.000000
0.000000 0.000000 0.000000
0.000000 0.000000 0.000000
0.000000 0.000000 0.000000
0.000000 0.000000 0.000000
0.000000 0.000000 0.000000
0.000000 0.000000 0.000000
0.000000 0.000000 0.000000
0.000000 0.000000 0.000000
0.000000 0.000000 0.000000
0.000000 0.000000 0.000000
0.000000 0.000000 0.000000
0.000000 0.000000 0.000000
0.000000 0.000000 0.000000
0.000000 0.000000 0.000000
0.000000 0.000000 0.000000
0.000000 0.000000 0.000000
0.000000 0.000000 0.000000
0.000000 0.000000 0.000000
0.000000 0.000000 0.000000
0.000000 0.000000 0.000000
0.000000 0.000000 0.000000
0.000000 0.000000 0.000000
0.000000 0.000000 0.000000
0.000000 0.000000 0.000000
0.000000 0.000000 0.000000
0.000000 0.000000 0.000000
0.000000 0.000000 0.000000
0.000000 0.000000 0.000000
0.000000 0.000000 0.000000
0.000000 0.000000 0.000000
0.000000 0.000000 0.000000
0.000000 0.000000 0.000000
0.000000 0.000000 0.000000
0.000000 0.000000 0.000000
0.000000 0.000000 0.000000
0.000000 0.000000 0.000000
0.000000 0.000000 0.000000
0.000000 0.000000 0.000000
0.000000 0.000000 0.000000
0.000000 0.000000 0.000000
0.000000 0.000000 0.000000
0.000000 0.000000 0.000000
0.000000 0.000000 0.000000
0.000000 0.000000 0.000000
0.000000 0.000000 0.000000
0.000000 0.000000 0.000000
0.000000 0.000000 0.000000
0.000000 0.000000 0.000000
0.000000 0.000000 0.000000
0.000000 0.000000 0.000000
0.000000 0.000000 0.000000
0.000000 0.000000 0.000000
0.000000 0.000000 0.000000
0.000000 0.000000 0.000000
0.000000 0.000000 0.000000
0.000000 0.000000 0.000000
0.000000 0.000000 0.000000
0.000000 0.000000 0.000000
0.000000 0.000000 0.000000
0.000000 0.000000 0.000000
0.000000 0.000000 0.000000
0.000000 0.000000 0.000000
0.000000 0.000000 0.000000
0.000000 0.000000 0.000000
0.000000 0.000000 0.000000
0.000000 0.000000 0.000000
0.000000 0.000000 0.000000
0.000000 0.000000 0.000000
0.000000 0.000000 0.000000
0.000000 0.000000 0.000000
0.000000 0.000000 0.000000
0.000000 0.000000 0.000000
0.000000 0.000000 0.000000
0.000000 0.000000 0.000000
0.000000 0.000000 0.000000
0.000000 0.000000 0.000000
0.000000 0.000000 0.000000
0.000000 0.000000 0.000000
0.000000 0.000000 0.000000
0.000000 0.000000 0.000000
0.000000 0.000000 0.000000
0.000000 0.000000 0.000000
0.000000 0.000000 0.000000
0.000000 0.000000 0.000000
0.000000 0.000000 0.000000
0.000000 0.000000 0.000000
0.000000 0.000000 0.000000
0.000000 0.000000 0.000000
0.000000 0.000000 0.000000
0.000000 0.000000 0.000000
0.000000 0.000000 0.000000
0.000000 0.000000 0.000000
0.000000 0.000000 0.000000
0.000000 0.000000 0.000000
0.000000 0.000000 0.000000
0.000000 0.000000 0.000000
0.000000 0.000000 0.000000
0.000000 0.000000 0.000000
0.000000 0.000000 0.000000
0.000000 0.000000 0.000000
0.000000 0.000000 0.000000
0.000000 0.000000 0.000000
0.000000 0.000000 0.000000
0.000000 0.000000 0.000000
0.000000 0.000000 0.000000
0.000000 0.000000 0.000000
0.000000 0.000000 0.000000
0.000000 0.000000 0.000000
0.000000 0.000000 0.000000
0.000000 0.000000 0.000000
0.000000 0.000000 0.000000
0.000000 0.000000 0.000000
0.000000 0.000000 0.000000
0.000000 0.000000 0.000000
0.000000 0.000000 0.000000
0.000000 0.000000 0.000000
0.000000 0.000000 0.000000
0.000000 0.000000 0.000000
0.000000 0.000000 0.000000
0.000000 0.000000 0.000000
0.000000 0.000000 0.000000
0.000000 0.000000 0.000000
0.000000 0.000000 0.000000
0.000000 0.000000 0.000000
0.000000 0.000000 0.000000
0.000000 0.000000 0.000000
0.000000 0.000000 0.000000
0.000000 0.000000 0.000000
0.000000 0.000000 0.000000
0.000000 0.000000 0.000000
0.000000 0.000000 0.000000
0.000000 0.000000 0.000000
0.000000 0.000000 0.000000
0.000000 0.000000 0.000000
0.000000 0.000000 0.000000
0.000000 0.000000 0.000000
0.000000 0.000000 0.000000
0.000000 0.000000 0.000000
0.000000 0.000000 0.000000
0.000000 0.000000 0.000000
0.000000 0.000000 0.000000
0.000000 0.000000 0.000000
0.000000 0.000000 0.000000
0.000000 0.000000 0.000000
0.000000 0.000000 0.000000
0.000000 0.000000 0.000000
0.000000 0.000000 0.000000
0.000000 0.000000 0.000000
0.000000 0.000000 0.000000
0.000000 0.000000 0.000000
0.000000 0.000000 0.000000
0.000000 0.000000 0.000000
0.000000 0.000000 0.000000
0.000000 0.000000 0.000000
0.000000 0.000000 0.000000
0.000000 0.000000 0.000000
0.000000 0.000000 0.000000
0.000000 0.000000 0.000000
0.000000 0.000000 0.000000
0.000000 0.000000 0.000000
0.000000 0.000000 0.000000
0.000000 0.000000 0.000000
0.000000 0.000000 0.000000
0.000000 0.000000 0.000000
0.000000 0.000000 0.000000
0.000000 0.000000 0.000000
0.000000 0.000000 0.000000
0.000000 0.000000 0.000000
0.000000 0.000000 0.000000
0.000000 0.000000 0.000000
0.000000 0.000000 0.000000
0.000000 0.000000 0.000000
0.000000 0.000000 0.000000
0.000000 0.000000 0.000000
0.000000 0.000000 0.000000
0.000000 0.000000 0.000000
0.000000 0.000000 0.000000
0.000000 0.000000 0.000000
0.000000 0.000000 0.000000
0.000000 0.000000 0.000000
0.000000 0.000000 0.000000
0.000000 0.000000 0.000000
0.000000 0.000000 0.000000
0.000000 0.000000 0.000000
0.000000 0.000000 0.000000
0.000000 0.000000 0.000000
0.000000 0.000000 0.000000
0.000000 0.000000 0.000000
0.000000 0.000000 0.000000
0.000000 0.000000 0.000000
0.000000 0.000000 0.000000
0.000000 0.000000 0.000000
0.000000 0.000000 0.000000
0.000000 0.000000 0.000000
0.000000 0.000000 0.000000
0.000000 0.000000 0.000000
0.000000 0.000000 0.000000
0.000000 0.000000 0.000000
0.000000 0.000000 0.000000
0.000000 0.000000 0.000000
0.000000 0.000000 0.000000
0.000000 0.000000 0.000000
0.000000 0.000000 0.000000
0.000000 0.000000 0.000000
0.000000 0.000000 0.000000
0.000000 0.000000 0.000000
0.000000 0.000000 0.000000
0.000000 0.000000 0.000000
0.000000 0.000000 0.000000
0.000000 0.000000 0.000000
0.000000 0.000000 0.000000
0.000000 0.000000 0.000000
0.000000 0.000000 0.000000
0.000000 0.000000 0.000000
0.000000 0.000000 0.000000
0.000000 0.000000 0.000000
0.000000 0.000000 0.000000
0.000000 0.000000 0.000000
0.000000 0.000000 0.000000
0.000000 0.000000 0.000000
0.000000 0.000000 0.000000
0.000000 0.000000 0.000000
0.000000 0.000000 0.000000
0.000000 0.000000 0.000000
0.000000 0.000000 0.000000
0.000000 0.000000 0.000000
0.000000 0.000000 0.000000
0.000000 0.000000 0.000000
0.000000 0.000000 0.000000
0.000000 0.000000 0.000000
0.000000 0.000000 0.000000
0.000000 0.000000 0.000000
0.000000 0.000000 0.000000
0.000000 0.000000 0.000000
0.000000 0.000000 0.000000
0.000000 0.000000 0.000000
0.000000 0.000000 0.000000
0.000000 0.000000 0.000000
0.000000 0.000000 0.000000
0.000000 0.000000 0.000000
0.000000 0.000000 0.000000
0.000000 0.000000 0.000000
0.000000 0.000000 0.000000
0.000000 0.000000 0.000000
0.000000 0.000000 0.000000
0.000000 0.000000 0.000000
0.000000 0.000000 0.000000
0.000000 0.000000 0.000000
0.000000 0.000000 0.000000
0.000000 0.000000 0.000000
0.000000 0.000000 0.000000
0.000000 0.000000 0.000000
0.000000 0.000000 0.000000
0.000000 0.000000 0.000000
0.000000 0.000000 0.000000
0.000000 0.000000 0.000000
0.000000 0.000000 0.000000
0.000000 0.000000 0.000000
0.000000 0.000000 0.000000
0.000000 0.000000 0.000000
0.000000 0.000000 0.000000
0.000000 0.000000 0.000000
0.000000 0.000000 0.000000
0.000000 0.000000 0.000000
0.000000 0.000000 0.000000
0.000000 0.000000 0.000000
0.000000 0.000000 0.000000
0.000000 0.000000 0.000000
0.000000 0.000000 0.000000
0.000000 0.000000 0.000000
0.000000 0.000000 0.000000
0.000000 0.000000 0.000000
0.000000 0.000000 0.000000
0.000000 0.000000 0.000000
0.000000 0.000000 0.000000
0.000000 0.000000 0.000000
0.000000 0.000000 0.000000
0.000000 0.000000 0.000000
0.000000 0.000000 0.000000
0.000000 0.000000 0.000000
0.000000 0.000000 0.000000
0.000000 0.000000 0.000000
0.000000 0.000000 0.000000
0.000000 0.000000 0.000000
0.000000 0.000000 0.000000
0.000000 0.000000 0.000000
0.000000 0.000000 0.000000
0.000000 0.000000 0.000000
0.000000 0.000000 0.000000
0.000000 0.000000 0.000000
0.000000 0.000000 0.000000
0.000000 0.000000 0.000000
0.000000 0.000000 0.000000
0.000000 0.000000 0.000000
0.000000 0.000000 0.000000
0.000000 0.000000 0.000000
0.000000 0.000000 0.000000
0.000000 0.000000 0.000000
0.000000 0.000000 0.000000
0.000000 0.000000 0.000000
0.000000 0.000000 0.000000
0.000000 0.000000 0.000000
0.000000 0.000000 0.000000
0.000000 0.000000 0.000000
0.000000 0.000000 0.000000
0.000000 0.000000 0.000000
0.000000 0.000000 0.000000
0.000000 0.000000 0.000000
0.000000 0.000000 0.000000
0.000000 0.000000 0.000000
0.000355 0.000355 0.000355
0.000925 0.000925 0.000925
0.001496 0.001496 0.001496
0.002067 0.002067 0.002067
0.002639 0.002639 0.002639
0.003212 0.003212 0.003212
0.003784 0.003784 0.003784
0.004357 0.004357 0.004357
0.004931 0.004931 0.004931
0.005505 0.005505 0.005505
0.006078 0.006078 0.006078
0.006652 0.006652 0.006652
0.007227 0.007227 0.007227
0.007801 0.007801 0.007801
0.008375 0.008375 0.008375
0.008949 0.008949 0.008949
0.009524 0.009524 0.009524
0.010098 0.010098 0.010098
0.010672 0.010672 0.010672
0.011246 0.011246 0.011246
0.011820 0.011820 0.011820
0.012394 0.012394 0.012394
0.012968 0.012968 0.012968
0.013541 0.013541 0.013541
0.014114 0.014114 0.014114
0.014687 0.014687 0.014687
0.015260 0.015260 0.015260
0.015833 0.015833 0.015833
0.016405 0.016405 0.016405
0.016977 0.016977 0.016977
0.017549 0.017549 0.017549
0.018121 0.018121 0.018121
0.018692 0.018692 0.018692
0.019263 0.019263 0.019263
0.019834 0.019834 0.019834
0.020404 0.020404 0.020404
0.020974 0.020974 0.020974
0.021544 0.021544 0.021544
0.022114 0.022114 0.022114
0.022683 0.022683 0.022683
0.023252 0.023252 0.023252
0.023820 0.023820 0.023820
0.024389 0.024389 0.024389
0.024956 0.024956 0.024956
0.025524 0.025524 0.025524
0.026091 0.026091 0.026091
0.026658 0.026658 0.026658
0.027225 0.027225 0.027225
0.027791 0.027791 0.027791
0.028357 0.028357 0.028357
0.028923 0.028923 0.028923
0.029488 0.029488 0.029488
0.030053 0.030053 0.030053
0.030618 0.030618 0.030618
0.031182 0.031182 0.031182
0.031746 0.031746 0.031746
0.032310 0.032310 0.032310
0.032873 0.032873 0.032873
0.033436 0.033436 0.033436
0.033999 0.033999 0.033999
0.034562 0.034562 0.034562
0.035124 0.035124 0.035124
0.035686 0.035686 0.035686
0.036248 0.036248 0.036248
0.036809 0.036809 0.036809
0.037370 0.037370 0.037370
0.037931 0.037931 0.037931
0.038491 0.038491 0.038491
0.039052 0.039052 0.039052
0.039611 0.039611 0.039611
0.040171 0.040171 0.040171
0.040731 0.040731 0.040731
0.041290 0.041290 0.041290
0.041849 0.041849 0.041849
0.042407 0.042407 0.042407
0.042966 0.042966 0.042966
0.043524 0.043524 0.043524
0.044082 0.044082 0.044082
0.044640 0.044640 0.044640
0.045197 0.045197 0.045197
0.045755 0.045755 0.045755
0.046312 0.046312 0.046312
0.046868 0.046868 0.046868
0.047425 0.047425 0.047425
0.047982 0.047982 0.047982
0.048538 0.048538 0.048538
0.049094 0.049094 0.049094
0.049650 0.049650 0.049650
0.050205 0.050205 0.050205
0.050761 0.050761 0.050761
0.051316 0.051316 0.051316
0.051871 0.051871 0.051871
0.052426 0.052426 0.052426
0.052981 0.052981 0.052981
0.053536 0.053536 0.053536
0.054090 0.054090 0.054090
0.054644 0.054644 0.054644
0.055198 0.055198 0.055198
0.055752 0.055752 0.055752
0.056306 0.056306 0.056306
0.056860 0.056860 0.056860
0.057414 0.057414 0.057414
0.057967 0.057967 0.057967
0.058521 0.058521 0.058521
0.059074 0.059074 0.059074
0.059627 0.059627 0.059627
0.060180 0.060180 0.060180
0.060733 0.060733 0.060733
0.061286 0.061286 0.061286
0.061838 0.061838 0.061838
0.062391 0.062391 0.062391
0.062943 0.062943 0.062943
0.063496 0.063496 0.063496
0.064048 0.064048 0.064048
0.064600 0.064600 0.064600
0.065153 0.065153 0.065153
0.065705 0.065705 0.065705
0.066257 0.066257 0.066257
0.066809 0.066809 0.066809
0.067361 0.067361 0.067361
0.067913 0.067913 0.067913
0.068465 0.068465 0.068465
0.069016 0.069016 0.069016
0.069568 0.069568 0.069568
0.070120 0.070120 0.070120
0.070671 0.070671 0.070671
0.071223 0.071223 0.071223
0.071775 0.071775 0.071775
0.072326 0.072326 0.072326
0.072878 0.072878 0.072878
0.073429 0.073429 0.073429
0.073981 0.073981 0.073981
0.074532 0.074532 0.074532
0.075084 0.075084 0.075084
0.075635 0.075635 0.075635
0.076300 0.076300 0.076300
0.076851 0.076851 0.076851
0.077401 0.077401 0.077401
0.077949 0.077949 0.077949
0.078496 0.078496 0.078496
0.079042 0.079042 0.079042
0.079586 0.079586 0.079586
0.080130 0.080130 0.080130
0.080672 0.080672 0.080672
0.081213 0.081213 0.081213
0.081752 0.081752 0.081752
0.082291 0.082291 0.082291
0.082828 0.082828 0.082828
0.083365 0.083365 0.083365
0.083900 0.083900 0.083900
0.084434 0.084434 0.084434
0.084967 0.084967 0.084967
0.085499 0.085499 0.085499
0.086029 0.086029 0.086029
0.086559 0.086559 0.086559
0.087088 0.087088 0.087088
0.087615 0.087615 0.087615
0.088142 0.088142 0.088142
0.088667 0.088667 0.088667
0.089192 0.089192 0.089192
0.089715 0.089715 0.089715
0.090238 0.090238 0.090238
0.090759 0.090759 0.090759
0.091280 0.091280 0.091280
0.091799 0.091799 0.091799
0.092318 0.092318 0.092318
0.092835 0.092835 0.092835
0.093352 0.093352 0.093352
0.093868 0.093868 0.093868
0.094382 0.094382 0.094382
0.094896 0.094896 0.094896
0.095409 0.095409 0.095409
0.095921 0.095921 0.095921
0.096432 0.096432 0.096432
0.096943 0.096943 0.096943
0.097452 0.097452 0.097452
0.097961 0.097961 0.097961
0.098468 0.098468 0.098468
0.098975 0.098975 0.098975
0.099481 0.099481 0.099481
0.099986 0.099986 0.099986
0.100491 0.100491 0.100491
0.100994 0.100994 0.100994
0.101497 0.101497 0.101497
0.101999 0.101999 0.101999
0.102500 0.102500 0.102500
0.103000 0.103000 0.103000
0.103500 0.103500 0.103500
0.103998 0.103998 0.103998
0.104496 0.104496 0.104496
0.104994 0.104994 0.104994
0.105490 0.105490 0.105490
0.105986 0.105986 0.105986
0.106481 0.106481 0.106481
0.106975 0.106975 0.106975
0.107469 0.107469 0.107469
0.107961 0.107961 0.107961
0.108453 0.108453 0.108453
0.108945 0.108945 0.108945
0.109435 0.109435 0.109435
0.109925 0.109925 0.109925
0.110415 0.110415 0.110415
0.110903 0.110903 0.110903
0.111391 0.111391 0.111391
0.111878 0.111878 0.111878
0.112365 0.112365 0.112365
0.112851 0.112851 0.112851
0.113336 0.113336 0.113336
0.113821 0.113821 0.113821
0.114305 0.114305 0.114305
0.114788 0.114788 0.114788
0.115270 0.115270 0.115270
0.115752 0.115752 0.115752
0.116234 0.116234 0.116234
0.116715 0.116715 0.116715
0.117195 0.117195 0.117195
0.117674 0.117674 0.117674
0.118153 0.118153 0.118153
0.118632 0.118632 0.118632
0.119109 0.119109 0.119109
0.119587 0.119587 0.119587
0.120063 0.120063 0.120063
0.120539 0.120539 0.120539
0.121015 0.121015 0.121015
0.121489 0.121489 0.121489
0.121964 0.121964 0.121964
0.122437 0.122437 0.122437
0.122911 0.122911 0.122911
0.123383 0.123383 0.123383
0.123855 0.123855 0.123855
0.124327 0.124327 0.124327
0.124798 0.124798 0.124798
0.125268 0.125268 0.125268
0.125738 0.125738 0.125738
0.126207 0.126207 0.126207
0.126676 0.126676 0.126676
0.127144 0.127144 0.127144
0.127612 0.127612 0.127612
0.128080 0.128080 0.128080
0.128546 0.128546 0.128546
0.129013 0.129013 0.129013
0.129478 0.129478 0.129478
0.129944 0.129944 0.129944
0.130408 0.130408 0.130408
0.130873 0.130873 0.130873
0.131337 0.131337 0.131337
0.131800 0.131800 0.131800
0.132263 0.132263 0.132263
0.132725 0.132725 0.132725
0.133187 0.133187 0.133187
0.133648 0.133648 0.133648
0.134109 0.134109 0.134109
0.134570 0.134570 0.134570
0.135030 0.135030 0.135030
0.135489 0.135489 0.135489
0.135949 0.135949 0.135949
0.136407 0.136407 0.136407
0.136866 0.136866 0.136866
0.137323 0.137323 0.137323
0.137781 0.137781 0.137781
0.138238 0.138238 0.138238
0.138694 0.138694 0.138694
0.139150 0.139150 0.139150
0.139606 0.139606 0.139606
0.140061 0.140061 0.140061
0.140516 0.140516 0.140516
0.140970 0.140970 0.140970
0.141424 0.141424 0.141424
0.141878 0.141878 0.141878
0.142331 0.142331 0.142331
0.142784 0.142784 0.142784
0.143236 0.143236 0.143236
0.143688 0.143688 0.143688
0.144140 0.144140 0.144140
0.144591 0.144591 0.144591
0.145041 0.145041 0.145041
0.145492 0.145492 0.145492
0.145942 0.145942 0.145942
0.146391 0.146391 0.146391
0.146841 0.146841 0.146841
0.147290 0.147290 0.147290
0.147738 0.147738 0.147738
0.148186 0.148186 0.148186
0.148634 0.148634 0.148634
0.149081 0.149081 0.149081
0.149528 0.149528 0.149528
0.149975 0.149975 0.149975
0.150421 0.150421 0.150421
0.150867 0.150867 0.150867
0.151313 0.151313 0.151313
0.151758 0.151758 0.151758
0.152203 0.152203 0.152203
0.152647 0.152647 0.152647
0.153092 0.153092 0.153092
0.153535 0.153535 0.153535
0.153979 0.153979 0.153979
0.154422 0.154422 0.154422
0.154865 0.154865 0.154865
0.155307 0.155307 0.155307
0.155750 0.155750 0.155750
0.156191 0.156191 0.156191
0.156633 0.156633 0.156633
0.157074 0.157074 0.157074
0.157515 0.157515 0.157515
0.157956 0.157956 0.157956
0.158396 0.158396 0.158396
0.158836 0.158836 0.158836
0.159275 0.159275 0.159275
0.159715 0.159715 0.159715
0.160154 0.160154 0.160154
0.160592 0.160592 0.160592
0.161031 0.161031 0.161031
0.161469 0.161469 0.161469
0.161907 0.161907 0.161907
0.162344 0.162344 0.162344
0.162781 0.162781 0.162781
0.163218 0.163218 0.163218
0.163655 0.163655 0.163655
0.164091 0.164091 0.164091
0.164527 0.164527 0.164527
0.164963 0.164963 0.164963
0.165398 0.165398 0.165398
0.165833 0.165833 0.165833
0.166268 0.166268 0.166268
0.166703 0.166703 0.166703
0.167137 0.167137 0.167137
0.167571 0.167571 0.167571
0.168005 0.168005 0.168005
0.168439 0.168439 0.168439
0.168872 0.168872 0.168872
0.169305 0.169305 0.169305
0.169737 0.169737 0.169737
0.170170 0.170170 0.170170
0.170602 0.170602 0.170602
0.171034 0.171034 0.171034
0.171466 0.171466 0.171466
0.171897 0.171897 0.171897
0.172328 0.172328 0.172328
0.172759 0.172759 0.172759
0.173190 0.173190 0.173190
0.173620 0.173620 0.173620
0.174050 0.174050 0.174050
0.174480 0.174480 0.174480
0.174909 0.174909 0.174909
0.175339 0.175339 0.175339
0.175768 0.175768 0.175768
0.176197 0.176197 0.176197
0.176625 0.176625 0.176625
0.177054 0.177054 0.177054
0.177482 0.177482 0.177482
0.177910 0.177910 0.177910
0.178338 0.178338 0.178338
0.178765 0.178765 0.178765
0.179192 0.179192 0.179192
0.179619 0.179619 0.179619
0.180046 0.180046 0.180046
0.180473 0.180473 0.180473
0.180899 0.180899 0.180899
0.181325 0.181325 0.181325
0.181751 0.181751 0.181751
0.182177 0.182177 0.182177
0.182602 0.182602 0.182602
0.183027 0.183027 0.183027
0.183452 0.183452 0.183452
0.183877 0.183877 0.183877
0.184302 0.184302 0.184302
0.184726 0.184726 0.184726
0.185150 0.185150 0.185150
0.185574 0.185574 0.185574
0.185998 0.185998 0.185998
