Luts Download/Canon Luts/3dlut/17grid-3dlut/full-to-full-range/BT2020_CanonLog-to-BT709_WideDR_17_FF_Ver.2.0.cube
# Gamut : BT.2020 to BT.709
# Gamma : Canon Log to Wide DR
# Range : Full in / Full out
# Version : 2.0 2019/10/24
# Copyright(c) 2019 Canon Inc. All Rights Reserved.
LUT_3D_SIZE 5
# LUT_3D_INPUT_RANGE 0.0 1.0
0.00000000 0.00000000 0.00000000
0.26406715 0.01366272 0.03289197
0.71059875 0.00000000 0.05973023
0.95327411 0.02447649 0.02644887
1.00000000 0.20355361 0.05938663
0.00836345 0.22889155 0.08206390
0.25104051 0.24587150 0.02511151
0.74625070 0.18924448 0.01726403
0.98245538 0.20328072 0.09388985
1.00000000 0.32920145 0.20041053
0.00000000 0.60398657 0.19664311
0.00000000 0.62844199 0.09896053
0.63332985 0.62924705 0.00000000
1.00000000 0.55625124 0.24177236
1.00000000 0.60994334 0.47550333
0.00000000 0.83027062 0.23471987
0.00000000 0.85127038 0.19901041
0.27496796 0.90950146 0.05773240
0.86001242 0.87166527 0.11765119
1.00000000 0.81154261 0.59081962
0.00000000 0.95839361 0.23338281
0.00000000 0.97633088 0.22512721
0.30567841 1.00000000 0.32927932
0.66249484 1.00000000 0.48929247
0.97122670 1.00000000 0.49674289
0.00272594 0.02023592 0.15785939
0.27484759 0.01417268 0.22051792
0.70423067 0.00000000 0.24879799
0.94917553 0.05327424 0.19313038
1.00000000 0.23387927 0.17109874
0.00000000 0.23641587 0.22601029
0.24578998 0.24578998 0.24578998
0.77669890 0.15079657 0.22610668
0.97164849 0.22510928 0.24175404
1.00000000 0.35081470 0.27349575
0.00000000 0.59796163 0.32001794
0.00601097 0.62397127 0.27728933
0.63793130 0.62750262 0.15564776
1.00000000 0.56658666 0.36504516
1.00000000 0.62543869 0.52502401
0.00000000 0.82624006 0.32187286
0.00000000 0.84672149 0.30136869
0.29411059 0.90758352 0.22231152
0.86213803 0.87092960 0.24016277
1.00000000 0.82050443 0.63431439
0.00000000 0.95782876 0.28694433
0.00000000 0.97557841 0.28099967
0.36520465 1.00000000 0.39467414
0.68803446 1.00000000 0.54302287
0.97251914 0.99973837 0.56428971
0.00000000 0.12634518 0.41537529
0.22616010 0.07718703 0.55395504
0.70663560 0.01897406 0.57615850
0.97598698 0.06660741 0.46276792
1.00000000 0.27641141 0.36758730
0.00000000 0.26976221 0.47662977
0.17102753 0.24583990 0.65569509
0.76487539 0.13832223 0.64503426
0.99521149 0.22971327 0.49569376
1.00000000 0.37817582 0.42983762
0.00000000 0.60507566 0.58114746
0.00000000 0.62678830 0.60399602
0.62377960 0.62377960 0.62377960
0.95354580 0.60513435 0.61961674
1.00000000 0.65807893 0.64093185
0.06516262 0.82908157 0.52948583
0.11048423 0.84671068 0.53210940
0.46560608 0.88371438 0.57873657
0.86599313 0.86872076 0.59053020
1.00000000 0.84802771 0.76069734
0.14540770 0.96286590 0.43957495
0.16006818 0.97936892 0.44365372
0.49944879 1.00000000 0.57252832
0.76401863 1.00000000 0.70124516
0.98289830 1.00000000 0.74520493
0.00000000 0.23273934 0.47579462
0.00000000 0.23820561 0.64158070
0.55890618 0.14297251 0.91708484
0.95255967 0.10006904 0.77240148
1.00000000 0.29965345 0.57623699
0.00000000 0.32141127 0.58113185
0.00459864 0.32749129 0.72654644
0.56522792 0.28592569 0.93783517
0.97218794 0.24077118 0.80075870
1.00000000 0.39434335 0.61460394
0.06470311 0.59021342 0.80567233
0.13998490 0.60427661 0.85814778
0.57121799 0.63043169 0.89047469
0.95605422 0.60097444 0.85269653
1.00000000 0.66416690 0.75519239
0.00000000 0.83759241 0.80434282
0.00000000 0.85499580 0.82181918
0.38664977 0.88858966 0.86408098
0.86322055 0.86322055 0.86322055
1.00000000 0.87063810 0.87369478
0.15278561 0.96932383 0.64452137
0.17267209 0.98483176 0.65359118
0.54672463 1.00000000 0.75043845
0.82295495 1.00000000 0.85494066
0.99636138 1.00000000 0.90114678
0.00000000 0.28928443 0.49268000
0.00000000 0.32171293 0.57845888
0.16219448 0.36179443 0.97245868
0.71502959 0.30699481 1.00000000
1.00000000 0.29199423 0.82854302
0.00000000 0.36466647 0.60583575
0.00000000 0.39047792 0.69518571
0.22592481 0.43505660 0.99356218
0.73295001 0.39992957 1.00000000
1.00000000 0.39153091 0.84178441
0.04744270 0.59523512 0.91238671
0.09555694 0.61161709 0.96198867
0.45771099 0.66400692 0.99377682
0.79249317 0.66658098 1.00000000
1.00000000 0.66619295 0.90233414
0.24034768 0.79278629 1.00000000
0.31738226 0.80528493 1.00000000
0.59294161 0.84564889 1.00000000
0.83442886 0.87030576 1.00000000
1.00000000 0.87271348 0.96859614
0.00000000 0.96631083 0.92873123
0.00000000 0.98171284 0.94383367
0.46348922 1.00000000 0.97474434
0.81434503 1.00000000 0.99180707
1.00000000 1.00000000 1.00000000
