Luts Download/Canon Luts/3dlut/17grid-3dlut/full-to-full-range/BT2020_CanonLog2-to-BT2020_709WideDR_17_FF_Ver.2.0.cube
# Gamut : BT.2020 to BT.2020
# Gamma : Canon Log 2 to Wide DR
# Range : Full in / Full out
# Version : 2.0 2019/10/24
# Copyright(c) 2019 Canon Inc. All Rights Reserved.
LUT_3D_SIZE 17
# LUT_3D_INPUT_RANGE 0.0 1.0
0.00000000 0.00000000 0.00000000
0.00000000 0.00000000 0.00000000
0.00924798 0.00924798 0.00924798
0.04581988 0.01105048 0.01096785
0.12099406 0.01326632 0.01241190
0.21894943 0.01500342 0.01237860
0.33288720 0.02218047 0.01508865
0.47123672 0.02970614 0.01518377
0.59922906 0.04307620 0.01190753
0.70875192 0.06760979 0.00743953
0.79760825 0.10348667 0.00451268
0.86253817 0.14227567 0.00525003
0.90539104 0.18293580 0.01268193
0.93566127 0.23434539 0.03724621
0.96469531 0.32396524 0.12014898
1.00000000 0.47473510 0.27591220
1.00000000 0.68296877 0.48689207
0.00000000 0.00000000 0.00000000
0.00000000 0.00000000 0.00000000
0.00924798 0.00924798 0.00924798
0.04581988 0.01105048 0.01096785
0.12099406 0.01326632 0.01241190
0.21894943 0.01500342 0.01237860
0.33288720 0.02218047 0.01508865
0.47123672 0.02970614 0.01518377
0.59922906 0.04307620 0.01190753
0.70875192 0.06760979 0.00743953
0.79760825 0.10348667 0.00451268
0.86253817 0.14227567 0.00525003
0.90539104 0.18293580 0.01268193
0.93566127 0.23434539 0.03724621
0.96469531 0.32396524 0.12014898
1.00000000 0.47473510 0.27591220
1.00000000 0.68296877 0.48689207
0.00924798 0.00924798 0.00924798
0.00924798 0.00924798 0.00924798
0.01221625 0.01221984 0.01036845
0.05661389 0.01979415 0.01239455
0.12974226 0.02439568 0.01266960
0.22394742 0.02772904 0.01197933
0.33633354 0.03550540 0.01429584
0.47408860 0.04276154 0.01426702
0.60189496 0.05543261 0.01179615
0.71151691 0.07882331 0.00818919
0.80059398 0.11184497 0.00586163
0.86558488 0.14858144 0.00718031
0.90826698 0.18825628 0.01531781
0.93799149 0.23935806 0.04107398
0.96529111 0.32947853 0.12619732
1.00000000 0.47883945 0.28061655
1.00000000 0.68593313 0.49079408
0.01275161 0.04638514 0.01248233
0.01275161 0.04638514 0.01248233
0.02082853 0.05773893 0.01321810
0.06537806 0.06564223 0.01219952
0.13766366 0.07026017 0.01189787
0.22834764 0.07496662 0.01170090
0.34085790 0.08118940 0.01272356
0.47837715 0.08680072 0.01252146
0.60690591 0.09536667 0.01212282
0.71768089 0.11149556 0.01078716
0.80767594 0.13616008 0.01039123
0.87297846 0.16746794 0.01358905
0.91526664 0.20427623 0.02392854
0.94336178 0.25445710 0.05358184
0.96627935 0.34507049 0.14316117
1.00000000 0.49053964 0.29423184
1.00000000 0.69445518 0.50227453
0.01806362 0.12389806 0.01555231
0.01806362 0.12389806 0.01555231
0.02659992 0.13225739 0.01330159
0.07048773 0.13802039 0.01207208
0.14092935 0.14164444 0.01031600
0.22952939 0.14570326 0.01107710
0.34247529 0.14948512 0.01036818
0.48032636 0.15247891 0.01057272
0.61148429 0.15387871 0.01299584
0.72526989 0.15953273 0.01518761
0.81777358 0.17338953 0.01776761
0.88437540 0.19666467 0.02392051
0.92530204 0.23070140 0.03966428
0.94991817 0.28047592 0.07795940
0.96728055 0.36987032 0.16988132
1.00000000 0.50937735 0.31641230
1.00000000 0.70833091 0.52120884
0.01783771 0.22279680 0.01260108
0.01783771 0.22279680 0.01260108
0.03734972 0.22556500 0.01680141
0.07939303 0.22973728 0.01347055
0.14681770 0.23217955 0.01121787
0.23361153 0.23482135 0.01078410
0.34459575 0.23769808 0.01056795
0.48268466 0.23903792 0.01088822
0.61974217 0.23294155 0.01498871
0.74068016 0.22607911 0.02019427
0.84051371 0.22390829 0.02410700
0.90958508 0.23649806 0.03632401
0.94034624 0.27770866 0.07477608
0.95585616 0.32981240 0.12875702
0.96808535 0.41243581 0.21606093
1.00000000 0.54180789 0.35523193
1.00000000 0.73241163 0.55430937
0.03346517 0.33884273 0.01951684
0.03346517 0.33884273 0.01951684
0.04392927 0.34186620 0.01634372
0.08697812 0.34489484 0.01296448
0.15325765 0.34680410 0.01062561
0.23900910 0.34856653 0.01012025
0.34867777 0.35038213 0.01055232
0.48674564 0.35022741 0.01079940
0.63139817 0.33880180 0.01784693
0.76306378 0.32089737 0.02882047
0.86705869 0.31084109 0.04920187
0.94667295 0.30547722 0.06275480
0.95780670 0.35626368 0.14347244
0.96462584 0.40484594 0.20387306
0.97145334 0.47713820 0.28697287
1.00000000 0.59302356 0.41766519
1.00000000 0.77156439 0.60861330
0.04081337 0.47882354 0.01838699
0.04081337 0.47882354 0.01838699
0.05208499 0.48094008 0.01575371
0.09551938 0.48327365 0.01334927
0.15915895 0.48531430 0.01136182
0.24230269 0.48673223 0.01275576
0.34960319 0.48831241 0.01526577
0.48649980 0.48877579 0.01593992
0.64208170 0.47381303 0.01535993
0.78940818 0.44700331 0.03634515
0.91680784 0.41494660 0.05482592
0.96551062 0.43174344 0.15818730
0.98397313 0.46056120 0.23138096
0.98259455 0.50226665 0.30058456
0.98273016 0.56368942 0.38336071
1.00000000 0.66539111 0.50743095
1.00000000 0.82921976 0.68903837
0.05719814 0.60950596 0.01529096
0.05719814 0.60950596 0.01529096
0.06843805 0.61119132 0.01384046
0.10701284 0.61360360 0.01323511
0.16163164 0.61626003 0.01356564
0.23733401 0.61827499 0.01970824
0.33553614 0.62218234 0.02752322
0.46249734 0.62724474 0.03413679
0.61587141 0.61986102 0.02933707
0.78263300 0.59086784 0.03240064
0.92575757 0.55384716 0.08522552
0.99764046 0.54524484 0.20193845
1.00000000 0.56536111 0.30721614
1.00000000 0.59909580 0.39279931
0.99714326 0.65154362 0.48179707
1.00000000 0.74157965 0.60414306
1.00000000 0.89253271 0.77990745
0.08915639 0.72435199 0.01330064
0.08915639 0.72435199 0.01330064
0.09865146 0.72585570 0.01282435
0.12723884 0.72838141 0.01412038
0.16979667 0.73153040 0.01692490
0.23314034 0.73475180 0.02717615
0.31790766 0.74096581 0.04190914
0.42934209 0.75055811 0.05975465
0.56649395 0.75289858 0.06562590
0.72987352 0.73688438 0.06377589
0.89711555 0.69836448 0.09673315
1.00000000 0.66671188 0.22185351
1.00000000 0.66791907 0.36164368
1.00000000 0.69007512 0.47138090
1.00000000 0.73301854 0.57159211
1.00000000 0.81283525 0.69575870
1.00000000 0.95307375 0.86834140
0.13430994 0.82100500 0.01670464
0.13430994 0.82100500 0.01670464
0.14037850 0.82242460 0.01686008
0.15975575 0.82500197 0.01974456
0.19035153 0.82853607 0.02470175
0.23986941 0.83264826 0.03886250
0.30920443 0.84044720 0.06081323
0.40285371 0.85318056 0.09100487
0.51848880 0.86281261 0.11373919
0.66014184 0.86021088 0.12542445
0.82506440 0.83717201 0.14513840
0.97383490 0.79490051 0.22572896
1.00000000 0.77194738 0.39430354
1.00000000 0.77609361 0.53286732
1.00000000 0.80672637 0.64885155
1.00000000 0.87594543 0.77652475
1.00000000 1.00000000 1.00000000
0.19220241 0.89488677 0.03423559
0.19220241 0.89488677 0.03423559
0.19619721 0.89622517 0.03507822
0.20956391 0.89873875 0.03993972
0.23128529 0.90237007 0.04790938
0.26901828 0.90678662 0.06746169
0.32422541 0.91514630 0.09803099
0.40165221 0.92906925 0.13905359
0.45360700 0.95420949 0.08751590
0.57313871 0.96215699 0.08980503
0.74502830 0.94201876 0.23345873
0.89579079 0.91564096 0.27907088
1.00000000 0.87666769 0.41868971
1.00000000 0.85928712 0.58225418
1.00000000 0.87323304 0.71471637
1.00000000 0.92998255 0.84548322
1.00000000 1.00000000 1.00000000
0.27552095 0.94538504 0.09214698
0.27552095 0.94538504 0.09214698
0.27900074 0.94651762 0.09457871
0.29004696 0.94860184 0.10292082
0.30746469 0.95174237 0.11541753
0.33841792 0.95543698 0.13938424
0.38507110 0.96261042 0.17506415
0.45569462 0.97377454 0.22999812
0.54271830 0.98371743 0.29674713
0.63368747 0.99133053 0.35803374
0.72782113 0.99458611 0.40503454
0.82944649 0.98948661 0.43188270
0.94432427 0.97111660 0.45964794
1.00000000 0.93896090 0.64506429
1.00000000 0.93576115 0.78439463
1.00000000 0.97809433 0.91027079
1.00000000 1.00000000 1.00000000
0.41438296 0.97734010 0.22392811
0.41438296 0.97734010 0.22392811
0.41892172 0.97782065 0.22825332
0.43114781 0.97843590 0.23993812
0.44941756 0.97949925 0.25733478
0.47895771 0.98030633 0.28614071
0.52273058 0.98310308 0.32997266
0.58341178 0.98929942 0.39206517
0.65184677 0.99624324 0.46314408
0.72096309 1.00000000 0.53404972
0.78749049 1.00000000 0.59775822
0.85146243 1.00000000 0.65091740
0.91729181 1.00000000 0.70426019
0.98351769 1.00000000 0.79958696
1.00000000 0.99551935 0.89016794
1.00000000 1.00000000 1.00000000
1.00000000 1.00000000 1.00000000
0.63041290 1.00000000 0.46020771
0.63041290 1.00000000 0.46020771
0.63344895 1.00000000 0.46380281
0.64147712 1.00000000 0.47347568
0.65369900 1.00000000 0.48818338
0.67330494 1.00000000 0.51226781
0.70343205 1.00000000 0.54981540
0.74597676 1.00000000 0.60349025
0.79450839 1.00000000 0.66565118
0.84392452 1.00000000 0.72960957
0.89101829 1.00000000 0.79048673
0.93379033 1.00000000 0.84543004
0.98424393 1.00000000 0.94482122
1.00000000 1.00000000 1.00000000
1.00000000 1.00000000 1.00000000
1.00000000 1.00000000 1.00000000
1.00000000 1.00000000 1.00000000
0.87583752 1.00000000 0.76841110
0.87583752 1.00000000 0.76841110
0.87764261 1.00000000 0.77109763
0.88251074 1.00000000 0.77847232
0.89000511 1.00000000 0.78973164
0.90210756 1.00000000 0.80790988
0.91632573 1.00000000 0.83120505
1.00000000 1.00000000 1.00000000
1.00000000 1.00000000 1.00000000
1.00000000 1.00000000 1.00000000
1.00000000 1.00000000 1.00000000
1.00000000 1.00000000 1.00000000
1.00000000 1.00000000 1.00000000
1.00000000 1.00000000 1.00000000
1.00000000 1.00000000 1.00000000
1.00000000 1.00000000 1.00000000
1.00000000 1.00000000 1.00000000
1.00000000 1.00000000 1.00000000
1.00000000 1.00000000 1.00000000
1.00000000 1.00000000 1.00000000
1.00000000 1.00000000 1.00000000
1.00000000 1.00000000 1.00000000
1.00000000 1.00000000 1.00000000
1.00000000 1.00000000 1.00000000
1.00000000 1.00000000 1.00000000
1.00000000 1.00000000 1.00000000
1.00000000 1.00000000 1.00000000
1.00000000 1.00000000 1.00000000
1.00000000 1.00000000 1.00000000
1.00000000 1.00000000 1.00000000
1.00000000 1.00000000 1.00000000
1.00000000 1.00000000 1.00000000
1.00000000 1.00000000 1.00000000
1.00000000 1.00000000 1.00000000
0.00000000 0.00000000 0.00000000
0.00000000 0.00000000 0.00000000
0.00924798 0.00924798 0.00924798
0.04581988 0.01105048 0.01096785
0.12099406 0.01326632 0.01241190
0.21894943 0.01500342 0.01237860
0.33288720 0.02218047 0.01508865
0.47123672 0.02970614 0.01518377
0.59922906 0.04307620 0.01190753
0.70875192 0.06760979 0.00743953
0.79760825 0.10348667 0.00451268
0.86253817 0.14227567 0.00525003
0.90539104 0.18293580 0.01268193
0.93566127 0.23434539 0.03724621
0.96469531 0.32396524 0.12014898
1.00000000 0.47473510 0.27591220
1.00000000 0.68296877 0.48689207
0.00000000 0.00000000 0.00000000
0.00000000 0.00000000 0.00000000
0.00924798 0.00924798 0.00924798
0.04581988 0.01105048 0.01096785
0.12099406 0.01326632 0.01241190
0.21894943 0.01500342 0.01237860
0.33288720 0.02218047 0.01508865
0.47123672 0.02970614 0.01518377
0.59922906 0.04307620 0.01190753
0.70875192 0.06760979 0.00743953
0.79760825 0.10348667 0.00451268
0.86253817 0.14227567 0.00525003
0.90539104 0.18293580 0.01268193
0.93566127 0.23434539 0.03724621
0.96469531 0.32396524 0.12014898
1.00000000 0.47473510 0.27591220
1.00000000 0.68296877 0.48689207
0.00924798 0.00924798 0.00924798
0.00924798 0.00924798 0.00924798
0.01221625 0.01221984 0.01036845
0.05661389 0.01979415 0.01239455
0.12974226 0.02439568 0.01266960
0.22394742 0.02772904 0.01197933
0.33633354 0.03550540 0.01429584
0.47408860 0.04276154 0.01426702
0.60189496 0.05543261 0.01179615
0.71151691 0.07882331 0.00818919
0.80059398 0.11184497 0.00586163
0.86558488 0.14858144 0.00718031
0.90826698 0.18825628 0.01531781
0.93799149 0.23935806 0.04107398
0.96529111 0.32947853 0.12619732
1.00000000 0.47883945 0.28061655
1.00000000 0.68593313 0.49079408
0.01275161 0.04638514 0.01248233
0.01275161 0.04638514 0.01248233
0.02082853 0.05773893 0.01321810
0.06537806 0.06564223 0.01219952
0.13766366 0.07026017 0.01189787
0.22834764 0.07496662 0.01170090
0.34085790 0.08118940 0.01272356
0.47837715 0.08680072 0.01252146
0.60690591 0.09536667 0.01212282
0.71768089 0.11149556 0.01078716
0.80767594 0.13616008 0.01039123
0.87297846 0.16746794 0.01358905
0.91526664 0.20427623 0.02392854
0.94336178 0.25445710 0.05358184
0.96627935 0.34507049 0.14316117
1.00000000 0.49053964 0.29423184
1.00000000 0.69445518 0.50227453
0.01806362 0.12389806 0.01555231
0.01806362 0.12389806 0.01555231
0.02659992 0.13225739 0.01330159
0.07048773 0.13802039 0.01207208
0.14092935 0.14164444 0.01031600
0.22952939 0.14570326 0.01107710
0.34247529 0.14948512 0.01036818
0.48032636 0.15247891 0.01057272
0.61148429 0.15387871 0.01299584
0.72526989 0.15953273 0.01518761
0.81777358 0.17338953 0.01776761
0.88437540 0.19666467 0.02392051
0.92530204 0.23070140 0.03966428
0.94991817 0.28047592 0.07795940
0.96728055 0.36987032 0.16988132
1.00000000 0.50937735 0.31641230
1.00000000 0.70833091 0.52120884
0.01783771 0.22279680 0.01260108
0.01783771 0.22279680 0.01260108
0.03734972 0.22556500 0.01680141
0.07939303 0.22973728 0.01347055
0.14681770 0.23217955 0.01121787
0.23361153 0.23482135 0.01078410
0.34459575 0.23769808 0.01056795
0.48268466 0.23903792 0.01088822
0.61974217 0.23294155 0.01498871
0.74068016 0.22607911 0.02019427
0.84051371 0.22390829 0.02410700
0.90958508 0.23649806 0.03632401
0.94034624 0.27770866 0.07477608
0.95585616 0.32981240 0.12875702
0.96808535 0.41243581 0.21606093
1.00000000 0.54180789 0.35523193
1.00000000 0.73241163 0.55430937
0.03346517 0.33884273 0.01951684
0.03346517 0.33884273 0.01951684
0.04392927 0.34186620 0.01634372
0.08697812 0.34489484 0.01296448
0.15325765 0.34680410 0.01062561
0.23900910 0.34856653 0.01012025
0.34867777 0.35038213 0.01055232
0.48674564 0.35022741 0.01079940
0.63139817 0.33880180 0.01784693
0.76306378 0.32089737 0.02882047
0.86705869 0.31084109 0.04920187
0.94667295 0.30547722 0.06275480
0.95780670 0.35626368 0.14347244
0.96462584 0.40484594 0.20387306
0.97145334 0.47713820 0.28697287
1.00000000 0.59302356 0.41766519
1.00000000 0.77156439 0.60861330
0.04081337 0.47882354 0.01838699
0.04081337 0.47882354 0.01838699
0.05208499 0.48094008 0.01575371
0.09551938 0.48327365 0.01334927
0.15915895 0.48531430 0.01136182
0.24230269 0.48673223 0.01275576
0.34960319 0.48831241 0.01526577
0.48649980 0.48877579 0.01593992
0.64208170 0.47381303 0.01535993
0.78940818 0.44700331 0.03634515
0.91680784 0.41494660 0.05482592
0.96551062 0.43174344 0.15818730
0.98397313 0.46056120 0.23138096
0.98259455 0.50226665 0.30058456
0.98273016 0.56368942 0.38336071
1.00000000 0.66539111 0.50743095
1.00000000 0.82921976 0.68903837
0.05719814 0.60950596 0.01529096
0.05719814 0.60950596 0.01529096
0.06843805 0.61119132 0.01384046
0.10701284 0.61360360 0.01323511
0.16163164 0.61626003 0.01356564
0.23733401 0.61827499 0.01970824
0.33553614 0.62218234 0.02752322
0.46249734 0.62724474 0.03413679
0.61587141 0.61986102 0.02933707
0.78263300 0.59086784 0.03240064
0.92575757 0.55384716 0.08522552
0.99764046 0.54524484 0.20193845
1.00000000 0.56536111 0.30721614
1.00000000 0.59909580 0.39279931
0.99714326 0.65154362 0.48179707
1.00000000 0.74157965 0.60414306
1.00000000 0.89253271 0.77990745
0.08915639 0.72435199 0.01330064
0.08915639 0.72435199 0.01330064
0.09865146 0.72585570 0.01282435
0.12723884 0.72838141 0.01412038
0.16979667 0.73153040 0.01692490
0.23314034 0.73475180 0.02717615
0.31790766 0.74096581 0.04190914
0.42934209 0.75055811 0.05975465
0.56649395 0.75289858 0.06562590
0.72987352 0.73688438 0.06377589
0.89711555 0.69836448 0.09673315
1.00000000 0.66671188 0.22185351
1.00000000 0.66791907 0.36164368
1.00000000 0.69007512 0.47138090
1.00000000 0.73301854 0.57159211
1.00000000 0.81283525 0.69575870
1.00000000 0.95307375 0.86834140
0.13430994 0.82100500 0.01670464
0.13430994 0.82100500 0.01670464
0.14037850 0.82242460 0.01686008
0.15975575 0.82500197 0.01974456
0.19035153 0.82853607 0.02470175
0.23986941 0.83264826 0.03886250
0.30920443 0.84044720 0.06081323
0.40285371 0.85318056 0.09100487
0.51848880 0.86281261 0.11373919
0.66014184 0.86021088 0.12542445
0.82506440 0.83717201 0.14513840
0.97383490 0.79490051 0.22572896
1.00000000 0.77194738 0.39430354
1.00000000 0.77609361 0.53286732
1.00000000 0.80672637 0.64885155
1.00000000 0.87594543 0.77652475
1.00000000 1.00000000 1.00000000
0.19220241 0.89488677 0.03423559
0.19220241 0.89488677 0.03423559
0.19619721 0.89622517 0.03507822
0.20956391 0.89873875 0.03993972
0.23128529 0.90237007 0.04790938
0.26901828 0.90678662 0.06746169
0.32422541 0.91514630 0.09803099
0.40165221 0.92906925 0.13905359
0.45360700 0.95420949 0.08751590
0.57313871 0.96215699 0.08980503
0.74502830 0.94201876 0.23345873
0.89579079 0.91564096 0.27907088
1.00000000 0.87666769 0.41868971
1.00000000 0.85928712 0.58225418
1.00000000 0.87323304 0.71471637
1.00000000 0.92998255 0.84548322
1.00000000 1.00000000 1.00000000
0.27552095 0.94538504 0.09214698
0.27552095 0.94538504 0.09214698
0.27900074 0.94651762 0.09457871
0.29004696 0.94860184 0.10292082
0.30746469 0.95174237 0.11541753
0.33841792 0.95543698 0.13938424
0.38507110 0.96261042 0.17506415
0.45569462 0.97377454 0.22999812
0.54271830 0.98371743 0.29674713
0.63368747 0.99133053 0.35803374
0.72782113 0.99458611 0.40503454
0.82944649 0.98948661 0.43188270
0.94432427 0.97111660 0.45964794
1.00000000 0.93896090 0.64506429
1.00000000 0.93576115 0.78439463
1.00000000 0.97809433 0.91027079
1.00000000 1.00000000 1.00000000
0.41438296 0.97734010 0.22392811
0.41438296 0.97734010 0.22392811
0.41892172 0.97782065 0.22825332
0.43114781 0.97843590 0.23993812
0.44941756 0.97949925 0.25733478
0.47895771 0.98030633 0.28614071
0.52273058 0.98310308 0.32997266
0.58341178 0.98929942 0.39206517
0.65184677 0.99624324 0.46314408
0.72096309 1.00000000 0.53404972
0.78749049 1.00000000 0.59775822
0.85146243 1.00000000 0.65091740
0.91729181 1.00000000 0.70426019
0.98351769 1.00000000 0.79958696
1.00000000 0.99551935 0.89016794
1.00000000 1.00000000 1.00000000
1.00000000 1.00000000 1.00000000
0.63041290 1.00000000 0.46020771
0.63041290 1.00000000 0.46020771
0.63344895 1.00000000 0.46380281
0.64147712 1.00000000 0.47347568
0.65369900 1.00000000 0.48818338
0.67330494 1.00000000 0.51226781
0.70343205 1.00000000 0.54981540
0.74597676 1.00000000 0.60349025
0.79450839 1.00000000 0.66565118
0.84392452 1.00000000 0.72960957
0.89101829 1.00000000 0.79048673
0.93379033 1.00000000 0.84543004
0.98424393 1.00000000 0.94482122
1.00000000 1.00000000 1.00000000
1.00000000 1.00000000 1.00000000
1.00000000 1.00000000 1.00000000
1.00000000 1.00000000 1.00000000
0.87583752 1.00000000 0.76841110
0.87583752 1.00000000 0.76841110
0.87764261 1.00000000 0.77109763
0.88251074 1.00000000 0.77847232
0.89000511 1.00000000 0.78973164
0.90210756 1.00000000 0.80790988
0.91632573 1.00000000 0.83120505
1.00000000 1.00000000 1.00000000
1.00000000 1.00000000 1.00000000
1.00000000 1.00000000 1.00000000
1.00000000 1.00000000 1.00000000
1.00000000 1.00000000 1.00000000
1.00000000 1.00000000 1.00000000
1.00000000 1.00000000 1.00000000
1.00000000 1.00000000 1.00000000
1.00000000 1.00000000 1.00000000
1.00000000 1.00000000 1.00000000
1.00000000 1.00000000 1.00000000
1.00000000 1.00000000 1.00000000
1.00000000 1.00000000 1.00000000
1.00000000 1.00000000 1.00000000
1.00000000 1.00000000 1.00000000
1.00000000 1.00000000 1.00000000
1.00000000 1.00000000 1.00000000
1.00000000 1.00000000 1.00000000
1.00000000 1.00000000 1.00000000
1.00000000 1.00000000 1.00000000
1.00000000 1.00000000 1.00000000
1.00000000 1.00000000 1.00000000
1.00000000 1.00000000 1.00000000
1.00000000 1.00000000 1.00000000
1.00000000 1.00000000 1.00000000
1.00000000 1.00000000 1.00000000
1.00000000 1.00000000 1.00000000
0.00924798 0.00924798 0.00924798
0.00924798 0.00924798 0.00924798
0.01348215 0.00957555 0.01343927
0.05776625 0.01001964 0.01851274
0.13216842 0.00963138 0.02102451
0.22757570 0.00877155 0.02088399
0.33798244 0.01672846 0.02473984
0.47426905 0.02512192 0.02515884
0.60194463 0.03762804 0.01974442
0.71166987 0.06053535 0.01231823
0.80044471 0.09637024 0.00700550
0.86505018 0.13700911 0.00610320
0.90747627 0.17928080 0.01254647
0.93699168 0.23246448 0.03705689
0.96502760 0.32366490 0.12072157
1.00000000 0.47480921 0.27640472
1.00000000 0.68323222 0.48744831
0.00924798 0.00924798 0.00924798
0.00924798 0.00924798 0.00924798
0.01348215 0.00957555 0.01343927
0.05776625 0.01001964 0.01851274
0.13216842 0.00963138 0.02102451
0.22757570 0.00877155 0.02088399
0.33798244 0.01672846 0.02473984
0.47426905 0.02512192 0.02515884
0.60194463 0.03762804 0.01974442
0.71166987 0.06053535 0.01231823
0.80044471 0.09637024 0.00700550
0.86505018 0.13700911 0.00610320
0.90747627 0.17928080 0.01254647
0.93699168 0.23246448 0.03705689
0.96502760 0.32366490 0.12072157
1.00000000 0.47480921 0.27640472
1.00000000 0.68323222 0.48744831
0.00988422 0.01498394 0.01496871
0.00988422 0.01498394 0.01496871
0.01903558 0.01903558 0.01903558
0.07197772 0.01904327 0.01898431
0.14519648 0.01910902 0.01858486
0.23603688 0.01928692 0.01771111
0.34221228 0.02952059 0.02322101
0.47811258 0.03666673 0.02328157
0.60494843 0.04942499 0.01946432
0.71398513 0.07307358 0.01387714
0.80275865 0.10717537 0.00943546
0.86755267 0.14488961 0.00894154
0.91001532 0.18547891 0.01581130
0.93905812 0.23804012 0.04144170
0.96539469 0.32953155 0.12721440
1.00000000 0.47906356 0.28131407
1.00000000 0.68626560 0.49145395
0.01053763 0.06717314 0.02219712
0.01053763 0.06717314 0.02219712
0.01914183 0.07194182 0.01893901
0.07190546 0.07200990 0.01905269
0.14631426 0.07113628 0.01988544
0.23630477 0.07172030 0.01953596
0.34596179 0.07706334 0.02220257
0.48216198 0.08178095 0.02192401
0.60952042 0.09103257 0.02064352
0.71939256 0.10850556 0.01781966
0.80868617 0.13456988 0.01582889
0.87397588 0.16603331 0.01696818
0.91632334 0.20295174 0.02566130
0.94383277 0.25416526 0.05512801
0.96598792 0.34565416 0.14485466
1.00000000 0.49097283 0.29522234
1.00000000 0.69487826 0.50307156
0.01394290 0.14095698 0.02468541
0.01394290 0.14095698 0.02468541
0.01991842 0.14497393 0.01844188
0.07065051 0.14558370 0.01964870
0.14487021 0.14535786 0.01912484
0.23360822 0.14676590 0.02178285
0.34634071 0.14840494 0.02069061
0.48356363 0.15007834 0.02068227
0.61353864 0.15181387 0.02282471
0.72612476 0.15881168 0.02411601
0.81748923 0.17445410 0.02569967
0.88332258 0.19893432 0.03078985
0.92479525 0.23200713 0.04423641
0.94889621 0.28227346 0.08248203
0.96618572 0.37137237 0.17278986
1.00000000 0.51012307 0.31785695
1.00000000 0.70891787 0.52223349
0.02386689 0.23162948 0.03015098
0.02386689 0.23162948 0.03015098
0.03391141 0.23329888 0.02693675
0.07817539 0.23493685 0.02458806
0.14774630 0.23542275 0.02307888
0.23544016 0.23648621 0.02322165
0.34664071 0.23813908 0.02303835
0.48459542 0.23855235 0.02321310
0.62201574 0.23130984 0.02531780
0.74030940 0.22719768 0.03241264
0.83945956 0.22605288 0.03461380
0.89891181 0.25219013 0.05891203
0.93687027 0.28279790 0.08546259
0.95265820 0.33397004 0.13625329
0.96620423 0.41476241 0.22014759
1.00000000 0.54295857 0.35728006
1.00000000 0.73327777 0.55570592
0.03007182 0.34615667 0.03030590
0.03007182 0.34615667 0.03030590
0.03998019 0.34725335 0.02711227
0.08432817 0.34831559 0.02500839
0.15238947 0.34851503 0.02424881
0.23897841 0.34917897 0.02505320
0.34899523 0.35047349 0.02614357
0.48723739 0.35010440 0.02652557
0.63099659 0.33924645 0.03479786
0.76056466 0.32352222 0.04748616
0.86360965 0.31495961 0.06685965
0.94262492 0.31084734 0.07847344
0.95303115 0.36183969 0.15514425
0.96082749 0.40909851 0.21171045
0.96929364 0.47976562 0.29170542
1.00000000 0.59470133 0.42054209
1.00000000 0.77293551 0.61068802
0.03755319 0.48408332 0.02866265
0.03755319 0.48408332 0.02866265
0.04806808 0.48483066 0.02634654
0.09264478 0.48557983 0.02563766
0.15800168 0.48578276 0.02640823
0.24201003 0.48651747 0.02873700
0.34943160 0.48806729 0.03145113
0.48635512 0.48852885 0.03226354
0.64170713 0.47383044 0.03201541
0.78756891 0.44826287 0.05531068
0.91224144 0.41912445 0.07688056
0.96069525 0.43624355 0.17261889
0.97982761 0.46455124 0.24098763
0.97954394 0.50539651 0.30713382
0.98105097 0.56592305 0.38766150
1.00000000 0.66713893 0.51042514
1.00000000 0.83087265 0.69144957
0.05364703 0.61364223 0.02340399
0.05364703 0.61364223 0.02340399
0.06577707 0.61419142 0.02324694
0.10626246 0.61507769 0.02514580
0.16292022 0.61594675 0.02885364
0.23810947 0.61792270 0.03514777
