Luts Download/Canon Luts/3dlut/17grid-3dlut/full-to-full-range/BT2020_CanonLog3-to-BT2020_709WideDR_17_FF_Ver.2.0.cube
# Gamut : BT.2020 to BT.2020
# Gamma : Canon Log 3 to Wide DR
# Range : Full in / Full out
# Version : 2.0 2019/10/24
# Copyright(c) 2019 Canon Inc. All Rights Reserved.
LUT_3D_SIZE 17
# LUT_3D_INPUT_RANGE 0.0 1.0
0.00000000 0.00000000 0.00000000
0.00000000 0.00000000 0.00000000
0.00000000 0.00000000 0.00000000
0.09782751 0.01504672 0.01461596
0.21036500 0.02163745 0.01962827
0.32260708 0.02562346 0.02056257
0.43689385 0.03144956 0.02079269
0.53989339 0.04216603 0.01939817
0.62530631 0.06105472 0.01508727
0.69740053 0.09030594 0.00880862
0.75708160 0.12402573 0.00116450
0.80384384 0.15920119 0.00000000
0.83895699 0.19289157 0.00000000
0.86563499 0.22275487 0.00000000
0.88903857 0.24815277 0.00000000
0.91730633 0.26959982 0.00000000
0.96167969 0.28969561 0.00000000
0.00000000 0.00000000 0.00000000
0.00000000 0.00000000 0.00000000
0.00000000 0.00000000 0.00000000
0.09782751 0.01504672 0.01461596
0.21036500 0.02163745 0.01962827
0.32260708 0.02562346 0.02056257
0.43689385 0.03144956 0.02079269
0.53989339 0.04216603 0.01939817
0.62530631 0.06105472 0.01508727
0.69740053 0.09030594 0.00880862
0.75708160 0.12402573 0.00116450
0.80384384 0.15920119 0.00000000
0.83895699 0.19289157 0.00000000
0.86563499 0.22275487 0.00000000
0.88903857 0.24815277 0.00000000
0.91730633 0.26959982 0.00000000
0.96167969 0.28969561 0.00000000
0.00000000 0.00000000 0.00000000
0.00000000 0.00000000 0.00000000
0.00288256 0.01097000 0.00000000
0.09782751 0.01504672 0.01461596
0.21036500 0.02163745 0.01962827
0.32260708 0.02562346 0.02056257
0.43689385 0.03144956 0.02079269
0.53989339 0.04216603 0.01939817
0.62530631 0.06105472 0.01508727
0.69740053 0.09030594 0.00880862
0.75708160 0.12402573 0.00116450
0.80384384 0.15920119 0.00000000
0.83895699 0.19289157 0.00000000
0.86563499 0.22275487 0.00000000
0.88903857 0.24815277 0.00000000
0.91730633 0.26959982 0.00000000
0.96167969 0.28969561 0.00000000
0.03349159 0.11230902 0.03181198
0.03349159 0.11230902 0.03181198
0.03349159 0.11230902 0.03181198
0.12583381 0.12641756 0.02661087
0.22670936 0.13247186 0.02248392
0.33360421 0.13613243 0.01838081
0.44635228 0.13909727 0.01629561
0.55002946 0.14280556 0.01782080
0.63677892 0.15074896 0.02028204
0.71031907 0.16493108 0.02117885
0.77127098 0.18459839 0.02011240
0.82029029 0.20700566 0.01686517
0.85785673 0.23056017 0.01347445
0.88659430 0.25321145 0.01043863
0.91153691 0.27363575 0.00706798
0.94064838 0.29177579 0.00186817
0.98524126 0.30953466 0.00000000
0.00196396 0.23515663 0.00000000
0.00196396 0.23515663 0.00000000
0.00196396 0.23515663 0.00000000
0.13892965 0.23137904 0.03096481
0.23458030 0.23570170 0.02208292
0.33856736 0.23844730 0.01604942
0.45114089 0.23954714 0.01233786
0.56239503 0.23393202 0.00553850
0.65395882 0.23159625 0.01384992
0.72573803 0.24078335 0.03518861
0.78831085 0.25136893 0.04510063
0.83976130 0.26431754 0.04844655
0.87998957 0.27919442 0.04843237
0.91060846 0.29535514 0.04790388
0.93589134 0.31209891 0.04816181
0.96307032 0.32962778 0.04963819
1.00000000 0.35114750 0.05615004
0.06146845 0.33292986 0.04540625
0.06146845 0.33292986 0.04540625
0.06146845 0.33292986 0.04540625
0.14750543 0.33882898 0.02994369
0.24051371 0.34172553 0.02117828
0.34235173 0.34388338 0.01654504
0.45410002 0.34454560 0.01299790
0.56549275 0.33952995 0.01657150
0.66506518 0.33037451 0.02623484
0.74805027 0.32530521 0.04642048
0.81879778 0.32295664 0.05939407
0.86618337 0.33456874 0.09259736
0.90837787 0.34283304 0.10197984
0.93878417 0.35509020 0.11187328
0.96009375 0.37207823 0.12680791
0.97945718 0.39359085 0.14677940
1.00000000 0.41829111 0.16644140
0.07003214 0.44735678 0.04168179
0.07003214 0.44735678 0.04168179
0.07003214 0.44735678 0.04168179
0.15409516 0.45168301 0.02771511
0.24453076 0.45388039 0.02079712
0.34424631 0.45582879 0.01812011
0.45466663 0.45677269 0.01563351
0.57059222 0.45045808 0.01211432
0.67909999 0.43670804 0.02405468
0.77416335 0.42180842 0.04598279
0.84987182 0.41274555 0.08245543
0.91115192 0.40774542 0.10883740
0.96017688 0.40576683 0.12313018
0.97030300 0.43137530 0.18435050
0.98247093 0.45167371 0.21849743
0.99421643 0.47457822 0.24917511
1.00000000 0.49948002 0.27458203
0.08286303 0.55232755 0.03341588
0.08286303 0.55232755 0.03341588
0.08286303 0.55232755 0.03341588
0.16055260 0.55617741 0.02504560
0.24459961 0.55879500 0.02278218
0.33857904 0.56190279 0.02451646
0.44388802 0.56493291 0.02607872
0.55825736 0.56171494 0.01834753
0.67550080 0.54730633 0.01176262
0.78490819 0.52627558 0.02685748
0.88050395 0.50336744 0.04909773
0.95186534 0.48832553 0.09839576
0.98155850 0.49765773 0.18831815
0.99749819 0.51264509 0.24881601
1.00000000 0.53257204 0.29853213
1.00000000 0.55484359 0.33913348
1.00000000 0.57898538 0.37083483
0.10484141 0.64172503 0.02205567
0.10484141 0.64172503 0.02205567
0.10484141 0.64172503 0.02205567
0.17179396 0.64560802 0.02126650
0.24528200 0.64916600 0.02486958
0.32958781 0.65399950 0.03251985
0.42586257 0.65980938 0.04125911
0.53216695 0.66133924 0.03899050
0.64697162 0.65264365 0.02497424
0.76535789 0.63278083 0.01738732
0.87464649 0.60616382 0.03763875
0.97459800 0.57380108 0.04086681
1.00000000 0.57957164 0.20842484
1.00000000 0.59093548 0.29724429
1.00000000 0.60800531 0.36384485
1.00000000 0.62784447 0.41458312
1.00000000 0.65033243 0.45304811
0.13482601 0.72011686 0.01117981
0.13482601 0.72011686 0.01117981
0.13482601 0.72011686 0.01117981
0.18961102 0.72421968 0.01674338
0.25117916 0.72863352 0.02583735
0.32372862 0.73504316 0.03862923
0.40891414 0.74329042 0.05443704
0.50446470 0.74890730 0.06178652
0.60990039 0.74657767 0.05329596
0.72530646 0.73369773 0.03848607
0.84307282 0.70941442 0.03785190
0.94676605 0.68013322 0.08800109
1.00000000 0.66434070 0.21247247
1.00000000 0.66710616 0.32883488
1.00000000 0.67885982 0.41515317
1.00000000 0.69514497 0.47846785
1.00000000 0.71510128 0.52440421
0.16950102 0.78803289 0.00314256
0.16950102 0.78803289 0.00314256
0.16950102 0.78803289 0.00314256
0.21288235 0.79243382 0.01309389
0.26301441 0.79753356 0.02677204
0.32322174 0.80525442 0.04345206
0.39646284 0.81546064 0.06544457
0.47718925 0.82520728 0.07013981
0.57352681 0.82724240 0.08537555
0.67868594 0.82171485 0.07609513
0.79349350 0.80505724 0.06824106
0.90703138 0.77760329 0.09521722
0.99366344 0.75088576 0.19914933
1.00000000 0.74190588 0.34145667
1.00000000 0.74575325 0.45111311
1.00000000 0.75696426 0.53004547
1.00000000 0.77342856 0.58460127
0.20502185 0.84529540 0.00000000
0.20502185 0.84529540 0.00000000
0.20502185 0.84529540 0.00000000
0.23900189 0.85000902 0.01131514
0.27929025 0.85564702 0.02839265
0.32873770 0.86426899 0.04917749
0.39055519 0.87591116 0.07702256
0.45724390 0.88859845 0.08613711
0.53841339 0.89568339 0.09613216
0.63027010 0.89670736 0.08453479
0.73887487 0.88598971 0.11695361
0.85074532 0.86608494 0.12642909
0.95524204 0.83709615 0.18505904
1.00000000 0.81590861 0.33475167
1.00000000 0.80947452 0.46968643
1.00000000 0.81379102 0.56797402
1.00000000 0.82565835 0.63294075
0.23882929 0.89221890 0.00000000
0.23882929 0.89221890 0.00000000
0.23882929 0.89221890 0.00000000
0.26599424 0.89715928 0.01252486
0.29917708 0.90307179 0.03326252
0.34104505 0.91204171 0.06029177
0.39342296 0.92450211 0.09478630
0.44275114 0.94048834 0.09590267
0.51242921 0.95045445 0.11602688
0.59061442 0.95628000 0.11849841
0.68069663 0.95500057 0.10082541
0.79143649 0.93823352 0.18563129
0.89645783 0.91642416 0.21335839
0.98422080 0.88847457 0.31276357
1.00000000 0.87115754 0.47165058
1.00000000 0.86699769 0.59344011
1.00000000 0.87311661 0.67096027
0.27162188 0.93022409 0.00341056
0.27162188 0.93022409 0.00341056
0.27162188 0.93022409 0.00341056
0.29487211 0.93513817 0.02097981
0.32415013 0.94091154 0.04754441
0.36218775 0.94955073 0.08483617
0.41052953 0.96151069 0.12913416
0.43354523 0.98277939 0.10106653
0.53272228 0.98261507 0.21811467
0.60309320 0.98822213 0.25842288
0.67591433 0.99052532 0.28541592
0.75272191 0.98815796 0.29365061
0.83896482 0.97733180 0.29640165
0.93116897 0.95638689 0.33989615
0.99729534 0.93141064 0.46863117
1.00000000 0.91816991 0.61464774
1.00000000 0.91790812 0.70601851
0.30851029 0.96233948 0.02364128
0.30851029 0.96233948 0.02364128
0.30851029 0.96233948 0.02364128
0.33155119 0.96661667 0.04933133
0.36114302 0.97140742 0.08842116
0.40077099 0.97837494 0.13746024
0.45597508 0.98665975 0.20027261
0.52089062 0.99379681 0.26919224
0.58544359 0.99920044 0.33215208
0.64844602 1.00000000 0.38825834
0.70864796 1.00000000 0.43399019
0.76671919 1.00000000 0.46652857
0.82571070 1.00000000 0.48646390
0.88909559 0.99879270 0.49685639
0.95921622 0.98780108 0.49593381
1.00000000 0.96709280 0.65560385
1.00000000 0.96126740 0.75589266
0.36275608 0.99293223 0.08623604
0.36275608 0.99293223 0.08623604
0.36275608 0.99293223 0.08623604
0.39221902 0.99482097 0.13001454
0.42908762 0.99642507 0.17948468
0.47670682 0.99901609 0.23918817
0.53482035 1.00000000 0.30862217
0.59646571 1.00000000 0.38040023
0.65543574 1.00000000 0.44773347
0.71124850 1.00000000 0.51015275
0.76280777 1.00000000 0.56528010
0.80999525 1.00000000 0.61142595
0.85398573 1.00000000 0.64873823
0.89693337 1.00000000 0.68002751
0.94119055 1.00000000 0.71438766
0.98504335 1.00000000 0.78695335
1.00000000 1.00000000 0.84681133
0.45590161 1.00000000 0.20886140
0.45590161 1.00000000 0.20886140
0.45590161 1.00000000 0.20886140
0.48398420 1.00000000 0.24485442
0.51874324 1.00000000 0.28832818
0.56291192 1.00000000 0.34361643
0.61621036 1.00000000 0.41000603
0.67219312 1.00000000 0.48015144
0.72557135 1.00000000 0.54770596
0.77563211 1.00000000 0.61151638
0.82148030 1.00000000 0.66986944
0.86266565 1.00000000 0.72151883
0.89961987 1.00000000 0.76679578
0.93355229 1.00000000 0.80812858
0.96613368 1.00000000 0.85121615
1.00000000 1.00000000 1.00000000
1.00000000 1.00000000 1.00000000
0.00000000 0.00000000 0.00000000
0.00000000 0.00000000 0.00000000
0.00000000 0.00000000 0.00000000
0.09782751 0.01504672 0.01461596
0.21036500 0.02163745 0.01962827
0.32260708 0.02562346 0.02056257
0.43689385 0.03144956 0.02079269
0.53989339 0.04216603 0.01939817
0.62530631 0.06105472 0.01508727
0.69740053 0.09030594 0.00880862
0.75708160 0.12402573 0.00116450
0.80384384 0.15920119 0.00000000
0.83895699 0.19289157 0.00000000
0.86563499 0.22275487 0.00000000
0.88903857 0.24815277 0.00000000
0.91730633 0.26959982 0.00000000
0.96167969 0.28969561 0.00000000
0.00000000 0.00000000 0.00000000
0.00000000 0.00000000 0.00000000
0.00000000 0.00000000 0.00000000
0.09782751 0.01504672 0.01461596
0.21036500 0.02163745 0.01962827
0.32260708 0.02562346 0.02056257
0.43689385 0.03144956 0.02079269
0.53989339 0.04216603 0.01939817
0.62530631 0.06105472 0.01508727
0.69740053 0.09030594 0.00880862
0.75708160 0.12402573 0.00116450
0.80384384 0.15920119 0.00000000
0.83895699 0.19289157 0.00000000
0.86563499 0.22275487 0.00000000
0.88903857 0.24815277 0.00000000
0.91730633 0.26959982 0.00000000
0.96167969 0.28969561 0.00000000
0.00000000 0.00000000 0.00000000
0.00000000 0.00000000 0.00000000
0.00000000 0.00000000 0.00000000
0.09782751 0.01504672 0.01461596
0.21036500 0.02163745 0.01962827
0.32260708 0.02562346 0.02056257
0.43689385 0.03144956 0.02079269
0.53989339 0.04216603 0.01939817
0.62530631 0.06105472 0.01508727
0.69740053 0.09030594 0.00880862
0.75708160 0.12402573 0.00116450
0.80384384 0.15920119 0.00000000
0.83895699 0.19289157 0.00000000
0.86563499 0.22275487 0.00000000
0.88903857 0.24815277 0.00000000
0.91730633 0.26959982 0.00000000
0.96167969 0.28969561 0.00000000
0.03349159 0.11230902 0.03181198
0.03349159 0.11230902 0.03181198
0.03349159 0.11230902 0.03181198
0.12583381 0.12641756 0.02661087
0.22670936 0.13247186 0.02248392
0.33360421 0.13613243 0.01838081
0.44635228 0.13909727 0.01629561
0.55002946 0.14280556 0.01782080
0.63677892 0.15074896 0.02028204
0.71031907 0.16493108 0.02117885
0.77127098 0.18459839 0.02011240
0.82029029 0.20700566 0.01686517
0.85785673 0.23056017 0.01347445
0.88659430 0.25321145 0.01043863
0.91153691 0.27363575 0.00706798
0.94064838 0.29177579 0.00186817
0.98524126 0.30953466 0.00000000
0.00196396 0.23515663 0.00000000
0.00196396 0.23515663 0.00000000
0.00196396 0.23515663 0.00000000
0.13892965 0.23137904 0.03096481
0.23458030 0.23570170 0.02208292
0.33856736 0.23844730 0.01604942
0.45114089 0.23954714 0.01233786
0.56239503 0.23393202 0.00553850
0.65395882 0.23159625 0.01384992
0.72573803 0.24078335 0.03518861
0.78831085 0.25136893 0.04510063
0.83976130 0.26431754 0.04844655
0.87998957 0.27919442 0.04843237
0.91060846 0.29535514 0.04790388
0.93589134 0.31209891 0.04816181
0.96307032 0.32962778 0.04963819
1.00000000 0.35114750 0.05615004
0.06146845 0.33292986 0.04540625
0.06146845 0.33292986 0.04540625
0.06146845 0.33292986 0.04540625
0.14750543 0.33882898 0.02994369
0.24051371 0.34172553 0.02117828
0.34235173 0.34388338 0.01654504
0.45410002 0.34454560 0.01299790
0.56549275 0.33952995 0.01657150
0.66506518 0.33037451 0.02623484
0.74805027 0.32530521 0.04642048
0.81879778 0.32295664 0.05939407
0.86618337 0.33456874 0.09259736
0.90837787 0.34283304 0.10197984
0.93878417 0.35509020 0.11187328
0.96009375 0.37207823 0.12680791
0.97945718 0.39359085 0.14677940
1.00000000 0.41829111 0.16644140
0.07003214 0.44735678 0.04168179
0.07003214 0.44735678 0.04168179
0.07003214 0.44735678 0.04168179
0.15409516 0.45168301 0.02771511
0.24453076 0.45388039 0.02079712
0.34424631 0.45582879 0.01812011
0.45466663 0.45677269 0.01563351
0.57059222 0.45045808 0.01211432
0.67909999 0.43670804 0.02405468
0.77416335 0.42180842 0.04598279
0.84987182 0.41274555 0.08245543
0.91115192 0.40774542 0.10883740
0.96017688 0.40576683 0.12313018
0.97030300 0.43137530 0.18435050
0.98247093 0.45167371 0.21849743
0.99421643 0.47457822 0.24917511
1.00000000 0.49948002 0.27458203
0.08286303 0.55232755 0.03341588
0.08286303 0.55232755 0.03341588
0.08286303 0.55232755 0.03341588
0.16055260 0.55617741 0.02504560
0.24459961 0.55879500 0.02278218
0.33857904 0.56190279 0.02451646
0.44388802 0.56493291 0.02607872
0.55825736 0.56171494 0.01834753
0.67550080 0.54730633 0.01176262
0.78490819 0.52627558 0.02685748
0.88050395 0.50336744 0.04909773
0.95186534 0.48832553 0.09839576
0.98155850 0.49765773 0.18831815
0.99749819 0.51264509 0.24881601
1.00000000 0.53257204 0.29853213
1.00000000 0.55484359 0.33913348
1.00000000 0.57898538 0.37083483
0.10484141 0.64172503 0.02205567
0.10484141 0.64172503 0.02205567
0.10484141 0.64172503 0.02205567
0.17179396 0.64560802 0.02126650
0.24528200 0.64916600 0.02486958
0.32958781 0.65399950 0.03251985
0.42586257 0.65980938 0.04125911
0.53216695 0.66133924 0.03899050
0.64697162 0.65264365 0.02497424
0.76535789 0.63278083 0.01738732
0.87464649 0.60616382 0.03763875
0.97459800 0.57380108 0.04086681
1.00000000 0.57957164 0.20842484
1.00000000 0.59093548 0.29724429
1.00000000 0.60800531 0.36384485
1.00000000 0.62784447 0.41458312
1.00000000 0.65033243 0.45304811
0.13482601 0.72011686 0.01117981
0.13482601 0.72011686 0.01117981
0.13482601 0.72011686 0.01117981
0.18961102 0.72421968 0.01674338
0.25117916 0.72863352 0.02583735
0.32372862 0.73504316 0.03862923
0.40891414 0.74329042 0.05443704
0.50446470 0.74890730 0.06178652
0.60990039 0.74657767 0.05329596
0.72530646 0.73369773 0.03848607
0.84307282 0.70941442 0.03785190
0.94676605 0.68013322 0.08800109
1.00000000 0.66434070 0.21247247
1.00000000 0.66710616 0.32883488
1.00000000 0.67885982 0.41515317
1.00000000 0.69514497 0.47846785
1.00000000 0.71510128 0.52440421
0.16950102 0.78803289 0.00314256
0.16950102 0.78803289 0.00314256
0.16950102 0.78803289 0.00314256
0.21288235 0.79243382 0.01309389
0.26301441 0.79753356 0.02677204
0.32322174 0.80525442 0.04345206
0.39646284 0.81546064 0.06544457
0.47718925 0.82520728 0.07013981
0.57352681 0.82724240 0.08537555
0.67868594 0.82171485 0.07609513
0.79349350 0.80505724 0.06824106
0.90703138 0.77760329 0.09521722
0.99366344 0.75088576 0.19914933
1.00000000 0.74190588 0.34145667
1.00000000 0.74575325 0.45111311
1.00000000 0.75696426 0.53004547
1.00000000 0.77342856 0.58460127
0.20502185 0.84529540 0.00000000
0.20502185 0.84529540 0.00000000
0.20502185 0.84529540 0.00000000
0.23900189 0.85000902 0.01131514
0.27929025 0.85564702 0.02839265
0.32873770 0.86426899 0.04917749
0.39055519 0.87591116 0.07702256
0.45724390 0.88859845 0.08613711
0.53841339 0.89568339 0.09613216
0.63027010 0.89670736 0.08453479
0.73887487 0.88598971 0.11695361
0.85074532 0.86608494 0.12642909
0.95524204 0.83709615 0.18505904
1.00000000 0.81590861 0.33475167
1.00000000 0.80947452 0.46968643
1.00000000 0.81379102 0.56797402
1.00000000 0.82565835 0.63294075
0.23882929 0.89221890 0.00000000
0.23882929 0.89221890 0.00000000
0.23882929 0.89221890 0.00000000
0.26599424 0.89715928 0.01252486
0.29917708 0.90307179 0.03326252
0.34104505 0.91204171 0.06029177
0.39342296 0.92450211 0.09478630
0.44275114 0.94048834 0.09590267
0.51242921 0.95045445 0.11602688
0.59061442 0.95628000 0.11849841
0.68069663 0.95500057 0.10082541
0.79143649 0.93823352 0.18563129
0.89645783 0.91642416 0.21335839
0.98422080 0.88847457 0.31276357
1.00000000 0.87115754 0.47165058
1.00000000 0.86699769 0.59344011
1.00000000 0.87311661 0.67096027
0.27162188 0.93022409 0.00341056
0.27162188 0.93022409 0.00341056
0.27162188 0.93022409 0.00341056
0.29487211 0.93513817 0.02097981
0.32415013 0.94091154 0.04754441
0.36218775 0.94955073 0.08483617
0.41052953 0.96151069 0.12913416
0.43354523 0.98277939 0.10106653
0.53272228 0.98261507 0.21811467
0.60309320 0.98822213 0.25842288
0.67591433 0.99052532 0.28541592
0.75272191 0.98815796 0.29365061
0.83896482 0.97733180 0.29640165
0.93116897 0.95638689 0.33989615
0.99729534 0.93141064 0.46863117
1.00000000 0.91816991 0.61464774
1.00000000 0.91790812 0.70601851
0.30851029 0.96233948 0.02364128
0.30851029 0.96233948 0.02364128
0.30851029 0.96233948 0.02364128
0.33155119 0.96661667 0.04933133
0.36114302 0.97140742 0.08842116
0.40077099 0.97837494 0.13746024
0.45597508 0.98665975 0.20027261
0.52089062 0.99379681 0.26919224
0.58544359 0.99920044 0.33215208
0.64844602 1.00000000 0.38825834
0.70864796 1.00000000 0.43399019
0.76671919 1.00000000 0.46652857
0.82571070 1.00000000 0.48646390
0.88909559 0.99879270 0.49685639
0.95921622 0.98780108 0.49593381
1.00000000 0.96709280 0.65560385
1.00000000 0.96126740 0.75589266
0.36275608 0.99293223 0.08623604
0.36275608 0.99293223 0.08623604
0.36275608 0.99293223 0.08623604
0.39221902 0.99482097 0.13001454
0.42908762 0.99642507 0.17948468
0.47670682 0.99901609 0.23918817
0.53482035 1.00000000 0.30862217
0.59646571 1.00000000 0.38040023
0.65543574 1.00000000 0.44773347
0.71124850 1.00000000 0.51015275
0.76280777 1.00000000 0.56528010
0.80999525 1.00000000 0.61142595
0.85398573 1.00000000 0.64873823
0.89693337 1.00000000 0.68002751
0.94119055 1.00000000 0.71438766
0.98504335 1.00000000 0.78695335
1.00000000 1.00000000 0.84681133
0.45590161 1.00000000 0.20886140
0.45590161 1.00000000 0.20886140
0.45590161 1.00000000 0.20886140
0.48398420 1.00000000 0.24485442
0.51874324 1.00000000 0.28832818
0.56291192 1.00000000 0.34361643
0.61621036 1.00000000 0.41000603
0.67219312 1.00000000 0.48015144
0.72557135 1.00000000 0.54770596
0.77563211 1.00000000 0.61151638
0.82148030 1.00000000 0.66986944
0.86266565 1.00000000 0.72151883
0.89961987 1.00000000 0.76679578
0.93355229 1.00000000 0.80812858
0.96613368 1.00000000 0.85121615
1.00000000 1.00000000 1.00000000
1.00000000 1.00000000 1.00000000
0.00000000 0.00000000 0.00000000
0.00000000 0.00000000 0.00000000
0.00000000 0.00000000 0.00000000
0.09782751 0.01504672 0.01461596
0.21036500 0.02163745 0.01962827
0.32260708 0.02562346 0.02056257
0.43689385 0.03144956 0.02079269
0.53989339 0.04216603 0.01939817
0.62530631 0.06105472 0.01508727
0.69740053 0.09030594 0.00880862
0.75708160 0.12402573 0.00116450
0.80384384 0.15920119 0.00000000
0.83895699 0.19289157 0.00000000
0.86563499 0.22275487 0.00000000
0.88903857 0.24815277 0.00000000
0.91730633 0.26959982 0.00000000
0.96167969 0.28969561 0.00000000
0.00000000 0.00000000 0.00000000
0.00000000 0.00000000 0.00000000
0.00000000 0.00000000 0.00000000
0.09782751 0.01504672 0.01461596
0.21036500 0.02163745 0.01962827
0.32260708 0.02562346 0.02056257
0.43689385 0.03144956 0.02079269
0.53989339 0.04216603 0.01939817
0.62530631 0.06105472 0.01508727
0.69740053 0.09030594 0.00880862
0.75708160 0.12402573 0.00116450
0.80384384 0.15920119 0.00000000
0.83895699 0.19289157 0.00000000
0.86563499 0.22275487 0.00000000
0.88903857 0.24815277 0.00000000
0.91730633 0.26959982 0.00000000
0.96167969 0.28969561 0.00000000
0.00000000 0.00000000 0.00000000
0.00000000 0.00000000 0.00000000
0.00000000 0.00000000 0.00000000
0.09782751 0.01504672 0.01461596
0.21036500 0.02163745 0.01962827
0.32260708 0.02562346 0.02056257
0.43689385 0.03144956 0.02079269
0.53989339 0.04216603 0.01939817
0.62530631 0.06105472 0.01508727
0.69740053 0.09030594 0.00880862
0.75708160 0.12402573 0.00116450
0.80384384 0.15920119 0.00000000
0.83895699 0.19289157 0.00000000
0.86563499 0.22275487 0.00000000
0.88903857 0.24815277 0.00000000
0.91730633 0.26959982 0.00000000
0.96167969 0.28969561 0.00000000
0.03349159 0.11230902 0.03181198
0.03349159 0.11230902 0.03181198
0.03349159 0.11230902 0.03181198
0.12583381 0.12641756 0.02661087
0.22670936 0.13247186 0.02248392
0.33360421 0.13613243 0.01838081
0.44635228 0.13909727 0.01629561
0.55002946 0.14280556 0.01782080
0.63677892 0.15074896 0.02028204
0.71031907 0.16493108 0.02117885
0.77127098 0.18459839 0.02011240
0.82029029 0.20700566 0.01686517
0.85785673 0.23056017 0.01347445
0.88659430 0.25321145 0.01043863
0.91153691 0.27363575 0.00706798
0.94064838 0.29177579 0.00186817
0.98524126 0.30953466 0.00000000
0.00196396 0.23515663 0.00000000
0.00196396 0.23515663 0.00000000
0.00196396 0.23515663 0.00000000
0.13892965 0.23137904 0.03096481
0.23458030 0.23570170 0.02208292
0.33856736 0.23844730 0.01604942
0.45114089 0.23954714 0.01233786
0.56239503 0.23393202 0.00553850
0.65395882 0.23159625 0.01384992
0.72573803 0.24078335 0.03518861
0.78831085 0.25136893 0.04510063
0.83976130 0.26431754 0.04844655
0.87998957 0.27919442 0.04843237
0.91060846 0.29535514 0.04790388
0.93589134 0.31209891 0.04816181
0.96307032 0.32962778 0.04963819
1.00000000 0.35114750 0.05615004
0.06146845 0.33292986 0.04540625
0.06146845 0.33292986 0.04540625
0.06146845 0.33292986 0.04540625
0.14750543 0.33882898 0.02994369
0.24051371 0.34172553 0.02117828
0.34235173 0.34388338 0.01654504
0.45410002 0.34454560 0.01299790
0.56549275 0.33952995 0.01657150
0.66506518 0.33037451 0.02623484
0.74805027 0.32530521 0.04642048
0.81879778 0.32295664 0.05939407
0.86618337 0.33456874 0.09259736
0.90837787 0.34283304 0.10197984
0.93878417 0.35509020 0.11187328
0.96009375 0.37207823 0.12680791
0.97945718 0.39359085 0.14677940
1.00000000 0.41829111 0.16644140
0.07003214 0.44735678 0.04168179
0.07003214 0.44735678 0.04168179
0.07003214 0.44735678 0.04168179
0.15409516 0.45168301 0.02771511
0.24453076 0.45388039 0.02079712
0.34424631 0.45582879 0.01812011
0.45466663 0.45677269 0.01563351
0.57059222 0.45045808 0.01211432
0.67909999 0.43670804 0.02405468
0.77416335 0.42180842 0.04598279
0.84987182 0.41274555 0.08245543
0.91115192 0.40774542 0.10883740
0.96017688 0.40576683 0.12313018
0.97030300 0.43137530 0.18435050
0.98247093 0.45167371 0.21849743
0.99421643 0.47457822 0.24917511
1.00000000 0.49948002 0.27458203
0.08286303 0.55232755 0.03341588
0.08286303 0.55232755 0.03341588
0.08286303 0.55232755 0.03341588
0.16055260 0.55617741 0.02504560
0.24459961 0.55879500 0.02278218
0.33857904 0.56190279 0.02451646
0.44388802 0.56493291 0.02607872
0.55825736 0.56171494 0.01834753
0.67550080 0.54730633 0.01176262
0.78490819 0.52627558 0.02685748
0.88050395 0.50336744 0.04909773
0.95186534 0.48832553 0.09839576
0.98155850 0.49765773 0.18831815
0.99749819 0.51264509 0.24881601
1.00000000 0.53257204 0.29853213
1.00000000 0.55484359 0.33913348
1.00000000 0.57898538 0.37083483
0.10484141 0.64172503 0.02205567
0.10484141 0.64172503 0.02205567
0.10484141 0.64172503 0.02205567
0.17179396 0.64560802 0.02126650
0.24528200 0.64916600 0.02486958
0.32958781 0.65399950 0.03251985
