Luts Download/Canon Luts/3dlut/17grid-3dlut/full-to-full-range/BT2020_CanonLog2-to-BT709_WideDR_17_FF_Ver.2.0.cube
# Gamut : BT.2020 to BT.709
# Gamma : Canon Log 2 to Wide DR
# Range : Full in / Full out
# Version : 2.0 2019/10/24
# Copyright(c) 2019 Canon Inc. All Rights Reserved.
LUT_3D_SIZE 5
# LUT_3D_INPUT_RANGE 0.0 1.0
0.00000000 0.00000000 0.00000000
0.15047115 0.00984752 0.01782911
0.69808568 0.00000000 0.04534427
0.99220732 0.18218884 0.10307260
1.00000000 0.68181245 0.56921810
0.00366238 0.12124173 0.03336459
0.14569551 0.14257530 0.01167216
0.72773209 0.08444903 0.01695677
0.99371487 0.25041249 0.15242906
1.00000000 0.70595241 0.59914976
0.00000000 0.60248690 0.18379700
0.00000000 0.61985581 0.12001152
0.62788369 0.62842430 0.01651986
1.00000000 0.58300342 0.41770683
1.00000000 0.88251050 0.81864282
0.12167515 0.92038478 0.30141511
0.10900679 0.93125721 0.29482918
0.35082963 0.98482899 0.34808243
0.94325871 0.97037154 0.52005438
1.00000000 1.00000000 1.00000000
1.00000000 1.00000000 1.00000000
1.00000000 1.00000000 1.00000000
1.00000000 1.00000000 1.00000000
1.00000000 1.00000000 1.00000000
1.00000000 1.00000000 1.00000000
0.00445305 0.01380520 0.10884752
0.17034831 0.00524697 0.12960539
0.69678368 0.00000000 0.16949742
0.98625539 0.19844767 0.15335726
1.00000000 0.69299840 0.58514414
0.00000000 0.13939364 0.13172821
0.14520997 0.14520997 0.14520997
0.73796475 0.06315540 0.14820480
0.98827036 0.26331389 0.19650613
1.00000000 0.71696770 0.61448085
0.00000000 0.59899122 0.25727647
0.00000000 0.61391629 0.21625828
0.62900708 0.62340705 0.10058666
1.00000000 0.59185062 0.45045210
1.00000000 0.89658887 0.83632441
0.12315874 0.92243299 0.31736994
0.11546005 0.93100733 0.31265760
0.35847722 0.98509478 0.36888194
0.94453084 0.97061857 0.53362996
1.00000000 1.00000000 1.00000000
1.00000000 1.00000000 1.00000000
1.00000000 1.00000000 1.00000000
1.00000000 1.00000000 1.00000000
1.00000000 1.00000000 1.00000000
1.00000000 1.00000000 1.00000000
0.00000000 0.14633916 0.36506698
0.07526081 0.09313306 0.52183419
0.70631614 0.00748242 0.57534521
1.00000000 0.23864826 0.38230279
1.00000000 0.73889440 0.66508406
0.00000000 0.20849670 0.40918188
0.04562462 0.18558207 0.55385807
0.73125970 0.06999323 0.60699204
1.00000000 0.29250285 0.40782625
1.00000000 0.76311442 0.69308216
0.00000000 0.60081938 0.57658459
0.00000000 0.61407443 0.58980313
0.61787795 0.61787795 0.61787795
0.98776252 0.64386204 0.63362927
1.00000000 0.95412932 0.91596028
0.27248422 0.92051439 0.49501699
0.28878043 0.92704462 0.50049615
0.54186794 0.96468647 0.60501228
0.96775215 0.98287498 0.56411800
1.00000000 1.00000000 1.00000000
1.00000000 1.00000000 1.00000000
1.00000000 1.00000000 1.00000000
1.00000000 1.00000000 1.00000000
1.00000000 1.00000000 1.00000000
1.00000000 1.00000000 1.00000000
0.00000000 0.27636203 0.48303130
0.00000000 0.28804809 0.53966045
0.28896293 0.32118650 0.95811438
0.97507227 0.29711155 0.79887090
1.00000000 0.76421356 0.79651338
0.00000000 0.31075743 0.54104680
0.00000000 0.32361052 0.60204514
0.30575007 0.36322700 0.96438555
0.97772926 0.34378195 0.80590972
1.00000000 0.78895374 0.81744274
0.13116406 0.58348706 0.86791951
0.14726259 0.59204615 0.89383563
0.50022487 0.65170536 0.93874615
0.99018855 0.65807431 0.87852230
1.00000000 1.00000000 1.00000000
0.04664984 0.93107462 0.89655517
0.09804707 0.93661152 0.90239202
0.53884250 0.96424690 0.93947492
0.97244176 0.97244176 0.97244176
1.00000000 1.00000000 1.00000000
1.00000000 1.00000000 1.00000000
1.00000000 1.00000000 1.00000000
1.00000000 1.00000000 1.00000000
1.00000000 1.00000000 1.00000000
1.00000000 1.00000000 1.00000000
0.00000000 0.50279293 0.78882603
0.00000000 0.51249800 0.81352776
0.00000000 0.60748648 0.99666744
0.56571175 0.66212855 1.00000000
1.00000000 0.88154025 1.00000000
0.00000000 0.52270489 0.82951783
0.00000000 0.53470981 0.85857973
0.00000000 0.62680335 1.00000000
0.58593266 0.68140356 1.00000000
1.00000000 0.90322206 1.00000000
0.16342393 0.70950330 1.00000000
0.18312035 0.71816924 1.00000000
0.42187047 0.78833600 1.00000000
0.76996205 0.84285649 1.00000000
1.00000000 1.00000000 1.00000000
0.68633650 0.90859276 1.00000000
0.70300227 0.91429864 1.00000000
0.84175554 0.96643543 1.00000000
1.00000000 1.00000000 1.00000000
1.00000000 1.00000000 1.00000000
1.00000000 1.00000000 1.00000000
1.00000000 1.00000000 1.00000000
1.00000000 1.00000000 1.00000000
1.00000000 1.00000000 1.00000000
1.00000000 1.00000000 1.00000000
