Luts Download/Canon Luts/3dlut/17grid-3dlut/full-to-full-range/BT2020_CanonLog3-to-BT709_WideDR_17_FF_Ver.2.0.cube
# Gamut : BT.2020 to BT.709
# Gamma : Canon Log 3 to Wide DR
# Range : Full in / Full out
# Version : 2.0 2019/10/24
# Copyright(c) 2019 Canon Inc. All Rights Reserved.
LUT_3D_SIZE 5
# LUT_3D_INPUT_RANGE 0.0 1.0
0.00000000 0.00000000 0.00000000
0.25411597 0.01260485 0.03071674
0.73949755 0.00000000 0.05877101
0.98458476 0.08393942 0.02936130
1.00000000 0.30256798 0.15350717
0.00899560 0.21940256 0.07774792
0.24109045 0.23608283 0.02411225
0.77802983 0.17247338 0.02184557
0.99737844 0.24177306 0.13248215
1.00000000 0.39674377 0.26340689
0.00000000 0.63015059 0.20320817
0.00000000 0.65360209 0.11633786
0.65959152 0.65702991 0.00000000
1.00000000 0.59439649 0.35227678
1.00000000 0.67001456 0.56194184
0.00000000 0.87567130 0.23859419
0.00000000 0.89429937 0.21593688
0.26150733 0.95913700 0.14411179
0.90007684 0.91927830 0.27068502
1.00000000 0.87289695 0.74460219
0.18281317 1.00000000 0.32143896
0.29524857 1.00000000 0.37127732
0.62250659 1.00000000 0.59376252
0.86571945 1.00000000 0.79783151
1.00000000 1.00000000 1.00000000
0.00264790 0.01903822 0.15050827
0.26427902 0.01330571 0.21149925
0.73311358 0.00060995 0.23916338
0.97874000 0.11616815 0.17438190
1.00000000 0.32695843 0.21746869
0.00000000 0.22677525 0.21669948
0.23600832 0.23600832 0.23600832
0.81399935 0.12093446 0.21071839
0.98764428 0.26165135 0.24348480
1.00000000 0.41534728 0.31082272
0.00000000 0.62427852 0.31759607
0.00000000 0.64894251 0.27527109
0.66213692 0.65490175 0.17957033
1.00000000 0.60475835 0.43298741
1.00000000 0.68531629 0.59629822
0.00000000 0.87279287 0.30991067
0.00000000 0.89091647 0.29618467
0.29995825 0.95583228 0.26050773
0.90185170 0.91884979 0.34299832
1.00000000 0.88508914 0.77585963
0.27339774 1.00000000 0.37508321
0.35751557 1.00000000 0.41955148
0.65460809 1.00000000 0.63056531
0.88786327 1.00000000 0.83177314
1.00000000 1.00000000 1.00000000
0.00000000 0.13953682 0.42321710
0.19739415 0.09171247 0.57480619
0.73650608 0.02158316 0.60010745
1.00000000 0.15041414 0.45146803
1.00000000 0.37133797 0.37858644
0.00000000 0.26732712 0.48687767
0.13913114 0.23753977 0.68541266
0.77577162 0.16176601 0.65135060
1.00000000 0.27594646 0.48872615
1.00000000 0.44945902 0.44249619
0.00000000 0.63212961 0.60700191
0.00000000 0.65271201 0.62837608
0.65092930 0.65092930 0.65092930
0.97709134 0.64628296 0.65405819
1.00000000 0.72303543 0.69341131
0.12071099 0.87568692 0.52603411
0.15975581 0.89085309 0.53135791
0.48981095 0.93246576 0.59684748
0.91250001 0.91930556 0.61469531
1.00000000 0.92162697 0.87219824
0.42513301 1.00000000 0.52532306
0.49601091 1.00000000 0.56715422
0.75133818 1.00000000 0.75346038
1.00000000 1.00000000 1.00000000
1.00000000 1.00000000 1.00000000
0.00000000 0.25403169 0.47879973
0.00000000 0.27344818 0.60527420
0.50975501 0.22223435 0.95826093
0.97720217 0.18078559 0.79292761
1.00000000 0.39516757 0.58447478
0.00000000 0.33159137 0.58432038
0.00000000 0.34601287 0.70446416
0.52239068 0.33121195 0.96770804
0.98672773 0.29622053 0.81175752
1.00000000 0.46886442 0.62402338
0.10495443 0.61164487 0.85699554
0.16483911 0.62532828 0.90112576
0.57933103 0.66207334 0.94294903
0.98242839 0.64631841 0.87795866
1.00000000 0.73562834 0.79430130
0.00000000 0.88523296 0.85003894
0.00000000 0.89987580 0.86482576
0.38438933 0.93999705 0.91278116
0.91241619 0.91241619 0.91241619
1.00000000 0.94701235 0.94704007
0.48844703 1.00000000 0.71365489
0.55567421 1.00000000 0.74195986
0.81260861 1.00000000 0.87668108
1.00000000 1.00000000 1.00000000
1.00000000 1.00000000 1.00000000
0.00000000 0.31824041 0.51557795
0.00000000 0.34952109 0.57882715
0.00000000 0.44097599 0.92469251
0.65295711 0.41589187 1.00000000
1.00000000 0.40312462 0.84572542
0.00000000 0.38460900 0.61898354
0.00000000 0.41160076 0.68673118
0.07496965 0.49333194 0.97507197
0.67759305 0.48316735 1.00000000
1.00000000 0.47808613 0.85753295
0.08260860 0.62685343 0.94913640
0.14100902 0.64374679 0.97766710
0.46346308 0.70999812 1.00000000
0.78841764 0.73020700 1.00000000
1.00000000 0.74668833 0.92471110
0.42458532 0.82403936 1.00000000
0.47468070 0.83594703 1.00000000
0.69421480 0.88584980 1.00000000
0.89480885 0.92636934 1.00000000
1.00000000 0.96256168 0.99865074
0.41187872 1.00000000 0.97966261
0.50612678 1.00000000 0.98393348
0.83306243 1.00000000 1.00000000
1.00000000 1.00000000 1.00000000
1.00000000 1.00000000 1.00000000
