Luts Download/Canon Luts/3dlut/17grid-3dlut/full-to-full-range/BT2020_CanonLog3-to-BT2020_709WideDR_17_FF_Ver.2.0.cube
# Gamut : BT.2020 to BT.2020
# Gamma : Canon Log 3 to Wide DR
# Range : Full in / Full out
# Version : 2.0 2019/10/24
# Copyright(c) 2019 Canon Inc. All Rights Reserved.
LUT_3D_SIZE 5
# LUT_3D_INPUT_RANGE 0.0 1.0
0.00000000 0.00000000 0.00000000
0.21036500 0.02163745 0.01962827
0.62530631 0.06105472 0.01508727
0.83895699 0.19289157 0.00000000
0.96167969 0.28969561 0.00000000
0.00196396 0.23515663 0.00000000
0.23458030 0.23570170 0.02208292
0.65395882 0.23159625 0.01384992
0.87998957 0.27919442 0.04843237
1.00000000 0.35114750 0.05615004
0.10484141 0.64172503 0.02205567
0.24528200 0.64916600 0.02486958
0.64697162 0.65264365 0.02497424
1.00000000 0.57957164 0.20842484
1.00000000 0.65033243 0.45304811
0.23882929 0.89221890 0.00000000
0.29917708 0.90307179 0.03326252
0.51242921 0.95045445 0.11602688
0.89645783 0.91642416 0.21335839
1.00000000 0.87311661 0.67096027
0.45590161 1.00000000 0.20886140
0.51874324 1.00000000 0.28832818
0.72557135 1.00000000 0.54770596
0.89961987 1.00000000 0.76679578
1.00000000 1.00000000 1.00000000
0.00743057 0.01168783 0.18692648
0.21915988 0.02319092 0.21635630
0.62852856 0.06341973 0.21346354
0.86951304 0.15556205 0.08388298
0.97675029 0.28595076 0.01578444
0.04079724 0.22834263 0.22780340
0.23600832 0.23600832 0.23600832
0.65059845 0.23771393 0.22662690
0.90449535 0.25856490 0.14500855
0.99835196 0.36663069 0.13698109
0.13401838 0.63950912 0.22853755
0.25302027 0.64820236 0.22682620
0.64781326 0.65229465 0.23723134
0.97532252 0.59990524 0.34425975
1.00000000 0.66685842 0.50020787
0.28208395 0.88869108 0.15698167
0.34172373 0.89760080 0.19148867
0.55651292 0.93889943 0.28781008
0.90042092 0.91769771 0.24086188
1.00000000 0.88454511 0.71063893
0.50789993 1.00000000 0.29678988
0.56135363 1.00000000 0.36101009
0.75124667 1.00000000 0.59514904
0.91786439 1.00000000 0.80845358
1.00000000 1.00000000 1.00000000
0.00213298 0.08748777 0.53976983
0.20081516 0.07655575 0.59933438
0.62951864 0.08652995 0.61606753
0.92200610 0.12296535 0.41880904
1.00000000 0.30191088 0.25003940
0.05109167 0.24448653 0.59513738
0.22259658 0.24145569 0.65287906
0.65338525 0.23519048 0.64557533
0.93622070 0.26052631 0.45617104
1.00000000 0.39815756 0.33225920
0.08442771 0.64496225 0.64334523
0.23603828 0.65106589 0.64991770
0.65092930 0.65092930 0.65092930
0.91167419 0.65356605 0.63564031
1.00000000 0.70630364 0.63309338
0.38977164 0.88102639 0.48421068
0.45448185 0.88439965 0.51382866
0.67470592 0.90613369 0.63265366
0.90407478 0.91598714 0.65356299
1.00000000 0.91951281 0.83609569
0.61232135 1.00000000 0.49566483
0.65493301 1.00000000 0.54142767
0.82356252 1.00000000 0.73727677
1.00000000 1.00000000 1.00000000
1.00000000 1.00000000 1.00000000
0.00000000 0.21515765 0.65393678
0.03975760 0.20978530 0.79179474
0.47589804 0.23068532 0.97540888
0.87653557 0.17237009 0.84645922
1.00000000 0.32238859 0.55586671
0.02007989 0.29320188 0.77402812
0.12546167 0.29931111 0.85968469
0.50232732 0.34227113 0.96749477
0.91993164 0.23470448 0.89240518
1.00000000 0.41344579 0.59809301
0.30657961 0.59623930 0.95419262
0.38286845 0.60899977 0.93949621
0.62760802 0.66066033 0.91709747
0.92067998 0.64845524 0.89816927
1.00000000 0.71502508 0.77685320
0.20416630 0.89916867 0.89536114
0.31556474 0.90263696 0.89843620
0.65099209 0.91285004 0.90919000
0.91241619 0.91241619 0.91241619
1.00000000 0.94436330 0.93770213
0.63624201 1.00000000 0.68677167
0.68404760 1.00000000 0.72072163
0.86663426 1.00000000 0.86845060
1.00000000 1.00000000 1.00000000
1.00000000 1.00000000 1.00000000
0.00000000 0.29204061 0.70069464
0.00000000 0.31580927 0.78516715
0.25605078 0.40755007 1.00000000
0.62010613 0.42166353 1.00000000
0.99148630 0.32442799 0.94495313
0.00000000 0.35187125 0.83811469
0.01328558 0.37152711 0.91333015
0.32155486 0.47145855 1.00000000
0.65045334 0.48827523 1.00000000
0.99472793 0.41939675 0.94508854
0.35928909 0.60779895 1.00000000
0.40212705 0.62572503 1.00000000
0.57721646 0.69903964 1.00000000
0.78359905 0.73200137 1.00000000
1.00000000 0.72633038 0.96683891
0.59614071 0.80899506 1.00000000
0.62796579 0.82162522 1.00000000
0.76989114 0.87707629 1.00000000
0.90856178 0.92484746 1.00000000
1.00000000 0.96050330 1.00000000
0.60960155 1.00000000 0.99958233
0.66699842 1.00000000 1.00000000
0.88536775 1.00000000 1.00000000
1.00000000 1.00000000 1.00000000
1.00000000 1.00000000 1.00000000
