Luts Download/Canon Luts/3dlut/17grid-3dlut/full-to-full-range/BT2020_CanonLog2-to-BT2020_709WideDR_17_FF_Ver.2.0.cube
# Gamut : BT.2020 to BT.2020
# Gamma : Canon Log 2 to Wide DR
# Range : Full in / Full out
# Version : 2.0 2019/10/24
# Copyright(c) 2019 Canon Inc. All Rights Reserved.
LUT_3D_SIZE 5
# LUT_3D_INPUT_RANGE 0.0 1.0
0.00000000 0.00000000 0.00000000
0.12099406 0.01326632 0.01241190
0.59922906 0.04307620 0.01190753
0.90539104 0.18293580 0.01268193
1.00000000 0.68296877 0.48689207
0.01806362 0.12389806 0.01555231
0.14092935 0.14164444 0.01031600
0.61148429 0.15387871 0.01299584
0.92530204 0.23070140 0.03966428
1.00000000 0.70833091 0.52120884
0.05719814 0.60950596 0.01529096
0.16163164 0.61626003 0.01356564
0.61587141 0.61986102 0.02933707
1.00000000 0.56536111 0.30721614
1.00000000 0.89253271 0.77990745
0.27552095 0.94538504 0.09214698
0.30746469 0.95174237 0.11541753
0.54271830 0.98371743 0.29674713
0.94432427 0.97111660 0.45964794
1.00000000 1.00000000 1.00000000
1.00000000 1.00000000 1.00000000
1.00000000 1.00000000 1.00000000
1.00000000 1.00000000 1.00000000
1.00000000 1.00000000 1.00000000
1.00000000 1.00000000 1.00000000
0.01059284 0.01247622 0.11666598
0.13743386 0.00842360 0.13505849
0.60380312 0.03687526 0.13318546
0.92081515 0.16367313 0.03552096
1.00000000 0.69274378 0.50270715
0.01205559 0.14207209 0.14169730
0.14520997 0.14520997 0.14520997
0.61708606 0.14778637 0.13532465
0.92636945 0.23663776 0.08745400
1.00000000 0.71839367 0.53736567
0.07197742 0.61191306 0.14102567
0.16364354 0.61553009 0.13918198
0.61584807 0.61878122 0.14592368
0.99734539 0.57967017 0.35836042
1.00000000 0.90510679 0.79799418
0.24995008 0.95326027 0.09358256
0.27671511 0.95860715 0.10976919
0.56616427 0.97831173 0.34543941
0.94443820 0.97072047 0.49353727
1.00000000 1.00000000 1.00000000
1.00000000 1.00000000 1.00000000
1.00000000 1.00000000 1.00000000
1.00000000 1.00000000 1.00000000
1.00000000 1.00000000 1.00000000
1.00000000 1.00000000 1.00000000
0.00592091 0.06925960 0.53918550
0.12076303 0.04225617 0.58583609
0.60743411 0.04280242 0.60025661
0.97338489 0.15981392 0.30677692
1.00000000 0.73768182 0.59624573
0.01775412 0.16528522 0.56519025
0.13148363 0.15118432 0.61870607
0.61911412 0.14507795 0.61451272
0.96608708 0.24855992 0.34174718
1.00000000 0.76312305 0.62911409
0.03085880 0.61562064 0.61493861
0.15282959 0.61710441 0.61642426
0.61787795 0.61787795 0.61787795
0.94046260 0.64165056 0.59923070
1.00000000 0.95472191 0.88226121
0.47308253 0.92405989 0.44886039
0.49565100 0.92712931 0.46386508
0.66749331 0.95971842 0.58680844
0.95916866 0.97815841 0.62187259
1.00000000 1.00000000 1.00000000
1.00000000 1.00000000 1.00000000
1.00000000 1.00000000 1.00000000
1.00000000 1.00000000 1.00000000
1.00000000 1.00000000 1.00000000
1.00000000 1.00000000 1.00000000
0.00000000 0.21861970 0.72201797
0.00000000 0.20994996 0.80597158
0.35216066 0.28829366 1.00000000
0.90613095 0.25024073 0.87556826
1.00000000 0.76101228 0.77349082
0.00067788 0.25146322 0.79291114
0.02234665 0.25173481 0.86091387
0.37353134 0.34438323 1.00000000
0.90848691 0.31085742 0.87458804
1.00000000 0.78678097 0.79649322
0.32724127 0.56518050 0.95557291
0.35866506 0.57437609 0.94832936
0.57424919 0.64494282 0.93227246
0.93805056 0.65430895 0.90569859
1.00000000 1.00000000 1.00000000
0.37914451 0.93704586 0.93210627
0.14538534 0.97272261 0.97032450
0.61799022 0.97303376 0.96799038
0.97244176 0.97244176 0.97244176
1.00000000 1.00000000 1.00000000
1.00000000 1.00000000 1.00000000
1.00000000 1.00000000 1.00000000
1.00000000 1.00000000 1.00000000
1.00000000 1.00000000 1.00000000
1.00000000 1.00000000 1.00000000
0.11232535 0.46249929 1.00000000
0.12334819 0.47206546 1.00000000
0.32871119 0.58362579 1.00000000
0.62323447 0.65529321 1.00000000
1.00000000 0.89170735 1.00000000
0.13921737 0.48468203 1.00000000
0.15832331 0.49791545 1.00000000
0.35702263 0.60463806 1.00000000
0.64123714 0.67509105 1.00000000
1.00000000 0.91347763 1.00000000
0.44034463 0.69064279 1.00000000
0.45555094 0.69941047 1.00000000
0.59012362 0.77313453 1.00000000
0.80456624 0.83926789 1.00000000
1.00000000 1.00000000 1.00000000
0.77164044 0.89843489 1.00000000
0.78390635 0.90445189 1.00000000
0.88736859 0.95995693 1.00000000
1.00000000 1.00000000 1.00000000
1.00000000 1.00000000 1.00000000
1.00000000 1.00000000 1.00000000
1.00000000 1.00000000 1.00000000
1.00000000 1.00000000 1.00000000
1.00000000 1.00000000 1.00000000
1.00000000 1.00000000 1.00000000
