Luts Download/Canon Luts/3dlut/17grid-3dlut/full-to-full-range/BT2020_CanonLog2-to-BT2020_709WideDR_17_FF_Ver.2.0.cube
# Gamut : BT.2020 to BT.2020
# Gamma : Canon Log 2 to Wide DR
# Range : Full in / Full out
# Version : 2.0 2019/10/24
# Copyright(c) 2019 Canon Inc. All Rights Reserved.
LUT_3D_SIZE 9
# LUT_3D_INPUT_RANGE 0.0 1.0
0.00000000 0.00000000 0.00000000
0.00924798 0.00924798 0.00924798
0.12099406 0.01326632 0.01241190
0.33288720 0.02218047 0.01508865
0.59922906 0.04307620 0.01190753
0.79760825 0.10348667 0.00451268
0.90539104 0.18293580 0.01268193
0.96469531 0.32396524 0.12014898
1.00000000 0.68296877 0.48689207
0.00924798 0.00924798 0.00924798
0.01221625 0.01221984 0.01036845
0.12974226 0.02439568 0.01266960
0.33633354 0.03550540 0.01429584
0.60189496 0.05543261 0.01179615
0.80059398 0.11184497 0.00586163
0.90826698 0.18825628 0.01531781
0.96529111 0.32947853 0.12619732
1.00000000 0.68593313 0.49079408
0.01806362 0.12389806 0.01555231
0.02659992 0.13225739 0.01330159
0.14092935 0.14164444 0.01031600
0.34247529 0.14948512 0.01036818
0.61148429 0.15387871 0.01299584
0.81777358 0.17338953 0.01776761
0.92530204 0.23070140 0.03966428
0.96728055 0.36987032 0.16988132
1.00000000 0.70833091 0.52120884
0.03346517 0.33884273 0.01951684
0.04392927 0.34186620 0.01634372
0.15325765 0.34680410 0.01062561
0.34867777 0.35038213 0.01055232
0.63139817 0.33880180 0.01784693
0.86705869 0.31084109 0.04920187
0.95780670 0.35626368 0.14347244
0.97145334 0.47713820 0.28697287
1.00000000 0.77156439 0.60861330
0.05719814 0.60950596 0.01529096
0.06843805 0.61119132 0.01384046
0.16163164 0.61626003 0.01356564
0.33553614 0.62218234 0.02752322
0.61587141 0.61986102 0.02933707
0.92575757 0.55384716 0.08522552
1.00000000 0.56536111 0.30721614
0.99714326 0.65154362 0.48179707
1.00000000 0.89253271 0.77990745
0.13430994 0.82100500 0.01670464
0.14037850 0.82242460 0.01686008
0.19035153 0.82853607 0.02470175
0.30920443 0.84044720 0.06081323
0.51848880 0.86281261 0.11373919
0.82506440 0.83717201 0.14513840
1.00000000 0.77194738 0.39430354
1.00000000 0.80672637 0.64885155
1.00000000 1.00000000 1.00000000
0.27552095 0.94538504 0.09214698
0.27900074 0.94651762 0.09457871
0.30746469 0.95174237 0.11541753
0.38507110 0.96261042 0.17506415
0.54271830 0.98371743 0.29674713
0.72782113 0.99458611 0.40503454
0.94432427 0.97111660 0.45964794
1.00000000 0.93576115 0.78439463
1.00000000 1.00000000 1.00000000
0.63041290 1.00000000 0.46020771
0.63344895 1.00000000 0.46380281
0.65369900 1.00000000 0.48818338
0.70343205 1.00000000 0.54981540
0.79450839 1.00000000 0.66565118
0.89101829 1.00000000 0.79048673
0.98424393 1.00000000 0.94482122
1.00000000 1.00000000 1.00000000
1.00000000 1.00000000 1.00000000
1.00000000 1.00000000 1.00000000
1.00000000 1.00000000 1.00000000
1.00000000 1.00000000 1.00000000
1.00000000 1.00000000 1.00000000
1.00000000 1.00000000 1.00000000
1.00000000 1.00000000 1.00000000
1.00000000 1.00000000 1.00000000
1.00000000 1.00000000 1.00000000
1.00000000 1.00000000 1.00000000
0.00924798 0.00924798 0.00924798
0.01348215 0.00957555 0.01343927
0.13216842 0.00963138 0.02102451
0.33798244 0.01672846 0.02473984
0.60194463 0.03762804 0.01974442
0.80044471 0.09637024 0.00700550
0.90747627 0.17928080 0.01254647
0.96502760 0.32366490 0.12072157
1.00000000 0.68323222 0.48744831
0.00988422 0.01498394 0.01496871
0.01903558 0.01903558 0.01903558
0.14519648 0.01910902 0.01858486
0.34221228 0.02952059 0.02322101
0.60494843 0.04942499 0.01946432
0.80275865 0.10717537 0.00943546
0.91001532 0.18547891 0.01581130
0.96539469 0.32953155 0.12721440
1.00000000 0.68626560 0.49145395
0.01394290 0.14095698 0.02468541
0.01991842 0.14497393 0.01844188
0.14487021 0.14535786 0.01912484
0.34634071 0.14840494 0.02069061
0.61353864 0.15181387 0.02282471
0.81748923 0.17445410 0.02569967
0.92479525 0.23200713 0.04423641
0.96618572 0.37137237 0.17278986
1.00000000 0.70891787 0.52223349
0.03007182 0.34615667 0.03030590
0.03998019 0.34725335 0.02711227
0.15238947 0.34851503 0.02424881
0.34899523 0.35047349 0.02614357
0.63099659 0.33924645 0.03479786
0.86360965 0.31495961 0.06685965
0.95303115 0.36183969 0.15514425
0.96929364 0.47976562 0.29170542
1.00000000 0.77293551 0.61068802
0.05364703 0.61364223 0.02340399
0.06577707 0.61419142 0.02324694
0.16292022 0.61594675 0.02885364
0.33600745 0.62183823 0.04337963
0.61569117 0.61966645 0.04509090
0.92388108 0.55513666 0.10262471
1.00000000 0.56769957 0.31445261
0.99624750 0.65341708 0.48549370
1.00000000 0.89430339 0.78243530
0.13469941 0.82385239 0.02167784
0.14292644 0.82435338 0.02387552
0.19734380 0.82768597 0.03873565
0.31369436 0.83961416 0.07616495
0.52068956 0.86212666 0.12825346
0.82484050 0.83708224 0.15590412
1.00000000 0.77272969 0.39887503
1.00000000 0.80829709 0.65197361
1.00000000 1.00000000 1.00000000
0.27918593 0.94741394 0.09753779
0.28392504 0.94776634 0.10148856
0.31531241 0.95057601 0.12687226
0.39080972 0.96158536 0.18423572
0.54605822 0.98294645 0.30328427
0.72924635 0.99425752 0.40974054
0.94430622 0.97106145 0.46389415
1.00000000 0.93680671 0.78731237
1.00000000 1.00000000 1.00000000
0.63461717 1.00000000 0.46541729
0.63739782 1.00000000 0.46881151
0.65693470 1.00000000 0.49272748
0.70549616 1.00000000 0.55299806
0.79608393 1.00000000 0.66816029
0.89250923 1.00000000 0.79300154
1.00000000 1.00000000 1.00000000
1.00000000 1.00000000 1.00000000
1.00000000 1.00000000 1.00000000
1.00000000 1.00000000 1.00000000
1.00000000 1.00000000 1.00000000
1.00000000 1.00000000 1.00000000
1.00000000 1.00000000 1.00000000
1.00000000 1.00000000 1.00000000
1.00000000 1.00000000 1.00000000
1.00000000 1.00000000 1.00000000
1.00000000 1.00000000 1.00000000
1.00000000 1.00000000 1.00000000
0.01059284 0.01247622 0.11666598
0.01600576 0.00685849 0.12125598
0.13743386 0.00842360 0.13505849
0.33689929 0.01963858 0.14651124
0.60380312 0.03687526 0.13318546
0.81295511 0.07240745 0.06961717
0.92081515 0.16367313 0.03552096
0.96450429 0.33136411 0.14220445
1.00000000 0.69274378 0.50270715
0.00842974 0.02162238 0.12560701
0.01836445 0.01931351 0.14539969
0.14551505 0.01895651 0.14464383
0.34155724 0.03107137 0.14701626
0.60706718 0.04775994 0.13305756
0.81450464 0.08613605 0.07353756
0.92192266 0.17299513 0.04099756
0.96431406 0.33774018 0.14907220
1.00000000 0.69580257 0.50674976
0.01205559 0.14207209 0.14169730
0.01903709 0.14522723 0.14508392
0.14520997 0.14520997 0.14520997
0.34977843 0.14531074 0.14461635
0.61708606 0.14778637 0.13532465
0.82621172 0.16434173 0.09630143
0.92636945 0.23663776 0.08745400
0.96173715 0.38218626 0.19676809
1.00000000 0.71839367 0.53736567
0.03210649 0.34517757 0.15298863
0.04134573 0.34655630 0.15122369
0.14640735 0.34956537 0.14450100
0.34949101 0.34992842 0.14531288
0.62796630 0.34119697 0.15618770
0.84518361 0.33535454 0.17206580
0.93675800 0.38209914 0.21049582
0.96261255 0.49124147 0.31583655
1.00000000 0.78219068 0.62505031
0.07197742 0.61191306 0.14102567
0.08350980 0.61252328 0.14085028
0.16364354 0.61553009 0.13918198
0.33650809 0.62118360 0.15160624
0.61584807 0.61878122 0.14592368
0.92794515 0.55317477 0.16727990
0.99734539 0.57967017 0.35836042
0.99259967 0.66358138 0.50722995
1.00000000 0.90510679 0.79799418
0.16938857 0.82058670 0.11219137
0.17570581 0.82115042 0.11389623
0.22008071 0.82493561 0.12480075
0.32728072 0.83725131 0.15416090
0.52442562 0.86115102 0.18873580
0.82397680 0.83661591 0.22316252
1.00000000 0.77716975 0.42969156
1.00000000 0.81778310 0.67180275
1.00000000 1.00000000 1.00000000
0.24995008 0.95326027 0.09358256
0.25317185 0.95391443 0.09566350
0.27671511 0.95860715 0.10976919
0.42303864 0.95571203 0.23868658
0.56616427 0.97831173 0.34543941
0.73861450 0.99204949 0.44232085
0.94443820 0.97072047 0.49353727
1.00000000 0.94342068 0.80615932
1.00000000 1.00000000 1.00000000
0.64966819 0.99992792 0.48775241
0.65216007 0.99987423 0.49081449
0.67008252 0.99950254 0.51295075
0.71693974 1.00000000 0.57127569
0.80617837 1.00000000 0.68467915
0.90219063 1.00000000 0.80958123
1.00000000 1.00000000 1.00000000
1.00000000 1.00000000 1.00000000
1.00000000 1.00000000 1.00000000
1.00000000 1.00000000 1.00000000
1.00000000 1.00000000 1.00000000
1.00000000 1.00000000 1.00000000
1.00000000 1.00000000 1.00000000
1.00000000 1.00000000 1.00000000
1.00000000 1.00000000 1.00000000
1.00000000 1.00000000 1.00000000
1.00000000 1.00000000 1.00000000
1.00000000 1.00000000 1.00000000
0.01217301 0.02788118 0.30159978
0.01822710 0.02025655 0.30683320
0.13892994 0.01925999 0.32003879
0.33973396 0.02426336 0.33500870
0.61066186 0.03501789 0.31715090
0.83074902 0.05717915 0.22308270
0.96892337 0.08713177 0.09731212
0.96581217 0.34918208 0.19512291
1.00000000 0.71310767 0.53929037
0.00864899 0.03787623 0.30388135
0.01998137 0.03348736 0.31756857
0.14225365 0.03022959 0.33142104
0.34326445 0.03488478 0.33955847
0.61352771 0.04594125 0.31821503
0.83196384 0.07124302 0.22590342
0.96827679 0.10593266 0.10491227
0.96491078 0.35596808 0.20192801
1.00000000 0.71617961 0.54332773
0.01632568 0.14761811 0.32367505
0.02619622 0.14782280 0.33330575
0.14434090 0.14556821 0.34997252
0.35004975 0.14512959 0.34928163
0.62273297 0.14580008 0.32275849
0.83895121 0.16078920 0.24417503
0.93584023 0.24478207 0.18274887
0.95977898 0.40087592 0.24750952
1.00000000 0.73869002 0.57348008
0.03008629 0.34604631 0.34543332
0.04048268 0.34711731 0.34660828
0.14521203 0.34980994 0.34968721
0.34979522 0.34979522 0.34979522
0.61777082 0.35032984 0.34664248
0.83040583 0.35666229 0.31970548
0.92770776 0.40302331 0.29982667
0.95614181 0.51059944 0.36456876
1.00000000 0.80297461 0.66045188
0.08151190 0.61221318 0.32396705
0.09780588 0.61235354 0.32497791
0.18836415 0.61298957 0.33022161
0.35588239 0.61649772 0.34602622
0.61606034 0.61867076 0.35033946
0.88367170 0.58278700 0.37868033
0.96600407 0.60900160 0.46209633
0.98000687 0.68718155 0.56170956
1.00000000 0.92844929 0.83391003
0.26350933 0.81025118 0.28842196
0.26845839 0.81070092 0.28995197
0.30405802 0.81376527 0.30019324
0.39623975 0.82424570 0.32990935
0.56763112 0.84824066 0.37313556
0.82503896 0.83666264 0.35219134
1.00000000 0.79055414 0.51849967
1.00000000 0.83996126 0.72317421
1.00000000 1.00000000 1.00000000
0.37521996 0.93592213 0.26598835
0.37777333 0.93650369 0.26760724
0.39655091 0.94069911 0.27901895
0.45064197 0.95440064 0.31270763
0.61625848 0.96640291 0.44951476
0.76578167 0.98496203 0.53234289
0.95844398 0.97860390 0.35395624
1.00000000 0.95878530 0.85163465
1.00000000 1.00000000 1.00000000
0.68559871 0.99568250 0.54467165
0.68757902 0.99584163 0.54706323
0.70261354 0.99670170 0.56540993
0.74634480 1.00000000 0.61977924
0.83339644 1.00000000 0.73060879
0.92674119 1.00000000 0.85271390
1.00000000 1.00000000 1.00000000
1.00000000 1.00000000 1.00000000
1.00000000 1.00000000 1.00000000
1.00000000 1.00000000 1.00000000
1.00000000 1.00000000 1.00000000
1.00000000 1.00000000 1.00000000
1.00000000 1.00000000 1.00000000
1.00000000 1.00000000 1.00000000
1.00000000 1.00000000 1.00000000
1.00000000 1.00000000 1.00000000
1.00000000 1.00000000 1.00000000
1.00000000 1.00000000 1.00000000
0.00592091 0.06925960 0.53918550
0.00849178 0.05549071 0.55247581
0.12076303 0.04225617 0.58583609
0.32438317 0.03736588 0.61726815
0.60743411 0.04280242 0.60025661
0.85031179 0.05885173 0.46510843
0.97338489 0.15981392 0.30677692
0.97970012 0.37479532 0.29567242
1.00000000 0.73768182 0.59624573
0.00354356 0.07952028 0.53879421
0.01109469 0.06915180 0.55775314
0.12304487 0.05323539 0.59403675
0.32633439 0.04913728 0.62226759
0.60947807 0.05423004 0.60264394
0.85176969 0.07158605 0.46694825
0.97237931 0.17279651 0.31125241
0.97894703 0.38088181 0.30095501
1.00000000 0.74074474 0.60015498
0.01775412 0.16528522 0.56519025
0.02596998 0.16181148 0.58045025
0.13148363 0.15118432 0.61870607
0.33171051 0.15257857 0.63556080
0.61911412 0.14507795 0.61451272
0.85626143 0.16379428 0.47897361
0.96608708 0.24855992 0.34174718
0.97475882 0.42185131 0.33742269
1.00000000 0.76312305 0.62911409
0.05634281 0.34151890 0.61340785
0.06800410 0.34202034 0.61630872
0.16396452 0.34383800 0.62303755
0.34514696 0.35171159 0.61893867
0.61943797 0.34935709 0.61479089
0.85617700 0.34937131 0.51796637
0.95416745 0.40647910 0.42850302
0.97004638 0.52769924 0.43937322
1.00000000 0.82795878 0.71362822
0.03085880 0.61562064 0.61493861
0.04560327 0.61594165 0.61525555
0.15282959 0.61710441 0.61642426
0.34980668 0.61796651 0.61722634
0.61787795 0.61787795 0.61787795
0.83286425 0.61904397 0.61076519
0.94046260 0.64165056 0.59923070
0.97360885 0.71414980 0.63841871
1.00000000 0.95472191 0.88226121
0.28748594 0.81430970 0.49537426
0.29376610 0.81441457 0.49688828
0.33725363 0.81507724 0.50731993
0.44770572 0.81798807 0.54062967
0.63031524 0.82975382 0.60806585
0.82816432 0.83523789 0.61937275
0.98315677 0.81820970 0.68955769
1.00000000 0.87251932 0.80769077
1.00000000 1.00000000 1.00000000
0.47308253 0.92405989 0.44886039
0.47580624 0.92443312 0.45069542
0.49565100 0.92712931 0.46386508
0.55338551 0.93613953 0.50435649
0.66749331 0.95971842 0.58680844
0.79145245 0.98651600 0.63988095
0.95916866 0.97815841 0.62187259
1.00000000 0.98177854 0.92345987
1.00000000 1.00000000 1.00000000
0.74059027 0.99056740 0.64090786
0.74237675 0.99078628 0.64303340
0.75564978 0.99227425 0.65889942
0.79546777 0.99767416 0.70733135
0.87939693 1.00000000 0.81248937
1.00000000 1.00000000 1.00000000
1.00000000 1.00000000 1.00000000
1.00000000 1.00000000 1.00000000
1.00000000 1.00000000 1.00000000
1.00000000 1.00000000 1.00000000
1.00000000 1.00000000 1.00000000
1.00000000 1.00000000 1.00000000
1.00000000 1.00000000 1.00000000
1.00000000 1.00000000 1.00000000
1.00000000 1.00000000 1.00000000
1.00000000 1.00000000 1.00000000
1.00000000 1.00000000 1.00000000
1.00000000 1.00000000 1.00000000
0.00000000 0.15378566 0.67084830
0.00000000 0.14567308 0.68170248
0.03688780 0.06306163 0.83201116
0.23557203 0.09231850 0.87786709
0.52472632 0.08787462 0.93616097
0.81163353 0.10750160 0.79650343
0.97403811 0.19247331 0.56702637
0.99392014 0.39646406 0.45175197
1.00000000 0.75363047 0.67037457
0.00000000 0.15739581 0.67542534
0.00000000 0.15276391 0.68980001
0.04053573 0.08073206 0.83145995
0.23823900 0.09041023 0.89392384
0.52604153 0.10322290 0.93621737
0.81286102 0.11920424 0.79744457
0.97357562 0.20277461 0.56914218
0.99347565 0.40181417 0.45539838
1.00000000 0.75667515 0.67388085
0.00909628 0.20296356 0.73033209
0.01271436 0.19995930 0.74508807
0.06909759 0.17688536 0.82915432
0.25270221 0.19555679 0.87139946
0.53108930 0.20069546 0.92347773
0.81827514 0.19604095 0.80089055
0.97051121 0.26719493 0.58408674
0.99080808 0.43883191 0.48132077
1.00000000 0.77894434 0.69978165
0.08671559 0.33680469 0.82713191
0.08519284 0.33466729 0.84414392
0.16282277 0.34439199 0.83598430
0.30781158 0.36721342 0.83697067
0.55199251 0.37303712 0.90513592
0.83869004 0.34874393 0.81936034
0.96811007 0.41004212 0.63076977
0.98822433 0.53858147 0.55781814
1.00000000 0.84400677 0.77627392
0.20779671 0.57533256 0.91329055
0.21671992 0.57599169 0.91134808
0.27578052 0.58002045 0.89862503
0.40983757 0.59354321 0.86293053
0.60679581 0.62250177 0.83575201
0.83804328 0.61643419 0.82481080
0.96499279 0.64017778 0.73306702
0.99020222 0.72421354 0.71757471
1.00000000 1.00000000 1.00000000
0.11916618 0.82610925 0.82428698
0.13173169 0.82629519 0.82442475
0.14529923 0.83329156 0.83177580
0.34986793 0.83341363 0.83086524
0.61790911 0.83338281 0.83112785
0.83311348 0.83311348 0.83311348
0.97220605 0.83414364 0.82676167
1.00000000 0.89349598 0.87438242
1.00000000 1.00000000 1.00000000
0.40490655 0.94969762 0.60808122
0.40931467 0.94978519 0.60970475
0.44066165 0.95038543 0.62141343
0.52864395 0.95245845 0.65872996
0.69391267 0.95842362 0.74391855
0.84363121 0.96937552 0.82341129
0.96749238 0.97454218 0.83465540
1.00000000 1.00000000 1.00000000
1.00000000 1.00000000 1.00000000
0.77256038 0.99320826 0.73051520
0.77440397 0.99339352 0.73244691
0.78812410 0.99462562 0.74688976
0.82931689 0.99928986 0.79123273
0.91461058 1.00000000 0.88652079
1.00000000 1.00000000 1.00000000
1.00000000 1.00000000 1.00000000
1.00000000 1.00000000 1.00000000
1.00000000 1.00000000 1.00000000
1.00000000 1.00000000 1.00000000
1.00000000 1.00000000 1.00000000
1.00000000 1.00000000 1.00000000
1.00000000 1.00000000 1.00000000
1.00000000 1.00000000 1.00000000
1.00000000 1.00000000 1.00000000
1.00000000 1.00000000 1.00000000
1.00000000 1.00000000 1.00000000
1.00000000 1.00000000 1.00000000
0.00000000 0.21861970 0.72201797
0.00000000 0.21476989 0.72753376
0.00000000 0.20994996 0.80597158
0.11200587 0.23050782 0.91750243
0.35216066 0.28829366 1.00000000
0.64671178 0.28098146 1.00000000
0.90613095 0.25024073 0.87556826
0.98594004 0.41325004 0.65481854
1.00000000 0.76101228 0.77349082
0.00000000 0.22018909 0.72888706
0.00000000 0.21955432 0.73683912
0.00000000 0.21434878 0.81496854
0.11732332 0.23861982 0.91635101
0.35475022 0.29575051 1.00000000
0.64804963 0.28808486 1.00000000
0.90671994 0.25758651 0.87572461
0.98565555 0.41829292 0.65682331
1.00000000 0.76408846 0.77622740
0.00067788 0.25146322 0.79291114
0.00169457 0.25136783 0.80255612
0.02234665 0.25173481 0.86091387
0.15410072 0.29061100 0.90921259
0.37353134 0.34438323 1.00000000
0.65711817 0.33650372 1.00000000
0.90848691 0.31085742 0.87458804
0.98376768 0.45367900 0.67138021
1.00000000 0.78678097 0.79649322
0.10451515 0.36181170 0.88947439
0.10955287 0.36330054 0.89154103
0.15019342 0.37471754 0.89885772
0.25584487 0.41074708 0.90204954
0.43516609 0.46018106 0.96584864
0.68686855 0.45720468 1.00000000
0.91573029 0.44091637 0.87732083
0.98313075 0.55020135 0.71718093
1.00000000 0.85288274 0.85730783
0.32724127 0.56518050 0.95557291
0.33129640 0.56637589 0.95413738
0.35866506 0.57437609 0.94832936
0.43468140 0.59855281 0.93211146
0.57424919 0.64494282 0.93227246
0.75403015 0.66117500 0.97508209
0.93805056 0.65430895 0.90569859
0.99119733 0.73223587 0.82001406
1.00000000 1.00000000 1.00000000
0.44702191 0.75244138 1.00000000
0.45041811 0.75313610 1.00000000
0.47471196 0.75805088 1.00000000
0.54488350 0.77357424 0.99876011
0.68720008 0.80746202 0.96411311
0.82277355 0.83749151 0.97488472
0.97794973 0.83149333 0.96427302
1.00000000 0.90331708 0.92920962
1.00000000 1.00000000 1.00000000
0.37914451 0.93704586 0.93210627
0.38360468 0.93728080 0.93231222
0.14538534 0.97272261 0.97032450
0.34994113 0.97290448 0.96895137
0.61799022 0.97303376 0.96799038
0.83314517 0.97273348 0.97029083
0.97244176 0.97244176 0.97244176
1.00000000 1.00000000 1.00000000
1.00000000 1.00000000 1.00000000
0.77581675 0.99812304 0.83361080
0.77790205 0.99825675 0.83502391
0.79342478 0.99910650 0.84555517
0.83901626 1.00000000 0.87779143
0.93096563 1.00000000 0.94798160
1.00000000 1.00000000 1.00000000
1.00000000 1.00000000 1.00000000
1.00000000 1.00000000 1.00000000
1.00000000 1.00000000 1.00000000
1.00000000 1.00000000 1.00000000
1.00000000 1.00000000 1.00000000
1.00000000 1.00000000 1.00000000
1.00000000 1.00000000 1.00000000
1.00000000 1.00000000 1.00000000
1.00000000 1.00000000 1.00000000
1.00000000 1.00000000 1.00000000
1.00000000 1.00000000 1.00000000
1.00000000 1.00000000 1.00000000
0.00000000 0.27673966 0.78606262
0.00000000 0.27447824 0.78812947
0.00000000 0.28486029 0.83107185
0.05947029 0.32309526 0.91345437
0.24670081 0.41057669 0.97924474
0.45815585 0.45775818 1.00000000
0.71048478 0.43801550 1.00000000
0.92777310 0.46722824 0.88074878
1.00000000 0.78293740 0.90676905
0.00000000 0.27807687 0.79200694
0.00000000 0.27855227 0.79592320
0.00023115 0.28864512 0.83888839
0.06597084 0.32820824 0.91421057
0.25110584 0.41503009 0.97799848
0.46083932 0.46175739 1.00000000
0.71193719 0.44234253 1.00000000
0.92787775 0.47172619 0.88079037
1.00000000 0.78600020 0.90832007
0.00833899 0.30672679 0.84259598
0.00930921 0.30816037 0.84787972
0.02257444 0.31883500 0.88153246
0.11526151 0.36408636 0.91652194
0.28222773 0.44572576 0.97063324
0.48034428 0.49007475 1.00000000
0.72229284 0.47319624 1.00000000
0.92872557 0.50355277 0.88151456
1.00000000 0.80862997 0.91962683
0.12761166 0.40506676 0.91356917
0.13103634 0.40684518 0.91479388
0.15825980 0.41992625 0.91968109
0.23801610 0.45956496 0.92012490
0.37251902 0.52863782 0.95815658
0.54163466 0.57003354 1.00000000
0.75567205 0.55968569 1.00000000
0.93612898 0.59138428 0.89072344
1.00000000 0.87408259 0.95643811
0.36628421 0.58673705 0.95776551
0.36876847 0.58799903 0.95758325
0.38717742 0.59696468 0.95615210
0.44257405 0.62401667 0.95021348
0.55118433 0.67865567 0.95819962
0.67765241 0.72066391 0.99530717
0.83210752 0.72489324 0.99426924
0.96069705 0.76134898 0.92766037
1.00000000 1.00000000 1.00000000
0.55868722 0.74193535 0.99797108
0.56068996 0.74286407 0.99765627
0.57529056 0.74955072 0.99571899
0.61962216 0.77035903 0.99058227
0.71592514 0.81592714 0.98233851
0.81741891 0.85986269 0.99132433
0.91351805 0.88122201 0.99763968
0.99317978 0.92391193 0.98084027
1.00000000 1.00000000 1.00000000
0.66176509 0.85628478 1.00000000
0.66372376 0.85697771 1.00000000
0.67827006 0.86196174 1.00000000
0.72238255 0.87781657 1.00000000
0.81697794 0.91428261 1.00000000
0.91375882 0.95402031 1.00000000
0.98046873 0.98416264 1.00000000
1.00000000 1.00000000 1.00000000
1.00000000 1.00000000 1.00000000
0.80700153 0.98943946 0.98413806
0.80910208 0.98966770 0.98440111
0.82476887 0.99123731 0.98624843
0.87081521 0.99730800 0.99322801
1.00000000 1.00000000 1.00000000
1.00000000 1.00000000 1.00000000
1.00000000 1.00000000 1.00000000
1.00000000 1.00000000 1.00000000
1.00000000 1.00000000 1.00000000
1.00000000 1.00000000 1.00000000
1.00000000 1.00000000 1.00000000
1.00000000 1.00000000 1.00000000
1.00000000 1.00000000 1.00000000
1.00000000 1.00000000 1.00000000
1.00000000 1.00000000 1.00000000
1.00000000 1.00000000 1.00000000
1.00000000 1.00000000 1.00000000
1.00000000 1.00000000 1.00000000
0.11232535 0.46249929 1.00000000
0.11000645 0.46136525 1.00000000
0.12334819 0.47206546 1.00000000
0.19213549 0.51032323 1.00000000
0.32871119 0.58362579 1.00000000
0.46794915 0.64042793 1.00000000
0.62323447 0.65529321 1.00000000
0.83770932 0.66425579 1.00000000
1.00000000 0.89170735 1.00000000
0.11293432 0.46368458 1.00000000
0.11224203 0.46362518 1.00000000
0.12690232 0.47504568 1.00000000
0.19633349 0.51329384 1.00000000
0.33209835 0.58618052 1.00000000
0.47072247 0.64275676 1.00000000
0.62538675 0.65767802 1.00000000
0.83883331 0.66689686 1.00000000
1.00000000 0.89430194 1.00000000
0.13921737 0.48468203 1.00000000
0.14107982 0.48620777 1.00000000
0.15832331 0.49791545 1.00000000
0.22809641 0.53496568 1.00000000
0.35702263 0.60463806 1.00000000
0.49126702 0.65965772 1.00000000
0.64123714 0.67509105 1.00000000
0.84677403 0.68634178 1.00000000
1.00000000 0.91347763 1.00000000
0.24208978 0.55531315 1.00000000
0.24426917 0.55670505 1.00000000
0.26205612 0.56691327 1.00000000
0.31954828 0.59827272 1.00000000
0.43179556 0.65965212 1.00000000
0.55499995 0.71074108 1.00000000
0.69112179 0.72768031 1.00000000
0.87358096 0.74416975 1.00000000
1.00000000 1.00000000 1.00000000
0.44034463 0.69064279 1.00000000
0.44209543 0.69171398 1.00000000
0.45555094 0.69941047 1.00000000
0.49834371 0.72317024 1.00000000
0.59012362 0.77313453 1.00000000
0.69547544 0.81858957 1.00000000
0.80456624 0.83926789 1.00000000
0.93957796 0.86635214 1.00000000
1.00000000 1.00000000 1.00000000
0.63320869 0.81485540 1.00000000
0.63471438 0.81571546 1.00000000
0.64601305 0.82190546 1.00000000
0.68114392 0.84118626 1.00000000
0.75919573 0.88432719 1.00000000
0.84849419 0.92706116 1.00000000
0.92961616 0.95360063 1.00000000
1.00000000 1.00000000 1.00000000
1.00000000 1.00000000 1.00000000
0.77164044 0.89843489 1.00000000
0.77308496 0.89916887 1.00000000
0.78390635 0.90445189 1.00000000
0.81668414 0.92129799 1.00000000
0.88736859 0.95995693 1.00000000
0.96437960 1.00000000 1.00000000
1.00000000 1.00000000 1.00000000
1.00000000 1.00000000 1.00000000
1.00000000 1.00000000 1.00000000
0.92664239 0.99640480 1.00000000
0.92802637 0.99698666 1.00000000
0.93836792 1.00000000 1.00000000
1.00000000 1.00000000 1.00000000
1.00000000 1.00000000 1.00000000
1.00000000 1.00000000 1.00000000
1.00000000 1.00000000 1.00000000
1.00000000 1.00000000 1.00000000
1.00000000 1.00000000 1.00000000
1.00000000 1.00000000 1.00000000
1.00000000 1.00000000 1.00000000
1.00000000 1.00000000 1.00000000
1.00000000 1.00000000 1.00000000
1.00000000 1.00000000 1.00000000
1.00000000 1.00000000 1.00000000
1.00000000 1.00000000 1.00000000
1.00000000 1.00000000 1.00000000
1.00000000 1.00000000 1.00000000
