Luts Download/Canon Luts/3dlut/17grid-3dlut/full-to-full-range/BT2020_CanonLog2-to-BT709_WideDR_17_FF_Ver.2.0.cube
# Gamut : BT.2020 to BT.709
# Gamma : Canon Log 2 to Wide DR
# Range : Full in / Full out
# Version : 2.0 2019/10/24
# Copyright(c) 2019 Canon Inc. All Rights Reserved.
LUT_3D_SIZE 17
# LUT_3D_INPUT_RANGE 0.0 1.0
0.00000000 0.00000000 0.00000000
0.00000000 0.00000000 0.00000000
0.00924798 0.00924798 0.00924798
0.06525499 0.00751122 0.01091737
0.15047115 0.00984752 0.01782911
0.26420765 0.00687196 0.02359321
0.39860889 0.00226155 0.03151381
0.55489052 0.00000000 0.04139720
0.69808568 0.00000000 0.04534427
0.82041221 0.00198519 0.04351444
0.91742405 0.02410565 0.04220187
0.97753299 0.08533174 0.05528598
0.99220732 0.18218884 0.10307260
0.98823641 0.26822584 0.16531851
0.98794202 0.36448723 0.25100197
1.00000000 0.49599702 0.38192831
1.00000000 0.68181245 0.56921810
0.00000000 0.00000000 0.00000000
0.00000000 0.00000000 0.00000000
0.00924798 0.00924798 0.00924798
0.06525499 0.00751122 0.01091737
0.15047115 0.00984752 0.01782911
0.26420765 0.00687196 0.02359321
0.39860889 0.00226155 0.03151381
0.55489052 0.00000000 0.04139720
0.69808568 0.00000000 0.04534427
0.82041221 0.00198519 0.04351444
0.91742405 0.02410565 0.04220187
0.97753299 0.08533174 0.05528598
0.99220732 0.18218884 0.10307260
0.98823641 0.26822584 0.16531851
0.98794202 0.36448723 0.25100197
1.00000000 0.49599702 0.38192831
1.00000000 0.68181245 0.56921810
0.00924798 0.00924798 0.00924798
0.00924798 0.00924798 0.00924798
0.01229755 0.01220548 0.01048246
0.07810116 0.01587303 0.01238209
0.16108504 0.01966562 0.01706317
0.27257061 0.01645262 0.02060353
0.40643591 0.00999457 0.02661084
0.56264118 0.00229467 0.03523081
0.70560494 0.00000000 0.03975114
0.82727334 0.00375076 0.03962023
0.92288515 0.02772489 0.04087398
0.97972471 0.09614851 0.05881571
0.99288906 0.19076190 0.10915655
0.98835053 0.27490210 0.17113563
0.98778837 0.36961851 0.25609996
1.00000000 0.49979573 0.38612527
1.00000000 0.68465269 0.57268035
0.00789707 0.04501004 0.01773948
0.00789707 0.04501004 0.01773948
0.01395126 0.05696212 0.01847528
0.06848466 0.06591481 0.00985748
0.16955267 0.06286600 0.00867373
0.27736578 0.06040248 0.01448953
0.41504268 0.04827410 0.01641450
0.57492078 0.03145561 0.02160439
0.72022635 0.01839258 0.02718836
0.84204632 0.01875129 0.03131297
0.93499233 0.04574762 0.03952022
0.98377351 0.12652031 0.07103059
0.99377007 0.21422895 0.12592982
0.98793658 0.29340061 0.18737783
0.98676091 0.38399722 0.27052982
1.00000000 0.51055526 0.39815003
1.00000000 0.69276390 0.58271827
0.00366238 0.12124173 0.03336459
0.00366238 0.12124173 0.03336459
0.00643945 0.13146354 0.02874201
0.04683567 0.14071614 0.01753821
0.14569551 0.14257530 0.01167216
0.26501976 0.13967641 0.00954627
0.40756051 0.13024138 0.00910163
0.57428614 0.11079633 0.01099729
0.72773209 0.08444903 0.01695677
0.85497143 0.06970576 0.02526668
0.94742191 0.09361770 0.04293878
0.98738458 0.17263872 0.09353411
0.99371487 0.25041249 0.15242906
0.98640225 0.32237418 0.21319850
0.98474622 0.40670703 0.29357292
1.00000000 0.52782035 0.41762203
1.00000000 0.70595241 0.59914976
0.00000000 0.21921626 0.05738325
0.00000000 0.21921626 0.05738325
0.00000000 0.22598647 0.04858102
0.01668559 0.23447411 0.02768674
0.11105349 0.23790696 0.01349576
0.24078031 0.23737037 0.00803409
0.38910400 0.23226527 0.00569851
0.56266776 0.21927842 0.00585342
0.72682375 0.19447572 0.01484628
0.86245019 0.17296320 0.03146003
0.95637681 0.18238641 0.06570205
0.98987922 0.24373957 0.13524163
0.99319290 0.30740166 0.19676214
0.98456823 0.36919350 0.25632965
0.98227743 0.44457735 0.33277850
1.00000000 0.55732191 0.45120076
1.00000000 0.72873983 0.62748984
0.00000000 0.33722034 0.09601211
0.00000000 0.33722034 0.09601211
0.00000000 0.34213483 0.08437505
0.00000000 0.34977043 0.05576764
0.04751038 0.35562413 0.02479135
0.19698181 0.35736878 0.00940657
0.35843756 0.35536215 0.00331179
0.54103035 0.34608547 0.00092433
0.72275320 0.32043776 0.01081407
0.87244061 0.29297234 0.04372072
0.96611887 0.29497845 0.11234153
0.99538507 0.33788432 0.19596103
0.99548674 0.38706688 0.26223923
0.98543727 0.43759163 0.32163561
0.98203975 0.50228996 0.39381134
1.00000000 0.60404961 0.50484072
1.00000000 0.76590482 0.67364820
0.00000000 0.47579934 0.14319300
0.00000000 0.47579934 0.14319300
0.00000000 0.47957051 0.13306229
0.00000000 0.48635683 0.10499198
0.00000000 0.49369126 0.06279449
0.11170749 0.49882860 0.02484043
0.29974561 0.49984511 0.00927122
0.49838200 0.49612334 0.00259545
0.70401137 0.47130537 0.00358213
0.88348070 0.43380284 0.04685651
0.98846910 0.42189804 0.15891389
1.00000000 0.44884738 0.26705642
1.00000000 0.48574993 0.34503985
0.99740872 0.52595652 0.40774375
0.99030585 0.58054865 0.47773803
1.00000000 0.67107877 0.58216728
1.00000000 0.82125910 0.74209420
0.00000000 0.60248690 0.18379700
0.00000000 0.60248690 0.18379700
0.00000000 0.60552866 0.17618499
0.00000000 0.61185923 0.15450436
0.00000000 0.61985581 0.12001152
0.00000000 0.62771089 0.07482749
0.19302338 0.63521934 0.03704078
0.40564284 0.63963436 0.02439159
0.62788369 0.62842430 0.01651986
0.84425515 0.59094506 0.04261862
0.99607988 0.55535474 0.17007219
1.00000000 0.55948132 0.31678641
1.00000000 0.58300342 0.41770683
1.00000000 0.61441149 0.49101243
1.00000000 0.66095778 0.56348484
1.00000000 0.74234328 0.66485909
1.00000000 0.88251050 0.81864282
0.00000000 0.71162018 0.21656964
0.00000000 0.71162018 0.21656964
0.00000000 0.71416641 0.21126567
0.00000000 0.71985112 0.19595187
0.00000000 0.72766814 0.17153422
0.00000000 0.73691469 0.13871067
0.04657928 0.74977157 0.09537655
0.27764624 0.76275619 0.06729738
0.50382335 0.76452337 0.05788826
0.73997113 0.74524756 0.07020695
0.95009957 0.70049539 0.15502084
1.00000000 0.67500103 0.33795370
1.00000000 0.67776013 0.47044605
1.00000000 0.69763717 0.56171316
1.00000000 0.73605460 0.64122753
1.00000000 0.80951998 0.74257697
1.00000000 0.94166871 0.89292657
0.00000000 0.80223390 0.24341054
0.00000000 0.80223390 0.24341054
0.00000000 0.80440436 0.23994146
0.00000000 0.80938500 0.22989832
0.00000000 0.81665817 0.21369737
0.00000000 0.82608597 0.19280120
0.00000000 0.84071983 0.16487480
0.14097618 0.86047786 0.13471197
0.36280749 0.87318089 0.12221858
0.59509558 0.86957882 0.13502530
0.83122973 0.84372249 0.18899595
1.00000000 0.79904072 0.33746409
1.00000000 0.77491903 0.50080668
1.00000000 0.77711601 0.61689150
1.00000000 0.80466619 0.70788525
1.00000000 0.86967331 0.81108529
1.00000000 1.00000000 1.00000000
0.01753836 0.87145553 0.26800137
0.01753836 0.87145553 0.26800137
0.01187740 0.87332703 0.26595968
0.00000000 0.87764908 0.26013330
0.00000000 0.88416065 0.25073642
0.00000000 0.89290142 0.24020924
0.00000000 0.90704482 0.22799244
0.10521968 0.92824188 0.21763503
0.26579825 0.94854910 0.20922435
0.46895494 0.95658795 0.22892496
0.68524824 0.94762963 0.26762856
0.89749198 0.91863762 0.34367541
1.00000000 0.87505111 0.51238832
1.00000000 0.85550664 0.65864178
1.00000000 0.86765006 0.76415426
1.00000000 0.92190204 0.86931351
1.00000000 1.00000000 1.00000000
0.12167515 0.92038478 0.30141511
0.12167515 0.92038478 0.30141511
0.11941120 0.92199111 0.30055844
0.11436265 0.92566091 0.29826985
0.10900679 0.93125721 0.29482918
0.11988993 0.93863327 0.29383162
0.15685321 0.95055725 0.29817612
0.23260962 0.96843294 0.31387259
0.35082963 0.98482899 0.34808243
0.49686317 0.99380354 0.40221962
0.64174212 0.99623687 0.45219517
0.78834680 0.98969496 0.48719292
0.94325871 0.97037154 0.52005438
1.00000000 0.93336218 0.70628058
1.00000000 0.92881296 0.82201169
1.00000000 0.96976937 0.92407795
1.00000000 1.00000000 1.00000000
0.28530069 0.95703078 0.37178114
0.28530069 0.95703078 0.37178114
0.28600161 0.95830184 0.37213607
0.28871520 0.96112363 0.37320586
0.29428560 0.96542315 0.37539440
0.31306893 0.97061726 0.38368385
0.36108901 0.97737063 0.40843623
0.44231834 0.98639419 0.45595443
0.53571978 0.99558929 0.51562548
0.63199662 1.00000000 0.58021561
0.72397506 1.00000000 0.64087982
0.81067860 1.00000000 0.69236518
0.89750855 1.00000000 0.74200737
0.98171401 0.99979448 0.82816971
1.00000000 0.99037301 0.90895630
1.00000000 1.00000000 1.00000000
1.00000000 1.00000000 1.00000000
0.54834402 0.98977859 0.54904190
0.54834402 0.98977859 0.54904190
0.55102374 0.99033445 0.55113549
0.55798154 0.99148201 0.55652090
0.56915873 0.99327294 0.56518083
0.58946196 0.99517030 0.58114328
0.62421923 0.99850717 0.60965031
0.67643511 1.00000000 0.65454766
0.73764033 1.00000000 0.70909641
0.80089158 1.00000000 0.76706733
0.86112086 1.00000000 0.82310488
0.91510446 1.00000000 0.87338833
1.00000000 1.00000000 1.00000000
1.00000000 1.00000000 1.00000000
1.00000000 1.00000000 1.00000000
1.00000000 1.00000000 1.00000000
1.00000000 1.00000000 1.00000000
0.85012790 1.00000000 0.82828294
0.85012790 1.00000000 0.82828294
0.85200521 1.00000000 0.83018124
0.85696879 1.00000000 0.83521391
0.86478985 1.00000000 0.84315378
0.87646913 1.00000000 0.85514728
1.00000000 1.00000000 1.00000000
1.00000000 1.00000000 1.00000000
1.00000000 1.00000000 1.00000000
1.00000000 1.00000000 1.00000000
1.00000000 1.00000000 1.00000000
1.00000000 1.00000000 1.00000000
1.00000000 1.00000000 1.00000000
1.00000000 1.00000000 1.00000000
1.00000000 1.00000000 1.00000000
1.00000000 1.00000000 1.00000000
1.00000000 1.00000000 1.00000000
1.00000000 1.00000000 1.00000000
1.00000000 1.00000000 1.00000000
1.00000000 1.00000000 1.00000000
1.00000000 1.00000000 1.00000000
1.00000000 1.00000000 1.00000000
1.00000000 1.00000000 1.00000000
1.00000000 1.00000000 1.00000000
1.00000000 1.00000000 1.00000000
1.00000000 1.00000000 1.00000000
1.00000000 1.00000000 1.00000000
1.00000000 1.00000000 1.00000000
1.00000000 1.00000000 1.00000000
1.00000000 1.00000000 1.00000000
1.00000000 1.00000000 1.00000000
1.00000000 1.00000000 1.00000000
1.00000000 1.00000000 1.00000000
1.00000000 1.00000000 1.00000000
0.00000000 0.00000000 0.00000000
0.00000000 0.00000000 0.00000000
0.00924798 0.00924798 0.00924798
0.06525499 0.00751122 0.01091737
0.15047115 0.00984752 0.01782911
0.26420765 0.00687196 0.02359321
0.39860889 0.00226155 0.03151381
0.55489052 0.00000000 0.04139720
0.69808568 0.00000000 0.04534427
0.82041221 0.00198519 0.04351444
0.91742405 0.02410565 0.04220187
0.97753299 0.08533174 0.05528598
0.99220732 0.18218884 0.10307260
0.98823641 0.26822584 0.16531851
0.98794202 0.36448723 0.25100197
1.00000000 0.49599702 0.38192831
1.00000000 0.68181245 0.56921810
0.00000000 0.00000000 0.00000000
0.00000000 0.00000000 0.00000000
0.00924798 0.00924798 0.00924798
0.06525499 0.00751122 0.01091737
0.15047115 0.00984752 0.01782911
0.26420765 0.00687196 0.02359321
0.39860889 0.00226155 0.03151381
0.55489052 0.00000000 0.04139720
0.69808568 0.00000000 0.04534427
0.82041221 0.00198519 0.04351444
0.91742405 0.02410565 0.04220187
0.97753299 0.08533174 0.05528598
0.99220732 0.18218884 0.10307260
0.98823641 0.26822584 0.16531851
0.98794202 0.36448723 0.25100197
1.00000000 0.49599702 0.38192831
1.00000000 0.68181245 0.56921810
0.00924798 0.00924798 0.00924798
0.00924798 0.00924798 0.00924798
0.01229755 0.01220548 0.01048246
0.07810116 0.01587303 0.01238209
0.16108504 0.01966562 0.01706317
0.27257061 0.01645262 0.02060353
0.40643591 0.00999457 0.02661084
0.56264118 0.00229467 0.03523081
0.70560494 0.00000000 0.03975114
0.82727334 0.00375076 0.03962023
0.92288515 0.02772489 0.04087398
0.97972471 0.09614851 0.05881571
0.99288906 0.19076190 0.10915655
0.98835053 0.27490210 0.17113563
0.98778837 0.36961851 0.25609996
1.00000000 0.49979573 0.38612527
1.00000000 0.68465269 0.57268035
0.00789707 0.04501004 0.01773948
0.00789707 0.04501004 0.01773948
0.01395126 0.05696212 0.01847528
0.06848466 0.06591481 0.00985748
0.16955267 0.06286600 0.00867373
0.27736578 0.06040248 0.01448953
0.41504268 0.04827410 0.01641450
0.57492078 0.03145561 0.02160439
0.72022635 0.01839258 0.02718836
0.84204632 0.01875129 0.03131297
0.93499233 0.04574762 0.03952022
0.98377351 0.12652031 0.07103059
0.99377007 0.21422895 0.12592982
0.98793658 0.29340061 0.18737783
0.98676091 0.38399722 0.27052982
1.00000000 0.51055526 0.39815003
1.00000000 0.69276390 0.58271827
0.00366238 0.12124173 0.03336459
0.00366238 0.12124173 0.03336459
0.00643945 0.13146354 0.02874201
0.04683567 0.14071614 0.01753821
0.14569551 0.14257530 0.01167216
0.26501976 0.13967641 0.00954627
0.40756051 0.13024138 0.00910163
0.57428614 0.11079633 0.01099729
0.72773209 0.08444903 0.01695677
0.85497143 0.06970576 0.02526668
0.94742191 0.09361770 0.04293878
0.98738458 0.17263872 0.09353411
0.99371487 0.25041249 0.15242906
0.98640225 0.32237418 0.21319850
0.98474622 0.40670703 0.29357292
1.00000000 0.52782035 0.41762203
1.00000000 0.70595241 0.59914976
0.00000000 0.21921626 0.05738325
0.00000000 0.21921626 0.05738325
0.00000000 0.22598647 0.04858102
0.01668559 0.23447411 0.02768674
0.11105349 0.23790696 0.01349576
0.24078031 0.23737037 0.00803409
0.38910400 0.23226527 0.00569851
0.56266776 0.21927842 0.00585342
0.72682375 0.19447572 0.01484628
0.86245019 0.17296320 0.03146003
0.95637681 0.18238641 0.06570205
0.98987922 0.24373957 0.13524163
0.99319290 0.30740166 0.19676214
0.98456823 0.36919350 0.25632965
0.98227743 0.44457735 0.33277850
1.00000000 0.55732191 0.45120076
1.00000000 0.72873983 0.62748984
0.00000000 0.33722034 0.09601211
0.00000000 0.33722034 0.09601211
0.00000000 0.34213483 0.08437505
0.00000000 0.34977043 0.05576764
0.04751038 0.35562413 0.02479135
0.19698181 0.35736878 0.00940657
0.35843756 0.35536215 0.00331179
0.54103035 0.34608547 0.00092433
0.72275320 0.32043776 0.01081407
0.87244061 0.29297234 0.04372072
0.96611887 0.29497845 0.11234153
0.99538507 0.33788432 0.19596103
0.99548674 0.38706688 0.26223923
0.98543727 0.43759163 0.32163561
0.98203975 0.50228996 0.39381134
1.00000000 0.60404961 0.50484072
1.00000000 0.76590482 0.67364820
0.00000000 0.47579934 0.14319300
0.00000000 0.47579934 0.14319300
0.00000000 0.47957051 0.13306229
0.00000000 0.48635683 0.10499198
0.00000000 0.49369126 0.06279449
0.11170749 0.49882860 0.02484043
0.29974561 0.49984511 0.00927122
0.49838200 0.49612334 0.00259545
0.70401137 0.47130537 0.00358213
0.88348070 0.43380284 0.04685651
0.98846910 0.42189804 0.15891389
1.00000000 0.44884738 0.26705642
1.00000000 0.48574993 0.34503985
0.99740872 0.52595652 0.40774375
0.99030585 0.58054865 0.47773803
1.00000000 0.67107877 0.58216728
1.00000000 0.82125910 0.74209420
0.00000000 0.60248690 0.18379700
0.00000000 0.60248690 0.18379700
0.00000000 0.60552866 0.17618499
0.00000000 0.61185923 0.15450436
0.00000000 0.61985581 0.12001152
0.00000000 0.62771089 0.07482749
0.19302338 0.63521934 0.03704078
0.40564284 0.63963436 0.02439159
0.62788369 0.62842430 0.01651986
0.84425515 0.59094506 0.04261862
0.99607988 0.55535474 0.17007219
1.00000000 0.55948132 0.31678641
1.00000000 0.58300342 0.41770683
1.00000000 0.61441149 0.49101243
1.00000000 0.66095778 0.56348484
1.00000000 0.74234328 0.66485909
1.00000000 0.88251050 0.81864282
0.00000000 0.71162018 0.21656964
0.00000000 0.71162018 0.21656964
0.00000000 0.71416641 0.21126567
0.00000000 0.71985112 0.19595187
0.00000000 0.72766814 0.17153422
0.00000000 0.73691469 0.13871067
0.04657928 0.74977157 0.09537655
0.27764624 0.76275619 0.06729738
0.50382335 0.76452337 0.05788826
0.73997113 0.74524756 0.07020695
0.95009957 0.70049539 0.15502084
1.00000000 0.67500103 0.33795370
1.00000000 0.67776013 0.47044605
1.00000000 0.69763717 0.56171316
1.00000000 0.73605460 0.64122753
1.00000000 0.80951998 0.74257697
1.00000000 0.94166871 0.89292657
0.00000000 0.80223390 0.24341054
0.00000000 0.80223390 0.24341054
0.00000000 0.80440436 0.23994146
0.00000000 0.80938500 0.22989832
0.00000000 0.81665817 0.21369737
0.00000000 0.82608597 0.19280120
0.00000000 0.84071983 0.16487480
0.14097618 0.86047786 0.13471197
0.36280749 0.87318089 0.12221858
0.59509558 0.86957882 0.13502530
0.83122973 0.84372249 0.18899595
1.00000000 0.79904072 0.33746409
1.00000000 0.77491903 0.50080668
1.00000000 0.77711601 0.61689150
1.00000000 0.80466619 0.70788525
1.00000000 0.86967331 0.81108529
1.00000000 1.00000000 1.00000000
0.01753836 0.87145553 0.26800137
0.01753836 0.87145553 0.26800137
0.01187740 0.87332703 0.26595968
0.00000000 0.87764908 0.26013330
0.00000000 0.88416065 0.25073642
0.00000000 0.89290142 0.24020924
0.00000000 0.90704482 0.22799244
0.10521968 0.92824188 0.21763503
0.26579825 0.94854910 0.20922435
0.46895494 0.95658795 0.22892496
0.68524824 0.94762963 0.26762856
0.89749198 0.91863762 0.34367541
1.00000000 0.87505111 0.51238832
1.00000000 0.85550664 0.65864178
1.00000000 0.86765006 0.76415426
1.00000000 0.92190204 0.86931351
1.00000000 1.00000000 1.00000000
0.12167515 0.92038478 0.30141511
0.12167515 0.92038478 0.30141511
0.11941120 0.92199111 0.30055844
0.11436265 0.92566091 0.29826985
0.10900679 0.93125721 0.29482918
0.11988993 0.93863327 0.29383162
0.15685321 0.95055725 0.29817612
0.23260962 0.96843294 0.31387259
0.35082963 0.98482899 0.34808243
0.49686317 0.99380354 0.40221962
0.64174212 0.99623687 0.45219517
0.78834680 0.98969496 0.48719292
0.94325871 0.97037154 0.52005438
1.00000000 0.93336218 0.70628058
1.00000000 0.92881296 0.82201169
1.00000000 0.96976937 0.92407795
1.00000000 1.00000000 1.00000000
0.28530069 0.95703078 0.37178114
0.28530069 0.95703078 0.37178114
0.28600161 0.95830184 0.37213607
0.28871520 0.96112363 0.37320586
0.29428560 0.96542315 0.37539440
0.31306893 0.97061726 0.38368385
0.36108901 0.97737063 0.40843623
0.44231834 0.98639419 0.45595443
0.53571978 0.99558929 0.51562548
0.63199662 1.00000000 0.58021561
0.72397506 1.00000000 0.64087982
0.81067860 1.00000000 0.69236518
0.89750855 1.00000000 0.74200737
0.98171401 0.99979448 0.82816971
1.00000000 0.99037301 0.90895630
1.00000000 1.00000000 1.00000000
1.00000000 1.00000000 1.00000000
0.54834402 0.98977859 0.54904190
0.54834402 0.98977859 0.54904190
0.55102374 0.99033445 0.55113549
0.55798154 0.99148201 0.55652090
0.56915873 0.99327294 0.56518083
0.58946196 0.99517030 0.58114328
0.62421923 0.99850717 0.60965031
0.67643511 1.00000000 0.65454766
0.73764033 1.00000000 0.70909641
0.80089158 1.00000000 0.76706733
0.86112086 1.00000000 0.82310488
0.91510446 1.00000000 0.87338833
1.00000000 1.00000000 1.00000000
1.00000000 1.00000000 1.00000000
1.00000000 1.00000000 1.00000000
1.00000000 1.00000000 1.00000000
1.00000000 1.00000000 1.00000000
0.85012790 1.00000000 0.82828294
0.85012790 1.00000000 0.82828294
0.85200521 1.00000000 0.83018124
0.85696879 1.00000000 0.83521391
0.86478985 1.00000000 0.84315378
0.87646913 1.00000000 0.85514728
1.00000000 1.00000000 1.00000000
1.00000000 1.00000000 1.00000000
1.00000000 1.00000000 1.00000000
1.00000000 1.00000000 1.00000000
1.00000000 1.00000000 1.00000000
1.00000000 1.00000000 1.00000000
1.00000000 1.00000000 1.00000000
1.00000000 1.00000000 1.00000000
1.00000000 1.00000000 1.00000000
1.00000000 1.00000000 1.00000000
1.00000000 1.00000000 1.00000000
1.00000000 1.00000000 1.00000000
1.00000000 1.00000000 1.00000000
1.00000000 1.00000000 1.00000000
1.00000000 1.00000000 1.00000000
1.00000000 1.00000000 1.00000000
1.00000000 1.00000000 1.00000000
1.00000000 1.00000000 1.00000000
1.00000000 1.00000000 1.00000000
1.00000000 1.00000000 1.00000000
1.00000000 1.00000000 1.00000000
1.00000000 1.00000000 1.00000000
1.00000000 1.00000000 1.00000000
1.00000000 1.00000000 1.00000000
1.00000000 1.00000000 1.00000000
1.00000000 1.00000000 1.00000000
1.00000000 1.00000000 1.00000000
1.00000000 1.00000000 1.00000000
0.00924798 0.00924798 0.00924798
0.00924798 0.00924798 0.00924798
0.01477338 0.00948846 0.01322910
0.08192307 0.00606202 0.01829536
0.16402635 0.00583799 0.02636835
0.27429768 0.00060183 0.03285795
0.40369144 0.00000000 0.04293758
0.55684708 0.00000000 0.05444581
0.69854013 0.00000000 0.05782894
0.82016279 0.00233561 0.05403336
0.91686511 0.02518660 0.05033047
0.97698469 0.08651413 0.06111210
0.99182576 0.18271685 0.10665290
0.98794260 0.26854549 0.16708713
0.98767229 0.36473652 0.25195875
1.00000000 0.49626924 0.38259078
1.00000000 0.68219814 0.56988391
0.00924798 0.00924798 0.00924798
0.00924798 0.00924798 0.00924798
0.01477338 0.00948846 0.01322910
0.08192307 0.00606202 0.01829536
0.16402635 0.00583799 0.02636835
0.27429768 0.00060183 0.03285795
0.40369144 0.00000000 0.04293758
0.55684708 0.00000000 0.05444581
0.69854013 0.00000000 0.05782894
0.82016279 0.00233561 0.05403336
0.91686511 0.02518660 0.05033047
0.97698469 0.08651413 0.06111210
0.99182576 0.18271685 0.10665290
0.98794260 0.26854549 0.16708713
0.98767229 0.36473652 0.25195875
1.00000000 0.49626924 0.38259078
1.00000000 0.68219814 0.56988391
0.00876906 0.01495144 0.01456726
0.00876906 0.01495144 0.01456726
0.01903558 0.01903558 0.01903558
0.10501387 0.01245075 0.01801651
0.17615342 0.01543393 0.02540494
0.28215884 0.01103830 0.03048924
0.41175515 0.00520701 0.03823184
0.56499581 0.00000000 0.04823594
0.70620131 0.00000000 0.05240089
0.82693709 0.00444818 0.05057303
0.92215336 0.02942936 0.04955985
0.97908397 0.09764914 0.06512395
0.99248013 0.19144247 0.11279937
0.98805203 0.27533654 0.17300676
0.98753152 0.36995848 0.25715601
1.00000000 0.50013774 0.38686585
1.00000000 0.68507629 0.57338552
0.00237906 0.06514368 0.02841145
0.00237906 0.06514368 0.02841145
0.01186149 0.06970875 0.02724255
0.07569441 0.07246507 0.01276700
0.18571696 0.06037091 0.01216925
0.28707744 0.05613443 0.02347719
0.42307050 0.04104526 0.02589573
0.57935855 0.02540048 0.03306499
0.72183422 0.01564678 0.03928970
0.84211343 0.01878381 0.04235675
0.93413063 0.04805678 0.04890517
0.98303129 0.12822158 0.07802844
0.99333883 0.21506747 0.12964810
0.98764328 0.29396881 0.18937582
0.98653272 0.38444914 0.27171071
1.00000000 0.51098937 0.39899273
1.00000000 0.69323592 0.58347169
0.00000000 0.13778004 0.04419987
0.00000000 0.13778004 0.04419987
0.00197274 0.14210514 0.03929264
0.04442516 0.14795059 0.02668630
0.14944353 0.14607891 0.02077311
0.27131968 0.13946559 0.01860429
0.41478831 0.12613378 0.01782307
0.58101480 0.10319407 0.01998185
0.73251791 0.07612960 0.02643524
0.85719769 0.06522136 0.03486901
0.94716096 0.09477531 0.05261693
0.98635597 0.17473488 0.10125344
0.99319126 0.25151447 0.15634985
0.98607209 0.32316939 0.21543890
0.98452562 0.40735731 0.29498708
1.00000000 0.52841725 0.41865249
1.00000000 0.70655606 0.60003876
0.00000000 0.22929862 0.07001327
0.00000000 0.22929862 0.07001327
0.00000000 0.23273738 0.06163024
0.01312315 0.23909868 0.04057402
0.10846806 0.24109212 0.02392289
0.24249643 0.23853471 0.01808775
0.39326463 0.23120534 0.01541854
0.56806765 0.21567444 0.01535305
0.73148565 0.18968778 0.02475356
0.86516355 0.16947400 0.04183836
0.95554251 0.18423273 0.07820993
0.98855377 0.24599917 0.14308110
0.99236817 0.30896278 0.20117109
0.98396185 0.37047928 0.25915743
0.98189540 0.44566006 0.33473437
1.00000000 0.55826276 0.45265067
1.00000000 0.72962829 0.62869599
0.00000000 0.34358997 0.10847434
0.00000000 0.34358997 0.10847434
0.00000000 0.34627347 0.09909619
0.00000000 0.35208580 0.07159968
0.04167646 0.35678301 0.03887625
0.19394733 0.35760145 0.02211345
0.35857874 0.35459387 0.01567264
0.54357117 0.34420973 0.01299495
0.72570546 0.31785721 0.02387777
0.87378078 0.29149554 0.05830617
0.96398797 0.29706014 0.12708497
0.99306779 0.34030587 0.20455607
0.99388216 0.38930686 0.26772610
0.98417113 0.43958086 0.32548346
0.98121400 0.50403966 0.39669950
1.00000000 0.60562766 0.50712152
1.00000000 0.76736825 0.67553480
0.00000000 0.48002629 0.15346257
0.00000000 0.48002629 0.15346257
0.00000000 0.48218365 0.14510300
0.00000000 0.48738820 0.12016046
0.00000000 0.49308230 0.08171239
0.10519189 0.49815483 0.03967367
0.29681204 0.49920228 0.02180351
0.49813140 0.49498216 0.01419923
0.70563915 0.46965116 0.01529293
0.88464075 0.43253963 0.06110729
0.98668244 0.42304398 0.17157057
1.00000000 0.45070816 0.27481760
1.00000000 0.48777926 0.35036046
0.99595893 0.52797638 0.41172675
0.98941248 0.58245766 0.48087285
1.00000000 0.67288117 0.58472859
1.00000000 0.82307521 0.74437597
0.00000000 0.60568644 0.19150323
0.00000000 0.60568644 0.19150323
0.00000000 0.60750718 0.18512558
0.00000000 0.61227945 0.16581304
0.00000000 0.61857358 0.13555088
0.00000000 0.62673813 0.09180024
