Luts Download/Canon Luts/3dlut/17grid-3dlut/full-to-full-range/BT2020_CanonLog3-to-BT709_WideDR_17_FF_Ver.2.0.cube
# Gamut : BT.2020 to BT.709
# Gamma : Canon Log 3 to Wide DR
# Range : Full in / Full out
# Version : 2.0 2019/10/24
# Copyright(c) 2019 Canon Inc. All Rights Reserved.
LUT_3D_SIZE 17
# LUT_3D_INPUT_RANGE 0.0 1.0
0.00000000 0.00000000 0.00000000
0.00000000 0.00000000 0.00000000
0.00000000 0.00000000 0.00000000
0.12204350 0.01258927 0.01896675
0.25411597 0.01260485 0.03071674
0.38595002 0.00526544 0.04061808
0.51937839 0.00000000 0.05125255
0.63948130 0.00000000 0.05854595
0.73949755 0.00000000 0.05877101
0.82448187 0.00000000 0.05259964
0.89549303 0.00026329 0.04085633
0.95027788 0.02876864 0.02932169
0.98458476 0.08393942 0.02936130
0.99947953 0.15102617 0.04750653
1.00000000 0.20714151 0.07727355
1.00000000 0.25736554 0.11613726
1.00000000 0.30256798 0.15350717
0.00000000 0.00000000 0.00000000
0.00000000 0.00000000 0.00000000
0.00000000 0.00000000 0.00000000
0.12204350 0.01258927 0.01896675
0.25411597 0.01260485 0.03071674
0.38595002 0.00526544 0.04061808
0.51937839 0.00000000 0.05125255
0.63948130 0.00000000 0.05854595
0.73949755 0.00000000 0.05877101
0.82448187 0.00000000 0.05259964
0.89549303 0.00026329 0.04085633
0.95027788 0.02876864 0.02932169
0.98458476 0.08393942 0.02936130
0.99947953 0.15102617 0.04750653
1.00000000 0.20714151 0.07727355
1.00000000 0.25736554 0.11613726
1.00000000 0.30256798 0.15350717
0.00000000 0.00000000 0.00000000
0.00000000 0.00000000 0.00000000
0.00407326 0.01143097 0.00000000
0.12204350 0.01258927 0.01896675
0.25411597 0.01260485 0.03071674
0.38595002 0.00526544 0.04061808
0.51937839 0.00000000 0.05125255
0.63948130 0.00000000 0.05854595
0.73949755 0.00000000 0.05877101
0.82448187 0.00000000 0.05259964
0.89549303 0.00026329 0.04085633
0.95027788 0.02876864 0.02932169
0.98458476 0.08393942 0.02936130
0.99947953 0.15102617 0.04750653
1.00000000 0.20714151 0.07727355
1.00000000 0.25736554 0.11613726
1.00000000 0.30256798 0.15350717
0.01826739 0.11034085 0.04326509
0.01826739 0.11034085 0.04326509
0.01826739 0.11034085 0.04326509
0.12914763 0.12603637 0.03290707
0.26309891 0.12456362 0.02772519
0.39890012 0.11371260 0.02473491
0.53783834 0.09430288 0.02548101
0.66314400 0.06985419 0.03019519
0.76648402 0.05203586 0.03481640
0.85165972 0.04918300 0.03823985
0.92007321 0.06331224 0.03984194
0.96847231 0.10218555 0.04703278
0.99298600 0.16007268 0.07161029
1.00000000 0.21412735 0.10426358
1.00000000 0.26167389 0.13747228
1.00000000 0.30516156 0.17186313
1.00000000 0.34525648 0.20448665
0.00899560 0.21940256 0.07774792
0.00899560 0.21940256 0.07774792
0.00899560 0.21940256 0.07774792
0.09822229 0.23443279 0.04285080
0.24109045 0.23608283 0.02411225
0.38375251 0.23016861 0.01379345
0.53022849 0.21680285 0.00868175
0.66529743 0.19539868 0.01247656
0.77802983 0.17247338 0.02184557
0.86973157 0.15841091 0.03448955
0.93730231 0.16520420 0.05544827
0.97831474 0.19716478 0.09135881
0.99737844 0.24177306 0.13248215
1.00000000 0.28529920 0.16913388
1.00000000 0.32471422 0.20206801
1.00000000 0.36159366 0.23389419
1.00000000 0.39674377 0.26340689
0.00000000 0.32813547 0.11308721
0.00000000 0.32813547 0.11308721
0.00000000 0.32813547 0.11308721
0.04258860 0.34257655 0.06181036
0.19731885 0.34743814 0.02554333
0.35162105 0.34524425 0.00877000
0.50650381 0.33652060 0.00000000
0.65425655 0.31751160 0.00080251
0.78001364 0.29302608 0.01671874
0.88232125 0.27248545 0.04137697
0.95573538 0.26809761 0.08190665
0.98765854 0.29641484 0.14931484
1.00000000 0.33190670 0.20116353
1.00000000 0.36692137 0.24232258
1.00000000 0.39923106 0.27648146
1.00000000 0.43026352 0.30750389
1.00000000 0.46065014 0.33504731
0.00000000 0.44045437 0.14936397
0.00000000 0.44045437 0.14936397
0.00000000 0.44045437 0.14936397
0.00000000 0.45371233 0.09842125
0.12465284 0.46219878 0.03842203
0.29935203 0.46359829 0.00989894
0.46615662 0.45925971 0.00000000
0.62862977 0.44316784 0.00000000
0.77444664 0.41617529 0.00000000
0.89286305 0.38949039 0.03841643
0.97317276 0.37827740 0.11254977
1.00000000 0.39710059 0.20300683
1.00000000 0.42574868 0.26992235
1.00000000 0.45457369 0.31905511
1.00000000 0.48142045 0.35693655
1.00000000 0.50749013 0.38882318
1.00000000 0.53404528 0.41618547
0.00000000 0.54304682 0.18047957
0.00000000 0.54304682 0.18047957
0.00000000 0.54304682 0.18047957
0.00000000 0.55537347 0.13636111
0.02336886 0.56636347 0.07220181
0.21833771 0.57297241 0.02410373
0.39789209 0.57412660 0.00347482
0.57091894 0.56527420 0.00000000
0.73614476 0.54131651 0.00000000
0.88052275 0.50937656 0.01133358
0.98254692 0.48612931 0.10780368
1.00000000 0.49291704 0.23426384
1.00000000 0.51352155 0.32250732
1.00000000 0.53689109 0.38439516
1.00000000 0.55943849 0.42930060
1.00000000 0.58184463 0.46463191
1.00000000 0.60569311 0.49390709
0.00000000 0.63015059 0.20320817
0.00000000 0.63015059 0.20320817
0.00000000 0.63015059 0.20320817
0.00000000 0.64160749 0.16757306
0.00000000 0.65360209 0.11633786
0.10891525 0.66536987 0.05174146
0.30683793 0.67237365 0.02259608
0.48542621 0.67131298 0.00407114
0.65959152 0.65702991 0.00000000
0.82452723 0.62868774 0.00000000
0.95970849 0.59618738 0.07527550
1.00000000 0.58530213 0.23580113
1.00000000 0.59439649 0.35227678
1.00000000 0.61111095 0.43252551
1.00000000 0.62932581 0.48814247
1.00000000 0.64849877 0.52933664
1.00000000 0.67001456 0.56194184
0.00000000 0.70653337 0.21942587
0.00000000 0.70653337 0.21942587
0.00000000 0.70653337 0.21942587
0.00000000 0.71715824 0.19152023
0.00000000 0.72923589 0.15228622
0.00000000 0.74349899 0.09805493
0.19976471 0.75652879 0.04904451
0.38582530 0.76213468 0.02744566
0.56253796 0.75676183 0.01186522
0.73685705 0.73857326 0.01022066
0.89629568 0.70764769 0.05976221
1.00000000 0.68035787 0.21049465
1.00000000 0.67409357 0.35921306
1.00000000 0.68130825 0.46380702
1.00000000 0.69402758 0.53475632
1.00000000 0.70959473 0.58450015
1.00000000 0.72854677 0.62154959
0.00000000 0.77292981 0.22994649
0.00000000 0.77292981 0.22994649
0.00000000 0.77292981 0.22994649
0.00000000 0.78276371 0.20878349
0.00000000 0.79443047 0.17979682
0.00000000 0.80948971 0.13970511
0.07725878 0.82673372 0.08930452
0.27662466 0.83844925 0.05563230
0.45553404 0.84044476 0.04078947
0.63110549 0.83150477 0.03787439
0.80308922 0.80994677 0.06536754
0.95166125 0.77755378 0.16402275
1.00000000 0.75525625 0.33958599
1.00000000 0.74979651 0.47507746
1.00000000 0.75479604 0.56724141
1.00000000 0.76569595 0.62921322
1.00000000 0.78147237 0.67210502
0.00000000 0.82922689 0.23580801
0.00000000 0.82922689 0.23580801
0.00000000 0.82922689 0.23580801
0.00000000 0.83832026 0.22048483
0.00000000 0.84933720 0.20025308
0.00000000 0.86423416 0.17288829
0.00000000 0.88296584 0.13769770
0.16455063 0.90007541 0.09634888
0.34668913 0.90820088 0.08048565
0.52036077 0.90697286 0.08257485
0.69213984 0.89465806 0.10200406
0.85755061 0.87034956 0.16020254
0.98638090 0.83821546 0.29097297
1.00000000 0.81848633 0.46259132
1.00000000 0.81306521 0.58290249
1.00000000 0.81753578 0.66206224
1.00000000 0.82915760 0.71284109
0.00000000 0.87567130 0.23859419
0.00000000 0.87567130 0.23859419
0.00000000 0.87567130 0.23859419
0.00000000 0.88407029 0.22839499
0.00000000 0.89429937 0.21593688
0.00000000 0.90845332 0.20024612
0.00000000 0.92698742 0.18137918
0.09927790 0.94594305 0.15787214
0.26150733 0.95913700 0.14411179
0.42724052 0.96357687 0.15696406
0.58800001 0.95939414 0.17610770
0.74778973 0.94476435 0.20456285
0.90007684 0.91927830 0.27068502
1.00000000 0.88839090 0.42828299
1.00000000 0.87060645 0.58065022
1.00000000 0.86662996 0.68313790
1.00000000 0.87289695 0.74460219
0.00000000 0.91366102 0.24087736
0.00000000 0.91366102 0.24087736
0.00000000 0.91366102 0.24087736
0.00000000 0.92134292 0.23557459
0.00000000 0.93061628 0.23066812
0.00000000 0.94347302 0.22679121
0.02608200 0.96036593 0.22607049
0.14490902 0.97765070 0.23011938
0.27969364 0.98992467 0.24938870
0.42149398 0.99530964 0.28808563
0.54988647 0.99645717 0.31921533
0.67285988 0.99273651 0.33366003
0.80074839 0.98117769 0.33554686
0.93200415 0.95712339 0.40391042
1.00000000 0.92861009 0.56474528
1.00000000 0.91477417 0.69735783
1.00000000 0.91480016 0.77238543
0.00000000 0.94640245 0.24718481
0.00000000 0.94640245 0.24718481
0.00000000 0.94640245 0.24718481
0.00000000 0.95318370 0.24747378
0.00000000 0.96109711 0.25117473
0.05534606 0.97169492 0.26172225
0.15857009 0.98499414 0.28345139
0.28029140 0.99585237 0.32552105
0.39710124 1.00000000 0.37750962
0.50443234 1.00000000 0.43067987
0.60015029 1.00000000 0.47627283
0.68756900 1.00000000 0.50976692
0.77299290 1.00000000 0.53102258
0.86331369 0.99838817 0.54898921
0.95784744 0.98591407 0.56150495
1.00000000 0.96234333 0.72316607
1.00000000 0.95648656 0.80971261
0.01845753 0.97917260 0.26687507
0.01845753 0.97917260 0.26687507
0.01845753 0.97917260 0.26687507
0.05749215 0.98448912 0.27509159
0.12186839 0.99011256 0.29004685
0.21566604 0.99601122 0.32287414
0.32317128 1.00000000 0.37435705
0.42706278 1.00000000 0.43473500
0.52107158 1.00000000 0.49564257
0.60581400 1.00000000 0.55391835
0.68108028 1.00000000 0.60617401
0.74785966 1.00000000 0.65022857
0.80876164 1.00000000 0.68605132
0.86764798 1.00000000 0.71723531
0.92703380 1.00000000 0.75175373
0.98345895 1.00000000 0.82003916
1.00000000 0.99660446 0.87853157
0.18281317 1.00000000 0.32143896
0.18281317 1.00000000 0.32143896
0.18281317 1.00000000 0.32143896
0.23485296 1.00000000 0.34268039
0.29524857 1.00000000 0.37127732
0.37012803 1.00000000 0.41353671
0.45665351 1.00000000 0.46966806
0.54303682 1.00000000 0.53200545
0.62250659 1.00000000 0.59376252
0.69473431 1.00000000 0.65291913
0.75914894 1.00000000 0.70733225
0.81577921 1.00000000 0.75558491
0.86571945 1.00000000 0.79783151
0.91103911 1.00000000 0.83657149
0.95351114 1.00000000 0.87643467
1.00000000 1.00000000 1.00000000
1.00000000 1.00000000 1.00000000
0.00000000 0.00000000 0.00000000
0.00000000 0.00000000 0.00000000
0.00000000 0.00000000 0.00000000
0.12204350 0.01258927 0.01896675
0.25411597 0.01260485 0.03071674
0.38595002 0.00526544 0.04061808
0.51937839 0.00000000 0.05125255
0.63948130 0.00000000 0.05854595
0.73949755 0.00000000 0.05877101
0.82448187 0.00000000 0.05259964
0.89549303 0.00026329 0.04085633
0.95027788 0.02876864 0.02932169
0.98458476 0.08393942 0.02936130
0.99947953 0.15102617 0.04750653
1.00000000 0.20714151 0.07727355
1.00000000 0.25736554 0.11613726
1.00000000 0.30256798 0.15350717
0.00000000 0.00000000 0.00000000
0.00000000 0.00000000 0.00000000
0.00000000 0.00000000 0.00000000
0.12204350 0.01258927 0.01896675
0.25411597 0.01260485 0.03071674
0.38595002 0.00526544 0.04061808
0.51937839 0.00000000 0.05125255
0.63948130 0.00000000 0.05854595
0.73949755 0.00000000 0.05877101
0.82448187 0.00000000 0.05259964
0.89549303 0.00026329 0.04085633
0.95027788 0.02876864 0.02932169
0.98458476 0.08393942 0.02936130
0.99947953 0.15102617 0.04750653
1.00000000 0.20714151 0.07727355
1.00000000 0.25736554 0.11613726
1.00000000 0.30256798 0.15350717
0.00000000 0.00000000 0.00000000
0.00000000 0.00000000 0.00000000
0.00000000 0.00000000 0.00000000
0.12204350 0.01258927 0.01896675
0.25411597 0.01260485 0.03071674
0.38595002 0.00526544 0.04061808
0.51937839 0.00000000 0.05125255
0.63948130 0.00000000 0.05854595
0.73949755 0.00000000 0.05877101
0.82448187 0.00000000 0.05259964
0.89549303 0.00026329 0.04085633
0.95027788 0.02876864 0.02932169
0.98458476 0.08393942 0.02936130
0.99947953 0.15102617 0.04750653
1.00000000 0.20714151 0.07727355
1.00000000 0.25736554 0.11613726
1.00000000 0.30256798 0.15350717
0.01826739 0.11034085 0.04326509
0.01826739 0.11034085 0.04326509
0.01826739 0.11034085 0.04326509
0.12914763 0.12603637 0.03290707
0.26309891 0.12456362 0.02772519
0.39890012 0.11371260 0.02473491
0.53783834 0.09430288 0.02548101
0.66314400 0.06985419 0.03019519
0.76648402 0.05203586 0.03481640
0.85165972 0.04918300 0.03823985
0.92007321 0.06331224 0.03984194
0.96847231 0.10218555 0.04703278
0.99298600 0.16007268 0.07161029
1.00000000 0.21412735 0.10426358
1.00000000 0.26167389 0.13747228
1.00000000 0.30516156 0.17186313
1.00000000 0.34525648 0.20448665
0.00899560 0.21940256 0.07774792
0.00899560 0.21940256 0.07774792
0.00899560 0.21940256 0.07774792
0.09822229 0.23443279 0.04285080
0.24109045 0.23608283 0.02411225
0.38375251 0.23016861 0.01379345
0.53022849 0.21680285 0.00868175
0.66529743 0.19539868 0.01247656
0.77802983 0.17247338 0.02184557
0.86973157 0.15841091 0.03448955
0.93730231 0.16520420 0.05544827
0.97831474 0.19716478 0.09135881
0.99737844 0.24177306 0.13248215
1.00000000 0.28529920 0.16913388
1.00000000 0.32471422 0.20206801
1.00000000 0.36159366 0.23389419
1.00000000 0.39674377 0.26340689
0.00000000 0.32813547 0.11308721
0.00000000 0.32813547 0.11308721
0.00000000 0.32813547 0.11308721
0.04258860 0.34257655 0.06181036
0.19731885 0.34743814 0.02554333
0.35162105 0.34524425 0.00877000
0.50650381 0.33652060 0.00000000
0.65425655 0.31751160 0.00080251
0.78001364 0.29302608 0.01671874
0.88232125 0.27248545 0.04137697
0.95573538 0.26809761 0.08190665
0.98765854 0.29641484 0.14931484
1.00000000 0.33190670 0.20116353
1.00000000 0.36692137 0.24232258
1.00000000 0.39923106 0.27648146
1.00000000 0.43026352 0.30750389
1.00000000 0.46065014 0.33504731
0.00000000 0.44045437 0.14936397
0.00000000 0.44045437 0.14936397
0.00000000 0.44045437 0.14936397
0.00000000 0.45371233 0.09842125
0.12465284 0.46219878 0.03842203
0.29935203 0.46359829 0.00989894
0.46615662 0.45925971 0.00000000
0.62862977 0.44316784 0.00000000
0.77444664 0.41617529 0.00000000
0.89286305 0.38949039 0.03841643
0.97317276 0.37827740 0.11254977
1.00000000 0.39710059 0.20300683
1.00000000 0.42574868 0.26992235
1.00000000 0.45457369 0.31905511
1.00000000 0.48142045 0.35693655
1.00000000 0.50749013 0.38882318
1.00000000 0.53404528 0.41618547
0.00000000 0.54304682 0.18047957
0.00000000 0.54304682 0.18047957
0.00000000 0.54304682 0.18047957
0.00000000 0.55537347 0.13636111
0.02336886 0.56636347 0.07220181
0.21833771 0.57297241 0.02410373
0.39789209 0.57412660 0.00347482
0.57091894 0.56527420 0.00000000
0.73614476 0.54131651 0.00000000
0.88052275 0.50937656 0.01133358
0.98254692 0.48612931 0.10780368
1.00000000 0.49291704 0.23426384
1.00000000 0.51352155 0.32250732
1.00000000 0.53689109 0.38439516
1.00000000 0.55943849 0.42930060
1.00000000 0.58184463 0.46463191
1.00000000 0.60569311 0.49390709
0.00000000 0.63015059 0.20320817
0.00000000 0.63015059 0.20320817
0.00000000 0.63015059 0.20320817
0.00000000 0.64160749 0.16757306
0.00000000 0.65360209 0.11633786
0.10891525 0.66536987 0.05174146
0.30683793 0.67237365 0.02259608
0.48542621 0.67131298 0.00407114
0.65959152 0.65702991 0.00000000
0.82452723 0.62868774 0.00000000
0.95970849 0.59618738 0.07527550
1.00000000 0.58530213 0.23580113
1.00000000 0.59439649 0.35227678
1.00000000 0.61111095 0.43252551
1.00000000 0.62932581 0.48814247
1.00000000 0.64849877 0.52933664
1.00000000 0.67001456 0.56194184
0.00000000 0.70653337 0.21942587
0.00000000 0.70653337 0.21942587
0.00000000 0.70653337 0.21942587
0.00000000 0.71715824 0.19152023
0.00000000 0.72923589 0.15228622
0.00000000 0.74349899 0.09805493
0.19976471 0.75652879 0.04904451
0.38582530 0.76213468 0.02744566
0.56253796 0.75676183 0.01186522
0.73685705 0.73857326 0.01022066
0.89629568 0.70764769 0.05976221
1.00000000 0.68035787 0.21049465
1.00000000 0.67409357 0.35921306
1.00000000 0.68130825 0.46380702
1.00000000 0.69402758 0.53475632
1.00000000 0.70959473 0.58450015
1.00000000 0.72854677 0.62154959
0.00000000 0.77292981 0.22994649
0.00000000 0.77292981 0.22994649
0.00000000 0.77292981 0.22994649
0.00000000 0.78276371 0.20878349
0.00000000 0.79443047 0.17979682
0.00000000 0.80948971 0.13970511
0.07725878 0.82673372 0.08930452
0.27662466 0.83844925 0.05563230
0.45553404 0.84044476 0.04078947
0.63110549 0.83150477 0.03787439
0.80308922 0.80994677 0.06536754
0.95166125 0.77755378 0.16402275
1.00000000 0.75525625 0.33958599
1.00000000 0.74979651 0.47507746
1.00000000 0.75479604 0.56724141
1.00000000 0.76569595 0.62921322
1.00000000 0.78147237 0.67210502
0.00000000 0.82922689 0.23580801
0.00000000 0.82922689 0.23580801
0.00000000 0.82922689 0.23580801
0.00000000 0.83832026 0.22048483
0.00000000 0.84933720 0.20025308
0.00000000 0.86423416 0.17288829
0.00000000 0.88296584 0.13769770
0.16455063 0.90007541 0.09634888
0.34668913 0.90820088 0.08048565
0.52036077 0.90697286 0.08257485
0.69213984 0.89465806 0.10200406
0.85755061 0.87034956 0.16020254
0.98638090 0.83821546 0.29097297
1.00000000 0.81848633 0.46259132
1.00000000 0.81306521 0.58290249
1.00000000 0.81753578 0.66206224
1.00000000 0.82915760 0.71284109
0.00000000 0.87567130 0.23859419
0.00000000 0.87567130 0.23859419
0.00000000 0.87567130 0.23859419
0.00000000 0.88407029 0.22839499
0.00000000 0.89429937 0.21593688
0.00000000 0.90845332 0.20024612
0.00000000 0.92698742 0.18137918
0.09927790 0.94594305 0.15787214
0.26150733 0.95913700 0.14411179
0.42724052 0.96357687 0.15696406
0.58800001 0.95939414 0.17610770
0.74778973 0.94476435 0.20456285
0.90007684 0.91927830 0.27068502
1.00000000 0.88839090 0.42828299
1.00000000 0.87060645 0.58065022
1.00000000 0.86662996 0.68313790
1.00000000 0.87289695 0.74460219
0.00000000 0.91366102 0.24087736
0.00000000 0.91366102 0.24087736
0.00000000 0.91366102 0.24087736
0.00000000 0.92134292 0.23557459
0.00000000 0.93061628 0.23066812
0.00000000 0.94347302 0.22679121
0.02608200 0.96036593 0.22607049
0.14490902 0.97765070 0.23011938
0.27969364 0.98992467 0.24938870
0.42149398 0.99530964 0.28808563
0.54988647 0.99645717 0.31921533
0.67285988 0.99273651 0.33366003
0.80074839 0.98117769 0.33554686
0.93200415 0.95712339 0.40391042
1.00000000 0.92861009 0.56474528
1.00000000 0.91477417 0.69735783
1.00000000 0.91480016 0.77238543
0.00000000 0.94640245 0.24718481
0.00000000 0.94640245 0.24718481
0.00000000 0.94640245 0.24718481
0.00000000 0.95318370 0.24747378
0.00000000 0.96109711 0.25117473
0.05534606 0.97169492 0.26172225
0.15857009 0.98499414 0.28345139
0.28029140 0.99585237 0.32552105
0.39710124 1.00000000 0.37750962
0.50443234 1.00000000 0.43067987
0.60015029 1.00000000 0.47627283
0.68756900 1.00000000 0.50976692
0.77299290 1.00000000 0.53102258
0.86331369 0.99838817 0.54898921
0.95784744 0.98591407 0.56150495
1.00000000 0.96234333 0.72316607
1.00000000 0.95648656 0.80971261
0.01845753 0.97917260 0.26687507
0.01845753 0.97917260 0.26687507
0.01845753 0.97917260 0.26687507
0.05749215 0.98448912 0.27509159
0.12186839 0.99011256 0.29004685
0.21566604 0.99601122 0.32287414
0.32317128 1.00000000 0.37435705
0.42706278 1.00000000 0.43473500
0.52107158 1.00000000 0.49564257
0.60581400 1.00000000 0.55391835
0.68108028 1.00000000 0.60617401
0.74785966 1.00000000 0.65022857
0.80876164 1.00000000 0.68605132
0.86764798 1.00000000 0.71723531
0.92703380 1.00000000 0.75175373
0.98345895 1.00000000 0.82003916
1.00000000 0.99660446 0.87853157
0.18281317 1.00000000 0.32143896
0.18281317 1.00000000 0.32143896
0.18281317 1.00000000 0.32143896
0.23485296 1.00000000 0.34268039
0.29524857 1.00000000 0.37127732
0.37012803 1.00000000 0.41353671
0.45665351 1.00000000 0.46966806
0.54303682 1.00000000 0.53200545
0.62250659 1.00000000 0.59376252
0.69473431 1.00000000 0.65291913
0.75914894 1.00000000 0.70733225
0.81577921 1.00000000 0.75558491
0.86571945 1.00000000 0.79783151
0.91103911 1.00000000 0.83657149
0.95351114 1.00000000 0.87643467
1.00000000 1.00000000 1.00000000
1.00000000 1.00000000 1.00000000
0.00000000 0.00000000 0.00000000
0.00000000 0.00000000 0.00000000
0.00000000 0.00000000 0.00000000
0.12204350 0.01258927 0.01896675
0.25411597 0.01260485 0.03071674
0.38595002 0.00526544 0.04061808
0.51937839 0.00000000 0.05125255
0.63948130 0.00000000 0.05854595
0.73949755 0.00000000 0.05877101
0.82448187 0.00000000 0.05259964
0.89549303 0.00026329 0.04085633
0.95027788 0.02876864 0.02932169
0.98458476 0.08393942 0.02936130
0.99947953 0.15102617 0.04750653
1.00000000 0.20714151 0.07727355
1.00000000 0.25736554 0.11613726
1.00000000 0.30256798 0.15350717
0.00000000 0.00000000 0.00000000
0.00000000 0.00000000 0.00000000
0.00000000 0.00000000 0.00000000
0.12204350 0.01258927 0.01896675
0.25411597 0.01260485 0.03071674
0.38595002 0.00526544 0.04061808
0.51937839 0.00000000 0.05125255
0.63948130 0.00000000 0.05854595
0.73949755 0.00000000 0.05877101
0.82448187 0.00000000 0.05259964
0.89549303 0.00026329 0.04085633
0.95027788 0.02876864 0.02932169
0.98458476 0.08393942 0.02936130
0.99947953 0.15102617 0.04750653
1.00000000 0.20714151 0.07727355
1.00000000 0.25736554 0.11613726
1.00000000 0.30256798 0.15350717
0.00000000 0.00000000 0.00000000
0.00000000 0.00000000 0.00000000
0.00000000 0.00000000 0.00000000
0.12204350 0.01258927 0.01896675
0.25411597 0.01260485 0.03071674
0.38595002 0.00526544 0.04061808
0.51937839 0.00000000 0.05125255
0.63948130 0.00000000 0.05854595
0.73949755 0.00000000 0.05877101
0.82448187 0.00000000 0.05259964
0.89549303 0.00026329 0.04085633
0.95027788 0.02876864 0.02932169
0.98458476 0.08393942 0.02936130
0.99947953 0.15102617 0.04750653
1.00000000 0.20714151 0.07727355
1.00000000 0.25736554 0.11613726
1.00000000 0.30256798 0.15350717
0.01826739 0.11034085 0.04326509
0.01826739 0.11034085 0.04326509
0.01826739 0.11034085 0.04326509
0.12914763 0.12603637 0.03290707
0.26309891 0.12456362 0.02772519
0.39890012 0.11371260 0.02473491
0.53783834 0.09430288 0.02548101
0.66314400 0.06985419 0.03019519
0.76648402 0.05203586 0.03481640
0.85165972 0.04918300 0.03823985
0.92007321 0.06331224 0.03984194
0.96847231 0.10218555 0.04703278
0.99298600 0.16007268 0.07161029
1.00000000 0.21412735 0.10426358
1.00000000 0.26167389 0.13747228
1.00000000 0.30516156 0.17186313
1.00000000 0.34525648 0.20448665
0.00899560 0.21940256 0.07774792
0.00899560 0.21940256 0.07774792
0.00899560 0.21940256 0.07774792
0.09822229 0.23443279 0.04285080
0.24109045 0.23608283 0.02411225
0.38375251 0.23016861 0.01379345
0.53022849 0.21680285 0.00868175
0.66529743 0.19539868 0.01247656
0.77802983 0.17247338 0.02184557
0.86973157 0.15841091 0.03448955
0.93730231 0.16520420 0.05544827
0.97831474 0.19716478 0.09135881
0.99737844 0.24177306 0.13248215
1.00000000 0.28529920 0.16913388
1.00000000 0.32471422 0.20206801
1.00000000 0.36159366 0.23389419
1.00000000 0.39674377 0.26340689
0.00000000 0.32813547 0.11308721
0.00000000 0.32813547 0.11308721
0.00000000 0.32813547 0.11308721
0.04258860 0.34257655 0.06181036
0.19731885 0.34743814 0.02554333
0.35162105 0.34524425 0.00877000
0.50650381 0.33652060 0.00000000
0.65425655 0.31751160 0.00080251
0.78001364 0.29302608 0.01671874
0.88232125 0.27248545 0.04137697
0.95573538 0.26809761 0.08190665
0.98765854 0.29641484 0.14931484
1.00000000 0.33190670 0.20116353
1.00000000 0.36692137 0.24232258
1.00000000 0.39923106 0.27648146
1.00000000 0.43026352 0.30750389
1.00000000 0.46065014 0.33504731
0.00000000 0.44045437 0.14936397
0.00000000 0.44045437 0.14936397
0.00000000 0.44045437 0.14936397
0.00000000 0.45371233 0.09842125
0.12465284 0.46219878 0.03842203
0.29935203 0.46359829 0.00989894
0.46615662 0.45925971 0.00000000
0.62862977 0.44316784 0.00000000
0.77444664 0.41617529 0.00000000
0.89286305 0.38949039 0.03841643
0.97317276 0.37827740 0.11254977
1.00000000 0.39710059 0.20300683
1.00000000 0.42574868 0.26992235
1.00000000 0.45457369 0.31905511
1.00000000 0.48142045 0.35693655
1.00000000 0.50749013 0.38882318
1.00000000 0.53404528 0.41618547
0.00000000 0.54304682 0.18047957
0.00000000 0.54304682 0.18047957
0.00000000 0.54304682 0.18047957
0.00000000 0.55537347 0.13636111
0.02336886 0.56636347 0.07220181
0.21833771 0.57297241 0.02410373
0.39789209 0.57412660 0.00347482
0.57091894 0.56527420 0.00000000
0.73614476 0.54131651 0.00000000
0.88052275 0.50937656 0.01133358
0.98254692 0.48612931 0.10780368
1.00000000 0.49291704 0.23426384
1.00000000 0.51352155 0.32250732
1.00000000 0.53689109 0.38439516
1.00000000 0.55943849 0.42930060
1.00000000 0.58184463 0.46463191
1.00000000 0.60569311 0.49390709
0.00000000 0.63015059 0.20320817
0.00000000 0.63015059 0.20320817
0.00000000 0.63015059 0.20320817
0.00000000 0.64160749 0.16757306
0.00000000 0.65360209 0.11633786
0.10891525 0.66536987 0.05174146
