Luts Download/Canon Luts/3dlut/17grid-3dlut/full-to-full-range/BT2020_CanonLog3-to-BT2020_709WideDR_17_FF_Ver.2.0.cube
# Gamut : BT.2020 to BT.2020
# Gamma : Canon Log 3 to Wide DR
# Range : Full in / Full out
# Version : 2.0 2019/10/24
# Copyright(c) 2019 Canon Inc. All Rights Reserved.
LUT_3D_SIZE 9
# LUT_3D_INPUT_RANGE 0.0 1.0
0.00000000 0.00000000 0.00000000
0.00000000 0.00000000 0.00000000
0.21036500 0.02163745 0.01962827
0.43689385 0.03144956 0.02079269
0.62530631 0.06105472 0.01508727
0.75708160 0.12402573 0.00116450
0.83895699 0.19289157 0.00000000
0.88903857 0.24815277 0.00000000
0.96167969 0.28969561 0.00000000
0.00000000 0.00000000 0.00000000
0.00288256 0.01097000 0.00000000
0.21036500 0.02163745 0.01962827
0.43689385 0.03144956 0.02079269
0.62530631 0.06105472 0.01508727
0.75708160 0.12402573 0.00116450
0.83895699 0.19289157 0.00000000
0.88903857 0.24815277 0.00000000
0.96167969 0.28969561 0.00000000
0.00196396 0.23515663 0.00000000
0.00196396 0.23515663 0.00000000
0.23458030 0.23570170 0.02208292
0.45114089 0.23954714 0.01233786
0.65395882 0.23159625 0.01384992
0.78831085 0.25136893 0.04510063
0.87998957 0.27919442 0.04843237
0.93589134 0.31209891 0.04816181
1.00000000 0.35114750 0.05615004
0.07003214 0.44735678 0.04168179
0.07003214 0.44735678 0.04168179
0.24453076 0.45388039 0.02079712
0.45466663 0.45677269 0.01563351
0.67909999 0.43670804 0.02405468
0.84987182 0.41274555 0.08245543
0.96017688 0.40576683 0.12313018
0.98247093 0.45167371 0.21849743
1.00000000 0.49948002 0.27458203
0.10484141 0.64172503 0.02205567
0.10484141 0.64172503 0.02205567
0.24528200 0.64916600 0.02486958
0.42586257 0.65980938 0.04125911
0.64697162 0.65264365 0.02497424
0.87464649 0.60616382 0.03763875
1.00000000 0.57957164 0.20842484
1.00000000 0.60800531 0.36384485
1.00000000 0.65033243 0.45304811
0.16950102 0.78803289 0.00314256
0.16950102 0.78803289 0.00314256
0.26301441 0.79753356 0.02677204
0.39646284 0.81546064 0.06544457
0.57352681 0.82724240 0.08537555
0.79349350 0.80505724 0.06824106
0.99366344 0.75088576 0.19914933
1.00000000 0.74575325 0.45111311
1.00000000 0.77342856 0.58460127
0.23882929 0.89221890 0.00000000
0.23882929 0.89221890 0.00000000
0.29917708 0.90307179 0.03326252
0.39342296 0.92450211 0.09478630
0.51242921 0.95045445 0.11602688
0.68069663 0.95500057 0.10082541
0.89645783 0.91642416 0.21335839
1.00000000 0.87115754 0.47165058
1.00000000 0.87311661 0.67096027
0.30851029 0.96233948 0.02364128
0.30851029 0.96233948 0.02364128
0.36114302 0.97140742 0.08842116
0.45597508 0.98665975 0.20027261
0.58544359 0.99920044 0.33215208
0.70864796 1.00000000 0.43399019
0.82571070 1.00000000 0.48646390
0.95921622 0.98780108 0.49593381
1.00000000 0.96126740 0.75589266
0.45590161 1.00000000 0.20886140
0.45590161 1.00000000 0.20886140
0.51874324 1.00000000 0.28832818
0.61621036 1.00000000 0.41000603
0.72557135 1.00000000 0.54770596
0.82148030 1.00000000 0.66986944
0.89961987 1.00000000 0.76679578
0.96613368 1.00000000 0.85121615
1.00000000 1.00000000 1.00000000
0.00000000 0.00000000 0.00000000
0.00000000 0.00000000 0.00000000
0.21036500 0.02163745 0.01962827
0.43689385 0.03144956 0.02079269
0.62530631 0.06105472 0.01508727
0.75708160 0.12402573 0.00116450
0.83895699 0.19289157 0.00000000
0.88903857 0.24815277 0.00000000
0.96167969 0.28969561 0.00000000
0.00000000 0.00000000 0.00000000
0.00000000 0.00000000 0.00000000
0.21036500 0.02163745 0.01962827
0.43689385 0.03144956 0.02079269
0.62530631 0.06105472 0.01508727
0.75708160 0.12402573 0.00116450
0.83895699 0.19289157 0.00000000
0.88903857 0.24815277 0.00000000
0.96167969 0.28969561 0.00000000
0.00196396 0.23515663 0.00000000
0.00196396 0.23515663 0.00000000
0.23458030 0.23570170 0.02208292
0.45114089 0.23954714 0.01233786
0.65395882 0.23159625 0.01384992
0.78831085 0.25136893 0.04510063
0.87998957 0.27919442 0.04843237
0.93589134 0.31209891 0.04816181
1.00000000 0.35114750 0.05615004
0.07003214 0.44735678 0.04168179
0.07003214 0.44735678 0.04168179
0.24453076 0.45388039 0.02079712
0.45466663 0.45677269 0.01563351
0.67909999 0.43670804 0.02405468
0.84987182 0.41274555 0.08245543
0.96017688 0.40576683 0.12313018
0.98247093 0.45167371 0.21849743
1.00000000 0.49948002 0.27458203
0.10484141 0.64172503 0.02205567
0.10484141 0.64172503 0.02205567
0.24528200 0.64916600 0.02486958
0.42586257 0.65980938 0.04125911
0.64697162 0.65264365 0.02497424
0.87464649 0.60616382 0.03763875
1.00000000 0.57957164 0.20842484
1.00000000 0.60800531 0.36384485
1.00000000 0.65033243 0.45304811
0.16950102 0.78803289 0.00314256
0.16950102 0.78803289 0.00314256
0.26301441 0.79753356 0.02677204
0.39646284 0.81546064 0.06544457
0.57352681 0.82724240 0.08537555
0.79349350 0.80505724 0.06824106
0.99366344 0.75088576 0.19914933
1.00000000 0.74575325 0.45111311
1.00000000 0.77342856 0.58460127
0.23882929 0.89221890 0.00000000
0.23882929 0.89221890 0.00000000
0.29917708 0.90307179 0.03326252
0.39342296 0.92450211 0.09478630
0.51242921 0.95045445 0.11602688
0.68069663 0.95500057 0.10082541
0.89645783 0.91642416 0.21335839
1.00000000 0.87115754 0.47165058
1.00000000 0.87311661 0.67096027
0.30851029 0.96233948 0.02364128
0.30851029 0.96233948 0.02364128
0.36114302 0.97140742 0.08842116
0.45597508 0.98665975 0.20027261
0.58544359 0.99920044 0.33215208
0.70864796 1.00000000 0.43399019
0.82571070 1.00000000 0.48646390
0.95921622 0.98780108 0.49593381
1.00000000 0.96126740 0.75589266
0.45590161 1.00000000 0.20886140
0.45590161 1.00000000 0.20886140
0.51874324 1.00000000 0.28832818
0.61621036 1.00000000 0.41000603
0.72557135 1.00000000 0.54770596
0.82148030 1.00000000 0.66986944
0.89961987 1.00000000 0.76679578
0.96613368 1.00000000 0.85121615
1.00000000 1.00000000 1.00000000
0.00743057 0.01168783 0.18692648
0.00743057 0.01168783 0.18692648
0.21915988 0.02319092 0.21635630
0.43479278 0.03997407 0.23318619
0.62852856 0.06341973 0.21346354
0.77521592 0.09908172 0.15857865
0.86951304 0.15556205 0.08388298
0.91376831 0.22903215 0.03955292
0.97675029 0.28595076 0.01578444
0.00743057 0.01168783 0.18692648
0.00743057 0.01168783 0.18692648
0.21915988 0.02319092 0.21635630
0.43479278 0.03997407 0.23318619
0.62852856 0.06341973 0.21346354
0.77521592 0.09908172 0.15857865
0.86951304 0.15556205 0.08388298
0.91376831 0.22903215 0.03955292
0.97675029 0.28595076 0.01578444
0.04079724 0.22834263 0.22780340
0.04079724 0.22834263 0.22780340
0.23600832 0.23600832 0.23600832
0.45619048 0.23611364 0.23533487
0.65059845 0.23771393 0.22662690
0.79941696 0.24434796 0.19741032
0.90449535 0.25856490 0.14500855
0.94305600 0.31550961 0.13728906
0.99835196 0.36663069 0.13698109
0.07751969 0.44664435 0.24773275
0.07751969 0.44664435 0.24773275
0.23739086 0.45592294 0.23495341
0.45574204 0.45640000 0.23617907
0.67029924 0.44199604 0.25328265
0.82205227 0.43609807 0.27929463
0.92750034 0.43888172 0.27845827
0.96193063 0.47562952 0.30681666
1.00000000 0.51838146 0.33095104
0.13401838 0.63950912 0.22853755
0.13401838 0.63950912 0.22853755
0.25302027 0.64820236 0.22682620
0.43475942 0.65707269 0.24942094
0.64781326 0.65229465 0.23723134
0.86527072 0.61228967 0.24546745
0.97532252 0.59990524 0.34425975
0.99805634 0.62687739 0.43840696
1.00000000 0.66685842 0.50020787
0.19685924 0.78666632 0.18265485
0.19685924 0.78666632 0.18265485
0.29299310 0.79350593 0.21025416
0.42712876 0.80854316 0.25256129
0.58950553 0.82201126 0.26998382
0.79417547 0.80510133 0.23904372
0.98224202 0.75811871 0.32367207
1.00000000 0.75645691 0.51068324
1.00000000 0.78707628 0.62466913
0.28208395 0.88869108 0.15698167
0.28208395 0.88869108 0.15698167
0.34172373 0.89760080 0.19148867
0.43753184 0.91632231 0.24576506
0.55651292 0.93889943 0.28781008
0.70346516 0.94714398 0.28640447
0.90042092 0.91769771 0.24086188
1.00000000 0.87702486 0.53098797
1.00000000 0.88454511 0.71063893
0.34169386 0.96075927 0.13675475
0.34169386 0.96075927 0.13675475
0.38378209 0.97065872 0.17529327
0.50794292 0.97613315 0.30845102
0.62191931 0.99034117 0.41453501
0.73237071 0.99995500 0.50128159
0.83941561 1.00000000 0.54944851
0.97569640 0.99795836 0.24231404
1.00000000 0.96794902 0.79883740
0.50789993 1.00000000 0.29678988
0.50789993 1.00000000 0.29678988
0.56135363 1.00000000 0.36101009
0.64927529 1.00000000 0.46780955
0.75124667 1.00000000 0.59514904
0.84297724 1.00000000 0.71254115
0.91786439 1.00000000 0.80845358
1.00000000 1.00000000 1.00000000
1.00000000 1.00000000 1.00000000
0.01229544 0.03681863 0.38188353
0.01229544 0.03681863 0.38188353
0.22289002 0.04085861 0.40951237
0.43609929 0.05443365 0.42922693
0.63627561 0.07047852 0.40158400
0.79235396 0.09338473 0.33279630
0.90077769 0.12924054 0.23911726
0.95428474 0.19979542 0.15106002
1.00000000 0.28481964 0.11089232
0.01229544 0.03681863 0.38188353
0.01229544 0.03681863 0.38188353
0.22289002 0.04085861 0.40951237
0.43609929 0.05443365 0.42922693
0.63627561 0.07047852 0.40158400
0.79235396 0.09338473 0.33279630
0.90077769 0.12924054 0.23911726
0.95428474 0.19979542 0.15106002
1.00000000 0.28481964 0.11089232
0.04154708 0.23586562 0.42013848
0.04154708 0.23586562 0.42013848
0.23495077 0.23644541 0.45642503
0.45663597 0.23584503 0.45545288
0.66005927 0.23521270 0.41814209
0.81391573 0.24190358 0.36072225
0.92208163 0.25705021 0.28818196
0.95790775 0.32167274 0.24606480
1.00000000 0.38279051 0.22588731
0.07532791 0.44859821 0.44756277
0.07532791 0.44859821 0.44756277
0.23601081 0.45622691 0.45601403
0.45620114 0.45620114 0.45620114
0.65088767 0.45653546 0.45405021
0.80111624 0.45878459 0.44151802
0.90908555 0.46497043 0.41341373
0.95422475 0.49610994 0.40040612
1.00000000 0.53761013 0.39875473
0.15186198 0.64020998 0.41676725
0.15186198 0.64020998 0.41676725
0.27732541 0.64580459 0.42421142
0.46044597 0.64986489 0.45267711
0.64910699 0.65171333 0.45678115
0.83000509 0.63278039 0.47297666
0.94098167 0.62782074 0.49645713
0.97187143 0.65385399 0.53800057
1.00000000 0.68946525 0.56658991
0.26088004 0.78138463 0.36970053
0.26088004 0.78138463 0.36970053
0.35131982 0.78547908 0.39509748
0.48063962 0.79625249 0.44038547
0.62399040 0.81043183 0.47167232
0.79502486 0.80468214 0.45838678
0.96196658 0.77167801 0.48943415
1.00000000 0.77492679 0.60357119
1.00000000 0.80765731 0.68600878
0.36902347 0.87779480 0.34093418
0.36902347 0.87779480 0.34093418
0.42399257 0.88469186 0.37091148
0.51445813 0.89997123 0.42379811
0.62130025 0.92080294 0.47291877
0.74142072 0.93370144 0.48543803
0.90004685 0.91778456 0.46023084
1.00000000 0.88699024 0.62295199
1.00000000 0.90158527 0.76935898
0.44246496 0.94576444 0.32189896
0.44246496 0.94576444 0.32189896
0.48130264 0.95408934 0.35315829
0.54952153 0.97172916 0.40867104
0.67140781 0.97949308 0.52490808
0.76827441 0.99181333 0.59937474
0.86211726 0.99634489 0.64498135
0.96407942 0.98651512 0.67243418
1.00000000 0.97854201 0.85779568
0.56375416 1.00000000 0.39523633
0.56375416 1.00000000 0.39523633
0.60961464 1.00000000 0.44748040
0.69033193 1.00000000 0.54296816
0.78632344 1.00000000 0.66143059
0.87355421 1.00000000 0.77304276
0.94394198 1.00000000 0.86582351
1.00000000 1.00000000 1.00000000
1.00000000 1.00000000 1.00000000
0.00213298 0.08748777 0.53976983
0.00213298 0.08748777 0.53976983
0.20081516 0.07655575 0.59933438
0.41586598 0.08312754 0.63816490
0.62951864 0.08652995 0.61606753
0.80098554 0.09719517 0.53136885
0.92200610 0.12296535 0.41880904
0.97712362 0.20411660 0.31144428
1.00000000 0.30191088 0.25003940
0.00213298 0.08748777 0.53976983
0.00213298 0.08748777 0.53976983
0.20081516 0.07655575 0.59933438
0.41586598 0.08312754 0.63816490
0.62951864 0.08652995 0.61606753
0.80098554 0.09719517 0.53136885
0.92200610 0.12296535 0.41880904
0.97712362 0.20411660 0.31144428
1.00000000 0.30191088 0.25003940
0.05109167 0.24448653 0.59513738
0.05109167 0.24448653 0.59513738
0.22259658 0.24145569 0.65287906
0.43243489 0.24671526 0.67328573
0.65338525 0.23519048 0.64557533
0.82857463 0.23131329 0.55661335
0.93622070 0.26052631 0.45617104
0.97742827 0.32648219 0.37615900
1.00000000 0.39815756 0.33225920
0.12240281 0.43952267 0.65277140
0.12240281 0.43952267 0.65277140
0.26709531 0.44517149 0.66216097
0.45274451 0.45763752 0.65179077
0.65275076 0.45561899 0.64797647
0.81764335 0.45438486 0.59607481
0.93160066 0.46047251 0.53670468
0.97042514 0.50111312 0.49537585
1.00000000 0.54924603 0.47442267
0.08442771 0.64496225 0.64334523
0.08442771 0.64496225 0.64334523
0.23603828 0.65106589 0.64991770
0.45620996 0.65103513 0.65015950
0.65092930 0.65092930 0.65092930
0.80170444 0.65136950 0.64807819
0.91167419 0.65356605 0.63564031
0.96232804 0.67271948 0.62968725
1.00000000 0.70630364 0.63309338
0.21254297 0.79358448 0.54385942
0.21254297 0.79358448 0.54385942
0.33607456 0.79348006 0.56243982
0.49981020 0.79479190 0.60203190
0.65635309 0.80026545 0.64594154
0.79904006 0.80292649 0.65177384
0.93609196 0.78762475 0.66328055
0.98269338 0.79814820 0.71445368
1.00000000 0.82884429 0.75550730
0.38977164 0.88102639 0.48421068
0.38977164 0.88102639 0.48421068
0.45448185 0.88439965 0.51382866
0.55970344 0.89261945 0.57048044
0.67470592 0.90613369 0.63265366
0.78053123 0.91965766 0.66363132
0.90407478 0.91598714 0.65356299
1.00000000 0.89820668 0.73271852
1.00000000 0.91951281 0.83609569
0.49485297 0.94156773 0.45486458
0.49485297 0.94156773 0.45486458
0.53745125 0.94733177 0.48726827
0.61265066 0.95983403 0.54800785
0.70050092 0.97834936 0.61706059
0.80784225 0.98279523 0.70967489
0.88845143 0.99086061 0.75165535
0.97157699 0.98702299 0.78051300
1.00000000 0.99019210 0.91838737
0.61232135 1.00000000 0.49566483
0.61232135 1.00000000 0.49566483
0.65493301 1.00000000 0.54142767
0.73143950 1.00000000 0.62774841
0.82356252 1.00000000 0.73727677
0.90654454 1.00000000 0.84061516
1.00000000 1.00000000 1.00000000
1.00000000 1.00000000 1.00000000
1.00000000 1.00000000 1.00000000
0.00000000 0.15596336 0.62572997
0.00000000 0.15596336 0.62572997
0.13482933 0.13196149 0.74665995
0.35439652 0.13405195 0.82426175
0.58097459 0.12336716 0.83950201
0.77743847 0.11954657 0.75595567
0.91906780 0.13412837 0.62442158
0.98514192 0.21595970 0.48761132
1.00000000 0.31742460 0.39713826
0.00000000 0.15596336 0.62572997
0.00000000 0.15596336 0.62572997
0.13482933 0.13196149 0.74665995
0.35439652 0.13405195 0.82426175
0.58097459 0.12336716 0.83950201
0.77743847 0.11954657 0.75595567
0.91906780 0.13412837 0.62442158
0.98514192 0.21595970 0.48761132
1.00000000 0.31742460 0.39713826
0.04109535 0.26319894 0.71601962
0.04109535 0.26319894 0.71601962
0.18135666 0.25720882 0.80560547
0.37937360 0.27198006 0.84763653
0.60340098 0.25404838 0.87310559
0.80697819 0.23470091 0.78883614
0.93612446 0.26195739 0.65106773
0.98678582 0.33220609 0.53076396
1.00000000 0.40946447 0.45731357
0.14363966 0.42935683 0.82630869
0.14363966 0.42935683 0.82630869
0.27854215 0.44206791 0.80904169
0.43457525 0.46507929 0.80579608
0.61745251 0.46918133 0.83356612
0.80770328 0.45441239 0.79017011
0.94676937 0.44979816 0.69797395
0.98517483 0.50093297 0.61331961
1.00000000 0.55552688 0.56776683
0.19867240 0.61718976 0.86252580
0.19867240 0.61718976 0.86252580
0.31527500 0.62367177 0.85629883
0.48884753 0.63636030 0.81937057
0.64619902 0.65291240 0.80298794
0.80468189 0.65003669 0.79740580
0.92909351 0.64878636 0.75145568
0.97806903 0.67376849 0.71319510
1.00000000 0.71258969 0.69921219
0.10329257 0.79577039 0.79333162
0.10329257 0.79577039 0.79333162
0.23609965 0.80204569 0.79965504
0.45625418 0.80208493 0.79937953
0.65094226 0.80192989 0.80055578
0.80176386 0.80176386 0.80176386
0.91235783 0.80217429 0.79909790
0.97122546 0.81300125 0.79966402
1.00000000 0.84181361 0.81321424
0.27811319 0.90469020 0.63827514
0.27811319 0.90469020 0.63827514
0.38053974 0.90455678 0.65872757
0.53140322 0.90480132 0.70082372
0.68522747 0.90629923 0.75460750
0.80671779 0.91098585 0.79687471
0.90969454 0.91357138 0.80260907
0.98887232 0.90867857 0.83834119
1.00000000 0.93444094 0.89495979
0.47073743 0.95548544 0.55939610
0.47073743 0.95548544 0.55939610
0.52535946 0.95827896 0.59018169
0.62037738 0.96441902 0.65052048
0.72901212 0.97387598 0.72529827
0.82117046 0.98562362 0.78500270
0.91118383 0.98637124 0.84572019
0.98332174 0.99447550 0.80425512
1.00000000 1.00000000 1.00000000
0.63649809 1.00000000 0.58716046
0.63649809 1.00000000 0.58716046
0.68030186 1.00000000 0.62845699
0.75833775 1.00000000 0.70672478
0.85155087 1.00000000 0.80657230
0.93363431 1.00000000 0.89985294
1.00000000 1.00000000 1.00000000
1.00000000 1.00000000 1.00000000
1.00000000 1.00000000 1.00000000
0.00000000 0.21515765 0.65393678
0.00000000 0.21515765 0.65393678
0.03975760 0.20978530 0.79179474
0.25437634 0.22225691 0.91362721
0.47589804 0.23068532 0.97540888
0.69435776 0.20306133 0.95715080
0.87653557 0.17237009 0.84645922
0.97605655 0.22268030 0.68115977
1.00000000 0.32238859 0.55586671
0.00000000 0.21515765 0.65393678
0.00000000 0.21515765 0.65393678
0.03975760 0.20978530 0.79179474
0.25437634 0.22225691 0.91362721
0.47589804 0.23068532 0.97540888
0.69435776 0.20306133 0.95715080
0.87653557 0.17237009 0.84645922
0.97605655 0.22268030 0.68115977
1.00000000 0.32238859 0.55586671
0.02007989 0.29320188 0.77402812
0.02007989 0.29320188 0.77402812
0.12546167 0.29931111 0.85968469
0.30390467 0.32995825 0.91391492
0.50232732 0.34227113 0.96749477
0.71235170 0.31901083 0.95982970
0.91993164 0.23470448 0.89240518
0.97957733 0.33662388 0.70557651
1.00000000 0.41344579 0.59809301
0.17518779 0.43531225 0.89078995
0.17518779 0.43531225 0.89078995
0.26723836 0.45224738 0.89463869
0.39985497 0.48372478 0.90074910
0.55679901 0.50338954 0.93910970
0.74009418 0.49152722 0.94740473
0.92226824 0.45351647 0.89099960
0.98304387 0.50266420 0.75383443
1.00000000 0.55818718 0.67822186
0.30657961 0.59623930 0.95419262
0.30657961 0.59623930 0.95419262
0.38286845 0.60899977 0.93949621
0.49680565 0.63432399 0.92329603
0.62760802 0.66066033 0.91709747
0.77170453 0.66219671 0.93912701
0.92067998 0.64845524 0.89816927
0.98440459 0.67293542 0.81576710
1.00000000 0.71502508 0.77685320
0.32187651 0.74889877 0.98835571
0.32187651 0.74889877 0.98835571
0.40056620 0.75669038 0.97918743
0.53048539 0.77187490 0.95666402
0.67516978 0.78975505 0.92768624
0.79723395 0.80367653 0.91359388
0.91548642 0.80084275 0.90810580
0.98163870 0.81326676 0.87182717
1.00000000 0.84661504 0.86583801
0.20416630 0.89916867 0.89536114
0.20416630 0.89916867 0.89536114
0.31556474 0.90263696 0.89843620
0.45631660 0.91293054 0.90855544
0.65099209 0.91285004 0.90919000
0.80177685 0.91258796 0.91116651
0.91241619 0.91241619 0.91241619
0.97973724 0.91761497 0.91556383
1.00000000 0.94436330 0.93770213
0.32009191 0.98512639 0.70390729
0.32009191 0.98512639 0.70390729
0.46934944 0.97165736 0.73543451
0.59633525 0.97199176 0.77794425
0.70345090 0.98535796 0.82284254
0.82686061 0.98645226 0.87362300
0.91638181 0.98998032 0.90831898
0.98885402 0.99212245 0.91313389
1.00000000 1.00000000 1.00000000
0.63624201 1.00000000 0.68677167
0.63624201 1.00000000 0.68677167
0.68404760 1.00000000 0.72072163
0.76758906 1.00000000 0.78515910
0.86663426 1.00000000 0.86845060
0.95163398 1.00000000 0.94600528
1.00000000 1.00000000 1.00000000
1.00000000 1.00000000 1.00000000
1.00000000 1.00000000 1.00000000
0.00000000 0.25562622 0.66392745
0.00000000 0.25562622 0.66392745
0.00000000 0.27307415 0.76692264
0.14958322 0.30032538 0.91979695
0.35349305 0.33788409 0.99698676
0.55732937 0.34037088 1.00000000
0.75991548 0.29845064 1.00000000
0.93091363 0.24569538 0.89207798
1.00000000 0.31748287 0.73323659
0.00000000 0.25562622 0.66392745
0.00000000 0.25562622 0.66392745
0.00000000 0.27307415 0.76692264
0.14958322 0.30032538 0.91979695
0.35349305 0.33788409 0.99698676
0.55732937 0.34037088 1.00000000
0.75991548 0.29845064 1.00000000
0.93091363 0.24569538 0.89207798
1.00000000 0.31748287 0.73323659
0.00130286 0.32242875 0.79653986
0.00130286 0.32242875 0.79653986
0.06544806 0.33828453 0.87519912
0.22862813 0.38004160 0.93524815
0.40111276 0.41770042 0.98963627
0.58700997 0.42159224 1.00000000
0.77861063 0.38898970 0.99818715
0.93795976 0.35522217 0.89579387
1.00000000 0.41122613 0.75634741
0.16900886 0.44899777 0.92911248
0.16900886 0.44899777 0.92911248
0.24457295 0.47008706 0.93448245
0.36115303 0.50921989 0.93843935
0.49332639 0.54476154 0.97072220
0.64516536 0.55375935 1.00000000
0.81183157 0.53393771 0.99019672
0.94967391 0.51643559 0.90687342
1.00000000 0.55861432 0.80300516
0.35212401 0.59566845 0.97460807
0.35212401 0.59566845 0.97460807
0.40525189 0.61199773 0.96838937
0.49794048 0.64343570 0.95364429
0.60483930 0.67790797 0.95685987
0.71855024 0.69538769 0.98275161
0.85013000 0.68894635 0.98473027
0.96206584 0.68252191 0.92832062
1.00000000 0.71743576 0.86443916
0.46580516 0.71980032 1.00000000
0.46580516 0.71980032 1.00000000
0.51067077 0.73264147 0.99977429
0.59273554 0.75776453 0.98478976
0.69374891 0.78826359 0.96767671
0.78648617 0.81219536 0.96953275
0.88211395 0.81864002 0.98146981
0.97117910 0.81900302 0.95298760
1.00000000 0.85066629 0.92284036
0.48237034 0.83382821 1.00000000
0.48237034 0.83382821 1.00000000
0.53063651 0.84292120 1.00000000
0.61959363 0.86067215 1.00000000
0.72985675 0.88239237 0.99603094
0.83186651 0.90105594 0.98100774
0.91064613 0.91512344 0.97827670
0.97896822 0.92095849 0.97417534
1.00000000 0.95064314 0.97211597
0.37494866 0.95740487 0.95165036
0.37494866 0.95740487 0.95165036
0.45588953 0.95913572 0.95304482
0.58712891 0.96304686 0.95687691
0.72718725 0.96970802 0.96461826
0.84438210 0.97688119 0.97390023
0.91242724 0.99129943 0.99007221
0.99115111 0.99115111 0.99115111
1.00000000 1.00000000 1.00000000
0.61099797 1.00000000 0.81792668
0.61099797 1.00000000 0.81792668
0.66517716 1.00000000 0.83870902
0.75947897 1.00000000 0.87946413
0.87006748 1.00000000 0.93336146
1.00000000 1.00000000 1.00000000
1.00000000 1.00000000 1.00000000
1.00000000 1.00000000 1.00000000
1.00000000 1.00000000 1.00000000
0.00000000 0.29204061 0.70069464
0.00000000 0.29204061 0.70069464
0.00000000 0.31580927 0.78516715
0.05624608 0.35283497 0.94077471
0.25605078 0.40755007 1.00000000
0.43457614 0.43731256 1.00000000
0.62010613 0.42166353 1.00000000
0.81377577 0.36071615 1.00000000
0.99148630 0.32442799 0.94495313
0.00000000 0.29204061 0.70069464
0.00000000 0.29204061 0.70069464
0.00000000 0.31580927 0.78516715
0.05624608 0.35283497 0.94077471
0.25605078 0.40755007 1.00000000
0.43457614 0.43731256 1.00000000
0.62010613 0.42166353 1.00000000
0.81377577 0.36071615 1.00000000
0.99148630 0.32442799 0.94495313
0.00000000 0.35187125 0.83811469
0.00000000 0.35187125 0.83811469
0.01328558 0.37152711 0.91333015
0.15862118 0.41795291 0.97816987
0.32155486 0.47145855 1.00000000
0.47964451 0.49934610 1.00000000
0.65045334 0.48827523 1.00000000
0.83122081 0.44086302 1.00000000
0.99472793 0.41939675 0.94508854
0.14853881 0.46894258 0.97446815
0.14853881 0.46894258 0.97446815
0.21204641 0.49159457 0.98582569
0.31995791 0.53480918 0.98972896
0.44027260 0.58022355 1.00000000
0.56675086 0.60642129 1.00000000
0.70931475 0.60300748 1.00000000
0.86361901 0.57322855 1.00000000
1.00000000 0.56752782 0.95120666
0.35928909 0.60779895 1.00000000
0.35928909 0.60779895 1.00000000
0.40212705 0.62572503 1.00000000
0.48158859 0.65989877 0.99792145
0.57721646 0.69903964 1.00000000
0.67494872 0.72609957 1.00000000
0.78359905 0.73200137 1.00000000
0.90231670 0.71915113 1.00000000
1.00000000 0.72633038 0.96683891
0.50825270 0.72011372 1.00000000
0.50825270 0.72011372 1.00000000
0.54217688 0.73497929 1.00000000
0.60793383 0.76365375 1.00000000
0.69162147 0.79873769 1.00000000
0.77205431 0.82736638 1.00000000
0.85181076 0.84196542 1.00000000
0.93583850 0.84302786 1.00000000
1.00000000 0.85985838 0.98638973
0.59614071 0.80899506 1.00000000
0.59614071 0.80899506 1.00000000
0.62796579 0.82162522 1.00000000
0.68990309 0.84620304 1.00000000
0.76989114 0.87707629 1.00000000
0.84536254 0.90474739 1.00000000
0.90856178 0.92484746 1.00000000
0.96483036 0.93624344 1.00000000
1.00000000 0.96050330 1.00000000
0.60826943 0.89259626 1.00000000
0.60826943 0.89259626 1.00000000
0.64768563 0.90127429 1.00000000
0.72126700 0.91861824 1.00000000
0.81261389 0.94123213 1.00000000
0.89501618 0.96292302 1.00000000
0.95667400 0.98191707 1.00000000
0.99705518 0.99833323 1.00000000
1.00000000 1.00000000 1.00000000
0.60960155 1.00000000 0.99958233
0.60960155 1.00000000 0.99958233
0.66699842 1.00000000 1.00000000
0.76749593 1.00000000 1.00000000
0.88536775 1.00000000 1.00000000
1.00000000 1.00000000 1.00000000
1.00000000 1.00000000 1.00000000
1.00000000 1.00000000 1.00000000
1.00000000 1.00000000 1.00000000
