Luts Download/Canon Luts/3dlut/17grid-3dlut/full-to-full-range/BT2020_CanonLog-to-BT709_WideDR_17_FF_Ver.2.0.cube
# Gamut : BT.2020 to BT.709
# Gamma : Canon Log to Wide DR
# Range : Full in / Full out
# Version : 2.0 2019/10/24
# Copyright(c) 2019 Canon Inc. All Rights Reserved.
LUT_3D_SIZE 9
# LUT_3D_INPUT_RANGE 0.0 1.0
0.00000000 0.00000000 0.00000000
0.00000000 0.00000000 0.00000000
0.26406715 0.01366272 0.03289197
0.51203961 0.00000000 0.05160529
0.71059875 0.00000000 0.05973023
0.85373478 0.00000000 0.04807241
0.95327411 0.02447649 0.02644887
0.99885068 0.12386290 0.03392367
1.00000000 0.20355361 0.05938663
0.00000000 0.00000000 0.00000000
0.00415187 0.01195999 0.00000000
0.26406715 0.01366272 0.03289197
0.51203961 0.00000000 0.05160529
0.71059875 0.00000000 0.05973023
0.85373478 0.00000000 0.04807241
0.95327411 0.02447649 0.02644887
0.99885068 0.12386290 0.03392367
1.00000000 0.20355361 0.05938663
0.00836345 0.22889155 0.08206390
0.00836345 0.22889155 0.08206390
0.25104051 0.24587150 0.02511151
0.52134547 0.22841478 0.00804305
0.74625070 0.18924448 0.01726403
0.90225345 0.16326187 0.03763850
0.98245538 0.20328072 0.09388985
1.00000000 0.27584570 0.16076163
1.00000000 0.32920145 0.20041053
0.00000000 0.43461483 0.14669809
0.00000000 0.43461483 0.14669809
0.14526860 0.45652273 0.03407521
0.46030624 0.45312210 0.00000000
0.73391332 0.41771919 0.00000000
0.93180490 0.37303972 0.05058619
1.00000000 0.39045849 0.19984419
1.00000000 0.43976487 0.29999823
1.00000000 0.47704534 0.35065903
0.00000000 0.60398657 0.19664311
0.00000000 0.60398657 0.19664311
0.00000000 0.62844199 0.09896053
0.32578355 0.64321721 0.01210443
0.63332985 0.62924705 0.00000000
0.90063922 0.57830705 0.00742598
1.00000000 0.55625124 0.24177236
1.00000000 0.58345051 0.40125129
1.00000000 0.60994334 0.47550333
0.00000000 0.73193180 0.22396877
0.00000000 0.73193180 0.22396877
0.00000000 0.75516703 0.16203527
0.13719821 0.78384305 0.05636180
0.46599495 0.79188171 0.01337469
0.76300963 0.76590165 0.00685654
0.99551996 0.71459895 0.18799874
1.00000000 0.70646046 0.44345801
1.00000000 0.71834501 0.55875396
0.00000000 0.83027062 0.23471987
0.00000000 0.83027062 0.23471987
0.00000000 0.85127038 0.19901041
0.00000000 0.88358544 0.13428301
0.27496796 0.90950146 0.05773240
0.57588392 0.90682176 0.04980783
0.86001242 0.87166527 0.11765119
1.00000000 0.82444245 0.40112197
1.00000000 0.81154261 0.59081962
0.00000000 0.90211054 0.23490502
0.00000000 0.90211054 0.23490502
0.00000000 0.92108254 0.21739091
0.00000000 0.95150102 0.19348777
0.15569071 0.98306699 0.16749938
0.43517479 0.99357471 0.20404857
0.67820843 0.98531408 0.21658157
0.92501246 0.94680228 0.29886096
1.00000000 0.90136461 0.54978336
0.00000000 0.95839361 0.23338281
0.00000000 0.95839361 0.23338281
0.00000000 0.97633088 0.22512721
0.00000000 1.00000000 0.23744631
0.30567841 1.00000000 0.32927932
0.50802270 1.00000000 0.42592620
0.66249484 1.00000000 0.48929247
0.80413253 1.00000000 0.50537981
0.97122670 1.00000000 0.49674289
0.00000000 0.00000000 0.00000000
0.00000000 0.00000000 0.00000000
0.26406715 0.01366272 0.03289197
0.51203961 0.00000000 0.05160529
0.71059875 0.00000000 0.05973023
0.85373478 0.00000000 0.04807241
0.95327411 0.02447649 0.02644887
0.99885068 0.12386290 0.03392367
1.00000000 0.20355361 0.05938663
0.00000000 0.00000000 0.00000000
0.00000000 0.00000000 0.00000000
0.26406715 0.01366272 0.03289197
0.51203961 0.00000000 0.05160529
0.71059875 0.00000000 0.05973023
0.85373478 0.00000000 0.04807241
0.95327411 0.02447649 0.02644887
0.99885068 0.12386290 0.03392367
1.00000000 0.20355361 0.05938663
0.00836345 0.22889155 0.08206390
0.00836345 0.22889155 0.08206390
0.25104051 0.24587150 0.02511151
0.52134547 0.22841478 0.00804305
0.74625070 0.18924448 0.01726403
0.90225345 0.16326187 0.03763850
0.98245538 0.20328072 0.09388985
1.00000000 0.27584570 0.16076163
1.00000000 0.32920145 0.20041053
0.00000000 0.43461483 0.14669809
0.00000000 0.43461483 0.14669809
0.14526860 0.45652273 0.03407521
0.46030624 0.45312210 0.00000000
0.73391332 0.41771919 0.00000000
0.93180490 0.37303972 0.05058619
1.00000000 0.39045849 0.19984419
1.00000000 0.43976487 0.29999823
1.00000000 0.47704534 0.35065903
0.00000000 0.60398657 0.19664311
0.00000000 0.60398657 0.19664311
0.00000000 0.62844199 0.09896053
0.32578355 0.64321721 0.01210443
0.63332985 0.62924705 0.00000000
0.90063922 0.57830705 0.00742598
1.00000000 0.55625124 0.24177236
1.00000000 0.58345051 0.40125129
1.00000000 0.60994334 0.47550333
0.00000000 0.73193180 0.22396877
0.00000000 0.73193180 0.22396877
0.00000000 0.75516703 0.16203527
0.13719821 0.78384305 0.05636180
0.46599495 0.79188171 0.01337469
0.76300963 0.76590165 0.00685654
0.99551996 0.71459895 0.18799874
1.00000000 0.70646046 0.44345801
1.00000000 0.71834501 0.55875396
0.00000000 0.83027062 0.23471987
0.00000000 0.83027062 0.23471987
0.00000000 0.85127038 0.19901041
0.00000000 0.88358544 0.13428301
0.27496796 0.90950146 0.05773240
0.57588392 0.90682176 0.04980783
0.86001242 0.87166527 0.11765119
1.00000000 0.82444245 0.40112197
1.00000000 0.81154261 0.59081962
0.00000000 0.90211054 0.23490502
0.00000000 0.90211054 0.23490502
0.00000000 0.92108254 0.21739091
0.00000000 0.95150102 0.19348777
0.15569071 0.98306699 0.16749938
0.43517479 0.99357471 0.20404857
0.67820843 0.98531408 0.21658157
0.92501246 0.94680228 0.29886096
1.00000000 0.90136461 0.54978336
0.00000000 0.95839361 0.23338281
0.00000000 0.95839361 0.23338281
0.00000000 0.97633088 0.22512721
0.00000000 1.00000000 0.23744631
0.30567841 1.00000000 0.32927932
0.50802270 1.00000000 0.42592620
0.66249484 1.00000000 0.48929247
0.80413253 1.00000000 0.50537981
0.97122670 1.00000000 0.49674289
0.00272594 0.02023592 0.15785939
0.00272594 0.02023592 0.15785939
0.27484759 0.01417268 0.22051792
0.51022878 0.00231689 0.24738056
0.70423067 0.00000000 0.24879799
0.84894938 0.00944070 0.22713792
0.94917553 0.05327424 0.19313038
0.99157202 0.15538264 0.17420234
1.00000000 0.23387927 0.17109874
0.00272594 0.02023592 0.15785939
0.00272594 0.02023592 0.15785939
0.27484759 0.01417268 0.22051792
0.51022878 0.00231689 0.24738056
0.70423067 0.00000000 0.24879799
0.84894938 0.00944070 0.22713792
0.94917553 0.05327424 0.19313038
0.99157202 0.15538264 0.17420234
1.00000000 0.23387927 0.17109874
0.00000000 0.23641587 0.22601029
0.00000000 0.23641587 0.22601029
0.24578998 0.24578998 0.24578998
0.54535821 0.20837543 0.23999604
0.77669890 0.15079657 0.22610668
0.90277961 0.16633261 0.23131133
0.97164849 0.22510928 0.24175404
0.99272630 0.29831173 0.26117616
1.00000000 0.35081470 0.27349575
0.00000000 0.43151877 0.28376820
0.00000000 0.43151877 0.28376820
0.11679632 0.45706861 0.25056617
0.46097814 0.45186073 0.21030693
0.74784110 0.40845218 0.22041516
0.93722352 0.36908397 0.24450580
0.97790667 0.41412582 0.33146895
0.99378400 0.45952051 0.38060274
1.00000000 0.49522796 0.40775812
0.00000000 0.59796163 0.32001794
0.00000000 0.59796163 0.32001794
0.00601097 0.62397127 0.27728933
0.27361857 0.65101051 0.17950350
0.63793130 0.62750262 0.15564776
0.92993672 0.56473405 0.15978554
1.00000000 0.56658666 0.36504516
1.00000000 0.59727219 0.47171383
1.00000000 0.62543869 0.52502401
0.00000000 0.72635759 0.32964217
0.00000000 0.72635759 0.32964217
0.00000000 0.74956671 0.29676241
0.16024187 0.78054830 0.24507662
0.46037748 0.79227587 0.20164193
0.76578553 0.76430598 0.18657803
0.99341997 0.71533939 0.30950754
1.00000000 0.71352453 0.50616206
1.00000000 0.73039152 0.60257219
0.00000000 0.82624006 0.32187286
0.00000000 0.82624006 0.32187286
0.00000000 0.84672149 0.30136869
0.07553960 0.87837987 0.27090029
0.29411059 0.90758352 0.22231152
0.58042653 0.90620501 0.20994734
0.86213803 0.87092960 0.24016277
1.00000000 0.82739144 0.46687931
1.00000000 0.82050443 0.63431439
0.00000000 0.89987100 0.30405482
0.00000000 0.89987100 0.30405482
0.00000000 0.91833575 0.29404656
0.06507480 0.94748459 0.28719332
0.24346299 0.97738073 0.28553974
0.47271822 0.98850650 0.31587776
0.69184058 0.98296794 0.31764548
0.92664462 0.94672313 0.37351388
1.00000000 0.90647611 0.60058011
0.00000000 0.95782876 0.28694433
0.00000000 0.95782876 0.28694433
0.00000000 0.97557841 0.28099967
0.11188564 0.99973036 0.30365560
0.36520465 1.00000000 0.39467414
0.54625633 1.00000000 0.48398477
0.68803446 1.00000000 0.54302287
0.81947676 1.00000000 0.56190422
0.97251914 0.99973837 0.56428971
0.00000000 0.06350464 0.30712673
0.00000000 0.06350464 0.30712673
0.27034131 0.03380640 0.39297612
0.51112065 0.01483163 0.41669209
0.71221652 0.00334507 0.40635429
0.86196597 0.00957201 0.37151396
0.96282723 0.05878303 0.32582769
0.99920787 0.17414730 0.29020100
1.00000000 0.25582168 0.26750963
0.00000000 0.06350464 0.30712673
0.00000000 0.06350464 0.30712673
0.27034131 0.03380640 0.39297612
0.51112065 0.01483163 0.41669209
0.71221652 0.00334507 0.40635429
0.86196597 0.00957201 0.37151396
0.96282723 0.05878303 0.32582769
0.99920787 0.17414730 0.29020100
1.00000000 0.25582168 0.26750963
0.00000000 0.25056606 0.36444149
0.00000000 0.25056606 0.36444149
0.22264237 0.24395329 0.46901729
0.53636296 0.20525215 0.46532552
0.78175647 0.14059310 0.43034346
0.91387446 0.16139647 0.38943645
0.98162883 0.22966608 0.36481551
0.99956345 0.30937631 0.35494449
1.00000000 0.36573217 0.34736945
0.00000000 0.43615603 0.41861994
0.00000000 0.43615603 0.41861994
0.09317160 0.45773496 0.44336549
0.45028250 0.45028250 0.45028250
0.71476684 0.42390442 0.44486985
0.90261048 0.39711387 0.43179070
0.96792733 0.43012745 0.44537296
0.98902923 0.47469463 0.46057935
1.00000000 0.51062976 0.46825360
0.00000000 0.59847126 0.44289925
0.00000000 0.59847126 0.44289925
0.03194357 0.62222447 0.43638602
0.31332052 0.64216877 0.42602378
0.63199551 0.62582166 0.42535754
0.88022950 0.58590256 0.43745869
0.97477896 0.58840589 0.50312033
0.99479673 0.61756851 0.55600994
1.00000000 0.64447560 0.58453917
0.02493097 0.72489278 0.44148355
0.02493097 0.72489278 0.44148355
0.05453981 0.74652598 0.43069536
0.23646659 0.77344994 0.42182277
0.49158478 0.78486472 0.41684433
0.76616158 0.76337697 0.39949603
0.97866399 0.72259868 0.46593139
1.00000000 0.72667816 0.59146719
1.00000000 0.74740261 0.66037995
0.05553994 0.82517838 0.42101977
0.05553994 0.82517838 0.42101977
0.07850350 0.84447941 0.41406748
0.19497013 0.87272555 0.41137314
0.36135368 0.90038946 0.39764956
0.60975696 0.90005543 0.40242990
0.86701941 0.87173521 0.37438927
1.00000000 0.83371645 0.56189695
1.00000000 0.83344501 0.69312472
0.06735881 0.90013860 0.38810107
0.06735881 0.90013860 0.38810107
0.09008800 0.91773417 0.38651090
0.18946580 0.94414988 0.39632414
0.34778216 0.96893507 0.42090217
0.53736243 0.97897796 0.45758753
0.72252694 0.97659761 0.46351645
0.93937066 0.95217862 0.35245142
1.00000000 0.91434552 0.67113091
0.07285445 0.95953473 0.35562438
0.07285445 0.95953473 0.35562438
0.07442121 0.97701268 0.35433460
0.22264866 0.99770764 0.38992712
0.43238238 1.00000000 0.47755230
0.59457033 1.00000000 0.56003319
0.72338175 1.00000000 0.61607483
0.84198868 1.00000000 0.63870454
0.97662460 1.00000000 0.64966495
0.00000000 0.12634518 0.41537529
0.00000000 0.12634518 0.41537529
0.22616010 0.07718703 0.55395504
0.48657814 0.04378203 0.59183278
0.70663560 0.01897406 0.57615850
0.86950294 0.01587883 0.52500541
0.97598698 0.06660741 0.46276792
1.00000000 0.19434757 0.40804960
1.00000000 0.27641141 0.36758730
0.00000000 0.12634518 0.41537529
0.00000000 0.12634518 0.41537529
0.22616010 0.07718703 0.55395504
0.48657814 0.04378203 0.59183278
0.70663560 0.01897406 0.57615850
0.86950294 0.01587883 0.52500541
0.97598698 0.06660741 0.46276792
1.00000000 0.19434757 0.40804960
1.00000000 0.27641141 0.36758730
0.00000000 0.26976221 0.47662977
0.00000000 0.26976221 0.47662977
0.17102753 0.24583990 0.65569509
0.49327098 0.21647919 0.67004771
0.76487539 0.13832223 0.64503426
0.92067556 0.15413536 0.55910691
0.99521149 0.22971327 0.49569376
1.00000000 0.31762943 0.45655706
1.00000000 0.37817582 0.42983762
0.00000000 0.43847960 0.54696024
0.00000000 0.43847960 0.54696024
0.12605321 0.45199236 0.61130482
0.43022203 0.44992841 0.64176435
0.70763940 0.42103066 0.63623964
0.91551866 0.38815983 0.59093197
0.98418170 0.42816023 0.55499475
1.00000000 0.47904217 0.54048770
1.00000000 0.51899168 0.53115922
0.00000000 0.60507566 0.58114746
0.00000000 0.60507566 0.58114746
0.00000000 0.62678830 0.60399602
0.28257545 0.64208952 0.62582246
0.62377960 0.62377960 0.62377960
0.83445186 0.60514497 0.61894698
0.95354580 0.60513435 0.61961674
0.98778959 0.63182181 0.63234031
1.00000000 0.65807893 0.64093185
0.00000000 0.73135890 0.56201130
0.00000000 0.73135890 0.56201130
0.00562580 0.75131937 0.56598108
0.25635585 0.77183913 0.57890866
0.53624406 0.77282247 0.60461956
0.76339505 0.76045758 0.60632589
0.96289442 0.73057055 0.61469414
0.99759432 0.74503982 0.68716011
1.00000000 0.76553379 0.72243389
0.06516262 0.82908157 0.52948583
0.06516262 0.82908157 0.52948583
0.11048423 0.84671068 0.53210940
0.25862572 0.86952984 0.54754697
0.46560608 0.88371438 0.57873657
0.66433722 0.88460610 0.60208653
0.86599313 0.86872076 0.59053020
1.00000000 0.84183849 0.67272804
1.00000000 0.84802771 0.76069734
0.11836785 0.90333897 0.48493742
0.11836785 0.90333897 0.48493742
0.15690249 0.91931497 0.49059872
0.27544542 0.94098537 0.51459520
0.42804868 0.96129333 0.55097890
0.59578479 0.96993450 0.59087499
0.75237036 0.97101963 0.59728017
0.93816844 0.94948283 0.57752003
1.00000000 0.92300853 0.75313248
0.14540770 0.96286590 0.43957495
0.14540770 0.96286590 0.43957495
0.16006818 0.97936892 0.44365372
0.31031200 0.99536499 0.48939005
0.49944879 1.00000000 0.57252832
0.64681306 1.00000000 0.64780785
0.76401863 1.00000000 0.70124516
0.86886759 1.00000000 0.72739673
0.98289830 1.00000000 0.74520493
0.00000000 0.18587553 0.46118715
0.00000000 0.18587553 0.46118715
0.11151893 0.14847883 0.66100303
0.41305841 0.10113051 0.75560712
0.66222605 0.05528173 0.75584841
0.85291045 0.03586466 0.69318829
0.97554343 0.08036293 0.60924335
1.00000000 0.21091587 0.52857665
1.00000000 0.29217084 0.47032298
0.00000000 0.18587553 0.46118715
0.00000000 0.18587553 0.46118715
0.11151893 0.14847883 0.66100303
0.41305841 0.10113051 0.75560712
0.66222605 0.05528173 0.75584841
0.85291045 0.03586466 0.69318829
0.97554343 0.08036293 0.60924335
1.00000000 0.21091587 0.52857665
1.00000000 0.29217084 0.47032298
0.00000000 0.29433879 0.54695725
0.00000000 0.29433879 0.54695725
0.10117883 0.28420031 0.71174738
0.41156128 0.24334188 0.83300223
0.69879321 0.17172690 0.84730156
0.89427218 0.16939283 0.74268697
0.99487697 0.23325738 0.63953796
1.00000000 0.32637365 0.56626314
1.00000000 0.38863887 0.51965768
0.02196497 0.44173250 0.64377403
0.02196497 0.44173250 0.64377403
0.13153635 0.45191523 0.72972994
0.38888775 0.45507260 0.78941283
0.65376991 0.43530646 0.80878352
0.89583694 0.38803768 0.77292069
0.99184042 0.42426851 0.68218605
1.00000000 0.48055123 0.63061852
1.00000000 0.52428812 0.60187630
0.00000000 0.59695338 0.71065961
0.00000000 0.59695338 0.71065961
0.05403282 0.61321278 0.75571726
0.33387463 0.62563895 0.79071867
0.60661032 0.62438467 0.77342638
0.83011522 0.60244746 0.76707988
0.96686922 0.60090663 0.72631165
1.00000000 0.63252953 0.70365069
1.00000000 0.66247159 0.69482677
0.00000000 0.73597714 0.70681396
0.00000000 0.73597714 0.70681396
0.00000000 0.75550493 0.72673204
0.15742688 0.77544817 0.75047303
0.51479879 0.77341694 0.75948917
0.75827205 0.75827205 0.75827205
0.92541178 0.74440783 0.75416595
0.98515193 0.75671573 0.76324845
1.00000000 0.77632195 0.77375704
0.00000000 0.83695871 0.65235733
0.00000000 0.83695871 0.65235733
0.00000000 0.85445819 0.66070690
0.19711867 0.87538076 0.67976934
0.47091541 0.88251350 0.71035436
0.69594506 0.87467392 0.74290946
0.86647483 0.86525138 0.74539085
0.99096202 0.85023685 0.77942007
1.00000000 0.86153377 0.82413621
0.07915077 0.90901339 0.59163026
0.07915077 0.90901339 0.59163026
0.13129043 0.92429190 0.60023768
0.28145419 0.94321322 0.62669596
0.47573664 0.95530027 0.67216881
0.65783624 0.95621905 0.72291645
0.79438144 0.95766609 0.74440925
0.94061438 0.94566780 0.73538543
1.00000000 0.93027507 0.82907826
0.17235378 0.96640764 0.53495845
0.17235378 0.96640764 0.53495845
0.19373741 0.98201582 0.54255965
0.35440681 0.99468954 0.58863573
0.54113650 1.00000000 0.66314510
0.68587426 1.00000000 0.73131205
0.79774920 1.00000000 0.78142402
0.89290280 1.00000000 0.80955914
0.98999995 1.00000000 0.82912531
0.00000000 0.23273934 0.47579462
0.00000000 0.23273934 0.47579462
0.00000000 0.23820561 0.64158070
0.27275793 0.19072851 0.85936885
0.55890618 0.14297251 0.91708484
0.79088574 0.09280820 0.87163356
0.95255967 0.10006904 0.77240148
1.00000000 0.21710473 0.65682330
1.00000000 0.29965345 0.57623699
0.00000000 0.23273934 0.47579462
0.00000000 0.23273934 0.47579462
0.00000000 0.23820561 0.64158070
0.27275793 0.19072851 0.85936885
0.55890618 0.14297251 0.91708484
0.79088574 0.09280820 0.87163356
0.95255967 0.10006904 0.77240148
1.00000000 0.21710473 0.65682330
1.00000000 0.29965345 0.57623699
0.00000000 0.32141127 0.58113185
0.00000000 0.32141127 0.58113185
0.00459864 0.32749129 0.72654644
0.28458410 0.31338114 0.88333026
0.56522792 0.28592569 0.93783517
0.81400574 0.22911748 0.91354633
0.97218794 0.24077118 0.80075870
1.00000000 0.33070913 0.68488197
1.00000000 0.39434335 0.61460394
0.02378599 0.45047469 0.70954122
0.02378599 0.45047469 0.70954122
0.09254752 0.46179927 0.80297443
0.31049869 0.46820616 0.90475001
0.56680797 0.46830321 0.91861360
0.80867598 0.43229665 0.91611777
0.97247281 0.42822577 0.82672508
1.00000000 0.48239462 0.73197007
1.00000000 0.52782968 0.67974224
0.06470311 0.59021342 0.80567233
0.06470311 0.59021342 0.80567233
0.13998490 0.60427661 0.85814778
0.34050526 0.62055225 0.89905534
0.57121799 0.63043169 0.89047469
0.78223983 0.61432590 0.90473565
0.95605422 0.60097444 0.85269653
1.00000000 0.63134341 0.78693689
1.00000000 0.66416690 0.75519239
0.00000000 0.72078189 0.84152131
0.00000000 0.72078189 0.84152131
0.00023098 0.73707952 0.87423453
0.26828936 0.75464142 0.90115050
0.54501913 0.76049455 0.88932346
0.74391924 0.75919105 0.87562329
0.92287377 0.74201912 0.86956938
0.99782730 0.75517035 0.83284585
1.00000000 0.77834803 0.82109484
0.00000000 0.83759241 0.80434282
0.00000000 0.83759241 0.80434282
0.00000000 0.85499580 0.82181918
0.02994940 0.87651706 0.84553238
0.38664977 0.88858966 0.86408098
0.67931743 0.87548612 0.86393903
0.86322055 0.86322055 0.86322055
0.97289136 0.85851792 0.86404111
1.00000000 0.87063810 0.87369478
0.00000000 0.91514848 0.71898022
0.00000000 0.91514848 0.71898022
0.00000000 0.93102954 0.72953118
0.17302901 0.95069030 0.75201511
0.39898776 0.96621244 0.78157672
0.65973809 0.95571282 0.82217553
0.82000131 0.94908073 0.85158830
0.94253172 0.94228261 0.85409726
1.00000000 0.93701182 0.89563190
0.15278561 0.96932383 0.64452137
0.15278561 0.96932383 0.64452137
0.17267209 0.98483176 0.65359118
0.34720204 0.99702188 0.69104738
0.54672463 1.00000000 0.75043845
0.70411230 1.00000000 0.80840329
0.82295495 1.00000000 0.85494066
0.91315156 1.00000000 0.88296890
0.99636138 1.00000000 0.90114678
0.00000000 0.26528265 0.48181874
0.00000000 0.26528265 0.48181874
0.00000000 0.29170099 0.59483233
0.05943838 0.29603776 0.82899182
0.38576928 0.27349801 0.96942907
0.65121273 0.23265615 0.98961208
0.87427461 0.16734936 0.93881556
0.99415456 0.21289710 0.80662983
1.00000000 0.29571347 0.69148060
0.00000000 0.26528265 0.48181874
0.00000000 0.26528265 0.48181874
0.00000000 0.29170099 0.59483233
0.05943838 0.29603776 0.82899182
0.38576928 0.27349801 0.96942907
0.65121273 0.23265615 0.98961208
0.87427461 0.16734936 0.93881556
0.99415456 0.21289710 0.80662983
1.00000000 0.29571347 0.69148060
0.00000000 0.34497349 0.59438139
0.00000000 0.34497349 0.59438139
0.00000000 0.36464327 0.70553280
0.11808432 0.37407535 0.88615068
0.41010689 0.37317221 0.97556893
0.66502367 0.34480649 0.99541819
0.88648531 0.29688642 0.95109427
0.99888132 0.33089890 0.82237336
1.00000000 0.39243024 0.71850307
0.00688606 0.46262202 0.74515494
0.00688606 0.46262202 0.74515494
0.03467307 0.47823105 0.83102162
0.22976762 0.49786747 0.92112621
0.45984621 0.51093357 0.96568335
0.68457668 0.49690871 0.98672985
0.89362445 0.46509635 0.95599367
1.00000000 0.48457449 0.84857749
1.00000000 0.52742919 0.76571957
0.08034232 0.58988106 0.87081528
0.08034232 0.58988106 0.87081528
0.14056691 0.60447632 0.92370151
0.33363257 0.62616173 0.94402084
0.52285493 0.64541648 0.95140026
0.70372971 0.64510923 0.97096561
0.89134328 0.62496273 0.96068431
0.99971003 0.63329382 0.88302558
1.00000000 0.66438690 0.82296032
0.09675237 0.70642976 0.93566819
0.09675237 0.70642976 0.93566819
0.17917277 0.72050146 0.96361370
0.37184823 0.73897827 0.96774618
0.56267886 0.75642186 0.95416095
0.71507512 0.76493606 0.96293652
0.87423687 0.75760254 0.95954746
0.99226370 0.75566812 0.91549773
1.00000000 0.77826420 0.87511548
0.00000000 0.81545428 0.94012218
0.00000000 0.81545428 0.94012218
0.04407240 0.83001326 0.96138935
0.27870991 0.84810543 0.97819399
0.51246839 0.86028499 0.97534719
0.70323249 0.86457418 0.96203755
0.85204837 0.86415822 0.95005520
0.97340194 0.85772661 0.93721095
1.00000000 0.87120684 0.91733613
0.00000000 0.91077570 0.87482185
0.00000000 0.91077570 0.87482185
0.00000000 0.92620141 0.89026618
0.05485667 0.94599296 0.91180843
0.37763211 0.95932304 0.93034653
0.60564093 0.96106975 0.94061691
0.80764283 0.94988245 0.94097443
0.94059311 0.94059311 0.94059311
1.00000000 0.94260633 0.94565496
0.00840910 0.97165874 0.77285412
0.00840910 0.97165874 0.77285412
0.01616654 0.98757237 0.78391973
0.26156699 1.00000000 0.81011138
0.50431435 1.00000000 0.84837002
0.68683634 1.00000000 0.88599873
0.82592721 1.00000000 0.91886832
0.92536092 1.00000000 0.94278635
1.00000000 1.00000000 0.95975874
0.00000000 0.28928443 0.49268000
0.00000000 0.28928443 0.49268000
0.00000000 0.32171293 0.57845888
0.00000000 0.35946694 0.75832263
0.16219448 0.36179443 0.97245868
0.46399157 0.35178334 1.00000000
0.71502959 0.30699481 1.00000000
0.92201990 0.24467116 0.96976916
1.00000000 0.29199423 0.82854302
0.00000000 0.28928443 0.49268000
0.00000000 0.28928443 0.49268000
0.00000000 0.32171293 0.57845888
0.00000000 0.35946694 0.75832263
0.16219448 0.36179443 0.97245868
0.46399157 0.35178334 1.00000000
0.71502959 0.30699481 1.00000000
0.92201990 0.24467116 0.96976916
1.00000000 0.29199423 0.82854302
0.00000000 0.36466647 0.60583575
0.00000000 0.36466647 0.60583575
0.00000000 0.39047792 0.69518571
0.00000000 0.42084419 0.85225349
0.22592481 0.43505660 0.99356218
0.49499638 0.43350803 1.00000000
0.73295001 0.39992957 1.00000000
0.93110171 0.35560659 0.97213990
1.00000000 0.39153091 0.84178441
0.00000000 0.47622690 0.76611469
0.00000000 0.47622690 0.76611469
0.00000000 0.49568021 0.84324926
0.08863790 0.52275236 0.94673414
0.33663085 0.54766118 0.99829782
0.55182483 0.55291399 1.00000000
0.76166242 0.53219547 1.00000000
0.94250709 0.50308319 0.97553448
1.00000000 0.52848233 0.86729867
0.04744270 0.59523512 0.91238671
0.04744270 0.59523512 0.91238671
0.09555694 0.61161709 0.96198867
0.28107667 0.63791562 0.98360741
0.45771099 0.66400692 0.99377682
0.62081570 0.67541711 1.00000000
0.79249317 0.66658098 1.00000000
0.95076806 0.64838627 0.98360103
1.00000000 0.66619295 0.90233414
0.17027447 0.70031795 0.98777260
0.17027447 0.70031795 0.98777260
0.25627324 0.71454968 1.00000000
0.40068431 0.73732805 1.00000000
0.55004022 0.76165665 0.99503058
0.68187774 0.77780904 0.99966680
0.81559260 0.77940389 1.00000000
0.95128524 0.76872257 0.99394990
1.00000000 0.78016285 0.93795094
0.24034768 0.79278629 1.00000000
0.24034768 0.79278629 1.00000000
0.31738226 0.80528493 1.00000000
0.44730451 0.82488617 1.00000000
0.59294161 0.84564889 1.00000000
0.72340693 0.86133618 1.00000000
0.83442886 0.87030576 1.00000000
0.94422457 0.86711323 1.00000000
1.00000000 0.87271348 0.96859614
0.10457353 0.88167631 1.00000000
0.10457353 0.88167631 1.00000000
0.20122882 0.89381040 1.00000000
0.36674450 0.91048910 1.00000000
0.54896256 0.92545110 1.00000000
0.70659039 0.93505666 1.00000000
0.83679117 0.94029047 1.00000000
0.93399208 0.94233768 0.99815484
1.00000000 0.94463034 0.98851244
0.00000000 0.96631083 0.92873123
0.00000000 0.96631083 0.92873123
0.00000000 0.98171284 0.94383367
0.14284340 0.99855011 0.96257488
0.46348922 1.00000000 0.97474434
0.66474261 1.00000000 0.98428592
0.81434503 1.00000000 0.99180707
0.92482432 1.00000000 0.99671554
1.00000000 1.00000000 1.00000000
