Luts Download/Canon Luts/3dlut/17grid-3dlut/full-to-full-range/BT2020_CanonLog-to-BT2020_709WideDR_17_FF_Ver.2.0.cube
# Gamut : BT.2020 to BT.2020
# Gamma : Canon Log to Wide DR
# Range : Full in / Full out
# Version : 2.0 2019/10/24
# Copyright(c) 2019 Canon Inc. All Rights Reserved.
LUT_3D_SIZE 17
# LUT_3D_INPUT_RANGE 0.0 1.0
0.00000000 0.00000000 0.00000000
0.00000000 0.00000000 0.00000000
0.00000000 0.00000000 0.00000000
0.10687250 0.01562479 0.01514637
0.21933896 0.02310440 0.02095191
0.32608067 0.02719767 0.02206083
0.43043703 0.03178713 0.02173324
0.52352622 0.03993135 0.02039540
0.60013282 0.05378356 0.01698288
0.66545720 0.07479255 0.01192133
0.72141157 0.10111414 0.00502097
0.76806941 0.12938321 0.00000000
0.80572295 0.15814724 0.00000000
0.83565994 0.18529747 0.00000000
0.86048287 0.20842463 0.00000000
0.88291785 0.22701006 0.00000000
0.90633362 0.24163488 0.00000000
0.00000000 0.00000000 0.00000000
0.00000000 0.00000000 0.00000000
0.00000000 0.00000000 0.00000000
0.10687250 0.01562479 0.01514637
0.21933896 0.02310440 0.02095191
0.32608067 0.02719767 0.02206083
0.43043703 0.03178713 0.02173324
0.52352622 0.03993135 0.02039540
0.60013282 0.05378356 0.01698288
0.66545720 0.07479255 0.01192133
0.72141157 0.10111414 0.00502097
0.76806941 0.12938321 0.00000000
0.80572295 0.15814724 0.00000000
0.83565994 0.18529747 0.00000000
0.86048287 0.20842463 0.00000000
0.88291785 0.22701006 0.00000000
0.90633362 0.24163488 0.00000000
0.00000000 0.00000000 0.00000000
0.00000000 0.00000000 0.00000000
0.00289456 0.01150118 0.00000000
0.10687250 0.01562479 0.01514637
0.21933896 0.02310440 0.02095191
0.32608067 0.02719767 0.02206083
0.43043703 0.03178713 0.02173324
0.52352622 0.03993135 0.02039540
0.60013282 0.05378356 0.01698288
0.66545720 0.07479255 0.01192133
0.72141157 0.10111414 0.00502097
0.76806941 0.12938321 0.00000000
0.80572295 0.15814724 0.00000000
0.83565994 0.18529747 0.00000000
0.86048287 0.20842463 0.00000000
0.88291785 0.22701006 0.00000000
0.90633362 0.24163488 0.00000000
0.00068027 0.13576353 0.00004558
0.00068027 0.13576353 0.00004558
0.00068027 0.13576353 0.00004558
0.13443958 0.13505843 0.02829734
0.23615253 0.14126227 0.02401349
0.33795253 0.14466772 0.01948579
0.44062762 0.14685187 0.01661730
0.53406745 0.14929670 0.01751436
0.61180088 0.15426669 0.02022677
0.67819510 0.16368890 0.02243522
0.73540791 0.17652375 0.02198637
0.78354713 0.19256137 0.01984220
0.82354792 0.20986807 0.01552293
0.85648364 0.22684240 0.00898326
0.88438766 0.24170259 0.00000000
0.90964034 0.25379714 0.00000000
0.93529739 0.26364899 0.00000000
0.05372112 0.23212578 0.04607369
0.05372112 0.23212578 0.04607369
0.05372112 0.23212578 0.04607369
0.14768200 0.24106361 0.03268851
0.24431086 0.24547056 0.02355879
0.34324652 0.24806647 0.01711513
0.44544142 0.24897218 0.01296735
0.54555685 0.24395782 0.00463824
0.62707694 0.24139162 0.01344833
0.69858086 0.24005888 0.01917929
0.75267275 0.25047585 0.03991091
0.80209314 0.25927524 0.04711518
0.84470450 0.26831178 0.04704261
0.88049663 0.27755123 0.04206277
0.91092316 0.28605513 0.03256449
0.93815573 0.29334385 0.01925275
0.96508481 0.29959781 0.00325305
0.06292698 0.33729306 0.04677082
0.06292698 0.33729306 0.04677082
0.06292698 0.33729306 0.04677082
0.15548130 0.34334720 0.03098262
0.24986053 0.34635972 0.02203744
0.34688857 0.34842602 0.01717455
0.44819414 0.34905481 0.01357196
0.54745226 0.34522037 0.01501294
0.63666217 0.33687620 0.02017970
0.71124387 0.33155943 0.03923019
0.77587105 0.32832263 0.05484871
0.83171794 0.32693774 0.06408577
0.87936572 0.32709323 0.06656306
0.90893413 0.33923248 0.08995831
0.93955901 0.34479771 0.08940678
0.96583968 0.35079203 0.08522076
0.98950860 0.35850066 0.08156509
0.06980273 0.44124852 0.04267086
0.06980273 0.44124852 0.04267086
0.06980273 0.44124852 0.04267086
0.16089132 0.44578002 0.02821764
0.25323205 0.44809942 0.02109502
0.34855281 0.44995915 0.01819561
0.44875892 0.45081453 0.01578426
0.55074695 0.44634305 0.01243208
0.64596878 0.43549314 0.01894678
0.73144849 0.42242719 0.03196202
0.80140552 0.41342080 0.06284253
0.86000922 0.40753570 0.09112947
0.90895735 0.40422045 0.11033952
0.94957477 0.40285401 0.12139359
0.98325303 0.40298255 0.12626314
0.98793334 0.42588003 0.17399536
1.00000000 0.43645307 0.18694653
0.07983765 0.53554000 0.03545832
0.07983765 0.53554000 0.03545832
0.07983765 0.53554000 0.03545832
0.16575550 0.53955494 0.02577307
0.25312901 0.54215754 0.02255890
0.34420607 0.54487755 0.02303655
0.44085624 0.54719803 0.02359432
0.54168629 0.54483673 0.01776347
0.64230346 0.53400472 0.01155265
0.73712826 0.51775456 0.01880008
0.82289217 0.49893746 0.03085187
0.89084003 0.48502868 0.07027842
0.94550370 0.47525177 0.10822174
0.98929197 0.46907472 0.13529051
0.99489836 0.48899369 0.21114660
1.00000000 0.50179748 0.24819027
1.00000000 0.51327019 0.27219182
0.09664444 0.61495864 0.02544039
0.09664444 0.61495864 0.02544039
0.09664444 0.61495864 0.02544039
0.17322617 0.61898181 0.02262977
0.25216636 0.62240493 0.02462518
0.33599544 0.62657569 0.03006760
0.42611307 0.63108017 0.03580318
0.52142655 0.63210862 0.03345092
0.62031810 0.62525426 0.02202048
0.72037350 0.61043955 0.01382110
0.81513608 0.59004983 0.02043904
0.89727284 0.56883629 0.04914719
0.97082794 0.54607567 0.06474408
0.99621355 0.55071488 0.18265164
1.00000000 0.55945788 0.25331746
1.00000000 0.57143950 0.30593076
1.00000000 0.58206179 0.33959471
0.11957769 0.68473173 0.01498530
0.11957769 0.68473173 0.01498530
0.11957769 0.68473173 0.01498530
0.18551051 0.68889919 0.01883509
0.25447309 0.69314349 0.02587703
0.32933510 0.69869637 0.03588512
0.41131560 0.70522303 0.04695566
0.49911694 0.70934102 0.05098368
0.59184129 0.70695295 0.04257444
0.68982728 0.69691897 0.02898416
0.78920026 0.67886679 0.02094742
0.88267081 0.65531830 0.03262005
0.96004217 0.63256370 0.08353883
1.00000000 0.62334955 0.18757159
1.00000000 0.62744419 0.28173957
1.00000000 0.63641455 0.35037337
1.00000000 0.64495690 0.39409501
0.14731538 0.74628088 0.00624215
0.14731538 0.74628088 0.00624215
0.14731538 0.74628088 0.00624215
0.20218976 0.75071228 0.01501481
0.26103867 0.75564695 0.02654381
0.32599527 0.76243044 0.03997478
0.39900605 0.77066942 0.05587317
0.47650930 0.77794517 0.05791574
0.56293489 0.77886470 0.06479881
0.65442096 0.77388187 0.05365179
0.75159133 0.76105508 0.04045544
0.84946637 0.74021877 0.03860272
0.93850873 0.71509380 0.07362516
0.99999047 0.69673140 0.17746949
1.00000000 0.69340696 0.29434364
1.00000000 0.69744973 0.38069739
1.00000000 0.70270669 0.43558501
0.17716791 0.80003037 0.00000000
0.17716791 0.80003037 0.00000000
0.17716791 0.80003037 0.00000000
0.22199450 0.80477438 0.01196221
0.27150029 0.81026688 0.02722970
0.32649193 0.81810589 0.04299409
0.39029318 0.82775752 0.06286511
0.45894404 0.83706763 0.07295471
0.53498486 0.84174385 0.07734496
0.61942576 0.84066728 0.08122073
0.70986850 0.83327933 0.06951883
0.80580210 0.81783391 0.06125295
0.90064105 0.79478481 0.07740097
0.98085485 0.77004282 0.15047083
1.00000000 0.75792126 0.28832349
1.00000000 0.75535904 0.39480117
1.00000000 0.75599367 0.46218586
0.20650758 0.84623986 0.00000000
0.20650758 0.84623986 0.00000000
0.20650758 0.84623986 0.00000000
0.24281212 0.85132640 0.00941774
0.28385190 0.85734656 0.02679013
0.33049247 0.86591092 0.04550767
0.38552306 0.87668632 0.06866847
0.44505434 0.88773527 0.08376906
0.51258831 0.89480109 0.09722242
0.58578182 0.89815549 0.09523209
0.66950104 0.89475604 0.10363090
0.75852811 0.88500240 0.09585405
0.85231099 0.86720165 0.09993024
0.94169573 0.84282001 0.14339781
1.00000000 0.82162069 0.26267657
1.00000000 0.81108283 0.38954258
1.00000000 0.80588784 0.47127815
0.23335742 0.88543018 0.00000000
0.23335742 0.88543018 0.00000000
0.23335742 0.88543018 0.00000000
0.26284361 0.89085165 0.00681289
0.29712654 0.89727370 0.02581217
0.33715554 0.90630230 0.04775604
0.38479937 0.91784332 0.07466637
0.43481020 0.93052157 0.09061391
0.49451886 0.93938779 0.11091285
0.55876115 0.94552598 0.11774951
0.62976195 0.94749362 0.11088325
0.70928355 0.94340675 0.08830997
0.80098082 0.92882579 0.13868910
0.89113053 0.90928169 0.15557524
0.97322287 0.88439067 0.21841745
1.00000000 0.86578093 0.36228996
1.00000000 0.85401287 0.46097836
0.25685483 0.91865178 0.00000000
0.25685483 0.91865178 0.00000000
0.25685483 0.91865178 0.00000000
0.28099014 0.92438573 0.00361634
0.30975759 0.93116151 0.02325730
0.34497055 0.94043077 0.04860188
0.38850982 0.95205992 0.08332116
0.42796153 0.96651677 0.09436771
0.48075094 0.97672402 0.11999551
0.53696508 0.98493603 0.13355812
0.59865793 0.98999474 0.13551088
0.66768642 0.99036294 0.12451346
0.74565505 0.98421073 0.09821619
0.83855389 0.96450978 0.20925385
0.92272884 0.94463265 0.23040092
0.99357345 0.92072834 0.32108611
1.00000000 0.90234116 0.43384655
0.27653734 0.94788125 0.00000000
0.27653734 0.94788125 0.00000000
0.27653734 0.94788125 0.00000000
0.29625550 0.95393760 0.00000000
0.32095520 0.96095984 0.01852904
0.35373044 0.97011016 0.04894273
0.39832285 0.98073104 0.09910294
0.45299887 0.99029359 0.15687089
0.51296436 0.99665630 0.21355475
0.57300309 1.00000000 0.26271312
0.63142226 1.00000000 0.30164379
0.68860715 1.00000000 0.32864873
0.74597230 1.00000000 0.34124309
0.80604944 1.00000000 0.33556515
0.87305430 0.99242645 0.30863981
0.94886002 0.97456918 0.31982263
1.00000000 0.95219303 0.40535317
0.29246626 0.97632728 0.00000000
0.29246626 0.97632728 0.00000000
0.29246626 0.97632728 0.00000000
0.30814477 0.98275916 0.00000000
0.32967718 0.98996663 0.00961794
0.36414067 0.99824629 0.05064085
0.41939282 1.00000000 0.13117821
0.48227626 1.00000000 0.20846044
0.54366033 1.00000000 0.27511923
0.60202831 1.00000000 0.33314776
0.65653896 1.00000000 0.38187480
0.70730862 1.00000000 0.42008341
0.75519659 1.00000000 0.44598537
0.80208824 1.00000000 0.45758076
0.85145022 1.00000000 0.45478966
0.90772110 1.00000000 0.44610243
0.97235014 1.00000000 0.42832149
0.00000000 0.00000000 0.00000000
0.00000000 0.00000000 0.00000000
0.00000000 0.00000000 0.00000000
0.10687250 0.01562479 0.01514637
0.21933896 0.02310440 0.02095191
0.32608067 0.02719767 0.02206083
0.43043703 0.03178713 0.02173324
0.52352622 0.03993135 0.02039540
0.60013282 0.05378356 0.01698288
0.66545720 0.07479255 0.01192133
0.72141157 0.10111414 0.00502097
0.76806941 0.12938321 0.00000000
0.80572295 0.15814724 0.00000000
0.83565994 0.18529747 0.00000000
0.86048287 0.20842463 0.00000000
0.88291785 0.22701006 0.00000000
0.90633362 0.24163488 0.00000000
0.00000000 0.00000000 0.00000000
0.00000000 0.00000000 0.00000000
0.00000000 0.00000000 0.00000000
0.10687250 0.01562479 0.01514637
0.21933896 0.02310440 0.02095191
0.32608067 0.02719767 0.02206083
0.43043703 0.03178713 0.02173324
0.52352622 0.03993135 0.02039540
0.60013282 0.05378356 0.01698288
0.66545720 0.07479255 0.01192133
0.72141157 0.10111414 0.00502097
0.76806941 0.12938321 0.00000000
0.80572295 0.15814724 0.00000000
0.83565994 0.18529747 0.00000000
0.86048287 0.20842463 0.00000000
0.88291785 0.22701006 0.00000000
0.90633362 0.24163488 0.00000000
0.00000000 0.00000000 0.00000000
0.00000000 0.00000000 0.00000000
0.00000000 0.00000000 0.00000000
0.10687250 0.01562479 0.01514637
0.21933896 0.02310440 0.02095191
0.32608067 0.02719767 0.02206083
0.43043703 0.03178713 0.02173324
0.52352622 0.03993135 0.02039540
0.60013282 0.05378356 0.01698288
0.66545720 0.07479255 0.01192133
0.72141157 0.10111414 0.00502097
0.76806941 0.12938321 0.00000000
0.80572295 0.15814724 0.00000000
0.83565994 0.18529747 0.00000000
0.86048287 0.20842463 0.00000000
0.88291785 0.22701006 0.00000000
0.90633362 0.24163488 0.00000000
0.00068027 0.13576353 0.00004558
0.00068027 0.13576353 0.00004558
0.00068027 0.13576353 0.00004558
0.13443958 0.13505843 0.02829734
0.23615253 0.14126227 0.02401349
0.33795253 0.14466772 0.01948579
0.44062762 0.14685187 0.01661730
0.53406745 0.14929670 0.01751436
0.61180088 0.15426669 0.02022677
0.67819510 0.16368890 0.02243522
0.73540791 0.17652375 0.02198637
0.78354713 0.19256137 0.01984220
0.82354792 0.20986807 0.01552293
0.85648364 0.22684240 0.00898326
0.88438766 0.24170259 0.00000000
0.90964034 0.25379714 0.00000000
0.93529739 0.26364899 0.00000000
0.05372112 0.23212578 0.04607369
0.05372112 0.23212578 0.04607369
0.05372112 0.23212578 0.04607369
0.14768200 0.24106361 0.03268851
0.24431086 0.24547056 0.02355879
0.34324652 0.24806647 0.01711513
0.44544142 0.24897218 0.01296735
0.54555685 0.24395782 0.00463824
0.62707694 0.24139162 0.01344833
0.69858086 0.24005888 0.01917929
0.75267275 0.25047585 0.03991091
0.80209314 0.25927524 0.04711518
0.84470450 0.26831178 0.04704261
0.88049663 0.27755123 0.04206277
0.91092316 0.28605513 0.03256449
0.93815573 0.29334385 0.01925275
0.96508481 0.29959781 0.00325305
0.06292698 0.33729306 0.04677082
0.06292698 0.33729306 0.04677082
0.06292698 0.33729306 0.04677082
0.15548130 0.34334720 0.03098262
0.24986053 0.34635972 0.02203744
0.34688857 0.34842602 0.01717455
0.44819414 0.34905481 0.01357196
0.54745226 0.34522037 0.01501294
0.63666217 0.33687620 0.02017970
0.71124387 0.33155943 0.03923019
0.77587105 0.32832263 0.05484871
0.83171794 0.32693774 0.06408577
0.87936572 0.32709323 0.06656306
0.90893413 0.33923248 0.08995831
0.93955901 0.34479771 0.08940678
0.96583968 0.35079203 0.08522076
0.98950860 0.35850066 0.08156509
0.06980273 0.44124852 0.04267086
0.06980273 0.44124852 0.04267086
0.06980273 0.44124852 0.04267086
0.16089132 0.44578002 0.02821764
0.25323205 0.44809942 0.02109502
0.34855281 0.44995915 0.01819561
0.44875892 0.45081453 0.01578426
0.55074695 0.44634305 0.01243208
0.64596878 0.43549314 0.01894678
0.73144849 0.42242719 0.03196202
0.80140552 0.41342080 0.06284253
0.86000922 0.40753570 0.09112947
0.90895735 0.40422045 0.11033952
0.94957477 0.40285401 0.12139359
0.98325303 0.40298255 0.12626314
0.98793334 0.42588003 0.17399536
1.00000000 0.43645307 0.18694653
0.07983765 0.53554000 0.03545832
0.07983765 0.53554000 0.03545832
0.07983765 0.53554000 0.03545832
0.16575550 0.53955494 0.02577307
0.25312901 0.54215754 0.02255890
0.34420607 0.54487755 0.02303655
0.44085624 0.54719803 0.02359432
0.54168629 0.54483673 0.01776347
0.64230346 0.53400472 0.01155265
0.73712826 0.51775456 0.01880008
0.82289217 0.49893746 0.03085187
0.89084003 0.48502868 0.07027842
0.94550370 0.47525177 0.10822174
0.98929197 0.46907472 0.13529051
0.99489836 0.48899369 0.21114660
1.00000000 0.50179748 0.24819027
1.00000000 0.51327019 0.27219182
0.09664444 0.61495864 0.02544039
0.09664444 0.61495864 0.02544039
0.09664444 0.61495864 0.02544039
0.17322617 0.61898181 0.02262977
0.25216636 0.62240493 0.02462518
0.33599544 0.62657569 0.03006760
0.42611307 0.63108017 0.03580318
0.52142655 0.63210862 0.03345092
0.62031810 0.62525426 0.02202048
0.72037350 0.61043955 0.01382110
0.81513608 0.59004983 0.02043904
0.89727284 0.56883629 0.04914719
0.97082794 0.54607567 0.06474408
0.99621355 0.55071488 0.18265164
1.00000000 0.55945788 0.25331746
1.00000000 0.57143950 0.30593076
1.00000000 0.58206179 0.33959471
0.11957769 0.68473173 0.01498530
0.11957769 0.68473173 0.01498530
0.11957769 0.68473173 0.01498530
0.18551051 0.68889919 0.01883509
0.25447309 0.69314349 0.02587703
0.32933510 0.69869637 0.03588512
0.41131560 0.70522303 0.04695566
0.49911694 0.70934102 0.05098368
0.59184129 0.70695295 0.04257444
0.68982728 0.69691897 0.02898416
0.78920026 0.67886679 0.02094742
0.88267081 0.65531830 0.03262005
0.96004217 0.63256370 0.08353883
1.00000000 0.62334955 0.18757159
1.00000000 0.62744419 0.28173957
1.00000000 0.63641455 0.35037337
1.00000000 0.64495690 0.39409501
0.14731538 0.74628088 0.00624215
0.14731538 0.74628088 0.00624215
0.14731538 0.74628088 0.00624215
0.20218976 0.75071228 0.01501481
0.26103867 0.75564695 0.02654381
0.32599527 0.76243044 0.03997478
0.39900605 0.77066942 0.05587317
0.47650930 0.77794517 0.05791574
0.56293489 0.77886470 0.06479881
0.65442096 0.77388187 0.05365179
0.75159133 0.76105508 0.04045544
0.84946637 0.74021877 0.03860272
0.93850873 0.71509380 0.07362516
0.99999047 0.69673140 0.17746949
1.00000000 0.69340696 0.29434364
1.00000000 0.69744973 0.38069739
1.00000000 0.70270669 0.43558501
0.17716791 0.80003037 0.00000000
0.17716791 0.80003037 0.00000000
0.17716791 0.80003037 0.00000000
0.22199450 0.80477438 0.01196221
0.27150029 0.81026688 0.02722970
0.32649193 0.81810589 0.04299409
0.39029318 0.82775752 0.06286511
0.45894404 0.83706763 0.07295471
0.53498486 0.84174385 0.07734496
0.61942576 0.84066728 0.08122073
0.70986850 0.83327933 0.06951883
0.80580210 0.81783391 0.06125295
0.90064105 0.79478481 0.07740097
0.98085485 0.77004282 0.15047083
1.00000000 0.75792126 0.28832349
1.00000000 0.75535904 0.39480117
1.00000000 0.75599367 0.46218586
0.20650758 0.84623986 0.00000000
0.20650758 0.84623986 0.00000000
0.20650758 0.84623986 0.00000000
0.24281212 0.85132640 0.00941774
0.28385190 0.85734656 0.02679013
0.33049247 0.86591092 0.04550767
0.38552306 0.87668632 0.06866847
0.44505434 0.88773527 0.08376906
0.51258831 0.89480109 0.09722242
0.58578182 0.89815549 0.09523209
0.66950104 0.89475604 0.10363090
0.75852811 0.88500240 0.09585405
0.85231099 0.86720165 0.09993024
0.94169573 0.84282001 0.14339781
1.00000000 0.82162069 0.26267657
1.00000000 0.81108283 0.38954258
1.00000000 0.80588784 0.47127815
0.23335742 0.88543018 0.00000000
0.23335742 0.88543018 0.00000000
0.23335742 0.88543018 0.00000000
0.26284361 0.89085165 0.00681289
0.29712654 0.89727370 0.02581217
0.33715554 0.90630230 0.04775604
0.38479937 0.91784332 0.07466637
0.43481020 0.93052157 0.09061391
0.49451886 0.93938779 0.11091285
0.55876115 0.94552598 0.11774951
0.62976195 0.94749362 0.11088325
0.70928355 0.94340675 0.08830997
0.80098082 0.92882579 0.13868910
0.89113053 0.90928169 0.15557524
0.97322287 0.88439067 0.21841745
1.00000000 0.86578093 0.36228996
1.00000000 0.85401287 0.46097836
0.25685483 0.91865178 0.00000000
0.25685483 0.91865178 0.00000000
0.25685483 0.91865178 0.00000000
0.28099014 0.92438573 0.00361634
0.30975759 0.93116151 0.02325730
0.34497055 0.94043077 0.04860188
0.38850982 0.95205992 0.08332116
0.42796153 0.96651677 0.09436771
0.48075094 0.97672402 0.11999551
0.53696508 0.98493603 0.13355812
0.59865793 0.98999474 0.13551088
0.66768642 0.99036294 0.12451346
0.74565505 0.98421073 0.09821619
0.83855389 0.96450978 0.20925385
0.92272884 0.94463265 0.23040092
0.99357345 0.92072834 0.32108611
1.00000000 0.90234116 0.43384655
0.27653734 0.94788125 0.00000000
0.27653734 0.94788125 0.00000000
0.27653734 0.94788125 0.00000000
0.29625550 0.95393760 0.00000000
0.32095520 0.96095984 0.01852904
0.35373044 0.97011016 0.04894273
0.39832285 0.98073104 0.09910294
0.45299887 0.99029359 0.15687089
0.51296436 0.99665630 0.21355475
0.57300309 1.00000000 0.26271312
0.63142226 1.00000000 0.30164379
0.68860715 1.00000000 0.32864873
0.74597230 1.00000000 0.34124309
0.80604944 1.00000000 0.33556515
0.87305430 0.99242645 0.30863981
0.94886002 0.97456918 0.31982263
1.00000000 0.95219303 0.40535317
0.29246626 0.97632728 0.00000000
0.29246626 0.97632728 0.00000000
0.29246626 0.97632728 0.00000000
0.30814477 0.98275916 0.00000000
0.32967718 0.98996663 0.00961794
0.36414067 0.99824629 0.05064085
0.41939282 1.00000000 0.13117821
0.48227626 1.00000000 0.20846044
0.54366033 1.00000000 0.27511923
0.60202831 1.00000000 0.33314776
0.65653896 1.00000000 0.38187480
0.70730862 1.00000000 0.42008341
0.75519659 1.00000000 0.44598537
0.80208824 1.00000000 0.45758076
0.85145022 1.00000000 0.45478966
0.90772110 1.00000000 0.44610243
0.97235014 1.00000000 0.42832149
0.00000000 0.00000000 0.00000000
0.00000000 0.00000000 0.00000000
0.00000000 0.00000000 0.00000000
0.10687250 0.01562479 0.01514637
0.21933896 0.02310440 0.02095191
0.32608067 0.02719767 0.02206083
0.43043703 0.03178713 0.02173324
0.52352622 0.03993135 0.02039540
0.60013282 0.05378356 0.01698288
0.66545720 0.07479255 0.01192133
0.72141157 0.10111414 0.00502097
0.76806941 0.12938321 0.00000000
0.80572295 0.15814724 0.00000000
0.83565994 0.18529747 0.00000000
0.86048287 0.20842463 0.00000000
0.88291785 0.22701006 0.00000000
0.90633362 0.24163488 0.00000000
0.00000000 0.00000000 0.00000000
0.00000000 0.00000000 0.00000000
0.00000000 0.00000000 0.00000000
0.10687250 0.01562479 0.01514637
0.21933896 0.02310440 0.02095191
0.32608067 0.02719767 0.02206083
0.43043703 0.03178713 0.02173324
0.52352622 0.03993135 0.02039540
0.60013282 0.05378356 0.01698288
0.66545720 0.07479255 0.01192133
0.72141157 0.10111414 0.00502097
0.76806941 0.12938321 0.00000000
0.80572295 0.15814724 0.00000000
0.83565994 0.18529747 0.00000000
0.86048287 0.20842463 0.00000000
0.88291785 0.22701006 0.00000000
0.90633362 0.24163488 0.00000000
0.00000000 0.00000000 0.00000000
0.00000000 0.00000000 0.00000000
0.00000000 0.00000000 0.00000000
0.10687250 0.01562479 0.01514637
0.21933896 0.02310440 0.02095191
0.32608067 0.02719767 0.02206083
0.43043703 0.03178713 0.02173324
0.52352622 0.03993135 0.02039540
0.60013282 0.05378356 0.01698288
0.66545720 0.07479255 0.01192133
0.72141157 0.10111414 0.00502097
0.76806941 0.12938321 0.00000000
0.80572295 0.15814724 0.00000000
0.83565994 0.18529747 0.00000000
0.86048287 0.20842463 0.00000000
0.88291785 0.22701006 0.00000000
0.90633362 0.24163488 0.00000000
0.00068027 0.13576353 0.00004558
0.00068027 0.13576353 0.00004558
0.00068027 0.13576353 0.00004558
0.13443958 0.13505843 0.02829734
0.23615253 0.14126227 0.02401349
0.33795253 0.14466772 0.01948579
0.44062762 0.14685187 0.01661730
0.53406745 0.14929670 0.01751436
0.61180088 0.15426669 0.02022677
0.67819510 0.16368890 0.02243522
0.73540791 0.17652375 0.02198637
0.78354713 0.19256137 0.01984220
0.82354792 0.20986807 0.01552293
0.85648364 0.22684240 0.00898326
0.88438766 0.24170259 0.00000000
0.90964034 0.25379714 0.00000000
0.93529739 0.26364899 0.00000000
0.05372112 0.23212578 0.04607369
0.05372112 0.23212578 0.04607369
0.05372112 0.23212578 0.04607369
0.14768200 0.24106361 0.03268851
0.24431086 0.24547056 0.02355879
0.34324652 0.24806647 0.01711513
0.44544142 0.24897218 0.01296735
0.54555685 0.24395782 0.00463824
0.62707694 0.24139162 0.01344833
0.69858086 0.24005888 0.01917929
0.75267275 0.25047585 0.03991091
0.80209314 0.25927524 0.04711518
0.84470450 0.26831178 0.04704261
0.88049663 0.27755123 0.04206277
0.91092316 0.28605513 0.03256449
0.93815573 0.29334385 0.01925275
0.96508481 0.29959781 0.00325305
0.06292698 0.33729306 0.04677082
0.06292698 0.33729306 0.04677082
0.06292698 0.33729306 0.04677082
0.15548130 0.34334720 0.03098262
0.24986053 0.34635972 0.02203744
0.34688857 0.34842602 0.01717455
0.44819414 0.34905481 0.01357196
0.54745226 0.34522037 0.01501294
0.63666217 0.33687620 0.02017970
0.71124387 0.33155943 0.03923019
0.77587105 0.32832263 0.05484871
0.83171794 0.32693774 0.06408577
0.87936572 0.32709323 0.06656306
0.90893413 0.33923248 0.08995831
0.93955901 0.34479771 0.08940678
0.96583968 0.35079203 0.08522076
0.98950860 0.35850066 0.08156509
0.06980273 0.44124852 0.04267086
0.06980273 0.44124852 0.04267086
0.06980273 0.44124852 0.04267086
0.16089132 0.44578002 0.02821764
0.25323205 0.44809942 0.02109502
0.34855281 0.44995915 0.01819561
0.44875892 0.45081453 0.01578426
0.55074695 0.44634305 0.01243208
0.64596878 0.43549314 0.01894678
0.73144849 0.42242719 0.03196202
0.80140552 0.41342080 0.06284253
0.86000922 0.40753570 0.09112947
0.90895735 0.40422045 0.11033952
0.94957477 0.40285401 0.12139359
0.98325303 0.40298255 0.12626314
0.98793334 0.42588003 0.17399536
1.00000000 0.43645307 0.18694653
0.07983765 0.53554000 0.03545832
0.07983765 0.53554000 0.03545832
0.07983765 0.53554000 0.03545832
0.16575550 0.53955494 0.02577307
0.25312901 0.54215754 0.02255890
0.34420607 0.54487755 0.02303655
0.44085624 0.54719803 0.02359432
0.54168629 0.54483673 0.01776347
0.64230346 0.53400472 0.01155265
0.73712826 0.51775456 0.01880008
0.82289217 0.49893746 0.03085187
0.89084003 0.48502868 0.07027842
0.94550370 0.47525177 0.10822174
0.98929197 0.46907472 0.13529051
0.99489836 0.48899369 0.21114660
1.00000000 0.50179748 0.24819027
1.00000000 0.51327019 0.27219182
0.09664444 0.61495864 0.02544039
0.09664444 0.61495864 0.02544039
0.09664444 0.61495864 0.02544039
0.17322617 0.61898181 0.02262977
0.25216636 0.62240493 0.02462518
0.33599544 0.62657569 0.03006760
