Luts Download/Canon Luts/3dlut/17grid-3dlut/full-to-full-range/BT2020_CanonLog-to-BT2020_709WideDR_17_FF_Ver.2.0.cube
# Gamut : BT.2020 to BT.2020
# Gamma : Canon Log to Wide DR
# Range : Full in / Full out
# Version : 2.0 2019/10/24
# Copyright(c) 2019 Canon Inc. All Rights Reserved.
LUT_3D_SIZE 5
# LUT_3D_INPUT_RANGE 0.0 1.0
0.00000000 0.00000000 0.00000000
0.21933896 0.02310440 0.02095191
0.60013282 0.05378356 0.01698288
0.80572295 0.15814724 0.00000000
0.90633362 0.24163488 0.00000000
0.05372112 0.23212578 0.04607369
0.24431086 0.24547056 0.02355879
0.62707694 0.24139162 0.01344833
0.84470450 0.26831178 0.04704261
0.96508481 0.29959781 0.00325305
0.09664444 0.61495864 0.02544039
0.25216636 0.62240493 0.02462518
0.62031810 0.62525426 0.02202048
0.97082794 0.54607567 0.06474408
1.00000000 0.58206179 0.33959471
0.20650758 0.84623986 0.00000000
0.28385190 0.85734656 0.02679013
0.51258831 0.89480109 0.09722242
0.85231099 0.86720165 0.09993024
1.00000000 0.80588784 0.47127815
0.29246626 0.97632728 0.00000000
0.32967718 0.98996663 0.00961794
0.54366033 1.00000000 0.27511923
0.75519659 1.00000000 0.44598537
0.97235014 1.00000000 0.42832149
0.00783714 0.01238537 0.19552372
0.22839785 0.02476910 0.22549819
0.60158844 0.05976624 0.22770390
0.83252882 0.12182212 0.12636936
0.93641964 0.21459363 0.00140604
0.04335642 0.23792067 0.23736447
0.24578998 0.24578998 0.24578998
0.62358508 0.24691447 0.23934492
0.85882463 0.25967494 0.18499520
0.98388447 0.28962814 0.07620334
0.12606864 0.61264402 0.24269305
0.25784378 0.62174880 0.23877978
0.62128565 0.62486984 0.24676009
0.93637660 0.57075804 0.29414671
1.00000000 0.60118036 0.41379805
0.24769567 0.84314827 0.17673781
0.32585187 0.85161325 0.21025444
0.54864141 0.88479180 0.28820563
0.85315203 0.86764724 0.24982875
1.00000000 0.81557314 0.53205423
0.35458869 0.96985735 0.14112486
0.39726684 0.98038373 0.18234420
0.58273168 1.00000000 0.36324420
0.77671385 1.00000000 0.51505019
0.97285916 1.00000000 0.51441535
0.00541415 0.07673171 0.52033662
0.21624317 0.07120789 0.57152649
0.60191644 0.08375362 0.58951496
0.86921533 0.10471154 0.44482288
1.00000000 0.17725753 0.25369715
0.05425280 0.25090240 0.57274149
0.23643858 0.24960291 0.62529771
0.62583280 0.24507133 0.61951183
0.89496045 0.24517176 0.47564358
1.00000000 0.31247127 0.32963598
0.08998085 0.61711051 0.61554432
0.24581202 0.62389496 0.62292804
0.62377960 0.62377960 0.62377960
0.86285327 0.62540855 0.61394468
0.99694550 0.63412030 0.57393608
0.32497402 0.84031973 0.48399151
0.41091334 0.84279601 0.51258485
0.64033816 0.85886616 0.61059829
0.85694387 0.86590930 0.62576041
1.00000000 0.84416432 0.70412670
0.50212397 0.94993929 0.43400722
0.54440111 0.95674702 0.46849448
0.68346618 0.98683269 0.58504140
0.83330060 1.00000000 0.69225231
0.98208265 1.00000000 0.72113053
0.00000000 0.18805668 0.64682749
0.09180908 0.16736678 0.79569907
0.49869648 0.17112526 0.92956574
0.83709137 0.13522351 0.81133160
1.00000000 0.19212217 0.56339568
0.03143783 0.28278405 0.76134002
0.15821337 0.27821287 0.86686583
0.52054545 0.30992707 0.92899374
0.86990834 0.24428192 0.84618696
1.00000000 0.32034412 0.60181776
0.25318871 0.57733943 0.91980939
0.35185384 0.58859449 0.90732860
0.60848622 0.63015585 0.86660757
0.86952148 0.62186363 0.85264140
1.00000000 0.63821947 0.74121231
0.13510512 0.85547624 0.85242133
0.27364612 0.86004086 0.85671523
0.62382263 0.86355998 0.86071142
0.86322055 0.86322055 0.86322055
0.99706977 0.86643140 0.85821819
0.44285786 0.97580454 0.61051064
0.50863230 0.97757403 0.64075902
0.71387739 0.98567659 0.75644296
0.87497691 0.99839599 0.85221077
0.99494716 1.00000000 0.89137214
0.00000000 0.26000323 0.67218402
0.00000000 0.27755892 0.78779043
0.30228643 0.33703686 1.00000000
0.64708835 0.32690874 1.00000000
0.97565376 0.15609258 0.94095219
0.00000000 0.32830170 0.82338288
0.03467134 0.34141844 0.92098408
0.35908190 0.41944469 1.00000000
0.67416245 0.41509608 1.00000000
0.98489156 0.30147338 0.94474012
0.31390835 0.57460844 0.99785774
0.37146436 0.59278548 0.99574739
0.55790379 0.65465540 0.99088774
0.76976839 0.67231020 1.00000000
0.99794659 0.63600307 0.95828873
0.49669023 0.77565985 1.00000000
0.53969161 0.78829725 1.00000000
0.69797885 0.83433160 1.00000000
0.85228449 0.86871285 0.99878920
1.00000000 0.86593502 0.98680421
0.23808799 0.98649502 0.98174634
0.34962256 0.98928550 0.98389185
0.64996632 0.99566264 0.98977844
0.86997424 0.99974304 0.99715219
1.00000000 1.00000000 1.00000000
