Luts Download/Canon Luts/3dlut/17grid-3dlut/full-to-full-range/BT2020_CanonLog-to-BT2020_709WideDR_17_FF_Ver.2.0.cube
# Gamut : BT.2020 to BT.2020
# Gamma : Canon Log to Wide DR
# Range : Full in / Full out
# Version : 2.0 2019/10/24
# Copyright(c) 2019 Canon Inc. All Rights Reserved.
LUT_3D_SIZE 9
# LUT_3D_INPUT_RANGE 0.0 1.0
0.00000000 0.00000000 0.00000000
0.00000000 0.00000000 0.00000000
0.21933896 0.02310440 0.02095191
0.43043703 0.03178713 0.02173324
0.60013282 0.05378356 0.01698288
0.72141157 0.10111414 0.00502097
0.80572295 0.15814724 0.00000000
0.86048287 0.20842463 0.00000000
0.90633362 0.24163488 0.00000000
0.00000000 0.00000000 0.00000000
0.00289456 0.01150118 0.00000000
0.21933896 0.02310440 0.02095191
0.43043703 0.03178713 0.02173324
0.60013282 0.05378356 0.01698288
0.72141157 0.10111414 0.00502097
0.80572295 0.15814724 0.00000000
0.86048287 0.20842463 0.00000000
0.90633362 0.24163488 0.00000000
0.05372112 0.23212578 0.04607369
0.05372112 0.23212578 0.04607369
0.24431086 0.24547056 0.02355879
0.44544142 0.24897218 0.01296735
0.62707694 0.24139162 0.01344833
0.75267275 0.25047585 0.03991091
0.84470450 0.26831178 0.04704261
0.91092316 0.28605513 0.03256449
0.96508481 0.29959781 0.00325305
0.06980273 0.44124852 0.04267086
0.06980273 0.44124852 0.04267086
0.25323205 0.44809942 0.02109502
0.44875892 0.45081453 0.01578426
0.64596878 0.43549314 0.01894678
0.80140552 0.41342080 0.06284253
0.90895735 0.40422045 0.11033952
0.98325303 0.40298255 0.12626314
1.00000000 0.43645307 0.18694653
0.09664444 0.61495864 0.02544039
0.09664444 0.61495864 0.02544039
0.25216636 0.62240493 0.02462518
0.42611307 0.63108017 0.03580318
0.62031810 0.62525426 0.02202048
0.81513608 0.59004983 0.02043904
0.97082794 0.54607567 0.06474408
1.00000000 0.55945788 0.25331746
1.00000000 0.58206179 0.33959471
0.14731538 0.74628088 0.00624215
0.14731538 0.74628088 0.00624215
0.26103867 0.75564695 0.02654381
0.39900605 0.77066942 0.05587317
0.56293489 0.77886470 0.06479881
0.75159133 0.76105508 0.04045544
0.93850873 0.71509380 0.07362516
1.00000000 0.69340696 0.29434364
1.00000000 0.70270669 0.43558501
0.20650758 0.84623986 0.00000000
0.20650758 0.84623986 0.00000000
0.28385190 0.85734656 0.02679013
0.38552306 0.87668632 0.06866847
0.51258831 0.89480109 0.09722242
0.66950104 0.89475604 0.10363090
0.85231099 0.86720165 0.09993024
1.00000000 0.82162069 0.26267657
1.00000000 0.80588784 0.47127815
0.25685483 0.91865178 0.00000000
0.25685483 0.91865178 0.00000000
0.30975759 0.93116151 0.02325730
0.38850982 0.95205992 0.08332116
0.48075094 0.97672402 0.11999551
0.59865793 0.98999474 0.13551088
0.74565505 0.98421073 0.09821619
0.92272884 0.94463265 0.23040092
1.00000000 0.90234116 0.43384655
0.29246626 0.97632728 0.00000000
0.29246626 0.97632728 0.00000000
0.32967718 0.98996663 0.00961794
0.41939282 1.00000000 0.13117821
0.54366033 1.00000000 0.27511923
0.65653896 1.00000000 0.38187480
0.75519659 1.00000000 0.44598537
0.85145022 1.00000000 0.45478966
0.97235014 1.00000000 0.42832149
0.00000000 0.00000000 0.00000000
0.00000000 0.00000000 0.00000000
0.21933896 0.02310440 0.02095191
0.43043703 0.03178713 0.02173324
0.60013282 0.05378356 0.01698288
0.72141157 0.10111414 0.00502097
0.80572295 0.15814724 0.00000000
0.86048287 0.20842463 0.00000000
0.90633362 0.24163488 0.00000000
0.00000000 0.00000000 0.00000000
0.00000000 0.00000000 0.00000000
0.21933896 0.02310440 0.02095191
0.43043703 0.03178713 0.02173324
0.60013282 0.05378356 0.01698288
0.72141157 0.10111414 0.00502097
0.80572295 0.15814724 0.00000000
0.86048287 0.20842463 0.00000000
0.90633362 0.24163488 0.00000000
0.05372112 0.23212578 0.04607369
0.05372112 0.23212578 0.04607369
0.24431086 0.24547056 0.02355879
0.44544142 0.24897218 0.01296735
0.62707694 0.24139162 0.01344833
0.75267275 0.25047585 0.03991091
0.84470450 0.26831178 0.04704261
0.91092316 0.28605513 0.03256449
0.96508481 0.29959781 0.00325305
0.06980273 0.44124852 0.04267086
0.06980273 0.44124852 0.04267086
0.25323205 0.44809942 0.02109502
0.44875892 0.45081453 0.01578426
0.64596878 0.43549314 0.01894678
0.80140552 0.41342080 0.06284253
0.90895735 0.40422045 0.11033952
0.98325303 0.40298255 0.12626314
1.00000000 0.43645307 0.18694653
0.09664444 0.61495864 0.02544039
0.09664444 0.61495864 0.02544039
0.25216636 0.62240493 0.02462518
0.42611307 0.63108017 0.03580318
0.62031810 0.62525426 0.02202048
0.81513608 0.59004983 0.02043904
0.97082794 0.54607567 0.06474408
1.00000000 0.55945788 0.25331746
1.00000000 0.58206179 0.33959471
0.14731538 0.74628088 0.00624215
0.14731538 0.74628088 0.00624215
0.26103867 0.75564695 0.02654381
0.39900605 0.77066942 0.05587317
0.56293489 0.77886470 0.06479881
0.75159133 0.76105508 0.04045544
0.93850873 0.71509380 0.07362516
1.00000000 0.69340696 0.29434364
1.00000000 0.70270669 0.43558501
0.20650758 0.84623986 0.00000000
0.20650758 0.84623986 0.00000000
0.28385190 0.85734656 0.02679013
0.38552306 0.87668632 0.06866847
0.51258831 0.89480109 0.09722242
0.66950104 0.89475604 0.10363090
0.85231099 0.86720165 0.09993024
1.00000000 0.82162069 0.26267657
1.00000000 0.80588784 0.47127815
0.25685483 0.91865178 0.00000000
0.25685483 0.91865178 0.00000000
0.30975759 0.93116151 0.02325730
0.38850982 0.95205992 0.08332116
0.48075094 0.97672402 0.11999551
0.59865793 0.98999474 0.13551088
0.74565505 0.98421073 0.09821619
0.92272884 0.94463265 0.23040092
1.00000000 0.90234116 0.43384655
0.29246626 0.97632728 0.00000000
0.29246626 0.97632728 0.00000000
0.32967718 0.98996663 0.00961794
0.41939282 1.00000000 0.13117821
0.54366033 1.00000000 0.27511923
0.65653896 1.00000000 0.38187480
0.75519659 1.00000000 0.44598537
0.85145022 1.00000000 0.45478966
0.97235014 1.00000000 0.42832149
0.00783714 0.01238537 0.19552372
0.00783714 0.01238537 0.19552372
0.22839785 0.02476910 0.22549819
0.42875897 0.04020252 0.24151855
0.60158844 0.05976624 0.22770390
0.73421709 0.08605498 0.18706092
0.83252882 0.12182212 0.12636936
0.89299074 0.17176762 0.05868806
0.93641964 0.21459363 0.00140604
0.00783714 0.01238537 0.19552372
0.00783714 0.01238537 0.19552372
0.22839785 0.02476910 0.22549819
0.42875897 0.04020252 0.24151855
0.60158844 0.05976624 0.22770390
0.73421709 0.08605498 0.18706092
0.83252882 0.12182212 0.12636936
0.89299074 0.17176762 0.05868806
0.93641964 0.21459363 0.00140604
0.04335642 0.23792067 0.23736447
0.04335642 0.23792067 0.23736447
0.24578998 0.24578998 0.24578998
0.45027451 0.24587538 0.24523786
0.62358508 0.24691447 0.23934492
0.75698904 0.25092138 0.22020390
0.85882463 0.25967494 0.18499520
0.93044146 0.27324305 0.13596547
0.98388447 0.28962814 0.07620334
0.07858990 0.44046112 0.25651350
0.07858990 0.44046112 0.25651350
0.24693018 0.45004568 0.24488267
0.44987401 0.45045910 0.24594021
0.63956843 0.43910304 0.25854621
0.77638778 0.43303420 0.28231817
0.87798825 0.43368504 0.28744774
0.95034654 0.43841586 0.27679907
0.98919950 0.45901462 0.27800659
0.12606864 0.61264402 0.24269305
0.12606864 0.61264402 0.24269305
0.25784378 0.62174880 0.23877978
0.43322048 0.62880235 0.25667436
0.62128565 0.62486984 0.24676009
0.80700061 0.59494549 0.25139565
0.93637660 0.57075804 0.29414671
0.98303729 0.58282673 0.37194144
1.00000000 0.60118036 0.41379805
0.18446568 0.74358722 0.20985202
0.18446568 0.74358722 0.20985202
0.28660697 0.75207906 0.22595987
0.42483528 0.76443525 0.26092890
0.57617146 0.77428208 0.27244177
0.75212073 0.76097227 0.24823065
0.93532035 0.71844326 0.23952933
1.00000000 0.70523236 0.39627036
1.00000000 0.71616476 0.49830320
0.24769567 0.84314827 0.17673781
0.24769567 0.84314827 0.17673781
0.32585187 0.85161325 0.21025444
0.43055305 0.86748856 0.25656651
0.54864141 0.88479180 0.28820563
0.68477470 0.88954492 0.28386684
0.85315203 0.86764724 0.24982875
0.99571584 0.82748426 0.36871500
1.00000000 0.81557314 0.53205423
0.30927478 0.91379956 0.15672187
0.30927478 0.91379956 0.15672187
0.36449976 0.92364801 0.19508755
0.44488904 0.94168870 0.24857454
0.53698934 0.96324535 0.29321093
0.63881216 0.97819373 0.30971826
0.76567750 0.97689039 0.29382853
0.92708691 0.94653417 0.25124913
1.00000000 0.90830062 0.50595718
0.35458869 0.96985735 0.14112486
0.35458869 0.96985735 0.14112486
0.39726684 0.98038373 0.18234420
0.46224134 0.99948449 0.23983645
0.58273168 1.00000000 0.36324420
0.68552821 1.00000000 0.45530243
0.77671385 1.00000000 0.51505019
0.86490729 1.00000000 0.52892029
0.97285916 1.00000000 0.51441535
0.01254446 0.03565455 0.37665432
0.01254446 0.03565455 0.37665432
0.23176154 0.04150014 0.40417958
0.42966256 0.05475108 0.42291574
0.60721395 0.06869337 0.40405883
0.74672716 0.08644463 0.35294304
0.85385299 0.10845883 0.28233765
0.92854098 0.13703658 0.19595440
0.98150963 0.17105259 0.09581480
0.01254446 0.03565455 0.37665432
0.01254446 0.03565455 0.37665432
0.23176154 0.04150014 0.40417958
0.42966256 0.05475108 0.42291574
0.60721395 0.06869337 0.40405883
0.74672716 0.08644463 0.35294304
0.85385299 0.10845883 0.28233765
0.92854098 0.13703658 0.19595440
0.98150963 0.17105259 0.09581480
0.04449677 0.24461407 0.41573883
0.04449677 0.24461407 0.41573883
0.24491022 0.24615424 0.45047405
0.45067731 0.24564238 0.44962358
0.63133351 0.24486022 0.42107477
0.76890845 0.24911421 0.37779215
0.87342570 0.25839850 0.32502308
0.93883669 0.28325574 0.27029135
0.99927023 0.29352128 0.19740289
0.07799725 0.44229779 0.44125549
0.07799725 0.44229779 0.44125549
0.24579199 0.45030604 0.45011191
0.45028250 0.45028250 0.45028250
0.62375621 0.45050050 0.44886015
0.75794150 0.45186535 0.44090062
0.86155922 0.45555198 0.42254181
0.93556966 0.46237736 0.39421790
0.99088090 0.47222659 0.36026410
0.13749425 0.61372840 0.41912183
0.13749425 0.61372840 0.41912183
0.27544631 0.62010379 0.42483343
0.45314707 0.62305251 0.44780365
0.62245815 0.62434737 0.45070330
0.78044669 0.60975977 0.46313337
0.88640342 0.60511243 0.48387309
0.95934624 0.60653696 0.48796028
0.99335187 0.62374784 0.50015289
0.21681937 0.74285341 0.37605406
0.21681937 0.74285341 0.37605406
0.33161919 0.74607071 0.40031770
0.46682824 0.75447806 0.43887468
0.60254345 0.76517808 0.46282588
0.75321699 0.76045841 0.45193009
0.90850302 0.73329181 0.45375117
0.98632598 0.72375830 0.52267036
1.00000000 0.73495994 0.58022010
0.31882248 0.83550559 0.34861203
0.31882248 0.83550559 0.34861203
0.39184956 0.84167383 0.37888283
0.49190149 0.85423592 0.42566333
0.59904299 0.87027855 0.46482775
0.71320587 0.87920590 0.47265437
0.85348954 0.86744108 0.45347747
0.98335559 0.83666248 0.50177287
1.00000000 0.82915730 0.61251117
0.39408186 0.90239308 0.32810432
0.39408186 0.90239308 0.32810432
0.44539129 0.91042257 0.36099373
0.52163813 0.92565555 0.41189730
0.60636817 0.94522255 0.46003111
0.69298368 0.96134647 0.48458677
0.79550614 0.96576930 0.48072976
0.92646010 0.94672922 0.45493465
1.00000000 0.91668048 0.59842897
0.44851685 0.95565807 0.31414970
0.44851685 0.95565807 0.31414970
0.48826267 0.96468002 0.34772300
0.54994852 0.98135426 0.39999497
0.63185746 0.99804321 0.47002185
0.72095073 1.00000000 0.54456885
0.80399121 1.00000000 0.59983906
0.88329188 1.00000000 0.61970248
0.97626477 1.00000000 0.61559846
0.00541415 0.07673171 0.52033662
0.00541415 0.07673171 0.52033662
0.21624317 0.07120789 0.57152649
0.41515999 0.07904594 0.60374480
0.60191644 0.08375362 0.58951496
0.75255797 0.09194181 0.52795194
0.86921533 0.10471154 0.44482288
0.95044702 0.12978660 0.34842949
1.00000000 0.17725753 0.25369715
0.00541415 0.07673171 0.52033662
0.00541415 0.07673171 0.52033662
0.21624317 0.07120789 0.57152649
0.41515999 0.07904594 0.60374480
0.60191644 0.08375362 0.58951496
0.75255797 0.09194181 0.52795194
0.86921533 0.10471154 0.44482288
0.95044702 0.12978660 0.34842949
1.00000000 0.17725753 0.25369715
0.05425280 0.25090240 0.57274149
0.05425280 0.25090240 0.57274149
0.23643858 0.24960291 0.62529771
0.43244106 0.25377812 0.64060408
0.62583280 0.24507133 0.61951183
0.77975629 0.24130461 0.55307927
0.89496045 0.24517176 0.47564358
0.95988874 0.27835794 0.40000729
1.00000000 0.31247127 0.32963598
0.11325252 0.43579811 0.62183015
0.11325252 0.43579811 0.62183015
0.26999189 0.44139224 0.63333132
0.44795628 0.45125085 0.62437198
0.62512380 0.44984979 0.62167125
0.77076224 0.44860542 0.58305880
0.87860628 0.45258562 0.54040336
0.94972654 0.46449690 0.49573274
0.99857907 0.48176966 0.45172533
0.08998085 0.61711051 0.61554432
0.08998085 0.61711051 0.61554432
0.24581202 0.62389496 0.62292804
0.45028809 0.62385881 0.62320586
0.62377960 0.62377960 0.62377960
0.75824051 0.62406070 0.62193266
0.86285327 0.62540855 0.61394468
0.93891406 0.62857662 0.59772827
0.99694550 0.63412030 0.57393608
0.19064831 0.74988041 0.54142457
0.19064831 0.74988041 0.54142457
0.31543898 0.75299103 0.55499718
0.48115055 0.75343670 0.58667714
0.62740771 0.75726927 0.62035210
0.75633774 0.75909759 0.62437810
0.88041613 0.74799462 0.63309083
0.95967144 0.74418722 0.64868966
0.99803836 0.75475865 0.66791652
0.32497402 0.84031973 0.48399151
0.32497402 0.84031973 0.48399151
0.41091334 0.84279601 0.51258485
0.52625565 0.84884624 0.56122168
0.64033816 0.85886616 0.61059829
0.74243277 0.86861404 0.63345862
0.85694387 0.86590930 0.62576041
0.97650150 0.84439489 0.62608747
1.00000000 0.84416432 0.70412670
0.43058621 0.90119590 0.45219708
0.43058621 0.90119590 0.45219708
0.48718634 0.90637436 0.48559637
0.57117459 0.91666910 0.54045835
0.66059963 0.93118036 0.59775011
0.74175938 0.94572081 0.63425625
0.82597621 0.95424172 0.64244583
0.92948005 0.94535996 0.62731503
1.00000000 0.92521584 0.69973546
0.50212397 0.94993929 0.43400722
0.50212397 0.94993929 0.43400722
0.54440111 0.95674702 0.46849448
0.61042417 0.96955341 0.52472561
0.68346618 0.98683269 0.58504140
0.75891120 0.99974280 0.64329322
0.83330060 1.00000000 0.69225231
0.90398562 1.00000000 0.71727713
0.98208265 1.00000000 0.72113053
0.00000000 0.13313726 0.60847901
0.00000000 0.13313726 0.60847901
0.17027938 0.11251151 0.70999157
0.37248949 0.11570151 0.76847459
0.56855329 0.10885941 0.77764278
0.73570497 0.10711445 0.71660185
0.86637964 0.11195648 0.62191744
0.95764640 0.13333917 0.51188458
1.00000000 0.18979228 0.40561705
0.00000000 0.13313726 0.60847901
0.00000000 0.13313726 0.60847901
0.17027938 0.11251151 0.70999157
0.37248949 0.11570151 0.76847459
0.56855329 0.10885941 0.77764278
0.73570497 0.10711445 0.71660185
0.86637964 0.11195648 0.62191744
0.95764640 0.13333917 0.51188458
1.00000000 0.18979228 0.40561705
0.05052199 0.26248710 0.68843216
0.05052199 0.26248710 0.68843216
0.20965049 0.26012277 0.76192751
0.39463037 0.27158738 0.79400634
0.58936184 0.25940567 0.80898979
0.76275059 0.24449277 0.74770873
0.89633317 0.23936650 0.65174236
0.96847622 0.27752908 0.54861262
1.00000000 0.31934967 0.46033293
0.12929952 0.42634512 0.78219459
0.12929952 0.42634512 0.78219459
0.28380670 0.43728941 0.76505325
0.43619190 0.45608436 0.76117644
0.59948826 0.45973196 0.78110514
0.76288584 0.44884573 0.74966322
0.88932101 0.44493857 0.68345255
0.96531620 0.45890647 0.61288029
1.00000000 0.48317476 0.55187623
0.16657933 0.59715305 0.80575571
0.16657933 0.59715305 0.80575571
0.30373163 0.60286364 0.80220610
0.47563915 0.61226622 0.77234153
0.62066824 0.62508422 0.75909653
0.76035689 0.62313796 0.75522851
0.87548742 0.62208628 0.72237665
0.95588272 0.62527168 0.68595393
1.00000000 0.63983180 0.65399907
0.09591429 0.75244026 0.75022344
0.09591429 0.75244026 0.75022344
0.24585868 0.75851544 0.75645644
0.45031903 0.75852600 0.75639552
0.62378745 0.75839307 0.75739594
0.75827205 0.75827205 0.75827205
0.86318888 0.75854617 0.75646540
0.94025031 0.75971518 0.74948945
0.99407508 0.76544297 0.73974633
0.21300415 0.85942470 0.63262473
0.21300415 0.85942470 0.63262473
0.34486718 0.85886591 0.65056771
0.50198592 0.85841404 0.68392393
0.64788415 0.85901892 0.72413000
0.76176802 0.86221771 0.75478168
0.86120822 0.86407566 0.75889269
0.95537930 0.85473488 0.76572581
1.00000000 0.85768409 0.79047745
0.39487721 0.91488317 0.55734299
0.39487721 0.91488317 0.55734299
0.46795448 0.91687512 0.58746936
0.57352377 0.92115464 0.63962598
0.68231283 0.92789417 0.69949746
0.77261407 0.93656187 0.74568046
0.85001347 0.94521764 0.76662061
0.93442749 0.94321611 0.76021901
1.00000000 0.93182339 0.79380511
0.50387099 0.95682715 0.52139792
0.50387099 0.95682715 0.52139792
0.55358247 0.96116104 0.55586309
0.63096639 0.96937500 0.61416514
0.71560727 0.98075622 0.68062823
0.78877770 0.99335239 0.73400348
0.85836531 1.00000000 0.77845611
0.92210389 1.00000000 0.80420541
0.98875702 1.00000000 0.81297716
0.00000000 0.18805668 0.64682749
0.00000000 0.18805668 0.64682749
0.09180908 0.16736678 0.79569907
0.30034495 0.17383672 0.88603172
0.49869648 0.17112526 0.92956574
0.68337964 0.14954961 0.90171964
0.83709137 0.13522351 0.81133160
0.94738323 0.14098348 0.68905610
1.00000000 0.19212217 0.56339568
0.00000000 0.18805668 0.64682749
0.00000000 0.18805668 0.64682749
0.09180908 0.16736678 0.79569907
0.30034495 0.17383672 0.88603172
0.49869648 0.17112526 0.92956574
0.68337964 0.14954961 0.90171964
0.83709137 0.13522351 0.81133160
0.94738323 0.14098348 0.68905610
1.00000000 0.19212217 0.56339568
0.03143783 0.28278405 0.76134002
0.03143783 0.28278405 0.76134002
0.15821337 0.27821287 0.86686583
0.33902924 0.30775421 0.88755975
0.52054545 0.30992707 0.92899374
0.70263925 0.28746767 0.91470192
0.86990834 0.24428192 0.84618696
0.96151285 0.27810567 0.71433112
1.00000000 0.32034412 0.60181776
0.14497426 0.42359441 0.88326038
0.14497426 0.42359441 0.88326038
0.27383135 0.44104091 0.86684424
0.41036451 0.46652509 0.86900432
0.55865886 0.47678276 0.90672366
0.72382591 0.46264690 0.90958488
0.87131473 0.44794573 0.84636116
0.96431108 0.45703128 0.75105576
1.00000000 0.48277591 0.66675519
0.25318871 0.57733943 0.91980939
0.25318871 0.57733943 0.91980939
0.35185384 0.58859449 0.90732860
0.48490976 0.60948672 0.87201082
0.60848622 0.63015585 0.86660757
0.73767975 0.63151440 0.88140038
0.86952148 0.62186363 0.85264140
0.96105855 0.62270226 0.79437288
1.00000000 0.63821947 0.74121231
0.22688082 0.72128262 0.94190542
0.22688082 0.72128262 0.94190542
0.32611678 0.72935063 0.94203752
0.49227783 0.73806069 0.90837321
0.64179082 0.74935256 0.87426285
0.75516707 0.75958082 0.86405053
0.86547618 0.75759109 0.86008390
0.95236912 0.75656241 0.83161940
1.00000000 0.76535596 0.80591727
0.13510512 0.85547624 0.85242133
0.13510512 0.85547624 0.85242133
0.27364612 0.86004086 0.85671523
0.45036851 0.86364883 0.86001972
0.62382263 0.86355998 0.86071142
0.75828013 0.86334998 0.86228405
0.86322055 0.86322055 0.86322055
0.94056549 0.86345356 0.86168230
0.99706977 0.86643140 0.85821819
0.24856445 0.93864764 0.70082164
0.24856445 0.93864764 0.70082164
0.36751876 0.93812846 0.71964601
0.51764382 0.93740746 0.75359753
0.66185420 0.93682842 0.79514625
0.77769064 0.93708895 0.83252953
0.86616412 0.93973034 0.86015608
0.93880863 0.94134883 0.86377266
1.00000000 0.93757734 0.87747388
0.44285786 0.97580454 0.61051064
0.44285786 0.97580454 0.61051064
0.50863230 0.97757403 0.64075902
0.60782985 0.98096379 0.69341142
0.71387739 0.98567659 0.75644296
0.80361873 0.99131251 0.81192776
0.87497691 0.99839599 0.85221077
0.93683354 1.00000000 0.87934791
0.99494716 1.00000000 0.89137214
0.00000000 0.23024020 0.65869316
0.00000000 0.23024020 0.65869316
0.02179593 0.23432526 0.79324914
0.21042838 0.24713290 0.92553191
0.40059923 0.26895917 0.98515246
0.58352738 0.26126753 1.00000000
0.75984560 0.21788571 0.97048553
0.90903540 0.16436729 0.87731583
1.00000000 0.17759834 0.73754453
0.00000000 0.23024020 0.65869316
0.00000000 0.23024020 0.65869316
0.02179593 0.23432526 0.79324914
0.21042838 0.24713290 0.92553191
0.40059923 0.26895917 0.98515246
0.58352738 0.26126753 1.00000000
0.75984560 0.21788571 0.97048553
0.90903540 0.16436729 0.87731583
1.00000000 0.17759834 0.73754453
0.00787382 0.30661690 0.79816974
0.00787382 0.30661690 0.79816974
0.10828828 0.31610242 0.88638259
0.27405254 0.34910836 0.93393138
0.43899110 0.37228137 0.97808362
0.60877593 0.36699539 0.99699035
0.77915039 0.33282095 0.97501730
0.94902050 0.24434489 0.91809800
1.00000000 0.31142815 0.75978115
0.15604943 0.43285387 0.92097824
0.15604943 0.43285387 0.92097824
0.24565560 0.45032481 0.94057679
0.37602263 0.48478290 0.92919123
0.50692628 0.50911504 0.95801850
0.65105446 0.50989572 0.98149538
0.80402501 0.48899939 0.96878510
0.95153414 0.44737646 0.91618517
1.00000000 0.47852091 0.79653952
0.30275486 0.57133354 0.96521293
0.30275486 0.57133354 0.96521293
0.37513227 0.58706503 0.95582122
0.47900104 0.61412087 0.93691658
0.58712006 0.64066610 0.93827303
0.69984559 0.65032704 0.96072360
0.82785139 0.64083537 0.96129986
0.95105497 0.62068989 0.92137126
1.00000000 0.63592111 0.84179727
0.37974628 0.69117604 0.99483503
0.37974628 0.69117604 0.99483503
0.44432610 0.70318262 0.98497103
0.54165455 0.72409462 0.96602698
0.64778505 0.74751396 0.94735050
0.74424538 0.76418120 0.94376124
0.84530579 0.76489452 0.95576296
0.94723135 0.75627993 0.93030547
1.00000000 0.76320619 0.88340944
0.35898645 0.80816685 1.00000000
0.35898645 0.80816685 1.00000000
0.43088659 0.81633410 1.00000000
0.54027301 0.83005096 0.98856024
0.66238424 0.84467076 0.97050177
0.77274611 0.85567787 0.95023536
0.86053491 0.86435736 0.94131104
0.94265752 0.86260476 0.93783085
1.00000000 0.86560460 0.91734669
0.22073725 0.92610873 0.92191237
0.22073725 0.92610873 0.92191237
0.32817194 0.93042816 0.92581092
0.45042026 0.94116128 0.93631860
0.62387172 0.94113191 0.93656184
0.75831375 0.94094434 0.93799716
0.86322771 0.94071029 0.93974569
0.94059311 0.94059311 0.94059311
0.99855802 0.94216707 0.94075087
0.31847697 0.99447695 0.75651353
0.31847697 0.99447695 0.75651353
0.40945061 0.99580993 0.77469513
0.54145263 0.99676691 0.80772260
0.67016914 0.99947099 0.84736468
0.78591294 0.99891434 0.88573525
0.87705635 0.99920869 0.91776655
0.94574854 0.99951151 0.94089345
0.99930953 1.00000000 0.95484000
0.00000000 0.26000323 0.67218402
0.00000000 0.26000323 0.67218402
0.00000000 0.27755892 0.78779043
0.10994535 0.29701593 0.95163382
0.30228643 0.33703686 1.00000000
0.47403393 0.35192331 1.00000000
0.64708835 0.32690874 1.00000000
0.82108086 0.25157838 1.00000000
0.97565376 0.15609258 0.94095219
0.00000000 0.26000323 0.67218402
0.00000000 0.26000323 0.67218402
0.00000000 0.27755892 0.78779043
0.10994535 0.29701593 0.95163382
0.30228643 0.33703686 1.00000000
0.47403393 0.35192331 1.00000000
0.64708835 0.32690874 1.00000000
0.82108086 0.25157838 1.00000000
0.97565376 0.15609258 0.94095219
0.00000000 0.32830170 0.82338288
0.00000000 0.32830170 0.82338288
0.03467134 0.34141844 0.92098408
0.20084582 0.38002977 0.97848294
0.35908190 0.41944469 1.00000000
0.51294314 0.43367768 1.00000000
0.67416245 0.41509608 1.00000000
0.83973043 0.35888989 1.00000000
0.98489156 0.30147338 0.94474012
0.13236049 0.44339865 0.96375642
0.13236049 0.44339865 0.96375642
0.20464123 0.46243434 0.99676052
0.33198365 0.50269503 0.98240442
0.45310832 0.53696607 1.00000000
0.57967456 0.55194080 1.00000000
0.71881846 0.54231814 1.00000000
0.86555479 0.50671933 1.00000000
0.99211811 0.47588685 0.94789820
0.31390835 0.57460844 0.99785774
0.31390835 0.57460844 0.99785774
0.37146436 0.59278548 0.99574739
0.46007692 0.62333452 0.98750919
0.55790379 0.65465540 0.99088774
0.65773868 0.67277242 1.00000000
0.76976839 0.67231020 1.00000000
0.89186737 0.65241996 1.00000000
0.99794659 0.63600307 0.95828873
0.43474381 0.68253813 1.00000000
0.43474381 0.68253813 1.00000000
0.48060174 0.69765719 1.00000000
0.55587425 0.72338551 1.00000000
0.64365923 0.75207958 0.99163267
0.72702490 0.77337465 0.99596768
0.81398986 0.78129897 1.00000000
0.91163392 0.77281651 1.00000000
1.00000000 0.76399536 0.97288622
0.49669023 0.77565985 1.00000000
0.49669023 0.77565985 1.00000000
0.53969161 0.78829725 1.00000000
0.61159067 0.80981491 1.00000000
0.69797885 0.83433160 1.00000000
0.77983909 0.85475049 0.99750734
0.85228449 0.86871285 0.99878920
0.92637830 0.86982001 1.00000000
1.00000000 0.86593502 0.98680421
0.45812926 0.86983221 1.00000000
0.45812926 0.86983221 1.00000000
0.51143861 0.87879914 1.00000000
0.59928733 0.89367492 1.00000000
0.70066047 0.91060070 1.00000000
0.79404662 0.92467864 1.00000000
0.87537964 0.93523559 1.00000000
0.93870395 0.94184723 0.99922540
0.99955539 0.94261233 0.99567128
0.23808799 0.98649502 0.98174634
0.23808799 0.98649502 0.98174634
0.34962256 0.98928550 0.98389185
0.50170515 0.99241127 0.98632013
0.64996632 0.99566264 0.98977844
0.77142908 0.99824408 0.99368892
0.86997424 0.99974304 0.99715219
0.94559005 0.99999241 0.99921617
1.00000000 1.00000000 1.00000000
