Luts Download/Canon Luts/3dlut/17grid-3dlut/full-to-full-range/BT2020_CanonLog2-to-BT709_WideDR_17_FF_Ver.2.0.cube
# Gamut : BT.2020 to BT.709
# Gamma : Canon Log 2 to Wide DR
# Range : Full in / Full out
# Version : 2.0 2019/10/24
# Copyright(c) 2019 Canon Inc. All Rights Reserved.
LUT_3D_SIZE 9
# LUT_3D_INPUT_RANGE 0.0 1.0
0.00000000 0.00000000 0.00000000
0.00924798 0.00924798 0.00924798
0.15047115 0.00984752 0.01782911
0.39860889 0.00226155 0.03151381
0.69808568 0.00000000 0.04534427
0.91742405 0.02410565 0.04220187
0.99220732 0.18218884 0.10307260
0.98794202 0.36448723 0.25100197
1.00000000 0.68181245 0.56921810
0.00924798 0.00924798 0.00924798
0.01229755 0.01220548 0.01048246
0.16108504 0.01966562 0.01706317
0.40643591 0.00999457 0.02661084
0.70560494 0.00000000 0.03975114
0.92288515 0.02772489 0.04087398
0.99288906 0.19076190 0.10915655
0.98778837 0.36961851 0.25609996
1.00000000 0.68465269 0.57268035
0.00366238 0.12124173 0.03336459
0.00643945 0.13146354 0.02874201
0.14569551 0.14257530 0.01167216
0.40756051 0.13024138 0.00910163
0.72773209 0.08444903 0.01695677
0.94742191 0.09361770 0.04293878
0.99371487 0.25041249 0.15242906
0.98474622 0.40670703 0.29357292
1.00000000 0.70595241 0.59914976
0.00000000 0.33722034 0.09601211
0.00000000 0.34213483 0.08437505
0.04751038 0.35562413 0.02479135
0.35843756 0.35536215 0.00331179
0.72275320 0.32043776 0.01081407
0.96611887 0.29497845 0.11234153
0.99548674 0.38706688 0.26223923
0.98203975 0.50228996 0.39381134
1.00000000 0.76590482 0.67364820
0.00000000 0.60248690 0.18379700
0.00000000 0.60552866 0.17618499
0.00000000 0.61985581 0.12001152
0.19302338 0.63521934 0.03704078
0.62788369 0.62842430 0.01651986
0.99607988 0.55535474 0.17007219
1.00000000 0.58300342 0.41770683
1.00000000 0.66095778 0.56348484
1.00000000 0.88251050 0.81864282
0.00000000 0.80223390 0.24341054
0.00000000 0.80440436 0.23994146
0.00000000 0.81665817 0.21369737
0.00000000 0.84071983 0.16487480
0.36280749 0.87318089 0.12221858
0.83122973 0.84372249 0.18899595
1.00000000 0.77491903 0.50080668
1.00000000 0.80466619 0.70788525
1.00000000 1.00000000 1.00000000
0.12167515 0.92038478 0.30141511
0.11941120 0.92199111 0.30055844
0.10900679 0.93125721 0.29482918
0.15685321 0.95055725 0.29817612
0.35082963 0.98482899 0.34808243
0.64174212 0.99623687 0.45219517
0.94325871 0.97037154 0.52005438
1.00000000 0.92881296 0.82201169
1.00000000 1.00000000 1.00000000
0.54834402 0.98977859 0.54904190
0.55102374 0.99033445 0.55113549
0.56915873 0.99327294 0.56518083
0.62421923 0.99850717 0.60965031
0.73764033 1.00000000 0.70909641
0.86112086 1.00000000 0.82310488
1.00000000 1.00000000 1.00000000
1.00000000 1.00000000 1.00000000
1.00000000 1.00000000 1.00000000
1.00000000 1.00000000 1.00000000
1.00000000 1.00000000 1.00000000
1.00000000 1.00000000 1.00000000
1.00000000 1.00000000 1.00000000
1.00000000 1.00000000 1.00000000
1.00000000 1.00000000 1.00000000
1.00000000 1.00000000 1.00000000
1.00000000 1.00000000 1.00000000
1.00000000 1.00000000 1.00000000
0.00924798 0.00924798 0.00924798
0.01477338 0.00948846 0.01322910
0.16402635 0.00583799 0.02636835
0.40369144 0.00000000 0.04293758
0.69854013 0.00000000 0.05782894
0.91686511 0.02518660 0.05033047
0.99182576 0.18271685 0.10665290
0.98767229 0.36473652 0.25195875
1.00000000 0.68219814 0.56988391
0.00876906 0.01495144 0.01456726
0.01903558 0.01903558 0.01903558
0.17615342 0.01543393 0.02540494
0.41175515 0.00520701 0.03823184
0.70620131 0.00000000 0.05240089
0.92215336 0.02942936 0.04955985
0.99248013 0.19144247 0.11279937
0.98753152 0.36995848 0.25715601
1.00000000 0.68507629 0.57338552
0.00000000 0.13778004 0.04419987
0.00197274 0.14210514 0.03929264
0.14944353 0.14607891 0.02077311
0.41478831 0.12613378 0.01782307
0.73251791 0.07612960 0.02643524
0.94716096 0.09477531 0.05261693
0.99319126 0.25151447 0.15634985
0.98452562 0.40735731 0.29498708
1.00000000 0.70655606 0.60003876
0.00000000 0.34358997 0.10847434
0.00000000 0.34627347 0.09909619
0.04167646 0.35678301 0.03887625
0.35857874 0.35459387 0.01567264
0.72570546 0.31785721 0.02387777
0.96398797 0.29706014 0.12708497
0.99388216 0.38930686 0.26772610
0.98121400 0.50403966 0.39669950
1.00000000 0.76736825 0.67553480
0.00000000 0.60568644 0.19150323
0.00000000 0.60750718 0.18512558
0.00000000 0.61857358 0.13555088
0.18793323 0.63479236 0.04924773
0.62776018 0.62752072 0.02565010
0.99598383 0.55522591 0.17967156
1.00000000 0.58448053 0.42219812
1.00000000 0.66284597 0.56651602
1.00000000 0.88447884 0.82108495
0.00000000 0.80476525 0.24643004
0.00000000 0.80611794 0.24364035
0.00000000 0.81583964 0.22066801
0.00000000 0.84020872 0.17225466
0.36110575 0.87316684 0.12807213
0.83125042 0.84338769 0.19218991
1.00000000 0.77548354 0.50343725
1.00000000 0.80641241 0.71063884
1.00000000 1.00000000 1.00000000
0.11856337 0.92276482 0.30204109
0.11803185 0.92374057 0.30153910
0.11432126 0.93093631 0.29768901
0.15829726 0.95051112 0.30049730
0.35161681 0.98488824 0.35030487
0.64206718 0.99641134 0.45380426
0.94339343 0.97039870 0.52154326
1.00000000 0.92998938 0.82436910
1.00000000 1.00000000 1.00000000
0.55178293 0.99103309 0.55210652
0.55416327 0.99129427 0.55393280
0.57178846 0.99312097 0.56747515
0.62546302 0.99875306 0.61104867
0.73878677 1.00000000 0.71044516
0.86241509 1.00000000 0.82468588
1.00000000 1.00000000 1.00000000
1.00000000 1.00000000 1.00000000
1.00000000 1.00000000 1.00000000
1.00000000 1.00000000 1.00000000
1.00000000 1.00000000 1.00000000
1.00000000 1.00000000 1.00000000
1.00000000 1.00000000 1.00000000
1.00000000 1.00000000 1.00000000
1.00000000 1.00000000 1.00000000
1.00000000 1.00000000 1.00000000
1.00000000 1.00000000 1.00000000
1.00000000 1.00000000 1.00000000
0.00445305 0.01380520 0.10884752
0.01215282 0.00747976 0.11953438
0.17034831 0.00524697 0.12960539
0.40232843 0.00000000 0.15623174
0.69678368 0.00000000 0.16949742
0.91478392 0.03661314 0.13816196
0.98625539 0.19844767 0.15335726
0.98229956 0.37568774 0.27246632
1.00000000 0.69299840 0.58514414
0.00024364 0.02266834 0.11756483
0.00751218 0.01825977 0.15659019
0.17601234 0.01656027 0.13830378
0.41025202 0.00626700 0.15654882
0.70436438 0.00058188 0.16695885
0.91981813 0.04126468 0.13822715
0.98689357 0.20665741 0.15862183
0.98229065 0.38075641 0.27745459
1.00000000 0.69584375 0.58856759
0.00000000 0.13939364 0.13172821
0.00000000 0.14291425 0.13559087
0.14520997 0.14520997 0.14520997
0.43795006 0.10138372 0.13871736
0.73796475 0.06315540 0.14820480
0.94393344 0.10634826 0.14422116
0.98827036 0.26331389 0.19650613
0.98057114 0.41703952 0.31370892
1.00000000 0.71696770 0.61448085
0.00000000 0.33720863 0.19183905
0.00000000 0.34023625 0.18802965
0.02306540 0.35446272 0.15752296
0.35997696 0.35123120 0.10366920
0.76312427 0.28791508 0.10306319
0.95698719 0.30446921 0.20645652
0.98889186 0.39893468 0.30120772
0.97854408 0.51344576 0.41432290
1.00000000 0.77758815 0.68920723
0.00000000 0.59899122 0.25727647
0.00000000 0.60101623 0.25265754
0.00000000 0.61391629 0.21625828
0.14973467 0.63451171 0.14273749
0.62900708 0.62340705 0.10058666
0.99887610 0.55281277 0.24008478
1.00000000 0.59185062 0.45045210
1.00000000 0.67336554 0.58458663
1.00000000 0.89658887 0.83632441
0.00000000 0.80134264 0.28421208
0.00000000 0.80278331 0.28169596
0.00000000 0.81309237 0.26138031
0.00000000 0.83850921 0.22052350
0.34878509 0.87375219 0.17372207
0.83213203 0.84158390 0.22110378
1.00000000 0.77855169 0.52206329
1.00000000 0.81695518 0.72791198
1.00000000 1.00000000 1.00000000
0.12315874 0.92243299 0.31736994
0.12174144 0.92348523 0.31677550
0.11546005 0.93100733 0.31265760
0.16295361 0.95076802 0.31726578
0.35847722 0.98509478 0.36888194
0.64478608 0.99740476 0.46750327
0.94453084 0.97061857 0.53362996
1.00000000 0.93741761 0.83954143
1.00000000 1.00000000 1.00000000
0.56100478 0.99204188 0.56202550
0.56303867 0.99240053 0.56361939
0.57880803 0.99478503 0.57597858
0.63179838 1.00000000 0.61920456
0.74639035 1.00000000 0.71978877
0.87104318 1.00000000 0.83547817
1.00000000 1.00000000 1.00000000
1.00000000 1.00000000 1.00000000
1.00000000 1.00000000 1.00000000
1.00000000 1.00000000 1.00000000
1.00000000 1.00000000 1.00000000
1.00000000 1.00000000 1.00000000
1.00000000 1.00000000 1.00000000
1.00000000 1.00000000 1.00000000
1.00000000 1.00000000 1.00000000
1.00000000 1.00000000 1.00000000
1.00000000 1.00000000 1.00000000
1.00000000 1.00000000 1.00000000
0.00000000 0.05306315 0.23013652
0.00165851 0.04386999 0.24673651
0.16169114 0.02078005 0.30554049
0.40611298 0.00573816 0.32612468
0.70618226 0.00000000 0.32985011
0.92846512 0.03140832 0.27305516
0.98964918 0.21629296 0.23987086
0.97839869 0.39460163 0.31609781
1.00000000 0.71445503 0.61816656
0.00000000 0.06221619 0.23184974
0.00080047 0.05832435 0.25403489
0.16272133 0.03063614 0.31949621
0.41149409 0.01172451 0.33280478
0.71270366 0.00000000 0.33095295
0.93303137 0.03635916 0.27399567
0.99017489 0.22397802 0.24413630
0.97843822 0.39948757 0.32075106
1.00000000 0.71730388 0.62153438
0.00000000 0.15693080 0.26184858
0.00000000 0.15850090 0.27564338
0.11887592 0.14308091 0.36734434
0.42952200 0.09764801 0.36400723
0.74359215 0.05518479 0.33359245
0.95495738 0.10291048 0.28270187
0.99144712 0.27734576 0.27517361
0.97730408 0.43459749 0.35469835
1.00000000 0.73840707 0.64689524
0.00000000 0.33852412 0.32404084
0.00000000 0.34099052 0.32651308
0.01098739 0.35377186 0.34077106
0.34979522 0.34979522 0.34979522
0.74215916 0.30120814 0.33937348
0.94989197 0.31778632 0.34127330
0.98508692 0.41461603 0.37126854
0.97415210 0.53136628 0.45325310
1.00000000 0.80009312 0.72149344
0.00000000 0.59268683 0.38014724
0.00000000 0.59467699 0.37858356
0.00000000 0.60789136 0.36511370
0.16324127 0.62947022 0.34158401
0.62946383 0.62073561 0.30352655
0.97409480 0.56634639 0.40031790
1.00000000 0.61490142 0.52651274
0.99114858 0.69736588 0.62896132
1.00000000 0.92246454 0.87040161
0.04083864 0.79602006 0.37842451
0.03604603 0.79743220 0.37708468
0.00712187 0.80758408 0.36601591
0.06360016 0.83238570 0.34859615
0.31340311 0.87919568 0.27819388
0.84209988 0.84090834 0.23746327
1.00000000 0.78988826 0.58806252
1.00000000 0.84116416 0.77152736
1.00000000 1.00000000 1.00000000
0.17584103 0.92090739 0.37285945
0.17555005 0.92193096 0.37267158
0.17808678 0.92912200 0.37193832
0.23393392 0.94769064 0.38487791
0.41780345 0.97968849 0.44613154
0.67117193 0.99450632 0.53350726
0.94770162 0.97098143 0.58914965
1.00000000 0.95465799 0.87761353
1.00000000 1.00000000 1.00000000
0.58819340 0.99376107 0.59291759
0.59012360 0.99416227 0.59445194
0.60580324 0.99667198 0.60690647
0.66021865 1.00000000 0.65184065
0.77487466 1.00000000 0.75359716
0.89706152 1.00000000 0.86852908
1.00000000 1.00000000 1.00000000
1.00000000 1.00000000 1.00000000
1.00000000 1.00000000 1.00000000
1.00000000 1.00000000 1.00000000
1.00000000 1.00000000 1.00000000
1.00000000 1.00000000 1.00000000
1.00000000 1.00000000 1.00000000
1.00000000 1.00000000 1.00000000
1.00000000 1.00000000 1.00000000
1.00000000 1.00000000 1.00000000
1.00000000 1.00000000 1.00000000
1.00000000 1.00000000 1.00000000
0.00000000 0.14633916 0.36506698
0.00000000 0.14041955 0.37949362
0.07526081 0.09313306 0.52183419
0.37034292 0.04110199 0.58674756
0.70631614 0.00748242 0.57534521
0.95043960 0.03678547 0.47684251
1.00000000 0.23864826 0.38230279
0.98870346 0.41879198 0.39478560
1.00000000 0.73889440 0.66508406
0.00000000 0.15153259 0.36759500
0.00000000 0.14927696 0.38635686
0.07281320 0.10258217 0.53232516
0.37216620 0.04831901 0.59595693
0.71065359 0.01089442 0.58015028
0.95456323 0.04135022 0.47878823
1.00000000 0.24532476 0.38539856
0.98871979 0.42338204 0.39877011
1.00000000 0.74178575 0.66839332
0.00000000 0.20849670 0.40918188
0.00000000 0.20844889 0.42618464
0.04562462 0.18558207 0.55385807
0.37619984 0.10555648 0.66897738
0.73125970 0.06999323 0.60699204
0.97418726 0.10507702 0.49126475
1.00000000 0.29250285 0.40782625
0.98806539 0.45631885 0.42772262
1.00000000 0.76311442 0.69308216
0.00000000 0.35235007 0.49366398
0.00000000 0.35374253 0.50154376
0.01696077 0.35852105 0.55885507
0.31198792 0.34944385 0.64323151
0.73220591 0.29594543 0.63516388
0.97470301 0.31074663 0.52972219
1.00000000 0.42239891 0.48046429
0.98525237 0.55016818 0.51498087
1.00000000 0.82616765 0.76645428
0.00000000 0.60081938 0.57658459
0.00000000 0.60251187 0.57823017
0.00000000 0.61407443 0.58980313
0.10485084 0.63072977 0.61060099
0.61787795 0.61787795 0.61787795
0.94653633 0.58664571 0.60508008
0.98776252 0.64386204 0.63362927
0.98574289 0.72471078 0.68952301
1.00000000 0.95412932 0.91596028
0.06186034 0.79937154 0.53806444
0.05997291 0.80060960 0.53803236
0.05174363 0.80952632 0.53708181
0.17460083 0.82894076 0.54502272
0.47484045 0.85263065 0.58033036
0.83709012 0.83766348 0.58829716
1.00000000 0.81620750 0.72484437
1.00000000 0.87522529 0.83934744
1.00000000 1.00000000 1.00000000
0.27248422 0.92051439 0.49501699
0.27402716 0.92134471 0.49559547
0.28878043 0.92704462 0.50049615
0.35693101 0.94169670 0.52483640
0.54186794 0.96468647 0.60501228
0.74498912 0.98099777 0.68820784
0.96775215 0.98287498 0.56411800
1.00000000 0.97997641 0.93835573
1.00000000 1.00000000 1.00000000
0.64877584 0.99368456 0.66510550
0.65088263 0.99401843 0.66679785
0.66806707 0.99591739 0.68060564
0.72178566 1.00000000 0.72537473
0.83185507 1.00000000 0.82354263
1.00000000 1.00000000 1.00000000
1.00000000 1.00000000 1.00000000
1.00000000 1.00000000 1.00000000
1.00000000 1.00000000 1.00000000
1.00000000 1.00000000 1.00000000
1.00000000 1.00000000 1.00000000
1.00000000 1.00000000 1.00000000
1.00000000 1.00000000 1.00000000
1.00000000 1.00000000 1.00000000
1.00000000 1.00000000 1.00000000
1.00000000 1.00000000 1.00000000
1.00000000 1.00000000 1.00000000
1.00000000 1.00000000 1.00000000
0.00000000 0.22645823 0.44193420
0.00000000 0.22414636 0.44878032
0.00000000 0.22304416 0.55115190
0.18171335 0.17476937 0.78052336
0.59013130 0.10052154 0.88254815
0.91883482 0.09453020 0.74939889
1.00000000 0.26562341 0.57191197
1.00000000 0.43935640 0.51075663
1.00000000 0.75527886 0.72183292
0.00000000 0.22940441 0.44627563
0.00000000 0.22976894 0.45640260
0.00000000 0.22826291 0.55961927
0.18240616 0.18136530 0.78595026
0.59196799 0.10814650 0.88714503
0.92159582 0.10076783 0.75221782
1.00000000 0.27165957 0.57405143
1.00000000 0.44365431 0.51382648
1.00000000 0.75818886 0.72487441
0.00000000 0.26746598 0.49963286
0.00000000 0.26846026 0.51130247
0.00000000 0.26753530 0.60670797
0.18356917 0.23731380 0.80352214
0.59704488 0.17669600 0.90561050
0.93602840 0.15486230 0.76877453
1.00000000 0.31401160 0.58935164
1.00000000 0.47460761 0.53615167
1.00000000 0.77962780 0.74742268
0.00206442 0.37624255 0.61890735
0.00000000 0.37731020 0.62746477
0.00000000 0.38123167 0.69206475
0.17070498 0.36755234 0.87579375
0.58965658 0.36366418 0.89398428
0.94280766 0.32855712 0.79154619
1.00000000 0.43169041 0.63713972
1.00000000 0.56378877 0.60445887
1.00000000 0.84312879 0.81483921
0.06047699 0.58462112 0.76950973
0.05879420 0.58578047 0.77335074
0.06390655 0.59300295 0.80143196
0.24398592 0.60737453 0.84272032
0.57659430 0.62232330 0.85750021
0.94345320 0.58033242 0.84248251
1.00000000 0.64527208 0.74168305
1.00000000 0.73683756 0.74907603
1.00000000 1.00000000 1.00000000
0.00000000 0.81179832 0.77917359
0.00000000 0.81297739 0.78031909
0.00000000 0.82156564 0.78873684
0.00000000 0.83971680 0.80831335
0.41475261 0.85617696 0.83423213
0.83311348 0.83311348 0.83311348
0.98578697 0.83969430 0.84365186
1.00000000 0.89702860 0.89092326
1.00000000 1.00000000 1.00000000
0.23348460 0.93128572 0.65291219
0.23639125 0.93197839 0.65370278
0.25779556 0.93701874 0.65935065
0.34685393 0.94942817 0.68201189
0.58180961 0.96277454 0.75375617
0.76068293 0.98490099 0.80673921
0.97226754 0.97649047 0.81644453
1.00000000 1.00000000 1.00000000
1.00000000 1.00000000 1.00000000
0.69786025 0.99438000 0.75193916
0.70019046 0.99462441 0.75361351
0.71744823 0.99633161 0.76605937
0.76972286 1.00000000 0.80519164
0.87810009 1.00000000 0.89243556
1.00000000 1.00000000 1.00000000
1.00000000 1.00000000 1.00000000
1.00000000 1.00000000 1.00000000
1.00000000 1.00000000 1.00000000
1.00000000 1.00000000 1.00000000
1.00000000 1.00000000 1.00000000
1.00000000 1.00000000 1.00000000
1.00000000 1.00000000 1.00000000
1.00000000 1.00000000 1.00000000
1.00000000 1.00000000 1.00000000
1.00000000 1.00000000 1.00000000
1.00000000 1.00000000 1.00000000
1.00000000 1.00000000 1.00000000
0.00000000 0.27636203 0.48303130
0.00000000 0.27498046 0.48545288
0.00000000 0.28804809 0.53966045
0.00000000 0.31530152 0.69671843
0.28896293 0.32118650 0.95811438
0.71520775 0.27616421 0.99300023
0.97507227 0.29711155 0.79887090
1.00000000 0.45393973 0.65175434
1.00000000 0.76421356 0.79651338
0.00000000 0.27863999 0.48776108
0.00000000 0.27977157 0.49265243
0.00000000 0.29243719 0.54765826
0.00000000 0.31922569 0.70324626
0.29106496 0.32628039 0.95926555
0.71650723 0.28201597 0.99358823
0.97544451 0.30296919 0.79970791
1.00000000 0.45811424 0.65380182
1.00000000 0.76716389 0.79901117
0.00000000 0.31075743 0.54104680
0.00000000 0.31253868 0.54785603
0.00000000 0.32361052 0.60204514
0.00000000 0.34817969 0.74490511
0.30575007 0.36322700 0.96438555
0.72414997 0.32454796 0.99562960
0.97772926 0.34378195 0.80590972
1.00000000 0.48825737 0.66870452
1.00000000 0.78895374 0.81744274
0.00000000 0.40413833 0.67523477
0.00000000 0.40554213 0.68123605
0.00000000 0.41439800 0.72617957
0.04108312 0.43744939 0.82603339
0.36026395 0.46859865 0.95788784
0.74303062 0.44373290 0.99058472
0.98333433 0.45505590 0.82643786
1.00000000 0.57504551 0.71563162
1.00000000 0.85321645 0.87346712
0.13116406 0.58348706 0.86791951
0.13204720 0.58460540 0.87119952
0.14726259 0.59204615 0.89383563
0.26387337 0.61296019 0.92168730
0.50022487 0.65170536 0.93874615
0.77839982 0.65415885 0.97481844
0.99018855 0.65807431 0.87852230
1.00000000 0.74543326 0.82094288
1.00000000 1.00000000 1.00000000
0.20249495 0.76666508 0.97114859
0.20609934 0.76752468 0.97219007
0.23539029 0.77343435 0.97924304
0.35136491 0.78919716 0.98552924
0.59373217 0.81778209 0.96746832
0.81116467 0.84026979 0.95680220
0.98401032 0.84538515 0.93655170
1.00000000 0.90729655 0.93171868
1.00000000 1.00000000 1.00000000
0.04664984 0.93107462 0.89655517
0.05176177 0.93177697 0.89728214
0.09804707 0.93661152 0.90239202
0.25309196 0.94830764 0.91588030
0.53884250 0.96424690 0.93947492
0.72504181 0.98862577 0.97233855
0.97244176 0.97244176 0.97244176
1.00000000 1.00000000 1.00000000
1.00000000 1.00000000 1.00000000
0.70646642 0.99759371 0.84683335
0.70872617 0.99789482 0.84797528
0.72671941 0.99968634 0.85682263
0.78324124 1.00000000 0.88553600
0.89937031 1.00000000 0.95087320
1.00000000 1.00000000 1.00000000
1.00000000 1.00000000 1.00000000
1.00000000 1.00000000 1.00000000
1.00000000 1.00000000 1.00000000
1.00000000 1.00000000 1.00000000
1.00000000 1.00000000 1.00000000
1.00000000 1.00000000 1.00000000
1.00000000 1.00000000 1.00000000
1.00000000 1.00000000 1.00000000
1.00000000 1.00000000 1.00000000
1.00000000 1.00000000 1.00000000
1.00000000 1.00000000 1.00000000
1.00000000 1.00000000 1.00000000
0.00000000 0.32608523 0.53741506
0.00000000 0.32491294 0.53805249
0.00000000 0.33961071 0.57033406
0.00000000 0.38012656 0.66335350
0.00698667 0.44616215 0.86892631
0.39286956 0.47041285 1.00000000
0.76763576 0.43207086 0.98298126
0.97581295 0.48821825 0.82044262
1.00000000 0.78318064 0.89317142
0.00000000 0.32801488 0.54162561
0.00000000 0.32902584 0.54434379
0.00000000 0.34353752 0.57710115
0.00000000 0.38367457 0.66958500
0.00996462 0.44936523 0.87275501
0.39559208 0.47402868 1.00000000
0.76884033 0.43621491 0.98283146
0.97584404 0.49215734 0.82120670
1.00000000 0.78613496 0.89484502
0.00000000 0.35630918 0.58819491
0.00000000 0.35821962 0.59251865
0.00000000 0.37149030 0.62578164
0.00000000 0.40917726 0.71306669
0.03610316 0.47274041 0.89809315
0.41547246 0.50012957 1.00000000
0.77714854 0.46607416 0.98134048
0.97550171 0.52077741 0.82666890
1.00000000 0.80804518 0.90702718
0.00000000 0.44027594 0.71238314
0.00000000 0.44186762 0.71640064
0.00000000 0.45302572 0.74557223
0.00000000 0.48550990 0.81408011
0.17511735 0.54541812 0.93708103
0.48076881 0.57701400 1.00000000
0.80282020 0.55240503 0.97769101
0.97688482 0.60345077 0.84690652
1.00000000 0.87205986 0.94626528
0.15191763 0.60409784 0.90351100
0.15300302 0.60531945 0.90581473
0.16744560 0.61390856 0.92040027
0.25497583 0.63919799 0.93828938
0.43228037 0.68993752 0.95944700
0.63063855 0.72541479 0.99295996
0.86064350 0.72039896 0.97997130
0.98750095 0.76734122 0.90333196
1.00000000 1.00000000 1.00000000
0.40844048 0.75557299 0.98431598
0.41102714 0.75648558 0.98469414
0.43062284 0.76299142 0.98713759
0.49738862 0.78251014 0.98763079
0.64033001 0.82441210 0.98324707
0.78463150 0.86360364 0.99162522
0.92144005 0.87992941 0.99260457
1.00000000 0.92529182 0.97314607
1.00000000 1.00000000 1.00000000
0.53582756 0.86798505 0.99971824
0.53841713 0.86867965 0.99986637
0.55801374 0.87361927 1.00000000
0.62120831 0.88854404 1.00000000
0.75613321 0.92173400 0.99890079
0.88920022 0.95732236 1.00000000
0.97730540 0.98453476 1.00000000
1.00000000 1.00000000 1.00000000
1.00000000 1.00000000 1.00000000
0.73676406 0.99417519 0.97599099
0.73938785 0.99444285 0.97639204
0.75943918 0.99619374 0.97920353
0.82042227 1.00000000 0.98839623
1.00000000 1.00000000 1.00000000
1.00000000 1.00000000 1.00000000
1.00000000 1.00000000 1.00000000
1.00000000 1.00000000 1.00000000
1.00000000 1.00000000 1.00000000
1.00000000 1.00000000 1.00000000
1.00000000 1.00000000 1.00000000
1.00000000 1.00000000 1.00000000
1.00000000 1.00000000 1.00000000
1.00000000 1.00000000 1.00000000
1.00000000 1.00000000 1.00000000
1.00000000 1.00000000 1.00000000
1.00000000 1.00000000 1.00000000
1.00000000 1.00000000 1.00000000
0.00000000 0.50279293 0.78882603
0.00000000 0.50209444 0.78939386
0.00000000 0.51249800 0.81352776
0.00000000 0.54452247 0.87840461
0.00000000 0.60748648 0.99666744
0.27228784 0.65738167 1.00000000
0.56571175 0.66212855 1.00000000
0.87730435 0.65649751 1.00000000
1.00000000 0.88154025 1.00000000
0.00000000 0.50405317 0.79221704
0.00000000 0.50424472 0.79389195
0.00000000 0.51518222 0.81895419
0.00000000 0.54706020 0.88367505
0.00000000 0.60981531 1.00000000
0.27632268 0.65960290 1.00000000
0.56810870 0.66444684 1.00000000
0.87815685 0.65917052 1.00000000
1.00000000 0.88411457 1.00000000
0.00000000 0.52270489 0.82951783
0.00000000 0.52416820 0.83290337
0.00000000 0.53470981 0.85857973
0.00000000 0.56549388 0.92073226
0.00000000 0.62680335 1.00000000
0.30698284 0.67576002 1.00000000
0.58593266 0.68140356 1.00000000
0.88390818 0.67892600 1.00000000
1.00000000 0.90322206 1.00000000
0.00000000 0.58316867 0.92884735
0.00000000 0.58447435 0.93213151
0.00000000 0.59377304 0.95437406
0.00000000 0.62192584 1.00000000
0.14535986 0.67890158 1.00000000
0.40196755 0.72494980 1.00000000
0.64226858 0.73292957 1.00000000
0.90425910 0.73789995 1.00000000
1.00000000 1.00000000 1.00000000
0.16342393 0.70950330 1.00000000
0.16487407 0.71058117 1.00000000
0.18312035 0.71816924 1.00000000
0.26131579 0.74101327 1.00000000
0.42187047 0.78833600 1.00000000
0.59491318 0.82928785 1.00000000
0.76996205 0.84285649 1.00000000
0.95735662 0.86250038 1.00000000
1.00000000 1.00000000 1.00000000
0.48416900 0.82915563 1.00000000
0.48615521 0.83000152 1.00000000
0.50180272 0.83601728 1.00000000
0.55341741 0.85435172 1.00000000
0.66601232 0.89494442 1.00000000
0.79378879 0.93392231 1.00000000
0.91119998 0.95578765 1.00000000
1.00000000 1.00000000 1.00000000
1.00000000 1.00000000 1.00000000
0.68633650 0.90859276 1.00000000
0.68827073 0.90929402 1.00000000
0.70300227 0.91429864 1.00000000
0.74777364 0.93012014 1.00000000
0.84175554 0.96643543 1.00000000
0.94217235 1.00000000 1.00000000
1.00000000 1.00000000 1.00000000
1.00000000 1.00000000 1.00000000
1.00000000 1.00000000 1.00000000
0.89160392 1.00000000 1.00000000
0.89340853 1.00000000 1.00000000
0.90698143 1.00000000 1.00000000
1.00000000 1.00000000 1.00000000
1.00000000 1.00000000 1.00000000
1.00000000 1.00000000 1.00000000
1.00000000 1.00000000 1.00000000
1.00000000 1.00000000 1.00000000
1.00000000 1.00000000 1.00000000
1.00000000 1.00000000 1.00000000
1.00000000 1.00000000 1.00000000
1.00000000 1.00000000 1.00000000
1.00000000 1.00000000 1.00000000
1.00000000 1.00000000 1.00000000
1.00000000 1.00000000 1.00000000
1.00000000 1.00000000 1.00000000
1.00000000 1.00000000 1.00000000
1.00000000 1.00000000 1.00000000
