Luts Download/Canon Luts/3dlut/17grid-3dlut/full-to-full-range/BT2020_CanonLog-to-BT709_WideDR_17_FF_Ver.2.0.cube
# Gamut : BT.2020 to BT.709
# Gamma : Canon Log to Wide DR
# Range : Full in / Full out
# Version : 2.0 2019/10/24
# Copyright(c) 2019 Canon Inc. All Rights Reserved.
LUT_3D_SIZE 17
# LUT_3D_INPUT_RANGE 0.0 1.0
0.00000000 0.00000000 0.00000000
0.00000000 0.00000000 0.00000000
0.00000000 0.00000000 0.00000000
0.13147739 0.01327981 0.02029661
0.26406715 0.01366272 0.03289197
0.38980097 0.00646230 0.04251579
0.51203961 0.00000000 0.05160529
0.62079227 0.00000000 0.05834581
0.71059875 0.00000000 0.05973023
0.78754708 0.00000000 0.05624395
0.85373478 0.00000000 0.04807241
0.90931449 0.00037533 0.03689587
0.95327411 0.02447649 0.02644887
0.98301186 0.06703923 0.02404300
0.99885068 0.12386290 0.03392367
1.00000000 0.16992141 0.04820462
1.00000000 0.20355361 0.05938663
0.00000000 0.00000000 0.00000000
0.00000000 0.00000000 0.00000000
0.00000000 0.00000000 0.00000000
0.13147739 0.01327981 0.02029661
0.26406715 0.01366272 0.03289197
0.38980097 0.00646230 0.04251579
0.51203961 0.00000000 0.05160529
0.62079227 0.00000000 0.05834581
0.71059875 0.00000000 0.05973023
0.78754708 0.00000000 0.05624395
0.85373478 0.00000000 0.04807241
0.90931449 0.00037533 0.03689587
0.95327411 0.02447649 0.02644887
0.98301186 0.06703923 0.02404300
0.99885068 0.12386290 0.03392367
1.00000000 0.16992141 0.04820462
1.00000000 0.20355361 0.05938663
0.00000000 0.00000000 0.00000000
0.00000000 0.00000000 0.00000000
0.00415187 0.01195999 0.00000000
0.13147739 0.01327981 0.02029661
0.26406715 0.01366272 0.03289197
0.38980097 0.00646230 0.04251579
0.51203961 0.00000000 0.05160529
0.62079227 0.00000000 0.05834581
0.71059875 0.00000000 0.05973023
0.78754708 0.00000000 0.05624395
0.85373478 0.00000000 0.04807241
0.90931449 0.00037533 0.03689587
0.95327411 0.02447649 0.02644887
0.98301186 0.06703923 0.02404300
0.99885068 0.12386290 0.03392367
1.00000000 0.16992141 0.04820462
1.00000000 0.20355361 0.05938663
0.01927653 0.11856373 0.04662421
0.01927653 0.11856373 0.04662421
0.01927653 0.11856373 0.04662421
0.13786766 0.13465298 0.03538083
0.27309538 0.13335904 0.02955804
0.40297299 0.12317556 0.02571649
0.53023282 0.10562751 0.02498407
0.64381616 0.08390153 0.02860349
0.73731078 0.06468811 0.03301275
0.81597342 0.05467443 0.03628053
0.88186951 0.05565796 0.03761769
0.93438794 0.07175193 0.03967289
0.97211861 0.10594524 0.04708712
0.99262668 0.15384138 0.06774819
1.00000000 0.19844688 0.09322361
1.00000000 0.23557262 0.11543575
1.00000000 0.26343026 0.12993793
0.00836345 0.22889155 0.08206390
0.00836345 0.22889155 0.08206390
0.00836345 0.22889155 0.08206390
0.10667992 0.24425111 0.04479244
0.25104051 0.24587150 0.02511151
0.38738698 0.24026846 0.01396235
0.52134547 0.22841478 0.00804305
0.64373911 0.21012118 0.00992275
0.74625070 0.18924448 0.01726403
0.83256293 0.17123123 0.02576132
0.90225345 0.16326187 0.03763850
0.95236748 0.17388891 0.05922835
0.98245538 0.20328072 0.09388985
0.99767648 0.24052548 0.13023015
1.00000000 0.27584570 0.16076163
1.00000000 0.30616293 0.18489713
1.00000000 0.32920145 0.20041053
0.00000000 0.33259410 0.11450004
0.00000000 0.33259410 0.11450004
0.00000000 0.33259410 0.11450004
0.05009874 0.34752301 0.06055771
0.20942830 0.35203695 0.02477729
0.35633195 0.34975136 0.00780166
0.49769387 0.34184540 0.00000000
0.63054062 0.32593201 0.00000000
0.74468487 0.30440312 0.00721754
0.84084183 0.28331013 0.02381844
0.91815063 0.26867510 0.04705834
0.97008584 0.27161147 0.09015220
0.99342778 0.29717004 0.14809253
1.00000000 0.32831746 0.19513550
1.00000000 0.35740694 0.23091226
1.00000000 0.38234753 0.25759208
1.00000000 0.40151688 0.27475260
0.00000000 0.43461483 0.14669809
0.00000000 0.43461483 0.14669809
0.00000000 0.43461483 0.14669809
0.00000000 0.44848147 0.09268519
0.14526860 0.45652273 0.03407521
0.30892928 0.45737850 0.00711041
0.46030624 0.45312210 0.00000000
0.60421751 0.44001323 0.00000000
0.73391332 0.41771919 0.00000000
0.84432078 0.39294828 0.01116205
0.93180490 0.37303972 0.05058619
0.98558084 0.37139355 0.12419377
1.00000000 0.39045849 0.19984419
1.00000000 0.41552731 0.25743949
1.00000000 0.43976487 0.29999823
1.00000000 0.46073031 0.33077397
1.00000000 0.47704534 0.35065903
0.00000000 0.52670437 0.17517331
0.00000000 0.52670437 0.17517331
0.00000000 0.52670437 0.17517331
0.00000000 0.53976281 0.12730422
0.05232462 0.55073310 0.05835307
0.23998082 0.55574466 0.01685751
0.40200203 0.55579298 0.00000000
0.55444778 0.54807331 0.00000000
0.69775179 0.52881796 0.00000000
0.82672715 0.50223355 0.00000000
0.93176681 0.47616415 0.03113622
0.99694368 0.46557434 0.13256812
1.00000000 0.47670366 0.23312867
1.00000000 0.49591818 0.30604761
1.00000000 0.51587591 0.35827902
1.00000000 0.53368716 0.39523336
1.00000000 0.54774546 0.41902497
0.00000000 0.60398657 0.19664311
0.00000000 0.60398657 0.19664311
0.00000000 0.60398657 0.19664311
0.00000000 0.61629717 0.15677563
0.00000000 0.62844199 0.09896053
0.15204060 0.63837833 0.03836876
0.32578355 0.64321721 0.01210443
0.48320104 0.64139408 0.00000000
0.63332985 0.62924705 0.00000000
0.77539159 0.60662566 0.00000000
0.90063922 0.57830705 0.00742598
0.99064701 0.55630137 0.11002021
1.00000000 0.55625124 0.24177236
1.00000000 0.56808236 0.33533889
1.00000000 0.58345051 0.40125129
1.00000000 0.59810115 0.44666734
1.00000000 0.60994334 0.47550333
0.00000000 0.67185986 0.21268936
0.00000000 0.67185986 0.21268936
0.00000000 0.67185986 0.21268936
0.00000000 0.68344024 0.18021423
0.00000000 0.69596718 0.13410816
0.04760266 0.70916540 0.07142652
0.23774915 0.71880190 0.03099716
0.40090331 0.72215164 0.01158871
0.55386134 0.71658274 0.00000000
0.70236277 0.70146491 0.00000000
0.84154843 0.67658056 0.00000000
0.95791180 0.64865217 0.07358881
1.00000000 0.63495304 0.22778291
1.00000000 0.63700711 0.34661108
1.00000000 0.64635927 0.43042948
1.00000000 0.65722357 0.48713938
1.00000000 0.66647117 0.52231226
0.00000000 0.73193180 0.22396877
0.00000000 0.73193180 0.22396877
0.00000000 0.73193180 0.22396877
0.00000000 0.74280219 0.19802221
0.00000000 0.75516703 0.16203527
0.00000000 0.76970494 0.11232572
0.13719821 0.78384305 0.05636180
0.31028848 0.79188112 0.02971506
0.46599495 0.79188171 0.01337469
0.61648627 0.78350539 0.00306179
0.76300963 0.76590165 0.00685654
0.89678623 0.73948791 0.05383797
0.99551996 0.71459895 0.18799874
1.00000000 0.70504335 0.33634157
1.00000000 0.70646046 0.44345801
1.00000000 0.71239771 0.51541355
1.00000000 0.71834501 0.55875396
0.00000000 0.78466814 0.23108529
0.00000000 0.78466814 0.23108529
0.00000000 0.78466814 0.23108529
0.00000000 0.79487316 0.21079581
0.00000000 0.80680434 0.18338307
0.00000000 0.82171321 0.14543128
0.03317629 0.83837483 0.09581391
0.21186319 0.85117304 0.05244888
0.37213830 0.85606241 0.03256529
0.52369067 0.85346597 0.02298505
0.67196715 0.84253780 0.02293625
0.81555661 0.82266971 0.04921143
0.94128836 0.79524304 0.13960992
1.00000000 0.77373987 0.29898124
1.00000000 0.76529847 0.43577005
1.00000000 0.76471980 0.52845575
1.00000000 0.76631732 0.58262322
0.00000000 0.83027062 0.23471987
0.00000000 0.83027062 0.23471987
0.00000000 0.83027062 0.23471987
0.00000000 0.83987524 0.21925621
0.00000000 0.85127038 0.19901041
0.00000000 0.86597763 0.17134605
0.00000000 0.88358544 0.13428301
0.10725931 0.90014266 0.08619955
0.27496796 0.90950146 0.05773240
0.42826174 0.91182948 0.04899714
0.57588392 0.90682176 0.04980783
0.72093049 0.89349740 0.06462917
0.86001242 0.87166527 0.11765119
0.97549904 0.84362946 0.22525533
1.00000000 0.82444245 0.40112197
1.00000000 0.81558768 0.52196706
1.00000000 0.81154261 0.59081962
0.00000000 0.86912102 0.23567558
0.00000000 0.86912102 0.23567558
0.00000000 0.86912102 0.23567558
0.00000000 0.87820877 0.22422159
0.00000000 0.88904475 0.20998814
0.00000000 0.90326327 0.19116925
0.00000000 0.92081968 0.16649715
0.03182991 0.93871816 0.13313218
0.18591894 0.95214952 0.10006706
0.34098493 0.95836509 0.09627946
0.48561741 0.95822297 0.10412705
0.62578513 0.95118679 0.11499354
0.76440457 0.93604975 0.13825153
0.89622208 0.91288772 0.20246009
0.99459676 0.88547209 0.34035962
1.00000000 0.86683191 0.49202963
1.00000000 0.85581613 0.58023672
0.00000000 0.90211054 0.23490502
0.00000000 0.90211054 0.23490502
0.00000000 0.90211054 0.23490502
0.00000000 0.91076617 0.22670766
0.00000000 0.92108254 0.21739091
0.00000000 0.93468660 0.20613055
0.00000000 0.95150102 0.19348777
0.02056540 0.96893715 0.17875451
0.15569071 0.98306699 0.16749938
0.30139456 0.99095122 0.18096327
0.43517479 0.99357471 0.20404857
0.55733139 0.99220169 0.21582620
0.67820843 0.98531408 0.21658157
0.80450761 0.96968422 0.23872021
0.92501246 0.94680228 0.29886096
1.00000000 0.92016215 0.43853353
1.00000000 0.90136461 0.54978336
0.00000000 0.93094466 0.23355006
0.00000000 0.93094466 0.23355006
0.00000000 0.93094466 0.23355006
0.00000000 0.93928464 0.22768694
0.00000000 0.94920750 0.22219318
0.00000000 0.96209030 0.21743721
0.00000000 0.97755761 0.21721321
0.07570488 0.99249013 0.22642452
0.22944201 1.00000000 0.25748622
0.35673542 1.00000000 0.29871632
0.46602657 1.00000000 0.33715914
0.56295605 1.00000000 0.36542834
0.65409817 1.00000000 0.38045784
0.74626498 1.00000000 0.38251500
0.84436135 0.99392450 0.37178825
0.94926181 0.97522736 0.39036079
1.00000000 0.95004467 0.50741541
0.00000000 0.95839361 0.23338281
0.00000000 0.95839361 0.23338281
0.00000000 0.95839361 0.23338281
0.00000000 0.96665038 0.22865831
0.00000000 0.97633088 0.22512721
0.00000000 0.98862053 0.22489049
0.00000000 1.00000000 0.23744631
0.17236076 1.00000000 0.27929442
0.30567841 1.00000000 0.32927932
0.41480554 1.00000000 0.38003019
0.50802270 1.00000000 0.42592620
0.58928474 1.00000000 0.46314383
0.66249484 1.00000000 0.48929247
0.73236638 1.00000000 0.50334293
0.80413253 1.00000000 0.50537981
0.88346004 1.00000000 0.50214666
0.97122670 1.00000000 0.49674289
0.00000000 0.00000000 0.00000000
0.00000000 0.00000000 0.00000000
0.00000000 0.00000000 0.00000000
0.13147739 0.01327981 0.02029661
0.26406715 0.01366272 0.03289197
0.38980097 0.00646230 0.04251579
0.51203961 0.00000000 0.05160529
0.62079227 0.00000000 0.05834581
0.71059875 0.00000000 0.05973023
0.78754708 0.00000000 0.05624395
0.85373478 0.00000000 0.04807241
0.90931449 0.00037533 0.03689587
0.95327411 0.02447649 0.02644887
0.98301186 0.06703923 0.02404300
0.99885068 0.12386290 0.03392367
1.00000000 0.16992141 0.04820462
1.00000000 0.20355361 0.05938663
0.00000000 0.00000000 0.00000000
0.00000000 0.00000000 0.00000000
0.00000000 0.00000000 0.00000000
0.13147739 0.01327981 0.02029661
0.26406715 0.01366272 0.03289197
0.38980097 0.00646230 0.04251579
0.51203961 0.00000000 0.05160529
0.62079227 0.00000000 0.05834581
0.71059875 0.00000000 0.05973023
0.78754708 0.00000000 0.05624395
0.85373478 0.00000000 0.04807241
0.90931449 0.00037533 0.03689587
0.95327411 0.02447649 0.02644887
0.98301186 0.06703923 0.02404300
0.99885068 0.12386290 0.03392367
1.00000000 0.16992141 0.04820462
1.00000000 0.20355361 0.05938663
0.00000000 0.00000000 0.00000000
0.00000000 0.00000000 0.00000000
0.00000000 0.00000000 0.00000000
0.13147739 0.01327981 0.02029661
0.26406715 0.01366272 0.03289197
0.38980097 0.00646230 0.04251579
0.51203961 0.00000000 0.05160529
0.62079227 0.00000000 0.05834581
0.71059875 0.00000000 0.05973023
0.78754708 0.00000000 0.05624395
0.85373478 0.00000000 0.04807241
0.90931449 0.00037533 0.03689587
0.95327411 0.02447649 0.02644887
0.98301186 0.06703923 0.02404300
0.99885068 0.12386290 0.03392367
1.00000000 0.16992141 0.04820462
1.00000000 0.20355361 0.05938663
0.01927653 0.11856373 0.04662421
0.01927653 0.11856373 0.04662421
0.01927653 0.11856373 0.04662421
0.13786766 0.13465298 0.03538083
0.27309538 0.13335904 0.02955804
0.40297299 0.12317556 0.02571649
0.53023282 0.10562751 0.02498407
0.64381616 0.08390153 0.02860349
0.73731078 0.06468811 0.03301275
0.81597342 0.05467443 0.03628053
0.88186951 0.05565796 0.03761769
0.93438794 0.07175193 0.03967289
0.97211861 0.10594524 0.04708712
0.99262668 0.15384138 0.06774819
1.00000000 0.19844688 0.09322361
1.00000000 0.23557262 0.11543575
1.00000000 0.26343026 0.12993793
0.00836345 0.22889155 0.08206390
0.00836345 0.22889155 0.08206390
0.00836345 0.22889155 0.08206390
0.10667992 0.24425111 0.04479244
0.25104051 0.24587150 0.02511151
0.38738698 0.24026846 0.01396235
0.52134547 0.22841478 0.00804305
0.64373911 0.21012118 0.00992275
0.74625070 0.18924448 0.01726403
0.83256293 0.17123123 0.02576132
0.90225345 0.16326187 0.03763850
0.95236748 0.17388891 0.05922835
0.98245538 0.20328072 0.09388985
0.99767648 0.24052548 0.13023015
1.00000000 0.27584570 0.16076163
1.00000000 0.30616293 0.18489713
1.00000000 0.32920145 0.20041053
0.00000000 0.33259410 0.11450004
0.00000000 0.33259410 0.11450004
0.00000000 0.33259410 0.11450004
0.05009874 0.34752301 0.06055771
0.20942830 0.35203695 0.02477729
0.35633195 0.34975136 0.00780166
0.49769387 0.34184540 0.00000000
0.63054062 0.32593201 0.00000000
0.74468487 0.30440312 0.00721754
0.84084183 0.28331013 0.02381844
0.91815063 0.26867510 0.04705834
0.97008584 0.27161147 0.09015220
0.99342778 0.29717004 0.14809253
1.00000000 0.32831746 0.19513550
1.00000000 0.35740694 0.23091226
1.00000000 0.38234753 0.25759208
1.00000000 0.40151688 0.27475260
0.00000000 0.43461483 0.14669809
0.00000000 0.43461483 0.14669809
0.00000000 0.43461483 0.14669809
0.00000000 0.44848147 0.09268519
0.14526860 0.45652273 0.03407521
0.30892928 0.45737850 0.00711041
0.46030624 0.45312210 0.00000000
0.60421751 0.44001323 0.00000000
0.73391332 0.41771919 0.00000000
0.84432078 0.39294828 0.01116205
0.93180490 0.37303972 0.05058619
0.98558084 0.37139355 0.12419377
1.00000000 0.39045849 0.19984419
1.00000000 0.41552731 0.25743949
1.00000000 0.43976487 0.29999823
1.00000000 0.46073031 0.33077397
1.00000000 0.47704534 0.35065903
0.00000000 0.52670437 0.17517331
0.00000000 0.52670437 0.17517331
0.00000000 0.52670437 0.17517331
0.00000000 0.53976281 0.12730422
0.05232462 0.55073310 0.05835307
0.23998082 0.55574466 0.01685751
0.40200203 0.55579298 0.00000000
0.55444778 0.54807331 0.00000000
0.69775179 0.52881796 0.00000000
0.82672715 0.50223355 0.00000000
0.93176681 0.47616415 0.03113622
0.99694368 0.46557434 0.13256812
1.00000000 0.47670366 0.23312867
1.00000000 0.49591818 0.30604761
1.00000000 0.51587591 0.35827902
1.00000000 0.53368716 0.39523336
1.00000000 0.54774546 0.41902497
0.00000000 0.60398657 0.19664311
0.00000000 0.60398657 0.19664311
0.00000000 0.60398657 0.19664311
0.00000000 0.61629717 0.15677563
0.00000000 0.62844199 0.09896053
0.15204060 0.63837833 0.03836876
0.32578355 0.64321721 0.01210443
0.48320104 0.64139408 0.00000000
0.63332985 0.62924705 0.00000000
0.77539159 0.60662566 0.00000000
0.90063922 0.57830705 0.00742598
0.99064701 0.55630137 0.11002021
1.00000000 0.55625124 0.24177236
1.00000000 0.56808236 0.33533889
1.00000000 0.58345051 0.40125129
1.00000000 0.59810115 0.44666734
1.00000000 0.60994334 0.47550333
0.00000000 0.67185986 0.21268936
0.00000000 0.67185986 0.21268936
0.00000000 0.67185986 0.21268936
0.00000000 0.68344024 0.18021423
0.00000000 0.69596718 0.13410816
0.04760266 0.70916540 0.07142652
0.23774915 0.71880190 0.03099716
0.40090331 0.72215164 0.01158871
0.55386134 0.71658274 0.00000000
0.70236277 0.70146491 0.00000000
0.84154843 0.67658056 0.00000000
0.95791180 0.64865217 0.07358881
1.00000000 0.63495304 0.22778291
1.00000000 0.63700711 0.34661108
1.00000000 0.64635927 0.43042948
1.00000000 0.65722357 0.48713938
1.00000000 0.66647117 0.52231226
0.00000000 0.73193180 0.22396877
0.00000000 0.73193180 0.22396877
0.00000000 0.73193180 0.22396877
0.00000000 0.74280219 0.19802221
0.00000000 0.75516703 0.16203527
0.00000000 0.76970494 0.11232572
0.13719821 0.78384305 0.05636180
0.31028848 0.79188112 0.02971506
0.46599495 0.79188171 0.01337469
0.61648627 0.78350539 0.00306179
0.76300963 0.76590165 0.00685654
0.89678623 0.73948791 0.05383797
0.99551996 0.71459895 0.18799874
1.00000000 0.70504335 0.33634157
1.00000000 0.70646046 0.44345801
1.00000000 0.71239771 0.51541355
1.00000000 0.71834501 0.55875396
0.00000000 0.78466814 0.23108529
0.00000000 0.78466814 0.23108529
0.00000000 0.78466814 0.23108529
0.00000000 0.79487316 0.21079581
0.00000000 0.80680434 0.18338307
0.00000000 0.82171321 0.14543128
0.03317629 0.83837483 0.09581391
0.21186319 0.85117304 0.05244888
0.37213830 0.85606241 0.03256529
0.52369067 0.85346597 0.02298505
0.67196715 0.84253780 0.02293625
0.81555661 0.82266971 0.04921143
0.94128836 0.79524304 0.13960992
1.00000000 0.77373987 0.29898124
1.00000000 0.76529847 0.43577005
1.00000000 0.76471980 0.52845575
1.00000000 0.76631732 0.58262322
0.00000000 0.83027062 0.23471987
0.00000000 0.83027062 0.23471987
0.00000000 0.83027062 0.23471987
0.00000000 0.83987524 0.21925621
0.00000000 0.85127038 0.19901041
0.00000000 0.86597763 0.17134605
0.00000000 0.88358544 0.13428301
0.10725931 0.90014266 0.08619955
0.27496796 0.90950146 0.05773240
0.42826174 0.91182948 0.04899714
0.57588392 0.90682176 0.04980783
0.72093049 0.89349740 0.06462917
0.86001242 0.87166527 0.11765119
0.97549904 0.84362946 0.22525533
1.00000000 0.82444245 0.40112197
1.00000000 0.81558768 0.52196706
1.00000000 0.81154261 0.59081962
0.00000000 0.86912102 0.23567558
0.00000000 0.86912102 0.23567558
0.00000000 0.86912102 0.23567558
0.00000000 0.87820877 0.22422159
0.00000000 0.88904475 0.20998814
0.00000000 0.90326327 0.19116925
0.00000000 0.92081968 0.16649715
0.03182991 0.93871816 0.13313218
0.18591894 0.95214952 0.10006706
0.34098493 0.95836509 0.09627946
0.48561741 0.95822297 0.10412705
0.62578513 0.95118679 0.11499354
0.76440457 0.93604975 0.13825153
0.89622208 0.91288772 0.20246009
0.99459676 0.88547209 0.34035962
1.00000000 0.86683191 0.49202963
1.00000000 0.85581613 0.58023672
0.00000000 0.90211054 0.23490502
0.00000000 0.90211054 0.23490502
0.00000000 0.90211054 0.23490502
0.00000000 0.91076617 0.22670766
0.00000000 0.92108254 0.21739091
0.00000000 0.93468660 0.20613055
0.00000000 0.95150102 0.19348777
0.02056540 0.96893715 0.17875451
0.15569071 0.98306699 0.16749938
0.30139456 0.99095122 0.18096327
0.43517479 0.99357471 0.20404857
0.55733139 0.99220169 0.21582620
0.67820843 0.98531408 0.21658157
0.80450761 0.96968422 0.23872021
0.92501246 0.94680228 0.29886096
1.00000000 0.92016215 0.43853353
1.00000000 0.90136461 0.54978336
0.00000000 0.93094466 0.23355006
0.00000000 0.93094466 0.23355006
0.00000000 0.93094466 0.23355006
0.00000000 0.93928464 0.22768694
0.00000000 0.94920750 0.22219318
0.00000000 0.96209030 0.21743721
0.00000000 0.97755761 0.21721321
0.07570488 0.99249013 0.22642452
0.22944201 1.00000000 0.25748622
0.35673542 1.00000000 0.29871632
0.46602657 1.00000000 0.33715914
0.56295605 1.00000000 0.36542834
0.65409817 1.00000000 0.38045784
0.74626498 1.00000000 0.38251500
0.84436135 0.99392450 0.37178825
0.94926181 0.97522736 0.39036079
1.00000000 0.95004467 0.50741541
0.00000000 0.95839361 0.23338281
0.00000000 0.95839361 0.23338281
0.00000000 0.95839361 0.23338281
0.00000000 0.96665038 0.22865831
0.00000000 0.97633088 0.22512721
0.00000000 0.98862053 0.22489049
0.00000000 1.00000000 0.23744631
0.17236076 1.00000000 0.27929442
0.30567841 1.00000000 0.32927932
0.41480554 1.00000000 0.38003019
0.50802270 1.00000000 0.42592620
0.58928474 1.00000000 0.46314383
0.66249484 1.00000000 0.48929247
0.73236638 1.00000000 0.50334293
0.80413253 1.00000000 0.50537981
0.88346004 1.00000000 0.50214666
0.97122670 1.00000000 0.49674289
0.00000000 0.00000000 0.00000000
0.00000000 0.00000000 0.00000000
0.00000000 0.00000000 0.00000000
0.13147739 0.01327981 0.02029661
0.26406715 0.01366272 0.03289197
0.38980097 0.00646230 0.04251579
0.51203961 0.00000000 0.05160529
0.62079227 0.00000000 0.05834581
0.71059875 0.00000000 0.05973023
0.78754708 0.00000000 0.05624395
0.85373478 0.00000000 0.04807241
0.90931449 0.00037533 0.03689587
0.95327411 0.02447649 0.02644887
0.98301186 0.06703923 0.02404300
0.99885068 0.12386290 0.03392367
1.00000000 0.16992141 0.04820462
1.00000000 0.20355361 0.05938663
0.00000000 0.00000000 0.00000000
0.00000000 0.00000000 0.00000000
0.00000000 0.00000000 0.00000000
0.13147739 0.01327981 0.02029661
0.26406715 0.01366272 0.03289197
0.38980097 0.00646230 0.04251579
0.51203961 0.00000000 0.05160529
0.62079227 0.00000000 0.05834581
0.71059875 0.00000000 0.05973023
0.78754708 0.00000000 0.05624395
0.85373478 0.00000000 0.04807241
0.90931449 0.00037533 0.03689587
0.95327411 0.02447649 0.02644887
0.98301186 0.06703923 0.02404300
0.99885068 0.12386290 0.03392367
1.00000000 0.16992141 0.04820462
1.00000000 0.20355361 0.05938663
0.00000000 0.00000000 0.00000000
0.00000000 0.00000000 0.00000000
0.00000000 0.00000000 0.00000000
0.13147739 0.01327981 0.02029661
0.26406715 0.01366272 0.03289197
0.38980097 0.00646230 0.04251579
0.51203961 0.00000000 0.05160529
0.62079227 0.00000000 0.05834581
0.71059875 0.00000000 0.05973023
0.78754708 0.00000000 0.05624395
0.85373478 0.00000000 0.04807241
0.90931449 0.00037533 0.03689587
0.95327411 0.02447649 0.02644887
0.98301186 0.06703923 0.02404300
0.99885068 0.12386290 0.03392367
1.00000000 0.16992141 0.04820462
1.00000000 0.20355361 0.05938663
0.01927653 0.11856373 0.04662421
0.01927653 0.11856373 0.04662421
0.01927653 0.11856373 0.04662421
0.13786766 0.13465298 0.03538083
0.27309538 0.13335904 0.02955804
0.40297299 0.12317556 0.02571649
0.53023282 0.10562751 0.02498407
0.64381616 0.08390153 0.02860349
0.73731078 0.06468811 0.03301275
0.81597342 0.05467443 0.03628053
0.88186951 0.05565796 0.03761769
0.93438794 0.07175193 0.03967289
0.97211861 0.10594524 0.04708712
0.99262668 0.15384138 0.06774819
1.00000000 0.19844688 0.09322361
1.00000000 0.23557262 0.11543575
1.00000000 0.26343026 0.12993793
0.00836345 0.22889155 0.08206390
0.00836345 0.22889155 0.08206390
0.00836345 0.22889155 0.08206390
0.10667992 0.24425111 0.04479244
0.25104051 0.24587150 0.02511151
0.38738698 0.24026846 0.01396235
0.52134547 0.22841478 0.00804305
0.64373911 0.21012118 0.00992275
0.74625070 0.18924448 0.01726403
0.83256293 0.17123123 0.02576132
0.90225345 0.16326187 0.03763850
0.95236748 0.17388891 0.05922835
0.98245538 0.20328072 0.09388985
0.99767648 0.24052548 0.13023015
1.00000000 0.27584570 0.16076163
1.00000000 0.30616293 0.18489713
1.00000000 0.32920145 0.20041053
0.00000000 0.33259410 0.11450004
0.00000000 0.33259410 0.11450004
0.00000000 0.33259410 0.11450004
0.05009874 0.34752301 0.06055771
0.20942830 0.35203695 0.02477729
0.35633195 0.34975136 0.00780166
0.49769387 0.34184540 0.00000000
0.63054062 0.32593201 0.00000000
0.74468487 0.30440312 0.00721754
0.84084183 0.28331013 0.02381844
0.91815063 0.26867510 0.04705834
0.97008584 0.27161147 0.09015220
0.99342778 0.29717004 0.14809253
1.00000000 0.32831746 0.19513550
1.00000000 0.35740694 0.23091226
1.00000000 0.38234753 0.25759208
1.00000000 0.40151688 0.27475260
0.00000000 0.43461483 0.14669809
0.00000000 0.43461483 0.14669809
0.00000000 0.43461483 0.14669809
0.00000000 0.44848147 0.09268519
0.14526860 0.45652273 0.03407521
0.30892928 0.45737850 0.00711041
0.46030624 0.45312210 0.00000000
0.60421751 0.44001323 0.00000000
0.73391332 0.41771919 0.00000000
0.84432078 0.39294828 0.01116205
0.93180490 0.37303972 0.05058619
0.98558084 0.37139355 0.12419377
1.00000000 0.39045849 0.19984419
1.00000000 0.41552731 0.25743949
1.00000000 0.43976487 0.29999823
1.00000000 0.46073031 0.33077397
1.00000000 0.47704534 0.35065903
0.00000000 0.52670437 0.17517331
0.00000000 0.52670437 0.17517331
0.00000000 0.52670437 0.17517331
0.00000000 0.53976281 0.12730422
0.05232462 0.55073310 0.05835307
0.23998082 0.55574466 0.01685751
0.40200203 0.55579298 0.00000000
0.55444778 0.54807331 0.00000000
0.69775179 0.52881796 0.00000000
0.82672715 0.50223355 0.00000000
0.93176681 0.47616415 0.03113622
0.99694368 0.46557434 0.13256812
1.00000000 0.47670366 0.23312867
1.00000000 0.49591818 0.30604761
1.00000000 0.51587591 0.35827902
1.00000000 0.53368716 0.39523336
1.00000000 0.54774546 0.41902497
0.00000000 0.60398657 0.19664311
0.00000000 0.60398657 0.19664311
0.00000000 0.60398657 0.19664311
0.00000000 0.61629717 0.15677563
0.00000000 0.62844199 0.09896053
0.15204060 0.63837833 0.03836876
