Luts Download/Canon Luts/3dlut/17grid-3dlut/full-to-full-range/BT2020_CanonLog3-to-BT709_WideDR_17_FF_Ver.2.0.cube
# Gamut : BT.2020 to BT.709
# Gamma : Canon Log 3 to Wide DR
# Range : Full in / Full out
# Version : 2.0 2019/10/24
# Copyright(c) 2019 Canon Inc. All Rights Reserved.
LUT_3D_SIZE 9
# LUT_3D_INPUT_RANGE 0.0 1.0
0.00000000 0.00000000 0.00000000
0.00000000 0.00000000 0.00000000
0.25411597 0.01260485 0.03071674
0.51937839 0.00000000 0.05125255
0.73949755 0.00000000 0.05877101
0.89549303 0.00026329 0.04085633
0.98458476 0.08393942 0.02936130
1.00000000 0.20714151 0.07727355
1.00000000 0.30256798 0.15350717
0.00000000 0.00000000 0.00000000
0.00407326 0.01143097 0.00000000
0.25411597 0.01260485 0.03071674
0.51937839 0.00000000 0.05125255
0.73949755 0.00000000 0.05877101
0.89549303 0.00026329 0.04085633
0.98458476 0.08393942 0.02936130
1.00000000 0.20714151 0.07727355
1.00000000 0.30256798 0.15350717
0.00899560 0.21940256 0.07774792
0.00899560 0.21940256 0.07774792
0.24109045 0.23608283 0.02411225
0.53022849 0.21680285 0.00868175
0.77802983 0.17247338 0.02184557
0.93730231 0.16520420 0.05544827
0.99737844 0.24177306 0.13248215
1.00000000 0.32471422 0.20206801
1.00000000 0.39674377 0.26340689
0.00000000 0.44045437 0.14936397
0.00000000 0.44045437 0.14936397
0.12465284 0.46219878 0.03842203
0.46615662 0.45925971 0.00000000
0.77444664 0.41617529 0.00000000
0.97317276 0.37827740 0.11254977
1.00000000 0.42574868 0.26992235
1.00000000 0.48142045 0.35693655
1.00000000 0.53404528 0.41618547
0.00000000 0.63015059 0.20320817
0.00000000 0.63015059 0.20320817
0.00000000 0.65360209 0.11633786
0.30683793 0.67237365 0.02259608
0.65959152 0.65702991 0.00000000
0.95970849 0.59618738 0.07527550
1.00000000 0.59439649 0.35227678
1.00000000 0.62932581 0.48814247
1.00000000 0.67001456 0.56194184
0.00000000 0.77292981 0.22994649
0.00000000 0.77292981 0.22994649
0.00000000 0.79443047 0.17979682
0.07725878 0.82673372 0.08930452
0.45553404 0.84044476 0.04078947
0.80308922 0.80994677 0.06536754
1.00000000 0.75525625 0.33958599
1.00000000 0.75479604 0.56724141
1.00000000 0.78147237 0.67210502
0.00000000 0.87567130 0.23859419
0.00000000 0.87567130 0.23859419
0.00000000 0.89429937 0.21593688
0.00000000 0.92698742 0.18137918
0.26150733 0.95913700 0.14411179
0.58800001 0.95939414 0.17610770
0.90007684 0.91927830 0.27068502
1.00000000 0.87060645 0.58065022
1.00000000 0.87289695 0.74460219
0.00000000 0.94640245 0.24718481
0.00000000 0.94640245 0.24718481
0.00000000 0.96109711 0.25117473
0.15857009 0.98499414 0.28345139
0.39710124 1.00000000 0.37750962
0.60015029 1.00000000 0.47627283
0.77299290 1.00000000 0.53102258
0.95784744 0.98591407 0.56150495
1.00000000 0.95648656 0.80971261
0.18281317 1.00000000 0.32143896
0.18281317 1.00000000 0.32143896
0.29524857 1.00000000 0.37127732
0.45665351 1.00000000 0.46966806
0.62250659 1.00000000 0.59376252
0.75914894 1.00000000 0.70733225
0.86571945 1.00000000 0.79783151
0.95351114 1.00000000 0.87643467
1.00000000 1.00000000 1.00000000
0.00000000 0.00000000 0.00000000
0.00000000 0.00000000 0.00000000
0.25411597 0.01260485 0.03071674
0.51937839 0.00000000 0.05125255
0.73949755 0.00000000 0.05877101
0.89549303 0.00026329 0.04085633
0.98458476 0.08393942 0.02936130
1.00000000 0.20714151 0.07727355
1.00000000 0.30256798 0.15350717
0.00000000 0.00000000 0.00000000
0.00000000 0.00000000 0.00000000
0.25411597 0.01260485 0.03071674
0.51937839 0.00000000 0.05125255
0.73949755 0.00000000 0.05877101
0.89549303 0.00026329 0.04085633
0.98458476 0.08393942 0.02936130
1.00000000 0.20714151 0.07727355
1.00000000 0.30256798 0.15350717
0.00899560 0.21940256 0.07774792
0.00899560 0.21940256 0.07774792
0.24109045 0.23608283 0.02411225
0.53022849 0.21680285 0.00868175
0.77802983 0.17247338 0.02184557
0.93730231 0.16520420 0.05544827
0.99737844 0.24177306 0.13248215
1.00000000 0.32471422 0.20206801
1.00000000 0.39674377 0.26340689
0.00000000 0.44045437 0.14936397
0.00000000 0.44045437 0.14936397
0.12465284 0.46219878 0.03842203
0.46615662 0.45925971 0.00000000
0.77444664 0.41617529 0.00000000
0.97317276 0.37827740 0.11254977
1.00000000 0.42574868 0.26992235
1.00000000 0.48142045 0.35693655
1.00000000 0.53404528 0.41618547
0.00000000 0.63015059 0.20320817
0.00000000 0.63015059 0.20320817
0.00000000 0.65360209 0.11633786
0.30683793 0.67237365 0.02259608
0.65959152 0.65702991 0.00000000
0.95970849 0.59618738 0.07527550
1.00000000 0.59439649 0.35227678
1.00000000 0.62932581 0.48814247
1.00000000 0.67001456 0.56194184
0.00000000 0.77292981 0.22994649
0.00000000 0.77292981 0.22994649
0.00000000 0.79443047 0.17979682
0.07725878 0.82673372 0.08930452
0.45553404 0.84044476 0.04078947
0.80308922 0.80994677 0.06536754
1.00000000 0.75525625 0.33958599
1.00000000 0.75479604 0.56724141
1.00000000 0.78147237 0.67210502
0.00000000 0.87567130 0.23859419
0.00000000 0.87567130 0.23859419
0.00000000 0.89429937 0.21593688
0.00000000 0.92698742 0.18137918
0.26150733 0.95913700 0.14411179
0.58800001 0.95939414 0.17610770
0.90007684 0.91927830 0.27068502
1.00000000 0.87060645 0.58065022
1.00000000 0.87289695 0.74460219
0.00000000 0.94640245 0.24718481
0.00000000 0.94640245 0.24718481
0.00000000 0.96109711 0.25117473
0.15857009 0.98499414 0.28345139
0.39710124 1.00000000 0.37750962
0.60015029 1.00000000 0.47627283
0.77299290 1.00000000 0.53102258
0.95784744 0.98591407 0.56150495
1.00000000 0.95648656 0.80971261
0.18281317 1.00000000 0.32143896
0.18281317 1.00000000 0.32143896
0.29524857 1.00000000 0.37127732
0.45665351 1.00000000 0.46966806
0.62250659 1.00000000 0.59376252
0.75914894 1.00000000 0.70733225
0.86571945 1.00000000 0.79783151
0.95351114 1.00000000 0.87643467
1.00000000 1.00000000 1.00000000
0.00264790 0.01903822 0.15050827
0.00264790 0.01903822 0.15050827
0.26427902 0.01330571 0.21149925
0.51644174 0.00244017 0.24024328
0.73311358 0.00060995 0.23916338
0.89125965 0.02351221 0.20880514
0.97874000 0.11616815 0.17438190
0.99616542 0.23368570 0.17879549
1.00000000 0.32695843 0.21746869
0.00264790 0.01903822 0.15050827
0.00264790 0.01903822 0.15050827
0.26427902 0.01330571 0.21149925
0.51644174 0.00244017 0.24024328
0.73311358 0.00060995 0.23916338
0.89125965 0.02351221 0.20880514
0.97874000 0.11616815 0.17438190
0.99616542 0.23368570 0.17879549
1.00000000 0.32695843 0.21746869
0.00000000 0.22677525 0.21669948
0.00000000 0.22677525 0.21669948
0.23600832 0.23600832 0.23600832
0.55633662 0.19404658 0.22949802
0.81399935 0.12093446 0.21071839
0.93521641 0.17388740 0.22452746
0.98764428 0.26165135 0.24348480
0.99465337 0.34414908 0.27195896
1.00000000 0.41534728 0.31082272
0.00000000 0.43720627 0.27949283
0.00000000 0.43720627 0.27949283
0.09620113 0.46224697 0.24400565
0.46745575 0.45788713 0.19622741
0.78998261 0.40579625 0.21141918
0.94701507 0.39777876 0.28870203
0.99147920 0.44544621 0.36138553
0.99460353 0.49874648 0.41255176
1.00000000 0.55016505 0.45475243
0.00000000 0.62427852 0.31759607
0.00000000 0.62427852 0.31759607
0.00000000 0.64894251 0.27527109
0.23740382 0.68174395 0.15824387
0.66213692 0.65490175 0.17957033
0.95924263 0.59558509 0.24996594
1.00000000 0.60475835 0.43298741
1.00000000 0.64333374 0.53606363
1.00000000 0.68531629 0.59629822
0.00000000 0.76806462 0.32337552
0.00000000 0.76806462 0.32337552
0.00000000 0.78943302 0.29392767
0.12589388 0.82283163 0.24776128
0.45313824 0.84044358 0.20358988
0.80557212 0.80854622 0.20562215
1.00000000 0.75736755 0.41104577
1.00000000 0.76434189 0.60882569
1.00000000 0.79557376 0.70325976
0.00000000 0.87279287 0.30991067
0.00000000 0.87279287 0.30991067
0.00000000 0.89091647 0.29618467
0.08318530 0.92270394 0.28172447
0.29995825 0.95583228 0.26050773
0.59780904 0.95818007 0.27420941
0.90185170 0.91884979 0.34299832
1.00000000 0.87583304 0.62191520
1.00000000 0.88508914 0.77585963
0.04186811 0.94481500 0.30115649
0.04186811 0.94481500 0.30115649
0.09108404 0.95882946 0.30806900
0.23249117 0.98145124 0.34506103
0.44083213 0.99834183 0.43499612
0.62611491 1.00000000 0.52527146
0.78784240 1.00000000 0.57777310
0.95933596 0.98500251 0.61969057
1.00000000 0.96404572 0.84388281
0.27339774 1.00000000 0.37508321
0.27339774 1.00000000 0.37508321
0.35751557 1.00000000 0.41955148
0.49988596 1.00000000 0.51179155
0.65460809 1.00000000 0.63056531
0.78552881 1.00000000 0.74154233
0.88786327 1.00000000 0.83177314
1.00000000 1.00000000 1.00000000
1.00000000 1.00000000 1.00000000
0.00000000 0.06605506 0.31030677
0.00000000 0.06605506 0.31030677
0.25861682 0.03491343 0.39750992
0.51802251 0.01492100 0.42221856
0.74345574 0.00337397 0.40581793
0.90648439 0.02336994 0.35909488
0.99007290 0.13178547 0.30647404
1.00000000 0.25526588 0.28087259
1.00000000 0.34959979 0.29034121
0.00000000 0.06605506 0.31030677
0.00000000 0.06605506 0.31030677
0.25861682 0.03491343 0.39750992
0.51802251 0.01492100 0.42221856
0.74345574 0.00337397 0.40581793
0.90648439 0.02336994 0.35909488
0.99007290 0.13178547 0.30647404
1.00000000 0.25526588 0.28087259
1.00000000 0.34959979 0.29034121
0.00000000 0.24270338 0.36478688
0.00000000 0.24270338 0.36478688
0.20998218 0.23401624 0.47601838
0.54692292 0.19047614 0.47204279
0.79354635 0.15526998 0.42617700
0.94762030 0.17190291 0.38041069
0.99799956 0.26971341 0.35654785
0.99991138 0.35902040 0.35253563
1.00000000 0.43318503 0.36906177
0.00000000 0.44194821 0.42417116
0.00000000 0.44194821 0.42417116
0.06786899 0.46310799 0.44807090
0.45620114 0.45620114 0.45620114
0.75119373 0.42603239 0.44940714
0.92717449 0.41789213 0.44532546
0.98439654 0.46189786 0.45998627
0.99081238 0.51556957 0.47909851
1.00000000 0.56792030 0.50357960
0.00000000 0.62419957 0.44760204
0.00000000 0.62419957 0.44760204
0.01985043 0.64666592 0.43992242
0.29797357 0.67090880 0.42756908
0.65934130 0.65340957 0.42770037
0.94277375 0.60459288 0.44417051
0.99581665 0.62756440 0.54730338
0.99793921 0.66529842 0.60455227
1.00000000 0.70636759 0.64472135
0.04512046 0.76609661 0.43939784
0.04512046 0.76609661 0.43939784
0.05977017 0.78601667 0.42953007
0.22914939 0.81502816 0.42459988
0.49204516 0.83266243 0.41853055
0.80824619 0.80810456 0.39727947
1.00000000 0.76604807 0.53291556
1.00000000 0.78108527 0.67503914
1.00000000 0.81626703 0.74971651
0.08651936 0.87174909 0.40815140
0.08651936 0.87174909 0.40815140
0.10733889 0.88874968 0.40523538
0.21746053 0.91697975 0.41373367
0.34688220 0.95369064 0.39581283
0.61641085 0.95741697 0.40566483
0.91313821 0.92276410 0.36900357
1.00000000 0.88538304 0.69093169
1.00000000 0.90310671 0.82176711
0.14859328 0.94487408 0.37978687
0.14859328 0.94487408 0.37978687
0.19881413 0.95750701 0.39285741
0.32651766 0.97687790 0.43881084
0.51085203 0.99133406 0.52698918
0.67082010 1.00000000 0.60608732
0.81493409 1.00000000 0.65657372
0.96416224 0.98505099 0.70425673
1.00000000 0.97587323 0.89024373
0.35031780 1.00000000 0.44120481
0.35031780 1.00000000 0.44120481
0.42612868 1.00000000 0.48486234
0.55630953 1.00000000 0.57302107
0.70018720 1.00000000 0.68573511
0.82380153 1.00000000 0.79228340
0.91942288 1.00000000 0.87971921
1.00000000 1.00000000 1.00000000
1.00000000 1.00000000 1.00000000
0.00000000 0.13953682 0.42321710
0.00000000 0.13953682 0.42321710
0.19739415 0.09171247 0.57480619
0.48413912 0.05234766 0.62334068
0.73650608 0.02158316 0.60010745
0.91689726 0.02984733 0.53025290
1.00000000 0.15041414 0.45146803
1.00000000 0.27713439 0.39665132
1.00000000 0.37133797 0.37858644
0.00000000 0.13953682 0.42321710
0.00000000 0.13953682 0.42321710
0.19739415 0.09171247 0.57480619
0.48413912 0.05234766 0.62334068
0.73650608 0.02158316 0.60010745
0.91689726 0.02984733 0.53025290
1.00000000 0.15041414 0.45146803
1.00000000 0.27713439 0.39665132
1.00000000 0.37133797 0.37858644
0.00000000 0.26732712 0.48687767
0.00000000 0.26732712 0.48687767
0.13913114 0.23753977 0.68541266
0.49223041 0.20643286 0.70514023
0.77577162 0.16176601 0.65135060
0.95771648 0.16676665 0.56061672
1.00000000 0.27594646 0.48872615
1.00000000 0.37233762 0.45048265
1.00000000 0.44945902 0.44249619
0.00000000 0.44369806 0.56828978
0.00000000 0.44369806 0.56828978
0.11706584 0.45635378 0.63348145
0.43158371 0.45626682 0.67103406
0.74394648 0.42244302 0.66404294
0.94395929 0.41072064 0.60252617
1.00000000 0.46193256 0.56449896
1.00000000 0.52364822 0.55243426
1.00000000 0.58036550 0.55891293
0.00000000 0.63212961 0.60700191
0.00000000 0.63212961 0.60700191
0.00000000 0.65271201 0.62837608
0.25694036 0.67120387 0.65303947
0.65092930 0.65092930 0.65092930
0.88630748 0.62997648 0.64459248
0.97709134 0.64628296 0.65405819
0.99217838 0.68226486 0.67164518
1.00000000 0.72303543 0.69341131
0.00000000 0.77350984 0.57378096
0.00000000 0.77350984 0.57378096
0.00760684 0.79168588 0.57732650
0.25981263 0.81323271 0.59440504
0.55420884 0.81741401 0.62797164
0.80638056 0.80454199 0.63133761
0.98681282 0.78073740 0.68126370
1.00000000 0.80172177 0.75373892
1.00000000 0.83692038 0.80033626
0.12071099 0.87568692 0.52603411
0.12071099 0.87568692 0.52603411
0.15975581 0.89085309 0.53135791
0.29865914 0.91304219 0.55645442
0.48981095 0.93246576 0.59684748
0.69338005 0.93718645 0.62920722
0.91250001 0.91930556 0.61469531
1.00000000 0.89674646 0.77636499
1.00000000 0.92162697 0.87219824
0.21762578 0.94733468 0.48017355
0.21762578 0.94733468 0.48017355
0.27685803 0.95765370 0.49865233
0.41247522 0.97189178 0.55194683
0.58540145 0.98277104 0.63694795
0.72687667 0.99212028 0.70853531
0.84926690 0.99601750 0.75399331
0.97243958 0.98622187 0.79611767
1.00000000 0.98867285 0.93753300
0.42513301 1.00000000 0.52532306
0.42513301 1.00000000 0.52532306
0.49601091 1.00000000 0.56715422
0.61635464 1.00000000 0.64885156
0.75133818 1.00000000 0.75346038
0.86671991 1.00000000 0.85181826
1.00000000 1.00000000 1.00000000
1.00000000 1.00000000 1.00000000
1.00000000 1.00000000 1.00000000
0.00000000 0.20648340 0.46522959
0.00000000 0.20648340 0.46522959
0.03531730 0.18927209 0.65151950
0.37608295 0.13462230 0.80445668
0.67211314 0.07817739 0.81344943
0.89506035 0.05873452 0.72687921
1.00000000 0.16725115 0.61012193
1.00000000 0.29499374 0.52122572
1.00000000 0.38754396 0.47791469
0.00000000 0.20648340 0.46522959
0.00000000 0.20648340 0.46522959
0.03531730 0.18927209 0.65151950
0.37608295 0.13462230 0.80445668
0.67211314 0.07817739 0.81344943
0.89506035 0.05873452 0.72687921
1.00000000 0.16725115 0.61012193
1.00000000 0.29499374 0.52122572
1.00000000 0.38754396 0.47791469
0.00000000 0.29961731 0.55652977
0.00000000 0.29961731 0.55652977
0.04807993 0.29551961 0.71169740
0.37820716 0.24524337 0.89001732
0.69105177 0.21394593 0.86736526
0.92956608 0.18360292 0.76813185
1.00000000 0.28437750 0.63912835
1.00000000 0.38439468 0.56172926
1.00000000 0.46218983 0.52912819
0.03298517 0.44886371 0.67321002
0.03298517 0.44886371 0.67321002
0.11810538 0.45921238 0.75758741
0.37260175 0.46481685 0.83687159
0.67244496 0.44267900 0.86449198
0.92476992 0.41275461 0.79417494
1.00000000 0.46121830 0.69239856
1.00000000 0.52900060 0.63981091
1.00000000 0.58889356 0.62509355
0.00112808 0.61965061 0.75770315
0.00112808 0.61965061 0.75770315
0.06249208 0.63476052 0.80039792
0.33046626 0.65058383 0.84000558
0.62908035 0.65233573 0.81894268
0.88258129 0.62647865 0.81050827
0.99548870 0.64314514 0.75485358
1.00000000 0.68584283 0.73506453
1.00000000 0.73104039 0.74095581
0.00000000 0.77947724 0.74832435
0.00000000 0.77947724 0.74832435
0.00000000 0.79739094 0.76638918
0.11722560 0.81837120 0.79094595
0.52643308 0.81865631 0.80285704
0.80176386 0.80176386 0.80176386
0.95797881 0.79461204 0.80225685
0.99500483 0.81624941 0.81772699
1.00000000 0.85027126 0.84209691
0.00000000 0.88536097 0.66499368
0.00000000 0.88536097 0.66499368
0.00394803 0.90028667 0.67374421
0.24006723 0.92020327 0.69845349
0.50130166 0.93097799 0.73868918
0.73871077 0.92394568 0.78420706
0.91469511 0.91491698 0.78837905
1.00000000 0.90755843 0.85800861
1.00000000 0.93674808 0.91542188
0.21818286 0.95258342 0.59429813
0.21818286 0.95258342 0.59429813
0.28499826 0.96191911 0.61170373
0.43717587 0.97305095 0.65994179
0.62402275 0.97941799 0.73586877
0.77136635 0.98500876 0.80403911
0.88005976 0.99099039 0.84518416
0.98155508 0.98789981 0.87500437
1.00000000 1.00000000 1.00000000
0.47526626 1.00000000 0.61641606
0.47526626 1.00000000 0.61641606
0.54241100 1.00000000 0.65275393
0.65843824 1.00000000 0.72451174
0.79081804 1.00000000 0.81809652
0.90255494 1.00000000 0.90597233
1.00000000 1.00000000 1.00000000
1.00000000 1.00000000 1.00000000
1.00000000 1.00000000 1.00000000
0.00000000 0.25403169 0.47879973
0.00000000 0.25403169 0.47879973
0.00000000 0.27344818 0.60527420
0.16709113 0.25918176 0.85274845
0.50975501 0.22223435 0.95826093
0.79897525 0.15566468 0.92977877
0.97720217 0.18078559 0.79292761
1.00000000 0.30285088 0.65448296
1.00000000 0.39516757 0.58447478
0.00000000 0.25403169 0.47879973
0.00000000 0.25403169 0.47879973
0.00000000 0.27344818 0.60527420
0.16709113 0.25918176 0.85274845
0.50975501 0.22223435 0.95826093
0.79897525 0.15566468 0.92977877
0.97720217 0.18078559 0.79292761
1.00000000 0.30285088 0.65448296
1.00000000 0.39516757 0.58447478
0.00000000 0.33159137 0.58432038
0.00000000 0.33159137 0.58432038
0.00000000 0.34601287 0.70446416
0.20199579 0.34803963 0.88476094
0.52239068 0.33121195 0.96770804
0.81302481 0.27771462 0.94879778
0.98672773 0.29622053 0.81175752
1.00000000 0.39105490 0.68290003
1.00000000 0.46886442 0.62402338
0.02647479 0.46151788 0.73435823
0.02647479 0.46151788 0.73435823
0.06925862 0.47499398 0.81620338
0.28648834 0.49371759 0.90012471
0.54809001 0.49844138 0.95031732
0.81823875 0.46579669 0.94987225
0.98988540 0.47004739 0.84078741
1.00000000 0.53349508 0.73879801
1.00000000 0.59416852 0.69994968
0.10495443 0.61164487 0.85699554
0.10495443 0.61164487 0.85699554
0.16483911 0.62532828 0.90112576
0.36799949 0.64633618 0.91997203
0.57933103 0.66207334 0.94294903
0.80686407 0.65325728 0.94031963
0.98242839 0.64631841 0.87795866
1.00000000 0.68771954 0.80986116
1.00000000 0.73562834 0.79430130
0.00000000 0.75567468 0.90598279
0.00000000 0.75567468 0.90598279
0.06393729 0.77000360 0.93231045
0.31299948 0.78886049 0.95095631
0.57107412 0.80155577 0.94417803
0.78415954 0.80348881 0.92579722
0.97652610 0.78429521 0.91800383
1.00000000 0.81786159 0.87324137
1.00000000 0.85633405 0.87941626
0.00000000 0.88523296 0.85003894
0.00000000 0.88523296 0.85003894
0.00000000 0.89987580 0.86482576
0.08523196 0.92023628 0.88755670
0.38438933 0.93999705 0.91278116
0.71848471 0.92538640 0.91287688
0.91241619 0.91241619 0.91241619
0.99437003 0.91752161 0.92061185
1.00000000 0.94701235 0.94704007
0.08740933 0.95937551 0.73393755
0.08740933 0.95937551 0.73393755
0.18672994 0.96912590 0.74746208
0.37918197 0.98067977 0.78055341
0.60399211 0.98491277 0.83182599
0.78177051 0.98507388 0.88259346
0.90180896 0.98732091 0.92009741
0.99220637 0.99315868 0.90331265
1.00000000 1.00000000 1.00000000
0.48844703 1.00000000 0.71365489
0.48844703 1.00000000 0.71365489
0.55567421 1.00000000 0.74195986
0.67486764 1.00000000 0.79956050
0.81260861 1.00000000 0.87668108
0.92637768 1.00000000 0.94929180
1.00000000 1.00000000 1.00000000
1.00000000 1.00000000 1.00000000
1.00000000 1.00000000 1.00000000
0.00000000 0.28534111 0.48751046
0.00000000 0.28534111 0.48751046
0.00000000 0.31553199 0.57020172
0.00000000 0.35433227 0.75830863
0.27496991 0.35687731 0.96284063
0.59290298 0.33003821 1.00000000
0.85994523 0.27107842 0.96419354
0.99563289 0.30513168 0.81186463
1.00000000 0.39430223 0.70131698
0.00000000 0.28534111 0.48751046
0.00000000 0.28534111 0.48751046
0.00000000 0.31553199 0.57020172
0.00000000 0.35433227 0.75830863
0.27496991 0.35687731 0.96284063
0.59290298 0.33003821 1.00000000
0.85994523 0.27107842 0.96419354
0.99563289 0.30513168 0.81186463
1.00000000 0.39430223 0.70131698
0.00000000 0.35669251 0.59417243
0.00000000 0.35669251 0.59417243
0.00000000 0.38111713 0.67905225
0.01263835 0.41369119 0.83708648
0.31916495 0.42850492 0.97575832
0.61419471 0.41189380 1.00000000
0.87075877 0.36753969 0.96705681
0.99783344 0.39549830 0.82514599
1.00000000 0.46932875 0.72842877
0.00573570 0.47701932 0.75978704
0.00573570 0.47701932 0.75978704
0.02098728 0.49549366 0.82624507
0.18027487 0.52568714 0.91476277
0.41391804 0.55180182 0.97179649
0.65606313 0.54792060 1.00000000
0.88663408 0.51929677 0.96891048
1.00000000 0.53917518 0.85385697
1.00000000 0.59607443 0.78256677
0.12184388 0.61359880 0.91080382
0.12184388 0.61359880 0.91080382
0.18041898 0.62880127 0.94515406
0.35286182 0.65619713 0.95398152
0.53168248 0.68481348 0.96263804
0.70969169 0.69399398 0.98634251
0.89985428 0.67979450 0.97503961
1.00000000 0.69359520 0.89556206
1.00000000 0.73890132 0.85296166
0.22650509 0.73651512 0.98126437
0.22650509 0.73651512 0.98126437
0.30337774 0.74895230 0.98912388
0.45116951 0.77121930 0.98495574
0.61758264 0.79660742 0.97222367
0.76005623 0.81455322 0.97407814
0.90298030 0.81429159 0.98049113
0.99896941 0.82288289 0.93688775
1.00000000 0.86095861 0.91877568
0.18349236 0.84846073 0.99235916
0.18349236 0.84846073 0.99235916
0.26851104 0.85923268 1.00000000
0.42949930 0.87694753 1.00000000
0.61927963 0.89475339 0.99677808
0.78449758 0.90715908 0.98315817
0.90443461 0.91559769 0.97903168
0.99225956 0.92165791 0.96865805
1.00000000 0.95353806 0.97246667
0.00000000 0.95179995 0.91565050
0.00000000 0.95179995 0.91565050
0.12204824 0.96099855 0.92584964
0.35230106 0.97348107 0.94192428
0.59526006 0.98009531 0.95662950
0.77966761 0.98358321 0.96978938
0.90680561 0.98707145 0.98160745
0.99115111 0.99115111 0.99115111
1.00000000 1.00000000 1.00000000
0.44541818 1.00000000 0.82744523
0.44541818 1.00000000 0.82744523
0.52259782 1.00000000 0.84578887
0.66069669 1.00000000 0.88399064
0.81653632 1.00000000 0.93582583
1.00000000 1.00000000 1.00000000
1.00000000 1.00000000 1.00000000
1.00000000 1.00000000 1.00000000
1.00000000 1.00000000 1.00000000
0.00000000 0.31824041 0.51557795
0.00000000 0.31824041 0.51557795
0.00000000 0.34952109 0.57882715
0.00000000 0.40211573 0.71910545
0.00000000 0.44097599 0.92469251
0.35903559 0.44797916 1.00000000
0.65295711 0.41589187 1.00000000
0.89829399 0.35947602 0.98100885
1.00000000 0.40312462 0.84572542
0.00000000 0.31824041 0.51557795
0.00000000 0.31824041 0.51557795
0.00000000 0.34952109 0.57882715
0.00000000 0.40211573 0.71910545
0.00000000 0.44097599 0.92469251
0.35903559 0.44797916 1.00000000
0.65295711 0.41589187 1.00000000
0.89829399 0.35947602 0.98100885
1.00000000 0.40312462 0.84572542
0.00000000 0.38460900 0.61898354
0.00000000 0.38460900 0.61898354
0.00000000 0.41160076 0.68673118
0.00000000 0.45648083 0.81336823
0.07496965 0.49333194 0.97507197
0.40614361 0.50755599 1.00000000
0.67759305 0.48316735 1.00000000
0.90846381 0.43921344 0.98010901
1.00000000 0.47808613 0.85753295
0.00000000 0.49832211 0.78735524
0.00000000 0.49832211 0.78735524
0.00000000 0.51937305 0.84558320
0.03653070 0.55640940 0.93214297
0.27487815 0.59459223 0.99757137
0.50112264 0.61280402 1.00000000
0.72627976 0.59930888 1.00000000
0.92686076 0.57112904 0.98118433
1.00000000 0.60431845 0.88470686
0.08260860 0.62685343 0.94913640
0.08260860 0.62685343 0.94913640
0.14100902 0.64374679 0.97766710
0.29826558 0.67499907 0.99109978
0.46346308 0.70999812 1.00000000
0.62031854 0.73153791 1.00000000
0.78841764 0.73020700 1.00000000
0.94675430 0.71716712 0.98812539
1.00000000 0.74668833 0.92471110
0.30636565 0.73625851 1.00000000
0.30636565 0.73625851 1.00000000
0.36349770 0.75023478 1.00000000
0.47465975 0.77647962 1.00000000
0.60631332 0.80791948 1.00000000
0.72663092 0.83237213 1.00000000
0.84551851 0.84204430 1.00000000
0.96098504 0.84139300 0.99779317
1.00000000 0.86904072 0.96501934
0.42458532 0.82403936 1.00000000
0.42458532 0.82403936 1.00000000
0.47468070 0.83594703 1.00000000
0.57258738 0.85840524 1.00000000
0.69421480 0.88584980 1.00000000
0.80451604 0.90976208 1.00000000
0.89480885 0.92636934 1.00000000
0.97288722 0.93549052 1.00000000
1.00000000 0.96256168 0.99865074
0.40802362 0.90706793 1.00000000
0.40802362 0.90706793 1.00000000
0.47232372 0.91562729 1.00000000
0.59277109 0.93118853 1.00000000
0.73457019 0.95026994 1.00000000
0.85569356 0.96804025 1.00000000
0.94203464 0.98391861 1.00000000
0.99570311 0.99850638 1.00000000
1.00000000 1.00000000 1.00000000
0.41187872 1.00000000 0.97966261
0.41187872 1.00000000 0.97966261
0.50612678 1.00000000 0.98393348
0.66334454 1.00000000 0.99228701
0.83306243 1.00000000 1.00000000
1.00000000 1.00000000 1.00000000
1.00000000 1.00000000 1.00000000
1.00000000 1.00000000 1.00000000
1.00000000 1.00000000 1.00000000
