Luts Download/Canon Luts/3dlut/17grid-3dlut/full-to-full-range/BT709_CanonLog3-to-BT709_WideDR_17_FF_Ver.2.0.cube
# Gamut : BT.709 to BT.709
# Gamma : Canon Log 3 to Wide DR
# Range : Full in / Full out
# Version : 2.0 2019/10/24
# Copyright(c) 2019 Canon Inc. All Rights Reserved.
LUT_3D_SIZE 5
# LUT_3D_INPUT_RANGE 0.0 1.0
0.00000000 0.00000000 0.00000000
0.19451475 0.02410254 0.02256255
0.60111666 0.08296084 0.04256749
0.82390151 0.18007068 0.02287827
0.95767062 0.25483438 0.00788137
0.06225133 0.22309386 0.05509370
0.23338442 0.23488308 0.03733557
0.63817339 0.24320599 0.05643797
0.87957831 0.26745021 0.08431836
0.99603158 0.33158077 0.12028957
0.16252272 0.63860494 0.09616156
0.27013795 0.64494115 0.09444367
0.64431965 0.65163224 0.10254725
1.00000000 0.58967087 0.27890390
1.00000000 0.64021597 0.49406244
0.26005742 0.89517476 0.10425564
0.31440012 0.90216356 0.13751075
0.51274285 0.93653904 0.20284947
0.89236126 0.91233362 0.28561572
1.00000000 0.87007430 0.71276216
0.54537876 1.00000000 0.40004629
0.59142920 1.00000000 0.45203443
0.75647628 1.00000000 0.64261975
0.91077458 1.00000000 0.82018083
1.00000000 1.00000000 1.00000000
0.01025142 0.01546664 0.17078644
0.21047158 0.02680470 0.20711898
0.61493407 0.07241186 0.21402697
0.85896432 0.14954159 0.10696193
0.97521491 0.25298022 0.04452437
0.05231139 0.22885609 0.22848707
0.23600832 0.23600832 0.23600832
0.64986482 0.23786275 0.22955748
0.89835998 0.26007805 0.17451069
0.99305586 0.34716956 0.17810132
0.15464846 0.64050731 0.24195337
0.25371155 0.64885321 0.23137916
0.64756531 0.65200155 0.23682086
0.99566747 0.59818311 0.36273395
1.00000000 0.65059574 0.52201276
0.27965438 0.89607062 0.19656822
0.32769529 0.90358976 0.21628571
0.52387244 0.93722089 0.27499766
0.90060420 0.91619416 0.23908829
1.00000000 0.87767252 0.73429717
0.56781737 1.00000000 0.43482772
0.61237193 1.00000000 0.48449304
0.77371676 1.00000000 0.67007012
0.92452266 1.00000000 0.84612198
1.00000000 1.00000000 1.00000000
0.00917682 0.11081260 0.49833393
0.19047530 0.08378004 0.58648046
0.62547879 0.08301284 0.61020664
0.93482482 0.10190764 0.41877688
1.00000000 0.28618496 0.26285972
0.06066188 0.24886425 0.58982503
0.21896474 0.24085411 0.65273213
0.65512675 0.23397448 0.64671493
0.95131468 0.25133348 0.45822008
1.00000000 0.38549027 0.34662000
0.06695674 0.64758119 0.64670148
0.23579098 0.65104091 0.65035301
0.65092930 0.65092930 0.65092930
0.90995177 0.65354185 0.64098505
0.99510161 0.69746779 0.64650118
0.47956127 0.87662601 0.54305989
0.52069438 0.88109970 0.56361920
0.67702797 0.90709365 0.64158801
0.90291635 0.91538359 0.65270054
1.00000000 0.90930459 0.83356856
0.68677016 1.00000000 0.61258799
0.71899966 1.00000000 0.64685509
0.85450713 1.00000000 0.79885941
1.00000000 1.00000000 1.00000000
1.00000000 1.00000000 1.00000000
0.00000000 0.23187947 0.60592671
0.00726608 0.22018736 0.74593546
0.44106460 0.22418704 0.94007528
0.87599120 0.15785858 0.84212527
1.00000000 0.30017623 0.54919331
0.01487451 0.30304576 0.75816292
0.08755584 0.29833136 0.85255879
0.47291607 0.33733060 0.93888416
0.92607252 0.22850753 0.89513167
1.00000000 0.39581459 0.59177924
0.35091021 0.60701215 0.93661158
0.41118052 0.61739858 0.92597951
0.62190275 0.65955016 0.91647618
0.92632534 0.64651838 0.90153857
1.00000000 0.70472175 0.77131822
0.16387365 0.90582294 0.90377792
0.23516911 0.91273858 0.91071017
0.65052213 0.91278778 0.91052311
0.91241619 0.91241619 0.91241619
1.00000000 0.93715450 0.93245699
0.74525736 1.00000000 0.77356658
0.78020115 1.00000000 0.80106423
0.91897178 1.00000000 0.92022352
1.00000000 1.00000000 1.00000000
1.00000000 1.00000000 1.00000000
0.00000000 0.30488459 0.66065227
0.00000000 0.31982316 0.74034042
0.16301332 0.37560334 0.99619656
0.57175158 0.40012952 1.00000000
0.99140520 0.30005719 0.93904135
0.00000000 0.36346587 0.81499673
0.00000000 0.37483256 0.88168378
0.24840007 0.44603078 1.00000000
0.60591154 0.47166884 1.00000000
0.99508710 0.40111863 0.93856615
0.37752639 0.62536863 1.00000000
0.41055615 0.63843669 1.00000000
0.55602820 0.69532927 1.00000000
0.75971261 0.72567083 1.00000000
1.00000000 0.71582672 0.96205993
0.66705046 0.83287228 1.00000000
0.68988887 0.84219282 1.00000000
0.79327408 0.88566105 1.00000000
0.90722282 0.92535814 1.00000000
1.00000000 0.95258369 1.00000000
0.71418098 1.00000000 1.00000000
0.76358784 1.00000000 1.00000000
1.00000000 1.00000000 1.00000000
1.00000000 1.00000000 1.00000000
1.00000000 1.00000000 1.00000000
