Luts Download/Canon Luts/3dlut/17grid-3dlut/full-to-full-range/BT709_CanonLog2-to-BT709_WideDR_17_FF_Ver.2.0.cube
# Gamut : BT.709 to BT.709
# Gamma : Canon Log 2 to Wide DR
# Range : Full in / Full out
# Version : 2.0 2019/10/24
# Copyright(c) 2019 Canon Inc. All Rights Reserved.
LUT_3D_SIZE 17
# LUT_3D_INPUT_RANGE 0.0 1.0
0.00000000 0.00000000 0.00000000
0.00000000 0.00000000 0.00000000
0.00924798 0.00924798 0.00924798
0.03680590 0.00956278 0.00954012
0.10661975 0.01291345 0.01231440
0.20862815 0.01550881 0.01293121
0.32079391 0.02590921 0.01727792
0.45961556 0.03587466 0.01794410
0.58581662 0.05270973 0.01849134
0.69572774 0.07482608 0.01678757
0.78694853 0.10117405 0.01496699
0.85554567 0.12835360 0.01514917
0.90180379 0.15910443 0.02164996
0.93351873 0.20364852 0.04681217
0.96097620 0.28751938 0.12982834
1.00000000 0.42974708 0.27843789
1.00000000 0.63899219 0.49009124
0.00000000 0.00000000 0.00000000
0.00000000 0.00000000 0.00000000
0.00924798 0.00924798 0.00924798
0.03680590 0.00956278 0.00954012
0.10661975 0.01291345 0.01231440
0.20862815 0.01550881 0.01293121
0.32079391 0.02590921 0.01727792
0.45961556 0.03587466 0.01794410
0.58581662 0.05270973 0.01849134
0.69572774 0.07482608 0.01678757
0.78694853 0.10117405 0.01496699
0.85554567 0.12835360 0.01514917
0.90180379 0.15910443 0.02164996
0.93351873 0.20364852 0.04681217
0.96097620 0.28751938 0.12982834
1.00000000 0.42974708 0.27843789
1.00000000 0.63899219 0.49009124
0.00924798 0.00924798 0.00924798
0.00924798 0.00924798 0.00924798
0.01319719 0.01320666 0.01063327
0.05537026 0.01899658 0.01187598
0.12635434 0.02330699 0.01223015
0.22023424 0.02704660 0.01149409
0.32845617 0.03804201 0.01510721
0.46362738 0.04948397 0.01777757
0.58908982 0.06605844 0.01949163
0.69887551 0.08707937 0.01884486
0.79033059 0.11067242 0.01759441
0.85927200 0.13552479 0.01798339
0.90554260 0.16496448 0.02489975
0.93649085 0.20927080 0.05146494
0.96159634 0.29378227 0.13674747
1.00000000 0.43436086 0.28366782
1.00000000 0.64228394 0.49421295
0.01515423 0.05886359 0.01436274
0.01515423 0.05886359 0.01436274
0.02324765 0.06451040 0.01259018
0.06831464 0.06881848 0.01118463
0.14013071 0.07141192 0.01024666
0.22951997 0.07498602 0.00958537
0.33655490 0.08357474 0.01400588
0.46932278 0.09405482 0.01799509
0.59510775 0.10621471 0.02235861
0.70568556 0.12061419 0.02468951
0.79807933 0.13743487 0.02557237
0.86767527 0.15712023 0.02752319
0.91356366 0.18363009 0.03665856
0.94206781 0.22727931 0.06825337
0.96213369 0.31145317 0.15609779
1.00000000 0.44736095 0.29857307
1.00000000 0.65169356 0.50621404
0.01810687 0.14067723 0.01395141
0.01810687 0.14067723 0.01395141
0.02838431 0.14273268 0.01127493
0.07386150 0.14446912 0.01014839
0.14416896 0.14531150 0.00910320
0.22960269 0.14774249 0.01314510
0.33842970 0.15207262 0.01512209
0.47199084 0.15807193 0.01927231
0.60115216 0.16226042 0.02641006
0.71508698 0.16753403 0.03275294
0.80976087 0.17625219 0.03757797
0.87955448 0.19091362 0.04432894
0.92341546 0.21537192 0.06006646
0.94590612 0.26000691 0.10281387
0.96155708 0.33976065 0.18699771
1.00000000 0.46830469 0.32285632
1.00000000 0.66701027 0.52596975
0.03540771 0.23053601 0.02477397
0.03540771 0.23053601 0.02477397
0.04642644 0.23173802 0.02255159
0.08761417 0.23352856 0.01976284
0.15129568 0.23462658 0.01837531
0.23457020 0.23652994 0.01879603
0.34183122 0.23948192 0.02048813
0.47625511 0.24254447 0.02402922
0.61210050 0.23934002 0.03323157
0.73259127 0.23479363 0.04556960
0.83111228 0.23441785 0.05835672
0.90062461 0.24371871 0.07603631
0.93795131 0.26880531 0.10768011
0.95034745 0.31439643 0.15929655
0.96177239 0.38569366 0.23701828
1.00000000 0.50361767 0.36412696
1.00000000 0.69338053 0.56001435
0.05110925 0.34451779 0.03190097
0.05110925 0.34451779 0.03190097
0.06349796 0.34519270 0.03064372
0.10367197 0.34633197 0.02840759
0.16275324 0.34708301 0.02704138
0.24269017 0.34843096 0.02714593
0.34798524 0.35057688 0.02829668
0.48287382 0.35169766 0.03000166
0.62954642 0.34211205 0.03706685
0.76262025 0.32690779 0.05747106
0.86739971 0.31705126 0.08825433
0.93316691 0.32319655 0.12932907
0.95765638 0.35056566 0.18112514
0.96156946 0.39154480 0.23714019
0.96687935 0.45337788 0.31075960
1.00000000 0.55860421 0.42885229
1.00000000 0.73590892 0.61488598
0.06819345 0.48234504 0.03777352
0.06819345 0.48234504 0.03777352
0.08211039 0.48271295 0.03776638
0.12035210 0.48341731 0.03727760
0.17455386 0.48402765 0.03642438
0.25003177 0.48521638 0.03656185
0.35175077 0.48713305 0.03761131
0.48521222 0.48836517 0.03857206
0.64192742 0.47682988 0.03870248
0.79772112 0.45151583 0.05837879
0.91974058 0.42811960 0.11271314
0.97771738 0.43198551 0.19684753
0.99121873 0.45606700 0.27114742
0.98667428 0.49069171 0.33530596
0.98370064 0.54330283 0.40857597
1.00000000 0.63559126 0.51954320
1.00000000 0.79802730 0.69464704
0.08600587 0.61257774 0.03923099
0.08600587 0.61257774 0.03923099
0.09961433 0.61283185 0.04083336
0.13312147 0.61350041 0.04329464
0.17929119 0.61450167 0.04449815
0.24517556 0.61655725 0.04635371
0.33686348 0.62007745 0.04983527
0.46050355 0.62440017 0.05422383
0.61455060 0.61891115 0.05250364
0.78711255 0.59501812 0.06100641
0.94096935 0.56024977 0.12173721
1.00000000 0.55035291 0.24959693
1.00000000 0.56444322 0.35253180
1.00000000 0.59157560 0.43138195
1.00000000 0.63614480 0.50930365
1.00000000 0.71736504 0.61665046
1.00000000 0.86659202 0.78372057
0.10945805 0.72788402 0.04075924
0.10945805 0.72788402 0.04075924
0.12101381 0.72811299 0.04367557
0.14820724 0.72886790 0.04894025
0.18453408 0.73032035 0.05260372
0.23745110 0.73333031 0.05682263
0.31430240 0.73863885 0.06412161
0.42167873 0.74636094 0.07569650
0.56008750 0.74817305 0.08275539
0.72828789 0.73513904 0.09216210
0.90382976 0.70289291 0.14136849
1.00000000 0.67461068 0.28145315
1.00000000 0.67161287 0.41631709
1.00000000 0.68794325 0.51621043
1.00000000 0.72385792 0.60275807
1.00000000 0.79531897 0.70947959
1.00000000 0.93321755 0.87076775
0.14480718 0.82536525 0.05068098
0.14480718 0.82536525 0.05068098
0.15361997 0.82560426 0.05445495
0.17408521 0.82644460 0.06198455
0.20056588 0.82821296 0.06815440
0.23962160 0.83190127 0.07515828
0.29928168 0.83851028 0.08674109
0.38679134 0.84873735 0.10595943
0.50290695 0.85620033 0.12509753
0.65000481 0.85365634 0.14431610
0.82247886 0.83416388 0.18251448
0.97780567 0.79894860 0.28940589
1.00000000 0.77701751 0.45701050
1.00000000 0.77817117 0.58390929
1.00000000 0.80354923 0.68391259
1.00000000 0.86534123 0.79218722
1.00000000 1.00000000 1.00000000
0.20156448 0.90008695 0.08620719
0.20156448 0.90008695 0.08620719
0.20782165 0.90032876 0.09074002
0.22260335 0.90117398 0.09985765
0.24121412 0.90303506 0.10819811
0.26850916 0.90699095 0.11804934
0.31210509 0.91415049 0.13385019
0.37976095 0.92553007 0.15992743
0.42134857 0.94635446 0.07362861
0.54784328 0.95233861 0.07515057
0.73210819 0.93419754 0.25950559
0.89184020 0.91077427 0.32192630
1.00000000 0.87713826 0.47902832
1.00000000 0.86155573 0.63517629
1.00000000 0.87361282 0.75113305
1.00000000 0.92472187 0.86155027
1.00000000 1.00000000 1.00000000
0.29852173 0.95088615 0.17240658
0.29852173 0.95088615 0.17240658
0.30293888 0.95108057 0.17607705
0.31390675 0.95175201 0.18464213
0.32801037 0.95333524 0.19434128
0.34877926 0.95686385 0.20743415
0.38263527 0.96333887 0.22874616
0.43785908 0.97354616 0.26525374
0.51945710 0.98171933 0.32356202
0.60981031 0.98766477 0.38036246
0.70661309 0.98975513 0.42495763
0.81497954 0.98405793 0.45277839
0.93937528 0.96464675 0.50274230
1.00000000 0.93681772 0.68846598
1.00000000 0.93590719 0.81557468
1.00000000 0.97559867 0.92325511
1.00000000 1.00000000 1.00000000
0.47136649 0.98125974 0.34272748
0.47136649 0.98125974 0.34272748
0.47476358 0.98127087 0.34606794
0.48372665 0.98137305 0.35479019
0.49671213 0.98186432 0.36718367
0.51748510 0.98331618 0.38695758
0.55078747 0.98638946 0.41900860
0.60050959 0.99208479 0.46771194
0.66082432 0.99792358 0.52721508
0.72418093 1.00000000 0.58806592
0.78652836 1.00000000 0.64287833
0.84777702 1.00000000 0.68803821
0.91327303 1.00000000 0.73478054
0.97957372 0.99788713 0.81318230
1.00000000 0.99391701 0.90598812
1.00000000 1.00000000 1.00000000
1.00000000 1.00000000 1.00000000
0.70959174 1.00000000 0.60690132
0.70959174 1.00000000 0.60690132
0.71151420 1.00000000 0.60917597
0.71686573 1.00000000 0.61550867
0.72521354 1.00000000 0.62534375
0.73920834 1.00000000 0.64181694
0.76199752 1.00000000 0.66874114
0.79633827 1.00000000 0.70956924
0.83745149 1.00000000 0.75898027
0.88040310 1.00000000 0.81081394
0.92127038 1.00000000 0.85958454
1.00000000 1.00000000 1.00000000
1.00000000 1.00000000 1.00000000
1.00000000 1.00000000 1.00000000
1.00000000 1.00000000 1.00000000
1.00000000 1.00000000 1.00000000
1.00000000 1.00000000 1.00000000
1.00000000 1.00000000 1.00000000
1.00000000 1.00000000 1.00000000
1.00000000 1.00000000 1.00000000
1.00000000 1.00000000 1.00000000
1.00000000 1.00000000 1.00000000
1.00000000 1.00000000 1.00000000
1.00000000 1.00000000 1.00000000
1.00000000 1.00000000 1.00000000
1.00000000 1.00000000 1.00000000
1.00000000 1.00000000 1.00000000
1.00000000 1.00000000 1.00000000
1.00000000 1.00000000 1.00000000
1.00000000 1.00000000 1.00000000
1.00000000 1.00000000 1.00000000
1.00000000 1.00000000 1.00000000
1.00000000 1.00000000 1.00000000
1.00000000 1.00000000 1.00000000
1.00000000 1.00000000 1.00000000
1.00000000 1.00000000 1.00000000
1.00000000 1.00000000 1.00000000
1.00000000 1.00000000 1.00000000
1.00000000 1.00000000 1.00000000
1.00000000 1.00000000 1.00000000
1.00000000 1.00000000 1.00000000
1.00000000 1.00000000 1.00000000
1.00000000 1.00000000 1.00000000
1.00000000 1.00000000 1.00000000
1.00000000 1.00000000 1.00000000
1.00000000 1.00000000 1.00000000
1.00000000 1.00000000 1.00000000
1.00000000 1.00000000 1.00000000
1.00000000 1.00000000 1.00000000
1.00000000 1.00000000 1.00000000
1.00000000 1.00000000 1.00000000
0.00000000 0.00000000 0.00000000
0.00000000 0.00000000 0.00000000
0.00924798 0.00924798 0.00924798
0.03680590 0.00956278 0.00954012
0.10661975 0.01291345 0.01231440
0.20862815 0.01550881 0.01293121
0.32079391 0.02590921 0.01727792
0.45961556 0.03587466 0.01794410
0.58581662 0.05270973 0.01849134
0.69572774 0.07482608 0.01678757
0.78694853 0.10117405 0.01496699
0.85554567 0.12835360 0.01514917
0.90180379 0.15910443 0.02164996
0.93351873 0.20364852 0.04681217
0.96097620 0.28751938 0.12982834
1.00000000 0.42974708 0.27843789
1.00000000 0.63899219 0.49009124
0.00000000 0.00000000 0.00000000
0.00000000 0.00000000 0.00000000
0.00924798 0.00924798 0.00924798
0.03680590 0.00956278 0.00954012
0.10661975 0.01291345 0.01231440
0.20862815 0.01550881 0.01293121
0.32079391 0.02590921 0.01727792
0.45961556 0.03587466 0.01794410
0.58581662 0.05270973 0.01849134
0.69572774 0.07482608 0.01678757
0.78694853 0.10117405 0.01496699
0.85554567 0.12835360 0.01514917
0.90180379 0.15910443 0.02164996
0.93351873 0.20364852 0.04681217
0.96097620 0.28751938 0.12982834
1.00000000 0.42974708 0.27843789
1.00000000 0.63899219 0.49009124
0.00924798 0.00924798 0.00924798
0.00924798 0.00924798 0.00924798
0.01319719 0.01320666 0.01063327
0.05537026 0.01899658 0.01187598
0.12635434 0.02330699 0.01223015
0.22023424 0.02704660 0.01149409
0.32845617 0.03804201 0.01510721
0.46362738 0.04948397 0.01777757
0.58908982 0.06605844 0.01949163
0.69887551 0.08707937 0.01884486
0.79033059 0.11067242 0.01759441
0.85927200 0.13552479 0.01798339
0.90554260 0.16496448 0.02489975
0.93649085 0.20927080 0.05146494
0.96159634 0.29378227 0.13674747
1.00000000 0.43436086 0.28366782
1.00000000 0.64228394 0.49421295
0.01515423 0.05886359 0.01436274
0.01515423 0.05886359 0.01436274
0.02324765 0.06451040 0.01259018
0.06831464 0.06881848 0.01118463
0.14013071 0.07141192 0.01024666
0.22951997 0.07498602 0.00958537
0.33655490 0.08357474 0.01400588
0.46932278 0.09405482 0.01799509
0.59510775 0.10621471 0.02235861
0.70568556 0.12061419 0.02468951
0.79807933 0.13743487 0.02557237
0.86767527 0.15712023 0.02752319
0.91356366 0.18363009 0.03665856
0.94206781 0.22727931 0.06825337
0.96213369 0.31145317 0.15609779
1.00000000 0.44736095 0.29857307
1.00000000 0.65169356 0.50621404
0.01810687 0.14067723 0.01395141
0.01810687 0.14067723 0.01395141
0.02838431 0.14273268 0.01127493
0.07386150 0.14446912 0.01014839
0.14416896 0.14531150 0.00910320
0.22960269 0.14774249 0.01314510
0.33842970 0.15207262 0.01512209
0.47199084 0.15807193 0.01927231
0.60115216 0.16226042 0.02641006
0.71508698 0.16753403 0.03275294
0.80976087 0.17625219 0.03757797
0.87955448 0.19091362 0.04432894
0.92341546 0.21537192 0.06006646
0.94590612 0.26000691 0.10281387
0.96155708 0.33976065 0.18699771
1.00000000 0.46830469 0.32285632
1.00000000 0.66701027 0.52596975
0.03540771 0.23053601 0.02477397
0.03540771 0.23053601 0.02477397
0.04642644 0.23173802 0.02255159
0.08761417 0.23352856 0.01976284
0.15129568 0.23462658 0.01837531
0.23457020 0.23652994 0.01879603
0.34183122 0.23948192 0.02048813
0.47625511 0.24254447 0.02402922
0.61210050 0.23934002 0.03323157
0.73259127 0.23479363 0.04556960
0.83111228 0.23441785 0.05835672
0.90062461 0.24371871 0.07603631
0.93795131 0.26880531 0.10768011
0.95034745 0.31439643 0.15929655
0.96177239 0.38569366 0.23701828
1.00000000 0.50361767 0.36412696
1.00000000 0.69338053 0.56001435
0.05110925 0.34451779 0.03190097
0.05110925 0.34451779 0.03190097
0.06349796 0.34519270 0.03064372
0.10367197 0.34633197 0.02840759
0.16275324 0.34708301 0.02704138
0.24269017 0.34843096 0.02714593
0.34798524 0.35057688 0.02829668
0.48287382 0.35169766 0.03000166
0.62954642 0.34211205 0.03706685
0.76262025 0.32690779 0.05747106
0.86739971 0.31705126 0.08825433
0.93316691 0.32319655 0.12932907
0.95765638 0.35056566 0.18112514
0.96156946 0.39154480 0.23714019
0.96687935 0.45337788 0.31075960
1.00000000 0.55860421 0.42885229
1.00000000 0.73590892 0.61488598
0.06819345 0.48234504 0.03777352
0.06819345 0.48234504 0.03777352
0.08211039 0.48271295 0.03776638
0.12035210 0.48341731 0.03727760
0.17455386 0.48402765 0.03642438
0.25003177 0.48521638 0.03656185
0.35175077 0.48713305 0.03761131
0.48521222 0.48836517 0.03857206
0.64192742 0.47682988 0.03870248
0.79772112 0.45151583 0.05837879
0.91974058 0.42811960 0.11271314
0.97771738 0.43198551 0.19684753
0.99121873 0.45606700 0.27114742
0.98667428 0.49069171 0.33530596
0.98370064 0.54330283 0.40857597
1.00000000 0.63559126 0.51954320
1.00000000 0.79802730 0.69464704
0.08600587 0.61257774 0.03923099
0.08600587 0.61257774 0.03923099
0.09961433 0.61283185 0.04083336
0.13312147 0.61350041 0.04329464
0.17929119 0.61450167 0.04449815
0.24517556 0.61655725 0.04635371
0.33686348 0.62007745 0.04983527
0.46050355 0.62440017 0.05422383
0.61455060 0.61891115 0.05250364
0.78711255 0.59501812 0.06100641
0.94096935 0.56024977 0.12173721
1.00000000 0.55035291 0.24959693
1.00000000 0.56444322 0.35253180
1.00000000 0.59157560 0.43138195
1.00000000 0.63614480 0.50930365
1.00000000 0.71736504 0.61665046
1.00000000 0.86659202 0.78372057
0.10945805 0.72788402 0.04075924
0.10945805 0.72788402 0.04075924
0.12101381 0.72811299 0.04367557
0.14820724 0.72886790 0.04894025
0.18453408 0.73032035 0.05260372
0.23745110 0.73333031 0.05682263
0.31430240 0.73863885 0.06412161
0.42167873 0.74636094 0.07569650
0.56008750 0.74817305 0.08275539
0.72828789 0.73513904 0.09216210
0.90382976 0.70289291 0.14136849
1.00000000 0.67461068 0.28145315
1.00000000 0.67161287 0.41631709
1.00000000 0.68794325 0.51621043
1.00000000 0.72385792 0.60275807
1.00000000 0.79531897 0.70947959
1.00000000 0.93321755 0.87076775
0.14480718 0.82536525 0.05068098
0.14480718 0.82536525 0.05068098
0.15361997 0.82560426 0.05445495
0.17408521 0.82644460 0.06198455
0.20056588 0.82821296 0.06815440
0.23962160 0.83190127 0.07515828
0.29928168 0.83851028 0.08674109
0.38679134 0.84873735 0.10595943
0.50290695 0.85620033 0.12509753
0.65000481 0.85365634 0.14431610
0.82247886 0.83416388 0.18251448
0.97780567 0.79894860 0.28940589
1.00000000 0.77701751 0.45701050
1.00000000 0.77817117 0.58390929
1.00000000 0.80354923 0.68391259
1.00000000 0.86534123 0.79218722
1.00000000 1.00000000 1.00000000
0.20156448 0.90008695 0.08620719
0.20156448 0.90008695 0.08620719
0.20782165 0.90032876 0.09074002
0.22260335 0.90117398 0.09985765
0.24121412 0.90303506 0.10819811
0.26850916 0.90699095 0.11804934
0.31210509 0.91415049 0.13385019
0.37976095 0.92553007 0.15992743
0.42134857 0.94635446 0.07362861
0.54784328 0.95233861 0.07515057
0.73210819 0.93419754 0.25950559
0.89184020 0.91077427 0.32192630
1.00000000 0.87713826 0.47902832
1.00000000 0.86155573 0.63517629
1.00000000 0.87361282 0.75113305
1.00000000 0.92472187 0.86155027
1.00000000 1.00000000 1.00000000
0.29852173 0.95088615 0.17240658
0.29852173 0.95088615 0.17240658
0.30293888 0.95108057 0.17607705
0.31390675 0.95175201 0.18464213
0.32801037 0.95333524 0.19434128
0.34877926 0.95686385 0.20743415
0.38263527 0.96333887 0.22874616
0.43785908 0.97354616 0.26525374
0.51945710 0.98171933 0.32356202
0.60981031 0.98766477 0.38036246
0.70661309 0.98975513 0.42495763
0.81497954 0.98405793 0.45277839
0.93937528 0.96464675 0.50274230
1.00000000 0.93681772 0.68846598
1.00000000 0.93590719 0.81557468
1.00000000 0.97559867 0.92325511
1.00000000 1.00000000 1.00000000
0.47136649 0.98125974 0.34272748
0.47136649 0.98125974 0.34272748
0.47476358 0.98127087 0.34606794
0.48372665 0.98137305 0.35479019
0.49671213 0.98186432 0.36718367
0.51748510 0.98331618 0.38695758
0.55078747 0.98638946 0.41900860
0.60050959 0.99208479 0.46771194
0.66082432 0.99792358 0.52721508
0.72418093 1.00000000 0.58806592
0.78652836 1.00000000 0.64287833
0.84777702 1.00000000 0.68803821
0.91327303 1.00000000 0.73478054
0.97957372 0.99788713 0.81318230
1.00000000 0.99391701 0.90598812
1.00000000 1.00000000 1.00000000
1.00000000 1.00000000 1.00000000
0.70959174 1.00000000 0.60690132
0.70959174 1.00000000 0.60690132
0.71151420 1.00000000 0.60917597
0.71686573 1.00000000 0.61550867
0.72521354 1.00000000 0.62534375
0.73920834 1.00000000 0.64181694
0.76199752 1.00000000 0.66874114
0.79633827 1.00000000 0.70956924
0.83745149 1.00000000 0.75898027
0.88040310 1.00000000 0.81081394
0.92127038 1.00000000 0.85958454
1.00000000 1.00000000 1.00000000
1.00000000 1.00000000 1.00000000
1.00000000 1.00000000 1.00000000
1.00000000 1.00000000 1.00000000
1.00000000 1.00000000 1.00000000
1.00000000 1.00000000 1.00000000
1.00000000 1.00000000 1.00000000
1.00000000 1.00000000 1.00000000
1.00000000 1.00000000 1.00000000
1.00000000 1.00000000 1.00000000
1.00000000 1.00000000 1.00000000
1.00000000 1.00000000 1.00000000
1.00000000 1.00000000 1.00000000
1.00000000 1.00000000 1.00000000
1.00000000 1.00000000 1.00000000
1.00000000 1.00000000 1.00000000
1.00000000 1.00000000 1.00000000
1.00000000 1.00000000 1.00000000
1.00000000 1.00000000 1.00000000
1.00000000 1.00000000 1.00000000
1.00000000 1.00000000 1.00000000
1.00000000 1.00000000 1.00000000
1.00000000 1.00000000 1.00000000
1.00000000 1.00000000 1.00000000
1.00000000 1.00000000 1.00000000
1.00000000 1.00000000 1.00000000
1.00000000 1.00000000 1.00000000
1.00000000 1.00000000 1.00000000
1.00000000 1.00000000 1.00000000
1.00000000 1.00000000 1.00000000
1.00000000 1.00000000 1.00000000
1.00000000 1.00000000 1.00000000
1.00000000 1.00000000 1.00000000
1.00000000 1.00000000 1.00000000
1.00000000 1.00000000 1.00000000
1.00000000 1.00000000 1.00000000
1.00000000 1.00000000 1.00000000
1.00000000 1.00000000 1.00000000
1.00000000 1.00000000 1.00000000
1.00000000 1.00000000 1.00000000
0.00924798 0.00924798 0.00924798
0.00924798 0.00924798 0.00924798
0.01152360 0.00925106 0.01150101
0.05272034 0.00907548 0.01595572
0.12705843 0.00840006 0.01895985
0.21911019 0.01139960 0.02207490
0.32507641 0.02326550 0.02990994
0.46106643 0.03439373 0.03297825
0.58900654 0.04824113 0.03014655
0.70020663 0.06745698 0.02410651
0.79153423 0.09348474 0.01893505
0.85939713 0.12295550 0.01717460
0.90458108 0.15618994 0.02290713
0.93521387 0.20275297 0.04812077
0.96143723 0.28819412 0.13180658
1.00000000 0.43052978 0.27978643
1.00000000 0.63972309 0.49104896
0.00924798 0.00924798 0.00924798
0.00924798 0.00924798 0.00924798
0.01152360 0.00925106 0.01150101
0.05272034 0.00907548 0.01595572
0.12705843 0.00840006 0.01895985
0.21911019 0.01139960 0.02207490
0.32507641 0.02326550 0.02990994
0.46106643 0.03439373 0.03297825
0.58900654 0.04824113 0.03014655
0.70020663 0.06745698 0.02410651
0.79153423 0.09348474 0.01893505
0.85939713 0.12295550 0.01717460
0.90458108 0.15618994 0.02290713
0.93521387 0.20275297 0.04812077
0.96143723 0.28819412 0.13180658
1.00000000 0.43052978 0.27978643
1.00000000 0.63972309 0.49104896
0.00820661 0.01669937 0.01666435
0.00820661 0.01669937 0.01666435
0.01903558 0.01903558 0.01903558
0.07197043 0.01904309 0.01900264
0.14514181 0.01911251 0.01873234
0.23589327 0.01931712 0.01810277
0.33306342 0.03460407 0.02820174
0.46721213 0.04528425 0.03110217
0.59330212 0.05991044 0.03016386
0.70326708 0.08006577 0.02626168
0.79439979 0.10471152 0.02216408
0.86247225 0.13157580 0.02081554
0.90768046 0.16314056 0.02700251
0.93764031 0.20909798 0.05357593
0.96177063 0.29471151 0.13899422
1.00000000 0.43520396 0.28509517
1.00000000 0.64303332 0.49519697
0.01294533 0.06724999 0.02363127
0.01294533 0.06724999 0.02363127
0.01917175 0.07194083 0.01897945
0.07189279 0.07200538 0.01904760
0.14711284 0.07099773 0.01948916
0.23680799 0.07139519 0.01967580
0.33967338 0.08101686 0.02776473
0.47325901 0.08976289 0.03068408
0.59923052 0.10103566 0.03294894
0.70954920 0.11559731 0.03264938
0.80128227 0.13353502 0.03119288
0.86994368 0.15490897 0.03157432
0.91481953 0.18314182 0.03999805
0.94242241 0.22805290 0.07160862
0.96192584 0.31268854 0.15867090
1.00000000 0.44827679 0.30009702
1.00000000 0.65246151 0.50722219
0.01785118 0.14065460 0.02770418
0.01785118 0.14065460 0.02770418
0.02004974 0.14500487 0.01871620
0.07022066 0.14557756 0.01943759
0.14482862 0.14533086 0.01909629
0.23094028 0.14719193 0.02694520
0.34091609 0.15060947 0.02823289
0.47545065 0.15531682 0.03141980
0.60450770 0.15908870 0.03736540
0.71768916 0.16498997 0.04214140
0.81131340 0.17503443 0.04537899
0.88035909 0.19084857 0.05048305
0.92329857 0.21659305 0.06553702
0.94499561 0.26202323 0.10767235
0.96088263 0.34130422 0.18989744
1.00000000 0.46928591 0.32446646
1.00000000 0.66777870 0.52697855
0.03427169 0.23047544 0.03920222
0.03427169 0.23047544 0.03920222
0.04302077 0.23211327 0.03532171
0.08455628 0.23389153 0.03221360
0.15010471 0.23477171 0.03085249
0.23481639 0.23630397 0.03136452
0.34328295 0.23876152 0.03285335
0.47875434 0.24104507 0.03579914
0.61439245 0.23767034 0.04485237
0.73368218 0.23405184 0.05697235
0.83074121 0.23529857 0.06924230
0.89898823 0.24621971 0.08629555
0.93532050 0.27233582 0.11620209
0.94841269 0.31701712 0.16452673
0.96072751 0.38737494 0.24004932
1.00000000 0.50461198 0.36574286
1.00000000 0.69414037 0.56099140
0.04755977 0.34467530 0.04531052
0.04755977 0.34467530 0.04531052
0.05736473 0.34565561 0.04207735
0.09837661 0.34680784 0.03941046
0.15962047 0.34742897 0.03798079
0.24144743 0.34853012 0.03823768
0.34818800 0.35030711 0.03957402
0.48420461 0.35101282 0.04135279
0.63095870 0.34128576 0.04916098
0.76263780 0.32699858 0.07099808
0.86549182 0.31890521 0.10208222
0.92987718 0.32649739 0.14031274
0.95467964 0.35361498 0.18841177
0.95945854 0.39386645 0.24182068
0.96590930 0.45486794 0.31350180
1.00000000 0.55957035 0.43039680
1.00000000 0.73667890 0.61583652
0.06250116 0.48265019 0.04976735
0.06250116 0.48265019 0.04976735
0.07412845 0.48321077 0.04802840
0.11431078 0.48388835 0.04754960
0.17045883 0.48442751 0.04674241
0.24771962 0.48548788 0.04711498
0.35087460 0.48720554 0.04853823
0.48538242 0.48816924 0.04980391
0.64271796 0.47644257 0.05037505
0.79789445 0.45145552 0.07176219
0.91812415 0.42933640 0.12568675
0.97521549 0.43402375 0.20547875
0.98913897 0.45796140 0.27659996
0.98530843 0.49222419 0.33881361
0.98317051 0.54443991 0.41076136
1.00000000 0.63649964 0.52095846
1.00000000 0.79884383 0.69561992
0.08006809 0.61290413 0.04904133
0.08006809 0.61290413 0.04904133
0.09343057 0.61322224 0.04993700
0.12902511 0.61380511 0.05318091
0.17672867 0.61473004 0.05503717
0.24368422 0.61671467 0.05741003
