Luts Download/Canon Luts/3dlut/17grid-3dlut/full-to-full-range/BT709_CanonLog2-to-BT709_WideDR_17_FF_Ver.2.0.cube
# Gamut : BT.709 to BT.709
# Gamma : Canon Log 2 to Wide DR
# Range : Full in / Full out
# Version : 2.0 2019/10/24
# Copyright(c) 2019 Canon Inc. All Rights Reserved.
LUT_3D_SIZE 9
# LUT_3D_INPUT_RANGE 0.0 1.0
0.00000000 0.00000000 0.00000000
0.00924798 0.00924798 0.00924798
0.10661975 0.01291345 0.01231440
0.32079391 0.02590921 0.01727792
0.58581662 0.05270973 0.01849134
0.78694853 0.10117405 0.01496699
0.90180379 0.15910443 0.02164996
0.96097620 0.28751938 0.12982834
1.00000000 0.63899219 0.49009124
0.00924798 0.00924798 0.00924798
0.01319719 0.01320666 0.01063327
0.12635434 0.02330699 0.01223015
0.32845617 0.03804201 0.01510721
0.58908982 0.06605844 0.01949163
0.79033059 0.11067242 0.01759441
0.90554260 0.16496448 0.02489975
0.96159634 0.29378227 0.13674747
1.00000000 0.64228394 0.49421295
0.01810687 0.14067723 0.01395141
0.02838431 0.14273268 0.01127493
0.14416896 0.14531150 0.00910320
0.33842970 0.15207262 0.01512209
0.60115216 0.16226042 0.02641006
0.80976087 0.17625219 0.03757797
0.92341546 0.21537192 0.06006646
0.96155708 0.33976065 0.18699771
1.00000000 0.66701027 0.52596975
0.05110925 0.34451779 0.03190097
0.06349796 0.34519270 0.03064372
0.16275324 0.34708301 0.02704138
0.34798524 0.35057688 0.02829668
0.62954642 0.34211205 0.03706685
0.86739971 0.31705126 0.08825433
0.95765638 0.35056566 0.18112514
0.96687935 0.45337788 0.31075960
1.00000000 0.73590892 0.61488598
0.08600587 0.61257774 0.03923099
0.09961433 0.61283185 0.04083336
0.17929119 0.61450167 0.04449815
0.33686348 0.62007745 0.04983527
0.61455060 0.61891115 0.05250364
0.94096935 0.56024977 0.12173721
1.00000000 0.56444322 0.35253180
1.00000000 0.63614480 0.50930365
1.00000000 0.86659202 0.78372057
0.14480718 0.82536525 0.05068098
0.15361997 0.82560426 0.05445495
0.20056588 0.82821296 0.06815440
0.29928168 0.83851028 0.08674109
0.50290695 0.85620033 0.12509753
0.82247886 0.83416388 0.18251448
1.00000000 0.77701751 0.45701050
1.00000000 0.80354923 0.68391259
1.00000000 1.00000000 1.00000000
0.29852173 0.95088615 0.17240658
0.30293888 0.95108057 0.17607705
0.32801037 0.95333524 0.19434128
0.38263527 0.96333887 0.22874616
0.51945710 0.98171933 0.32356202
0.70661309 0.98975513 0.42495763
0.93937528 0.96464675 0.50274230
1.00000000 0.93590719 0.81557468
1.00000000 1.00000000 1.00000000
0.70959174 1.00000000 0.60690132
0.71151420 1.00000000 0.60917597
0.72521354 1.00000000 0.62534375
0.76199752 1.00000000 0.66874114
0.83745149 1.00000000 0.75898027
0.92127038 1.00000000 0.85958454
1.00000000 1.00000000 1.00000000
1.00000000 1.00000000 1.00000000
1.00000000 1.00000000 1.00000000
1.00000000 1.00000000 1.00000000
1.00000000 1.00000000 1.00000000
1.00000000 1.00000000 1.00000000
1.00000000 1.00000000 1.00000000
1.00000000 1.00000000 1.00000000
1.00000000 1.00000000 1.00000000
1.00000000 1.00000000 1.00000000
1.00000000 1.00000000 1.00000000
1.00000000 1.00000000 1.00000000
0.00924798 0.00924798 0.00924798
0.01152360 0.00925106 0.01150101
0.12705843 0.00840006 0.01895985
0.32507641 0.02326550 0.02990994
0.58900654 0.04824113 0.03014655
0.79153423 0.09348474 0.01893505
0.90458108 0.15618994 0.02290713
0.96143723 0.28819412 0.13180658
1.00000000 0.63972309 0.49104896
0.00820661 0.01669937 0.01666435
0.01903558 0.01903558 0.01903558
0.14514181 0.01911251 0.01873234
0.33306342 0.03460407 0.02820174
0.59330212 0.05991044 0.03016386
0.79439979 0.10471152 0.02216408
0.90768046 0.16314056 0.02700251
0.96177063 0.29471151 0.13899422
1.00000000 0.64303332 0.49519697
0.01785118 0.14065460 0.02770418
0.02004974 0.14500487 0.01871620
0.14482862 0.14533086 0.01909629
0.34091609 0.15060947 0.02823289
0.60450770 0.15908870 0.03736540
0.81131340 0.17503443 0.04537899
0.92329857 0.21659305 0.06553702
0.96088263 0.34130422 0.18989744
1.00000000 0.66777870 0.52697855
0.04755977 0.34467530 0.04531052
0.05736473 0.34565561 0.04207735
0.15962047 0.34742897 0.03798079
0.34818800 0.35030711 0.03957402
0.63095870 0.34128576 0.04916098
0.86549182 0.31890521 0.10208222
0.95467964 0.35361498 0.18841177
0.96590930 0.45486794 0.31350180
1.00000000 0.73667890 0.61583652
0.08006809 0.61290413 0.04904133
0.09343057 0.61322224 0.04993700
0.17672867 0.61473004 0.05503717
0.33617814 0.62015335 0.06153441
0.61462407 0.61882571 0.06476876
0.94038700 0.56065202 0.13253970
1.00000000 0.56546216 0.35643919
1.00000000 0.63708781 0.51109719
1.00000000 0.86748115 0.78477297
0.14410120 0.82552375 0.05750504
0.15360588 0.82571253 0.06187363
0.20376209 0.82800888 0.07940936
0.30256513 0.83816052 0.09987538
0.50466271 0.85587748 0.13717675
0.82240462 0.83418070 0.19077119
1.00000000 0.77744796 0.45973678
1.00000000 0.80435700 0.68540657
1.00000000 1.00000000 1.00000000
0.30001927 0.95093033 0.17590476
0.30483512 0.95106652 0.17994238
0.33214333 0.95298004 0.20054441
0.38733082 0.96279479 0.23575379
0.52266292 0.98122084 0.32923121
0.70797882 0.98952370 0.42893554
0.93943168 0.96467321 0.50596397
1.00000000 0.93646569 0.81702892
1.00000000 1.00000000 1.00000000
0.71043314 1.00000000 0.60809015
0.71240718 1.00000000 0.61043338
0.72629027 1.00000000 0.62685058
0.76314996 1.00000000 0.67036983
0.83850527 1.00000000 0.76051235
0.92217141 1.00000000 0.86096334
1.00000000 1.00000000 1.00000000
1.00000000 1.00000000 1.00000000
1.00000000 1.00000000 1.00000000
1.00000000 1.00000000 1.00000000
1.00000000 1.00000000 1.00000000
1.00000000 1.00000000 1.00000000
1.00000000 1.00000000 1.00000000
1.00000000 1.00000000 1.00000000
1.00000000 1.00000000 1.00000000
1.00000000 1.00000000 1.00000000
1.00000000 1.00000000 1.00000000
1.00000000 1.00000000 1.00000000
0.00954466 0.01204373 0.10652711
0.01494225 0.00792423 0.11435969
0.13317164 0.00938888 0.13026730
0.33019518 0.02070791 0.14324454
0.59808114 0.03708639 0.13369401
0.80620955 0.07313646 0.07904132
0.91617502 0.14794922 0.04817393
0.96101052 0.29609408 0.15091622
1.00000000 0.64624131 0.50084572
0.00845295 0.02116543 0.12092439
0.01819154 0.01928727 0.14536510
0.14570765 0.01888716 0.14479083
0.33794019 0.03125757 0.14524722
0.60284160 0.04769010 0.13394251
0.80823179 0.08680962 0.08366551
0.91734033 0.15821756 0.05500209
0.96063911 0.30313001 0.15850091
1.00000000 0.64953801 0.50496133
0.01939957 0.14140129 0.14110684
0.02931236 0.14319113 0.14300287
0.14520997 0.14520997 0.14520997
0.34972431 0.14531795 0.14480558
0.61622765 0.14816865 0.13801229
0.82265379 0.16550567 0.10978831
0.92163002 0.22588880 0.10950806
0.95670934 0.35125048 0.21018674
1.00000000 0.67402561 0.53619751
0.03706659 0.34543833 0.15526100
0.04570202 0.34662527 0.15323888
0.14654307 0.34960519 0.14483424
0.34945853 0.34990251 0.14527966
0.63490688 0.33916310 0.15329452
0.85986746 0.32558009 0.17620122
0.93976516 0.36969071 0.23245728
0.96022319 0.46410505 0.33197142
1.00000000 0.74224595 0.62353239
0.07940868 0.61297314 0.14921563
0.09046818 0.61345193 0.14887068
0.16151724 0.61643050 0.14231794
0.33173940 0.62104299 0.15016654
0.61588198 0.61852234 0.14567510
0.93483343 0.56399373 0.20683677
1.00000000 0.57228846 0.38536035
1.00000000 0.64345019 0.52422698
1.00000000 0.87349485 0.79225298
0.15816117 0.82530525 0.12745854
0.16381750 0.82575446 0.12857828
0.20497910 0.82876794 0.13577928
0.32473187 0.83569946 0.17849516
0.50422452 0.85688866 0.17907920
0.82217190 0.83427658 0.24645643
1.00000000 0.78015167 0.47950296
1.00000000 0.80967234 0.69573272
1.00000000 1.00000000 1.00000000
0.22553168 0.96131465 0.11814948
0.22816942 0.96182185 0.11951361
0.24805866 0.96546364 0.12889741
0.41660785 0.95937130 0.28089921
0.54306153 0.97808864 0.36673971
0.71725802 0.98799709 0.45677218
0.93999632 0.96487980 0.52887918
1.00000000 0.94029465 0.82718188
1.00000000 1.00000000 1.00000000
0.71767748 1.00000000 0.61849132
0.71961849 1.00000000 0.62079251
0.73369519 1.00000000 0.63748696
0.77106813 1.00000000 0.68179286
0.84583658 1.00000000 0.77132946
0.92845466 1.00000000 0.87065340
1.00000000 1.00000000 1.00000000
1.00000000 1.00000000 1.00000000
1.00000000 1.00000000 1.00000000
1.00000000 1.00000000 1.00000000
1.00000000 1.00000000 1.00000000
1.00000000 1.00000000 1.00000000
1.00000000 1.00000000 1.00000000
1.00000000 1.00000000 1.00000000
1.00000000 1.00000000 1.00000000
1.00000000 1.00000000 1.00000000
1.00000000 1.00000000 1.00000000
1.00000000 1.00000000 1.00000000
0.00704284 0.03158375 0.27178344
0.01788684 0.02749779 0.29007709
0.13542982 0.02162681 0.31475937
0.33644424 0.02386911 0.33091924
0.61064002 0.02974864 0.31498542
0.82947894 0.05686983 0.22538986
0.95674404 0.11126317 0.12104116
0.95630626 0.32151041 0.20630114
1.00000000 0.66708292 0.53497560
0.01036486 0.04413659 0.28517282
0.02029719 0.03887409 0.30574819
0.14014224 0.03195434 0.32830382
0.34154423 0.03415442 0.33732139
0.61476376 0.04035833 0.31675250
0.83097417 0.07118781 0.22854648
0.95591776 0.12753662 0.12886321
0.95504927 0.32877053 0.21365532
1.00000000 0.67027116 0.53891517
0.01971081 0.14884800 0.32283952
0.02810343 0.14848458 0.33245758
0.14411251 0.14553327 0.34994565
0.35021600 0.14503960 0.34940751
0.62603949 0.14354040 0.32312463
0.83692403 0.16519594 0.25014585
0.92322743 0.24626555 0.20222708
0.94841103 0.37577253 0.26175098
1.00000000 0.69358608 0.56809967
0.03193448 0.34683234 0.34646219
0.04230750 0.34763654 0.34732587
0.14519062 0.34980741 0.34973309
0.34979522 0.34979522 0.34979522
0.61744070 0.35036010 0.34766480
0.82723645 0.35730986 0.32874958
0.91690076 0.39926023 0.32127270
0.94513007 0.48767667 0.38054697
1.00000000 0.75996942 0.65145877
0.11904413 0.61132666 0.33243186
0.13090108 0.61152723 0.33317051
0.20509944 0.61254279 0.33709476
0.35655452 0.61673334 0.34781405
0.61585689 0.61851980 0.35016258
0.91257071 0.57734150 0.36762079
0.98422433 0.59731180 0.47203856
0.98564485 0.66419998 0.56812348
1.00000000 0.89060628 0.81685806
0.28662988 0.81462233 0.31482189
0.29024076 0.81503764 0.31577182
0.31759471 0.81787704 0.32213261
0.39261638 0.82731550 0.34043820
0.55131538 0.84735147 0.36646854
0.82485381 0.83575192 0.35133735
1.00000000 0.78994532 0.54484142
1.00000000 0.82534975 0.72931979
1.00000000 1.00000000 1.00000000
0.37880336 0.94671639 0.30455032
0.38059068 0.94719884 0.30553720
0.39415212 0.95068366 0.31250880
0.43446508 0.96204545 0.33323734
0.59908940 0.96915039 0.46560487
0.74616761 0.98299449 0.53783028
0.95879465 0.97680568 0.35241622
1.00000000 0.95104374 0.85728850
1.00000000 1.00000000 1.00000000
0.74606942 1.00000000 0.65870185
0.74780172 1.00000000 0.66074782
0.76070223 1.00000000 0.67602753
0.79677549 1.00000000 0.71895936
0.86887584 1.00000000 0.80550502
1.00000000 1.00000000 1.00000000
1.00000000 1.00000000 1.00000000
1.00000000 1.00000000 1.00000000
1.00000000 1.00000000 1.00000000
1.00000000 1.00000000 1.00000000
1.00000000 1.00000000 1.00000000
1.00000000 1.00000000 1.00000000
1.00000000 1.00000000 1.00000000
1.00000000 1.00000000 1.00000000
1.00000000 1.00000000 1.00000000
1.00000000 1.00000000 1.00000000
1.00000000 1.00000000 1.00000000
1.00000000 1.00000000 1.00000000
0.00324822 0.09542119 0.48548331
0.00788853 0.08311345 0.51339658
0.11290860 0.04803508 0.57690499
0.31720984 0.04237754 0.60646974
0.60627562 0.03807208 0.59838418
0.86493348 0.03308373 0.46740055
0.98084771 0.14746138 0.30862879
0.97484684 0.35009054 0.29837042
1.00000000 0.69811405 0.59332200
0.00481107 0.10243517 0.50117934
0.00977288 0.09050600 0.52858643
0.11610035 0.05785517 0.58675065
0.31982293 0.05383017 0.61234727
0.60900371 0.04931037 0.60155652
0.86739156 0.04437085 0.46949419
0.97990658 0.16072081 0.31311315
0.97389094 0.35648572 0.30393920
1.00000000 0.70116326 0.59697658
0.01953445 0.17070078 0.55778931
0.02569903 0.16597244 0.57443253
0.12768243 0.15011242 0.61932594
0.32734079 0.15486106 0.62774395
0.62008103 0.14412337 0.61502723
0.87544399 0.14229240 0.48195503
0.97247209 0.23925774 0.34440049
0.96838669 0.39929273 0.34217024
1.00000000 0.72334595 0.62376012
0.05529916 0.34271503 0.62080621
0.07091766 0.34320931 0.62041657
0.17018953 0.34523282 0.61867329
0.34393425 0.35152058 0.61877958
0.62046990 0.34889146 0.61553958
0.87468286 0.33988160 0.51965896
0.95489975 0.40202227 0.43450479
0.95968057 0.50912406 0.44787329
1.00000000 0.78809867 0.70234446
0.02873366 0.61637115 0.61598784
0.04374379 0.61658658 0.61619883
0.15221696 0.61736776 0.61697344
0.34969708 0.61795151 0.61750248
0.61787795 0.61787795 0.61787795
0.83205123 0.61903718 0.61324569
0.93083645 0.63991072 0.61018680
0.96175353 0.69796089 0.64482091
1.00000000 0.91899546 0.86236108
0.38135169 0.80819503 0.53135899
0.38524657 0.80838167 0.53253477
0.41362655 0.80966174 0.54072397
0.49076901 0.81460644 0.56605552
0.63217772 0.83011185 0.61266411
0.82742683 0.83489427 0.61889644
0.99768839 0.81384157 0.69065931
1.00000000 0.85602730 0.80132774
1.00000000 1.00000000 1.00000000
0.53638558 0.92776742 0.51828432
0.53806216 0.92813942 0.51944355
0.55051890 0.93085085 0.52776230
0.58771110 0.93991225 0.55307983
0.66673251 0.96314024 0.60315030
0.77435082 0.98692198 0.63367574
0.95796046 0.97698709 0.62047380
1.00000000 0.97128212 0.91511763
1.00000000 1.00000000 1.00000000
0.80775863 1.00000000 0.74844139
0.80909533 1.00000000 0.74998484
0.81932885 1.00000000 0.76186404
0.85041230 1.00000000 0.79833410
0.91608988 1.00000000 0.87633829
1.00000000 1.00000000 1.00000000
1.00000000 1.00000000 1.00000000
1.00000000 1.00000000 1.00000000
1.00000000 1.00000000 1.00000000
1.00000000 1.00000000 1.00000000
1.00000000 1.00000000 1.00000000
1.00000000 1.00000000 1.00000000
1.00000000 1.00000000 1.00000000
1.00000000 1.00000000 1.00000000
1.00000000 1.00000000 1.00000000
1.00000000 1.00000000 1.00000000
1.00000000 1.00000000 1.00000000
1.00000000 1.00000000 1.00000000
0.00000000 0.17857881 0.61308639
0.00000000 0.17357682 0.63249662
0.02425782 0.12026856 0.75834075
0.21751695 0.07288496 0.86925281
0.50606509 0.09122841 0.91006145
0.81276255 0.08904200 0.79677157
0.99151592 0.16625884 0.56706678
1.00000000 0.36755130 0.44162680
1.00000000 0.71924563 0.66153739
0.00000000 0.18243944 0.62803835
0.00000000 0.17742664 0.64678029
0.02761593 0.12817055 0.76591626
0.21953845 0.09225434 0.86751154
0.51135052 0.08495848 0.92472971
0.81437640 0.10191884 0.79804798
0.99146618 0.17697628 0.56912735
1.00000000 0.37317077 0.44533765
1.00000000 0.72222949 0.66479456
0.00487419 0.21717612 0.70791073
0.00627941 0.21341617 0.72272965
0.04600001 0.16855944 0.83637246
0.23490495 0.19125700 0.85718421
0.50989404 0.21344578 0.88542809
0.82048999 0.18608424 0.80154864
0.98926215 0.24561771 0.58352194
0.99881038 0.41193977 0.47170737
1.00000000 0.74408786 0.68882029
0.09501704 0.34448983 0.81631209
0.08997570 0.34125848 0.83407147
0.15828405 0.34757506 0.83310769
0.29608538 0.36451046 0.83863962
0.53551700 0.37926161 0.87286416
0.84307212 0.34595717 0.82158598
0.98814199 0.39471529 0.62959299
0.99489010 0.51605623 0.54959180
1.00000000 0.80832697 0.76009848
0.29428055 0.58161789 0.86184891
0.29955825 0.58217637 0.86098956
0.33768725 0.58580258 0.85523446
0.43440210 0.59780974 0.84078696
0.60407960 0.62201295 0.83527878
0.84120048 0.61540658 0.82695952
0.97856293 0.63303094 0.73146390
0.98859633 0.70847318 0.71132514
1.00000000 0.93977460 0.90774508
0.09352973 0.82943909 0.82849411
0.10763426 0.82958906 0.82861673
0.14473542 0.83325335 0.83236925
0.34938780 0.83335466 0.83184729
0.61763022 0.83334465 0.83194561
0.83311348 0.83311348 0.83311348
0.97144181 0.83409677 0.82907820
0.99205729 0.88140723 0.86798551
1.00000000 1.00000000 1.00000000
0.53425300 0.93888848 0.66444350
0.53696129 0.93902622 0.66573239
0.55672806 0.94001340 0.67508423
0.61506861 0.94345115 0.70474779
0.73221073 0.95352247 0.77112855
0.84547134 0.96954336 0.82790077
0.96663673 0.97424231 0.83417425
1.00000000 0.99050648 0.96944159
1.00000000 1.00000000 1.00000000
0.85678974 1.00000000 0.83319364
0.85810716 1.00000000 0.83459423
0.86810607 1.00000000 0.84526153
0.89792608 1.00000000 0.87742274
1.00000000 1.00000000 1.00000000
1.00000000 1.00000000 1.00000000
1.00000000 1.00000000 1.00000000
1.00000000 1.00000000 1.00000000
1.00000000 1.00000000 1.00000000
1.00000000 1.00000000 1.00000000
1.00000000 1.00000000 1.00000000
1.00000000 1.00000000 1.00000000
1.00000000 1.00000000 1.00000000
1.00000000 1.00000000 1.00000000
1.00000000 1.00000000 1.00000000
1.00000000 1.00000000 1.00000000
1.00000000 1.00000000 1.00000000
1.00000000 1.00000000 1.00000000
0.00000000 0.23861838 0.67000205
0.00000000 0.23795046 0.68009268
0.00000000 0.22910249 0.75423316
0.05544429 0.21683484 0.89880296
0.30845958 0.27151764 0.98126157
0.61307166 0.27530055 1.00000000
0.90541696 0.22880989 0.87205981
0.99959540 0.37904825 0.64178012
1.00000000 0.72477903 0.75211294
0.00000000 0.24219566 0.68263885
0.00000000 0.24148425 0.69247259
0.00000000 0.23290081 0.76471328
0.06058289 0.22457299 0.90019321
0.31122842 0.27961205 0.97879998
0.61435173 0.28311278 1.00000000
0.90621166 0.23669520 0.87230378
0.99930741 0.38445888 0.64377343
1.00000000 0.72786175 0.75473761
0.00000000 0.26960699 0.76113566
0.00000000 0.26901123 0.76956277
0.00000000 0.26390965 0.82659793
0.10166439 0.27577572 0.90842927
0.33207714 0.33061320 0.96578062
0.62337002 0.33487425 0.99013312
0.90723748 0.29563015 0.86937094
0.99697558 0.42245821 0.65822882
1.00000000 0.75052044 0.77407451
0.09202241 0.37295894 0.88207473
0.09464188 0.37345085 0.88573980
0.12677280 0.37957205 0.89940321
0.22240419 0.40440124 0.91399135
0.40210489 0.44972217 0.94767146
0.65683265 0.45686521 0.97231506
0.91560631 0.43094542 0.87200921
0.99540476 0.52437543 0.70427247
1.00000000 0.81654119 0.83225512
0.36213598 0.58234089 0.93615897
0.36465126 0.58313897 0.93606767
0.38433520 0.58878427 0.93463359
0.44189999 0.60648831 0.93058454
0.56145374 0.64261506 0.93805968
0.73724743 0.65981376 0.95866222
0.93940004 0.64928641 0.90289947
0.99862402 0.71381020 0.80821954
1.00000000 0.95091593 0.95616854
0.52712750 0.76634760 0.99103383
0.52963107 0.76688105 0.99033805
0.54813664 0.77067721 0.98536779
0.60064508 0.78301352 0.97318098
0.70696908 0.81181164 0.95496248
0.82039175 0.83699521 0.97440972
0.98137827 0.83060096 0.96647856
1.00000000 0.89043384 0.91879100
1.00000000 1.00000000 1.00000000
0.21195121 0.95887091 0.95681366
0.01810592 0.97260577 0.97156238
0.14433534 0.97266282 0.97125928
0.34908215 0.97281030 0.97048584
0.61729705 0.97293660 0.96987218
0.83286903 0.97269914 0.97115503
0.97244176 0.97244176 0.97244176
1.00000000 1.00000000 1.00000000
1.00000000 1.00000000 1.00000000
0.87500784 1.00000000 0.90606278
0.87653196 1.00000000 0.90718952
0.88806859 1.00000000 0.91570933
0.92106245 1.00000000 0.94092360
1.00000000 1.00000000 1.00000000
1.00000000 1.00000000 1.00000000
1.00000000 1.00000000 1.00000000
1.00000000 1.00000000 1.00000000
1.00000000 1.00000000 1.00000000
1.00000000 1.00000000 1.00000000
1.00000000 1.00000000 1.00000000
1.00000000 1.00000000 1.00000000
1.00000000 1.00000000 1.00000000
1.00000000 1.00000000 1.00000000
1.00000000 1.00000000 1.00000000
1.00000000 1.00000000 1.00000000
1.00000000 1.00000000 1.00000000
1.00000000 1.00000000 1.00000000
0.00000000 0.29573402 0.73837817
0.00000000 0.29640257 0.74387510
0.00000000 0.30060593 0.78367157
0.00677473 0.31955576 0.87411017
0.17468515 0.38281296 0.96371844
0.40307882 0.43583546 1.00000000
0.67211538 0.42356341 0.99619814
0.92412951 0.43583067 0.87090857
1.00000000 0.74278908 0.88386136
0.00000000 0.29926012 0.74815416
0.00000000 0.29991973 0.75347867
0.00000000 0.30414957 0.79246554
0.00994537 0.32358698 0.87964219
0.18012464 0.38777149 0.96298045
0.40611409 0.44023929 1.00000000
0.67365557 0.42821242 0.99528883
0.92420366 0.44071428 0.87084444
1.00000000 0.74591640 0.88534043
0.00000000 0.32569973 0.81048071
0.00000000 0.32639473 0.81502830
0.00025265 0.33145365 0.84665640
0.04260788 0.35484223 0.90937495
0.21810832 0.42174892 0.95909446
0.42833250 0.47090148 0.99465927
0.68480156 0.46096844 0.98892364
0.92491928 0.47490843 0.87101239
1.00000000 0.76892596 0.89610576
0.10716987 0.41886915 0.90991211
0.10933775 0.41992824 0.91154372
0.12926300 0.42816639 0.91980073
0.19446329 0.45575182 0.93179854
0.32499155 0.51273356 0.95579555
0.49796805 0.55499437 0.98627223
0.72237201 0.55012073 0.98038790
0.93275890 0.56759579 0.88013679
1.00000000 0.83546994 0.93140318
0.38767209 0.60823698 0.95546219
0.38936795 0.60908845 0.95561125
0.40253760 0.61525873 0.95608472
0.44331525 0.63459064 0.95692370
0.53225647 0.67655548 0.96696915
0.65265481 0.71289127 0.98563452
0.81017514 0.71873145 0.98177814
0.95831545 0.74355656 0.91915800
1.00000000 1.00000000 1.00000000
0.61743750 0.77091315 0.98685949
0.61881530 0.77155984 0.98671661
0.62909033 0.77625763 0.98566776
0.66034595 0.79117768 0.98378452
0.72965800 0.82545041 0.98498946
0.81351740 0.86052460 0.99317613
0.90483253 0.87868955 0.99404944
0.98917138 0.91116043 0.97401655
1.00000000 1.00000000 1.00000000
0.74984467 0.88357727 1.00000000
0.75117552 0.88408501 1.00000000
0.76113922 0.88778058 1.00000000
0.79107260 0.89976819 0.99960911
0.85630707 0.92845543 0.99942050
0.92714933 0.96107363 1.00000000
0.98169364 0.98570329 1.00000000
1.00000000 1.00000000 1.00000000
1.00000000 1.00000000 1.00000000
0.90339731 1.00000000 1.00000000
0.90507649 1.00000000 1.00000000
0.91747075 1.00000000 1.00000000
1.00000000 1.00000000 1.00000000
1.00000000 1.00000000 1.00000000
1.00000000 1.00000000 1.00000000
1.00000000 1.00000000 1.00000000
1.00000000 1.00000000 1.00000000
1.00000000 1.00000000 1.00000000
1.00000000 1.00000000 1.00000000
1.00000000 1.00000000 1.00000000
1.00000000 1.00000000 1.00000000
1.00000000 1.00000000 1.00000000
1.00000000 1.00000000 1.00000000
1.00000000 1.00000000 1.00000000
1.00000000 1.00000000 1.00000000
1.00000000 1.00000000 1.00000000
1.00000000 1.00000000 1.00000000
0.09411206 0.48680235 1.00000000
0.09449375 0.48760431 1.00000000
0.09997136 0.49364424 1.00000000
0.14224580 0.51630996 1.00000000
0.26078003 0.57140739 1.00000000
0.40589902 0.62340564 1.00000000
0.57680611 0.64249174 1.00000000
0.81329316 0.64994198 1.00000000
1.00000000 0.85960940 1.00000000
0.09690037 0.48956028 1.00000000
0.09739029 0.49037026 1.00000000
0.10333691 0.49645573 1.00000000
0.14651481 0.51924308 1.00000000
0.26517302 0.57428478 1.00000000
0.40931587 0.62601826 1.00000000
0.57925453 0.64507307 1.00000000
0.81453636 0.65270542 1.00000000
1.00000000 0.86222076 1.00000000
0.12354512 0.51054696 1.00000000
0.12445609 0.51139849 1.00000000
0.13429879 0.51796256 1.00000000
0.18289686 0.54152861 1.00000000
0.29759443 0.59513392 1.00000000
0.43464004 0.64495487 1.00000000
0.59741656 0.66388696 1.00000000
0.82337521 0.67301404 1.00000000
1.00000000 0.88165468 1.00000000
0.23722838 0.58033249 1.00000000
0.23873264 0.58123043 1.00000000
0.25169983 0.58798733 1.00000000
0.29587000 0.60966813 1.00000000
0.39176939 0.65674262 1.00000000
0.51114301 0.70150532 1.00000000
0.65433920 0.72014988 1.00000000
0.85336512 0.73310742 1.00000000
1.00000000 0.93763859 1.00000000
0.46571443 0.72279643 1.00000000
0.46703843 0.72351463 1.00000000
0.47743121 0.72876514 1.00000000
0.51001658 0.74526401 1.00000000
0.58308332 0.78232368 1.00000000
0.67664041 0.81973196 1.00000000
0.78414819 0.83893490 1.00000000
0.92726755 0.85979578 1.00000000
1.00000000 1.00000000 1.00000000
0.69079328 0.85664179 1.00000000
0.69190083 0.85721304 1.00000000
0.70035704 0.86137511 1.00000000
0.72622347 0.87464126 1.00000000
0.78462358 0.90551750 1.00000000
0.85724439 0.93878988 1.00000000
0.92943185 0.96094957 1.00000000
1.00000000 1.00000000 1.00000000
1.00000000 1.00000000 1.00000000
0.85494269 0.94647987 1.00000000
0.85593412 0.94697043 1.00000000
0.86342533 0.95054226 1.00000000
0.88583145 0.96213230 1.00000000
0.93523533 0.99022696 1.00000000
1.00000000 1.00000000 1.00000000
1.00000000 1.00000000 1.00000000
1.00000000 1.00000000 1.00000000
1.00000000 1.00000000 1.00000000
1.00000000 1.00000000 1.00000000
1.00000000 1.00000000 1.00000000
1.00000000 1.00000000 1.00000000
1.00000000 1.00000000 1.00000000
1.00000000 1.00000000 1.00000000
1.00000000 1.00000000 1.00000000
1.00000000 1.00000000 1.00000000
1.00000000 1.00000000 1.00000000
1.00000000 1.00000000 1.00000000
1.00000000 1.00000000 1.00000000
1.00000000 1.00000000 1.00000000
1.00000000 1.00000000 1.00000000
1.00000000 1.00000000 1.00000000
1.00000000 1.00000000 1.00000000
1.00000000 1.00000000 1.00000000
1.00000000 1.00000000 1.00000000
1.00000000 1.00000000 1.00000000
1.00000000 1.00000000 1.00000000
