Luts Download/Canon Luts/3dlut/17grid-3dlut/full-to-full-range/BT709_CanonLog-to-BT709_WideDR_17_FF_Ver.2.0.cube
# Gamut : BT.709 to BT.709
# Gamma : Canon Log to Wide DR
# Range : Full in / Full out
# Version : 2.0 2019/10/24
# Copyright(c) 2019 Canon Inc. All Rights Reserved.
LUT_3D_SIZE 5
# LUT_3D_INPUT_RANGE 0.0 1.0
0.00000000 0.00000000 0.00000000
0.20283796 0.02584053 0.02419099
0.57584055 0.07599449 0.04334975
0.78713429 0.15540151 0.02605633
0.89787509 0.21578254 0.00000000
0.06659090 0.23243478 0.05892525
0.24307543 0.24462487 0.03985054
0.61245039 0.25143128 0.05392285
0.84336460 0.26174715 0.08076745
0.96567032 0.28465049 0.05893274
0.15568239 0.61150975 0.09672726
0.27490596 0.61815936 0.09097538
0.61775217 0.62431528 0.09585044
0.96745432 0.56364032 0.17772811
1.00000000 0.58231147 0.39603542
0.23641050 0.84757445 0.09644626
0.30254571 0.85516424 0.12429547
0.50804853 0.88463077 0.16334678
0.84895771 0.86452684 0.18866532
1.00000000 0.80912242 0.53951826
0.27535712 0.98526601 0.05926363
0.31509517 0.99366662 0.10003503
0.52992622 1.00000000 0.32807976
0.73431406 1.00000000 0.47166571
0.97052763 0.99746009 0.43439893
0.01097081 0.01655122 0.17834233
0.21932094 0.02875940 0.21584742
0.58769062 0.06924416 0.22677652
0.81909546 0.12615087 0.14429140
0.93087811 0.19464520 0.03396629
0.05636104 0.23834902 0.23796602
0.24578998 0.24578998 0.24578998
0.62307306 0.24699596 0.24139802
0.85440631 0.26089047 0.20402597
0.97464597 0.29003375 0.13968781
0.14652877 0.61351250 0.25380826
0.25876455 0.62216337 0.24218216
0.62104503 0.62464960 0.24643981
0.95563533 0.57199196 0.30746693
1.00000000 0.59365410 0.44279520
0.25387158 0.84851316 0.21018415
0.31791449 0.85590815 0.22961776
0.52460041 0.88326504 0.27657920
0.85307622 0.86646133 0.24837395
1.00000000 0.81518376 0.57369030
0.34064747 0.98111623 0.19599245
0.37265435 0.98974076 0.21868787
0.55784590 1.00000000 0.38554294
0.75076510 1.00000000 0.51769097
0.97157159 0.99822569 0.50133123
0.01200114 0.09903285 0.48257372
0.20726394 0.07797805 0.55957934
0.59693811 0.08214121 0.58277379
0.88090785 0.08230101 0.44421359
1.00000000 0.17659819 0.26726252
0.06555988 0.25478078 0.56812244
0.23394501 0.24920789 0.62511598
0.62723897 0.24417341 0.62048585
0.91989229 0.22629773 0.47798068
1.00000000 0.31339963 0.34547953
0.07548196 0.61981487 0.61895202
0.24561632 0.62387460 0.62329188
0.62377960 0.62377960 0.62377960
0.86176277 0.62539263 0.61739013
0.99140709 0.63399251 0.59137042
0.41678923 0.83460758 0.52908727
0.47296718 0.83855802 0.55012448
0.64261210 0.85936817 0.61684759
0.85601189 0.86547374 0.62512554
1.00000000 0.84094853 0.71320344
0.56188157 0.95473297 0.51543811
0.58850765 0.96147253 0.53620792
0.68202803 0.99093695 0.60564457
0.81919722 1.00000000 0.69222909
0.97999671 1.00000000 0.71514758
0.00000000 0.20737933 0.59580712
0.05139443 0.17441753 0.76531410
0.47171343 0.17204947 0.89740327
0.83680491 0.12254518 0.80781648
1.00000000 0.18202770 0.56285499
0.03071979 0.29169365 0.74721530
0.12886901 0.27283155 0.87014847
0.49868474 0.30951741 0.90316323
0.87525571 0.23937116 0.84876112
1.00000000 0.31453490 0.60163344
0.31582344 0.58519525 0.88637477
0.39222844 0.59494509 0.87525707
0.60475045 0.62946584 0.86603009
0.87362234 0.62049219 0.85532459
1.00000000 0.63576007 0.74139937
0.07981834 0.86034042 0.85874966
0.25997882 0.86222455 0.86033751
0.62345908 0.86351234 0.86174391
0.86322055 0.86322055 0.86322055
0.99365423 0.86666846 0.86121792
0.57331637 0.96473478 0.67720578
0.61521778 0.96739680 0.70066873
0.75718342 0.98018099 0.78942662
0.87692276 0.99859790 0.85735095
0.99391683 1.00000000 0.88971050
0.00000000 0.27338513 0.62887217
0.00000000 0.28340049 0.73520931
0.23407138 0.30704811 0.99660384
0.60949109 0.30890282 1.00000000
0.97519075 0.14745239 0.93556953
0.00000000 0.33914343 0.80093414
0.00000000 0.34408629 0.89025873
0.30343059 0.39754557 1.00000000
0.63975961 0.40311346 1.00000000
0.98579094 0.29794311 0.93970606
0.33287269 0.58856550 0.99456896
0.37848298 0.60204723 0.99487427
0.53897905 0.65050959 0.99790535
0.75012252 0.66841574 1.00000000
1.00000000 0.63518147 0.95535504
0.56578600 0.79145227 1.00000000
0.59776514 0.80110687 1.00000000
0.71774164 0.83856961 1.00000000
0.84942496 0.86808869 0.99988126
1.00000000 0.86555890 0.98668081
0.24386551 0.99095125 0.98813566
0.35458927 0.99272394 0.98950793
0.65104673 0.99730505 0.99370150
0.87045819 1.00000000 0.99857091
1.00000000 1.00000000 1.00000000
