Luts Download/Canon Luts/3dlut/17grid-3dlut/full-to-full-range/BT709_CanonLog2-to-BT709_WideDR_17_FF_Ver.2.0.cube
# Gamut : BT.709 to BT.709
# Gamma : Canon Log 2 to Wide DR
# Range : Full in / Full out
# Version : 2.0 2019/10/24
# Copyright(c) 2019 Canon Inc. All Rights Reserved.
LUT_3D_SIZE 5
# LUT_3D_INPUT_RANGE 0.0 1.0
0.00000000 0.00000000 0.00000000
0.10661975 0.01291345 0.01231440
0.58581662 0.05270973 0.01849134
0.90180379 0.15910443 0.02164996
1.00000000 0.63899219 0.49009124
0.01810687 0.14067723 0.01395141
0.14416896 0.14531150 0.00910320
0.60115216 0.16226042 0.02641006
0.92341546 0.21537192 0.06006646
1.00000000 0.66701027 0.52596975
0.08600587 0.61257774 0.03923099
0.17929119 0.61450167 0.04449815
0.61455060 0.61891115 0.05250364
1.00000000 0.56444322 0.35253180
1.00000000 0.86659202 0.78372057
0.29852173 0.95088615 0.17240658
0.32801037 0.95333524 0.19434128
0.51945710 0.98171933 0.32356202
0.93937528 0.96464675 0.50274230
1.00000000 1.00000000 1.00000000
1.00000000 1.00000000 1.00000000
1.00000000 1.00000000 1.00000000
1.00000000 1.00000000 1.00000000
1.00000000 1.00000000 1.00000000
1.00000000 1.00000000 1.00000000
0.00954466 0.01204373 0.10652711
0.13317164 0.00938888 0.13026730
0.59808114 0.03708639 0.13369401
0.91617502 0.14794922 0.04817393
1.00000000 0.64624131 0.50084572
0.01939957 0.14140129 0.14110684
0.14520997 0.14520997 0.14520997
0.61622765 0.14816865 0.13801229
0.92163002 0.22588880 0.10950806
1.00000000 0.67402561 0.53619751
0.07940868 0.61297314 0.14921563
0.16151724 0.61643050 0.14231794
0.61588198 0.61852234 0.14567510
1.00000000 0.57228846 0.38536035
1.00000000 0.87349485 0.79225298
0.22553168 0.96131465 0.11814948
0.24805866 0.96546364 0.12889741
0.54306153 0.97808864 0.36673971
0.93999632 0.96487980 0.52887918
1.00000000 1.00000000 1.00000000
1.00000000 1.00000000 1.00000000
1.00000000 1.00000000 1.00000000
1.00000000 1.00000000 1.00000000
1.00000000 1.00000000 1.00000000
1.00000000 1.00000000 1.00000000
0.00324822 0.09542119 0.48548331
0.11290860 0.04803508 0.57690499
0.60627562 0.03807208 0.59838418
0.98084771 0.14746138 0.30862879
1.00000000 0.69811405 0.59332200
0.01953445 0.17070078 0.55778931
0.12768243 0.15011242 0.61932594
0.62008103 0.14412337 0.61502723
0.97247209 0.23925774 0.34440049
1.00000000 0.72334595 0.62376012
0.02873366 0.61637115 0.61598784
0.15221696 0.61736776 0.61697344
0.61787795 0.61787795 0.61787795
0.93083645 0.63991072 0.61018680
1.00000000 0.91899546 0.86236108
0.53638558 0.92776742 0.51828432
0.55051890 0.93085085 0.52776230
0.66673251 0.96314024 0.60315030
0.95796046 0.97698709 0.62047380
1.00000000 1.00000000 1.00000000
1.00000000 1.00000000 1.00000000
1.00000000 1.00000000 1.00000000
1.00000000 1.00000000 1.00000000
1.00000000 1.00000000 1.00000000
1.00000000 1.00000000 1.00000000
0.00000000 0.23861838 0.67000205
0.00000000 0.22910249 0.75423316
0.30845958 0.27151764 0.98126157
0.90541696 0.22880989 0.87205981
1.00000000 0.72477903 0.75211294
0.00000000 0.26960699 0.76113566
0.00000000 0.26390965 0.82659793
0.33207714 0.33061320 0.96578062
0.90723748 0.29563015 0.86937094
1.00000000 0.75052044 0.77407451
0.36213598 0.58234089 0.93615897
0.38433520 0.58878427 0.93463359
0.56145374 0.64261506 0.93805968
0.93940004 0.64928641 0.90289947
1.00000000 0.95091593 0.95616854
0.21195121 0.95887091 0.95681366
0.14433534 0.97266282 0.97125928
0.61729705 0.97293660 0.96987218
0.97244176 0.97244176 0.97244176
1.00000000 1.00000000 1.00000000
1.00000000 1.00000000 1.00000000
1.00000000 1.00000000 1.00000000
1.00000000 1.00000000 1.00000000
1.00000000 1.00000000 1.00000000
1.00000000 1.00000000 1.00000000
0.09411206 0.48680235 1.00000000
0.09997136 0.49364424 1.00000000
0.26078003 0.57140739 1.00000000
0.57680611 0.64249174 1.00000000
1.00000000 0.85960940 1.00000000
0.12354512 0.51054696 1.00000000
0.13429879 0.51796256 1.00000000
0.29759443 0.59513392 1.00000000
0.59741656 0.66388696 1.00000000
1.00000000 0.88165468 1.00000000
0.46571443 0.72279643 1.00000000
0.47743121 0.72876514 1.00000000
0.58308332 0.78232368 1.00000000
0.78414819 0.83893490 1.00000000
1.00000000 1.00000000 1.00000000
0.85494269 0.94647987 1.00000000
0.86342533 0.95054226 1.00000000
0.93523533 0.99022696 1.00000000
1.00000000 1.00000000 1.00000000
1.00000000 1.00000000 1.00000000
1.00000000 1.00000000 1.00000000
1.00000000 1.00000000 1.00000000
1.00000000 1.00000000 1.00000000
1.00000000 1.00000000 1.00000000
1.00000000 1.00000000 1.00000000
