Luts Download/Canon Luts/3dlut/17grid-3dlut/full-to-full-range/BT709_CanonLog3-to-BT709_WideDR_17_FF_Ver.2.0.cube
# Gamut : BT.709 to BT.709
# Gamma : Canon Log 3 to Wide DR
# Range : Full in / Full out
# Version : 2.0 2019/10/24
# Copyright(c) 2019 Canon Inc. All Rights Reserved.
LUT_3D_SIZE 9
# LUT_3D_INPUT_RANGE 0.0 1.0
0.00000000 0.00000000 0.00000000
0.00000000 0.00000000 0.00000000
0.19451475 0.02410254 0.02256255
0.41297350 0.04855246 0.03836681
0.60111666 0.08296084 0.04256749
0.73621671 0.13024872 0.03334386
0.82390151 0.18007068 0.02287827
0.88018392 0.22123917 0.01621872
0.95767062 0.25483438 0.00788137
0.00000000 0.00000000 0.00000000
0.00000000 0.00000000 0.00000000
0.19451475 0.02410254 0.02256255
0.41297350 0.04855246 0.03836681
0.60111666 0.08296084 0.04256749
0.73621671 0.13024872 0.03334386
0.82390151 0.18007068 0.02287827
0.88018392 0.22123917 0.01621872
0.95767062 0.25483438 0.00788137
0.06225133 0.22309386 0.05509370
0.06225133 0.22309386 0.05509370
0.23338442 0.23488308 0.03733557
0.44129723 0.24272093 0.03698359
0.63817339 0.24320599 0.05643797
0.78318985 0.25004630 0.07678838
0.87957831 0.26745021 0.08431836
0.93678845 0.29295792 0.09311814
0.99603158 0.33158077 0.12028957
0.11186220 0.44467201 0.08300616
0.11186220 0.44467201 0.08300616
0.25614491 0.45112468 0.06123246
0.45272943 0.45608369 0.06096702
0.67599660 0.44188443 0.06897746
0.85752572 0.41601569 0.12084112
0.95459346 0.41600587 0.19475100
0.98199280 0.44600809 0.26742508
1.00000000 0.48568097 0.31991517
0.16252272 0.63860494 0.09616156
0.16252272 0.63860494 0.09616156
0.27013795 0.64494115 0.09444367
0.43146593 0.65477205 0.10542710
0.64431965 0.65163224 0.10254725
0.87620625 0.61499246 0.12284354
1.00000000 0.58967087 0.27890390
1.00000000 0.60745580 0.41596363
1.00000000 0.64021597 0.49406244
0.21172552 0.78744929 0.09720911
0.21172552 0.78744929 0.09720911
0.28784181 0.79423347 0.11723674
0.40280943 0.80874620 0.13805743
0.57018343 0.81907679 0.15052396
0.79033641 0.80299856 0.15811527
0.99260209 0.75913131 0.29403438
1.00000000 0.74881700 0.51348398
1.00000000 0.76791968 0.62626240
0.26005742 0.89517476 0.10425564
0.26005742 0.89517476 0.10425564
0.31440012 0.90216356 0.13751075
0.39335994 0.91871661 0.16993360
0.51274285 0.93653904 0.20284947
0.68009489 0.93941455 0.22794519
0.89236126 0.91233362 0.28561572
1.00000000 0.87178338 0.54080183
1.00000000 0.87007430 0.71276216
0.33736448 0.96575709 0.16815348
0.33736448 0.96575709 0.16815348
0.38553437 0.97093351 0.21457000
0.46629512 0.98207674 0.28880895
0.57836647 0.99298660 0.38773801
0.69283026 0.99970717 0.46967118
0.81171312 0.99847431 0.51759542
0.95403546 0.98107713 0.54544877
1.00000000 0.95625761 0.78596551
0.54537876 1.00000000 0.40004629
0.54537876 1.00000000 0.40004629
0.59142920 1.00000000 0.45203443
0.66617218 1.00000000 0.53745434
0.75647628 1.00000000 0.64261975
0.84037635 1.00000000 0.74065560
0.91077458 1.00000000 0.82018083
1.00000000 1.00000000 1.00000000
1.00000000 1.00000000 1.00000000
0.00000000 0.00000000 0.00000000
0.00000000 0.00000000 0.00000000
0.19451475 0.02410254 0.02256255
0.41297350 0.04855246 0.03836681
0.60111666 0.08296084 0.04256749
0.73621671 0.13024872 0.03334386
0.82390151 0.18007068 0.02287827
0.88018392 0.22123917 0.01621872
0.95767062 0.25483438 0.00788137
0.00000000 0.00000000 0.00000000
0.00000000 0.00000000 0.00000000
0.19451475 0.02410254 0.02256255
0.41297350 0.04855246 0.03836681
0.60111666 0.08296084 0.04256749
0.73621671 0.13024872 0.03334386
0.82390151 0.18007068 0.02287827
0.88018392 0.22123917 0.01621872
0.95767062 0.25483438 0.00788137
0.06225133 0.22309386 0.05509370
0.06225133 0.22309386 0.05509370
0.23338442 0.23488308 0.03733557
0.44129723 0.24272093 0.03698359
0.63817339 0.24320599 0.05643797
0.78318985 0.25004630 0.07678838
0.87957831 0.26745021 0.08431836
0.93678845 0.29295792 0.09311814
0.99603158 0.33158077 0.12028957
0.11186220 0.44467201 0.08300616
0.11186220 0.44467201 0.08300616
0.25614491 0.45112468 0.06123246
0.45272943 0.45608369 0.06096702
0.67599660 0.44188443 0.06897746
0.85752572 0.41601569 0.12084112
0.95459346 0.41600587 0.19475100
0.98199280 0.44600809 0.26742508
1.00000000 0.48568097 0.31991517
0.16252272 0.63860494 0.09616156
0.16252272 0.63860494 0.09616156
0.27013795 0.64494115 0.09444367
0.43146593 0.65477205 0.10542710
0.64431965 0.65163224 0.10254725
0.87620625 0.61499246 0.12284354
1.00000000 0.58967087 0.27890390
1.00000000 0.60745580 0.41596363
1.00000000 0.64021597 0.49406244
0.21172552 0.78744929 0.09720911
0.21172552 0.78744929 0.09720911
0.28784181 0.79423347 0.11723674
0.40280943 0.80874620 0.13805743
0.57018343 0.81907679 0.15052396
0.79033641 0.80299856 0.15811527
0.99260209 0.75913131 0.29403438
1.00000000 0.74881700 0.51348398
1.00000000 0.76791968 0.62626240
0.26005742 0.89517476 0.10425564
0.26005742 0.89517476 0.10425564
0.31440012 0.90216356 0.13751075
0.39335994 0.91871661 0.16993360
0.51274285 0.93653904 0.20284947
0.68009489 0.93941455 0.22794519
0.89236126 0.91233362 0.28561572
1.00000000 0.87178338 0.54080183
1.00000000 0.87007430 0.71276216
0.33736448 0.96575709 0.16815348
0.33736448 0.96575709 0.16815348
0.38553437 0.97093351 0.21457000
0.46629512 0.98207674 0.28880895
0.57836647 0.99298660 0.38773801
0.69283026 0.99970717 0.46967118
0.81171312 0.99847431 0.51759542
0.95403546 0.98107713 0.54544877
1.00000000 0.95625761 0.78596551
0.54537876 1.00000000 0.40004629
0.54537876 1.00000000 0.40004629
0.59142920 1.00000000 0.45203443
0.66617218 1.00000000 0.53745434
0.75647628 1.00000000 0.64261975
0.84037635 1.00000000 0.74065560
0.91077458 1.00000000 0.82018083
1.00000000 1.00000000 1.00000000
1.00000000 1.00000000 1.00000000
0.01025142 0.01546664 0.17078644
0.01025142 0.01546664 0.17078644
0.21047158 0.02680470 0.20711898
0.42144804 0.04723635 0.22742335
0.61493407 0.07241186 0.21402697
0.76165293 0.10608468 0.16904402
0.85896432 0.14954159 0.10696193
0.90684572 0.20759803 0.06723367
0.97521491 0.25298022 0.04452437
0.01025142 0.01546664 0.17078644
0.01025142 0.01546664 0.17078644
0.21047158 0.02680470 0.20711898
0.42144804 0.04723635 0.22742335
0.61493407 0.07241186 0.21402697
0.76165293 0.10608468 0.16904402
0.85896432 0.14954159 0.10696193
0.90684572 0.20759803 0.06723367
0.97521491 0.25298022 0.04452437
0.05231139 0.22885609 0.22848707
0.05231139 0.22885609 0.22848707
0.23600832 0.23600832 0.23600832
0.45613266 0.23611505 0.23556576
0.64986482 0.23786275 0.22955748
0.79653117 0.24519814 0.20921023
0.89835998 0.26007805 0.17451069
0.93660015 0.30553615 0.17354343
0.99305586 0.34716956 0.17810132
0.09400536 0.44711257 0.25248492
0.09400536 0.44711257 0.25248492
0.23768217 0.45594100 0.23542043
0.45567337 0.45636777 0.23612629
0.68140449 0.44038294 0.24521197
0.84371419 0.42685631 0.27293437
0.93028671 0.43737065 0.30372732
0.96611145 0.46417503 0.33208807
1.00000000 0.50058444 0.36023218
0.15464846 0.64050731 0.24195337
0.15464846 0.64050731 0.24195337
0.25371155 0.64885321 0.23137916
0.42895473 0.65658780 0.24482395
0.64756531 0.65200155 0.23682086
0.88499582 0.61358094 0.23711074
0.99566747 0.59818311 0.36273395
1.00000000 0.61769704 0.46094203
1.00000000 0.65059574 0.52201276
0.20769764 0.79017406 0.20759848
0.20769764 0.79017406 0.20759848
0.28895799 0.79633720 0.22397025
0.41104729 0.80918293 0.24947116
0.57549030 0.81952600 0.25953913
0.79400328 0.80424422 0.23796815
0.99076103 0.76236518 0.36395376
1.00000000 0.75472114 0.54623373
1.00000000 0.77636374 0.64781408
0.27965438 0.89607062 0.19656822
0.27965438 0.89607062 0.19656822
0.32769529 0.90358976 0.21628571
0.40939807 0.91914230 0.24897653
0.52387244 0.93722089 0.27499766
0.68171193 0.94255338 0.27269868
0.90060420 0.91619416 0.23908829
1.00000000 0.87599164 0.57442519
1.00000000 0.87767252 0.73429717
0.32751348 0.97154608 0.18860172
0.32751348 0.97154608 0.18860172
0.35953972 0.97964251 0.20999240
0.50179227 0.97868569 0.35492090
0.60506909 0.99009715 0.44187486
0.71158429 0.99776961 0.51585148
0.82293176 0.99773309 0.56011815
0.95639566 0.98223733 0.58483979
1.00000000 0.96142665 0.81073390
0.56781737 1.00000000 0.43482772
0.56781737 1.00000000 0.43482772
0.61237193 1.00000000 0.48449304
0.68555329 1.00000000 0.56762316
0.77371676 1.00000000 0.67007012
0.85617276 1.00000000 0.76708491
0.92452266 1.00000000 0.84612198
1.00000000 1.00000000 1.00000000
1.00000000 1.00000000 1.00000000
0.01797378 0.04965221 0.35426936
0.01797378 0.04965221 0.35426936
0.21718239 0.04624093 0.39958247
0.42877146 0.05739998 0.42065382
0.63440816 0.06513928 0.39742200
0.79351006 0.08425096 0.33115712
0.89892016 0.12501883 0.24549155
0.94730735 0.19330367 0.17214867
0.99383598 0.26629820 0.14299271
0.01797378 0.04965221 0.35426936
0.01797378 0.04965221 0.35426936
0.21718239 0.04624093 0.39958247
0.42877146 0.05739998 0.42065382
0.63440816 0.06513928 0.39742200
0.79351006 0.08425096 0.33115712
0.89892016 0.12501883 0.24549155
0.94730735 0.19330367 0.17214867
0.99383598 0.26629820 0.14299271
0.05319384 0.23772479 0.41723221
0.05319384 0.23772479 0.41723221
0.23468463 0.23640436 0.45637813
0.45688956 0.23573170 0.45566708
0.66793304 0.23063330 0.41955768
0.82031972 0.23894253 0.36271855
0.92077252 0.26026146 0.30077912
0.94826913 0.31966111 0.27013918
0.99530761 0.36966251 0.25660553
0.08020080 0.45034406 0.44971021
0.08020080 0.45034406 0.44971021
0.23597590 0.45622307 0.45609150
0.45620114 0.45620114 0.45620114
0.65066300 0.45653259 0.45480592
0.79962908 0.45888018 0.44638608
0.90477757 0.46534275 0.42744003
0.94343876 0.49306836 0.42392575
0.99118011 0.52577041 0.42574054
0.19492881 0.63940770 0.42643012
0.19492881 0.63940770 0.42643012
0.30117301 0.64385358 0.43334890
0.46138164 0.64990921 0.45423364
0.64881292 0.65159346 0.45660296
0.84692736 0.63053240 0.46443045
0.95243542 0.62539378 0.50661213
0.98149270 0.64435938 0.54933250
1.00000000 0.67420582 0.58089814
0.31603052 0.78072065 0.40295044
0.31603052 0.78072065 0.40295044
0.38048763 0.78572312 0.41969140
0.48233262 0.79734696 0.44819461
0.61532395 0.81017190 0.46650563
0.79428370 0.80412349 0.45765874
0.97380397 0.77291524 0.50154022
1.00000000 0.76977545 0.61730771
1.00000000 0.79413532 0.69442787
0.40835283 0.88247417 0.39163468
0.40835283 0.88247417 0.39163468
0.44610137 0.88921096 0.40949106
0.51250296 0.90365938 0.44094005
0.60311008 0.92216574 0.46977621
0.72483110 0.93200327 0.47626427
0.89922537 0.91658337 0.45880812
1.00000000 0.88512105 0.64693598
1.00000000 0.89209446 0.77763800
0.46708715 0.95554906 0.38469305
0.46708715 0.95554906 0.38469305
0.49301343 0.96298961 0.40258861
0.54059409 0.97863332 0.43485836
0.66205086 0.98204216 0.54597113
0.75268823 0.99182162 0.60793707
0.84833275 0.99435097 0.64847837
0.96081423 0.98317608 0.67772668
1.00000000 0.97102392 0.85780174
0.62310097 1.00000000 0.51485219
0.62310097 1.00000000 0.51485219
0.66119693 1.00000000 0.55659330
0.72792894 1.00000000 0.63179301
0.80999739 1.00000000 0.72698199
0.88733992 1.00000000 0.81875391
0.94963847 1.00000000 0.89262415
1.00000000 1.00000000 1.00000000
1.00000000 1.00000000 1.00000000
0.00917682 0.11081260 0.49833393
0.00917682 0.11081260 0.49833393
0.19047530 0.08378004 0.58648046
0.40424353 0.09022116 0.62180296
0.62547879 0.08301284 0.61020664
0.81052225 0.07464555 0.53130506
0.93482482 0.10190764 0.41877688
0.98157186 0.19239764 0.31588518
1.00000000 0.28618496 0.26285972
0.00917682 0.11081260 0.49833393
0.00917682 0.11081260 0.49833393
0.19047530 0.08378004 0.58648046
0.40424353 0.09022116 0.62180296
0.62547879 0.08301284 0.61020664
0.81052225 0.07464555 0.53130506
0.93482482 0.10190764 0.41877688
0.98157186 0.19239764 0.31588518
1.00000000 0.28618496 0.26285972
0.06066188 0.24886425 0.58982503
0.06066188 0.24886425 0.58982503
0.21896474 0.24085411 0.65273213
0.42651722 0.24847586 0.66350914
0.65512675 0.23397448 0.64671493
0.85055634 0.21318250 0.56307564
0.95131468 0.25133348 0.45822008
0.98155423 0.31899555 0.38239939
1.00000000 0.38549027 0.34662000
0.12815125 0.44232676 0.65989385
0.12815125 0.44232676 0.65989385
0.28000857 0.44680243 0.65367251
0.45189670 0.45749629 0.65160503
0.65380423 0.45526569 0.64883296
0.83227215 0.44851174 0.59809264
0.94477373 0.45569665 0.53883796
0.96713669 0.49857968 0.50514931
1.00000000 0.53997669 0.49054253
0.06695674 0.64758119 0.64670148
0.06695674 0.64758119 0.64670148
0.23579098 0.65104091 0.65035301
0.45609497 0.65102052 0.65047474
0.65092930 0.65092930 0.65092930
0.80138194 0.65135431 0.64910913
0.90995177 0.65354185 0.64098505
0.95324996 0.67098756 0.64121223
0.99510161 0.69746779 0.64650118
0.31417455 0.78635853 0.56473273
0.31417455 0.78635853 0.56473273
0.40040099 0.78731717 0.58148494
0.52710481 0.79138354 0.61515115
0.65763572 0.80027464 0.64812562
0.79856051 0.80276215 0.65151756
0.95202673 0.78540186 0.65678440
0.99355973 0.79203154 0.71664829
1.00000000 0.81677752 0.75787654
0.47956127 0.87662601 0.54305989
0.47956127 0.87662601 0.54305989
0.52069438 0.88109970 0.56361920
0.59158581 0.89149227 0.60183962
0.67702797 0.90709365 0.64158801
0.77243018 0.91987723 0.65960549
0.90291635 0.91538359 0.65270054
1.00000000 0.89627047 0.74117752
1.00000000 0.90930459 0.83356856
0.56393359 0.94405162 0.53593898
0.56393359 0.94405162 0.53593898
0.59062940 0.94999278 0.55602429
0.63937776 0.96286881 0.59332733
0.70055252 0.98151419 0.63479071
0.80188104 0.98432905 0.71767683
0.87999879 0.99032898 0.75307442
0.97574945 0.99596439 0.65381924
1.00000000 0.98277161 0.91130966
0.68677016 1.00000000 0.61258799
0.68677016 1.00000000 0.61258799
0.71899966 1.00000000 0.64685509
0.77882149 1.00000000 0.71264247
0.85450713 1.00000000 0.79885941
0.92492355 1.00000000 0.88153594
1.00000000 1.00000000 1.00000000
1.00000000 1.00000000 1.00000000
1.00000000 1.00000000 1.00000000
0.00000000 0.17760365 0.57532764
0.00000000 0.17760365 0.57532764
0.10826670 0.13894959 0.72426223
0.33183260 0.13884480 0.79528437
0.56259325 0.13223410 0.81486224
0.77623195 0.10893201 0.75208995
0.93276012 0.11027161 0.62539736
0.99744492 0.19807566 0.48591376
1.00000000 0.29984868 0.39723444
0.00000000 0.17760365 0.57532764
0.00000000 0.17760365 0.57532764
0.10826670 0.13894959 0.72426223
0.33183260 0.13884480 0.79528437
0.56259325 0.13223410 0.81486224
0.77623195 0.10893201 0.75208995
0.93276012 0.11027161 0.62539736
0.99744492 0.19807566 0.48591376
1.00000000 0.29984868 0.39723444
0.04311872 0.27060478 0.70585745
0.04311872 0.27060478 0.70585745
0.16487119 0.25402290 0.80697240
0.36407294 0.27233754 0.82766633
0.58663479 0.26674464 0.84406656
0.81105153 0.23111769 0.79095740
0.95336889 0.24966402 0.65429561
1.00000000 0.31925546 0.52950763
1.00000000 0.39495902 0.45843377
0.17796408 0.43628098 0.80625617
0.17796408 0.43628098 0.80625617
0.28578102 0.44607284 0.80184220
0.42897102 0.46409800 0.80536390
0.60826285 0.47089477 0.82001079
0.81185460 0.45253176 0.79276703
0.95515601 0.45177651 0.69909347
0.99742492 0.49298165 0.61258293
1.00000000 0.54442933 0.56988627
0.27707959 0.61857146 0.83675092
0.27707959 0.61857146 0.83675092
0.37202364 0.62426720 0.82508280
0.50496240 0.63777248 0.80700570
0.64508327 0.65270535 0.80271391
0.80633693 0.64958195 0.79869878
0.94530034 0.64359560 0.75321067
0.98144329 0.67048963 0.71366797
1.00000000 0.70450268 0.70185494
0.06143766 0.79936505 0.79808453
0.06143766 0.79936505 0.79808453
0.24482297 0.80115756 0.79968809
0.45584235 0.80203191 0.80038710
0.65077966 0.80190952 0.80104272
0.80176386 0.80176386 0.80176386
0.91204417 0.80215281 0.80008118
0.96590387 0.81184205 0.80290373
1.00000000 0.83428016 0.81464414
0.40397491 0.89487402 0.66512650
0.40397491 0.89487402 0.66512650
0.47302615 0.89553983 0.68335349
0.58587291 0.89776661 0.72040456
0.70778638 0.90275910 0.76662949
0.80794390 0.91095508 0.79900074
0.90918864 0.91341720 0.80235509
0.99404236 0.90652055 0.83753744
1.00000000 0.92516970 0.88919075
0.58418961 0.94767767 0.63677253
0.58418961 0.94767767 0.63677253
0.61854590 0.95126632 0.65907380
0.68103706 0.95930069 0.70230349
0.75573020 0.97188139 0.75434079
0.82342186 0.98627102 0.79312728
0.90823263 0.98689464 0.84714329
0.98208464 0.99396419 0.80345195
1.00000000 0.99373691 0.95700946
0.72998666 1.00000000 0.69765543
0.72998666 1.00000000 0.69765543
0.76150445 1.00000000 0.72857082
0.81985389 1.00000000 0.78805443
0.89288400 1.00000000 0.86571606
1.00000000 1.00000000 1.00000000
1.00000000 1.00000000 1.00000000
1.00000000 1.00000000 1.00000000
1.00000000 1.00000000 1.00000000
0.00000000 0.23187947 0.60592671
0.00000000 0.23187947 0.60592671
0.00726608 0.22018736 0.74593546
0.21106244 0.21115705 0.88811027
0.44106460 0.22418704 0.94007528
0.67250060 0.19877500 0.93487487
0.87599120 0.15785858 0.84212527
0.98742555 0.20341401 0.67815428
1.00000000 0.30017623 0.54919331
0.00000000 0.23187947 0.60592671
0.00000000 0.23187947 0.60592671
0.00726608 0.22018736 0.74593546
0.21106244 0.21115705 0.88811027
0.44106460 0.22418704 0.94007528
0.67250060 0.19877500 0.93487487
0.87599120 0.15785858 0.84212527
0.98742555 0.20341401 0.67815428
1.00000000 0.30017623 0.54919331
0.01487451 0.30304576 0.75816292
0.01487451 0.30304576 0.75816292
0.08755584 0.29833136 0.85255879
0.27084125 0.31976657 0.90528325
0.47291607 0.33733060 0.93888416
0.69259246 0.31857478 0.93918299
0.92607252 0.22850753 0.89513167
0.99255126 0.32304045 0.70294554
1.00000000 0.39581459 0.59177924
0.18851570 0.44481152 0.88179431
0.18851570 0.44481152 0.88179431
0.25223093 0.45314182 0.91230498
0.37880151 0.47735598 0.92023093
0.53802874 0.49926152 0.92631037
0.72480385 0.49192867 0.93238680
0.92986760 0.44948610 0.89484245
0.99636568 0.49389962 0.75154737
1.00000000 0.54492387 0.67237934
0.35091021 0.60701215 0.93661158
0.35091021 0.60701215 0.93661158
0.41118052 0.61739858 0.92597951
0.50655167 0.63808388 0.91345812
0.62190275 0.65955016 0.91647618
0.76268408 0.66333346 0.92814079
0.92632534 0.64651838 0.90153857
0.99560383 0.66725576 0.81420139
1.00000000 0.70472175 0.77131822
0.40359765 0.75266418 0.96601905
0.40359765 0.75266418 0.96601905
0.46691732 0.75905494 0.95544489
0.56591315 0.77309886 0.94128556
0.68875925 0.79029885 0.91747996
0.79619967 0.80346732 0.91332400
0.91720219 0.80042825 0.90940415
0.98737065 0.81002281 0.87049910
1.00000000 0.83857081 0.86063857
0.16387365 0.90582294 0.90377792
0.16387365 0.90582294 0.90377792
0.23516911 0.91273858 0.91071017
0.45557928 0.91283863 0.91021218
0.65052213 0.91278778 0.91052311
0.80161722 0.91256889 0.91166430
0.91241619 0.91241619 0.91241619
0.97787106 0.91676007 0.91541200
1.00000000 0.93715450 0.93245699
0.45910392 0.97417672 0.73389054
0.45910392 0.97417672 0.73389054
0.51966787 0.97478426 0.75232450
0.62425760 0.97632851 0.78969633
0.74358506 0.97905863 0.83887214
0.84380231 0.98341231 0.88316787
0.91739057 0.98993240 0.91009222
0.98841325 0.99199759 0.91291961
1.00000000 1.00000000 1.00000000
0.74525736 1.00000000 0.77356658
0.74525736 1.00000000 0.77356658
0.78020115 1.00000000 0.80106423
0.84316179 1.00000000 0.85335875
0.91897178 1.00000000 0.92022352
1.00000000 1.00000000 1.00000000
1.00000000 1.00000000 1.00000000
1.00000000 1.00000000 1.00000000
1.00000000 1.00000000 1.00000000
0.00000000 0.26907892 0.62176508
0.00000000 0.26907892 0.62176508
0.00000000 0.27845664 0.72089945
0.06723552 0.28611864 0.88739397
0.29629619 0.31529732 0.96765996
0.51326263 0.32379831 0.99465324
0.73492528 0.28418262 0.98131789
0.93004806 0.22695781 0.88629728
1.00000000 0.29058363 0.72627596
0.00000000 0.26907892 0.62176508
0.00000000 0.26907892 0.62176508
0.00000000 0.27845664 0.72089945
0.06723552 0.28611864 0.88739397
0.29629619 0.31529732 0.96765996
0.51326263 0.32379831 0.99465324
0.73492528 0.28418262 0.98131789
0.93004806 0.22695781 0.88629728
1.00000000 0.29058363 0.72627596
0.00000000 0.33334938 0.77646927
0.00000000 0.33334938 0.77646927
0.02324080 0.34042129 0.85262498
0.16920491 0.36517943 0.93070083
0.35334397 0.40045229 0.96900023
0.54736295 0.41016445 0.99050070
0.75559525 0.38017046 0.98019420
0.93836238 0.34277273 0.89044753
1.00000000 0.39074868 0.74889688
0.16915754 0.45984283 0.92254254
0.16915754 0.45984283 0.92254254
0.22762172 0.47409956 0.93624015
0.33069329 0.50361410 0.94790031
0.46138573 0.53453952 0.96553856
0.61534151 0.54637511 0.98248120
0.79292343 0.52948881 0.97638296
0.95127566 0.50898218 0.90252231
1.00000000 0.54389011 0.79537609
0.38485923 0.61159900 0.96249187
0.38485923 0.61159900 0.96249187
0.42553629 0.62383765 0.95972765
0.49763094 0.64783557 0.95700180
0.59143664 0.67536391 0.96270848
0.70217160 0.69132388 0.97541592
0.83698254 0.68701957 0.97582540
0.96370241 0.67810249 0.92565602
1.00000000 0.70617862 0.85736432
0.52646064 0.73683580 0.98778017
0.52646064 0.73683580 0.98778017
0.56094364 0.74669401 0.98136461
0.62233120 0.76658886 0.97292552
0.70061586 0.79170491 0.96748208
0.78221232 0.81148588 0.97152009
0.87554186 0.81775829 0.97698856
0.97169555 0.81643636 0.95166782
1.00000000 0.84131608 0.91648257
0.56431431 0.84394829 1.00000000
0.56431431 0.84394829 1.00000000
0.60206479 0.85106354 1.00000000
0.67166757 0.86563642 0.99787015
0.75863169 0.88486552 0.98665674
0.84082584 0.90259958 0.97802639
0.91009875 0.91513150 0.97847005
0.97850080 0.91969965 0.97344202
1.00000000 0.94279496 0.96600249
0.39340475 0.96605021 0.96255182
0.39340475 0.96605021 0.96255182
0.23489773 0.99154652 0.98904829
0.60336063 0.96894621 0.96517135
0.73838410 0.97378689 0.97065713
0.80139184 0.99153022 0.98923423
0.91229345 0.99128410 0.99049886
0.99115111 0.99115111 0.99115111
1.00000000 1.00000000 1.00000000
0.72754357 1.00000000 0.86429890
0.72754357 1.00000000 0.86429890
0.76935911 1.00000000 0.88292687
0.84386579 1.00000000 0.91922333
0.92973545 1.00000000 0.96584629
1.00000000 1.00000000 1.00000000
1.00000000 1.00000000 1.00000000
1.00000000 1.00000000 1.00000000
1.00000000 1.00000000 1.00000000
0.00000000 0.30488459 0.66065227
0.00000000 0.30488459 0.66065227
0.00000000 0.31982316 0.74034042
0.00000000 0.34328702 0.88219019
0.16301332 0.37560334 0.99619656
0.36881826 0.40682709 1.00000000
0.57175158 0.40012952 1.00000000
0.78750177 0.34439194 1.00000000
0.99140520 0.30005719 0.93904135
0.00000000 0.30488459 0.66065227
0.00000000 0.30488459 0.66065227
0.00000000 0.31982316 0.74034042
0.00000000 0.34328702 0.88219019
0.16301332 0.37560334 0.99619656
0.36881826 0.40682709 1.00000000
0.57175158 0.40012952 1.00000000
0.78750177 0.34439194 1.00000000
0.99140520 0.30005719 0.93904135
0.00000000 0.36346587 0.81499673
0.00000000 0.36346587 0.81499673
0.00000000 0.37483256 0.88168378
0.05922461 0.40184339 0.97026037
0.24840007 0.44603078 1.00000000
0.42186561 0.47548583 1.00000000
0.60591154 0.47166884 1.00000000
0.80701462 0.42879973 1.00000000
0.99508710 0.40111863 0.93856615
0.12989471 0.47975861 0.97283536
0.12989471 0.47975861 0.97283536
0.18040329 0.49529540 0.98789928
0.27519195 0.52767922 0.99971616
0.39348161 0.56576758 1.00000000
0.52366598 0.59106907 1.00000000
0.67322597 0.59197931 1.00000000
0.84373662 0.56529433 1.00000000
1.00000000 0.55426838 0.94496764
0.37752639 0.62536863 1.00000000
0.37752639 0.62536863 1.00000000
0.41055615 0.63843669 1.00000000
0.47297298 0.66415422 1.00000000
0.55602820 0.69532927 1.00000000
0.65000983 0.71868693 1.00000000
0.75971261 0.72567083 1.00000000
0.88816807 0.71410614 1.00000000
1.00000000 0.71582672 0.96205993
0.55449290 0.74316961 1.00000000
0.55449290 0.74316961 1.00000000
0.57973834 0.75399696 1.00000000
0.62843220 0.77558882 1.00000000
0.69368373 0.80308631 1.00000000
0.76385168 0.82640107 1.00000000
0.84029825 0.83921134 1.00000000
0.92733602 0.83984678 1.00000000
1.00000000 0.85068820 0.98314353
0.66705046 0.83287228 1.00000000
0.66705046 0.83287228 1.00000000
0.68988887 0.84219282 1.00000000
0.73438088 0.86095365 1.00000000
0.79327408 0.88566105 1.00000000
0.85217949 0.90861799 1.00000000
0.90722282 0.92535814 1.00000000
0.96127277 0.93474004 1.00000000
1.00000000 0.95258369 1.00000000
0.70355787 0.90824104 1.00000000
0.70355787 0.90824104 1.00000000
0.73192557 0.91524124 1.00000000
0.78575961 0.92958515 1.00000000
0.85349329 0.94919262 1.00000000
0.91567456 0.96872175 1.00000000
0.96375619 0.98560355 1.00000000
1.00000000 1.00000000 1.00000000
1.00000000 1.00000000 1.00000000
0.71418098 1.00000000 1.00000000
0.71418098 1.00000000 1.00000000
0.76358784 1.00000000 1.00000000
0.85027432 1.00000000 1.00000000
1.00000000 1.00000000 1.00000000
1.00000000 1.00000000 1.00000000
1.00000000 1.00000000 1.00000000
1.00000000 1.00000000 1.00000000
1.00000000 1.00000000 1.00000000
