Luts Download/Canon Luts/3dlut/17grid-3dlut/full-to-full-range/BT709_CanonLog3-to-BT709_WideDR_17_FF_Ver.2.0.cube
# Gamut : BT.709 to BT.709
# Gamma : Canon Log 3 to Wide DR
# Range : Full in / Full out
# Version : 2.0 2019/10/24
# Copyright(c) 2019 Canon Inc. All Rights Reserved.
LUT_3D_SIZE 17
# LUT_3D_INPUT_RANGE 0.0 1.0
0.00000000 0.00000000 0.00000000
0.00000000 0.00000000 0.00000000
0.00000000 0.00000000 0.00000000
0.08767902 0.01391523 0.01362296
0.19451475 0.02410254 0.02256255
0.30123507 0.03548178 0.03101423
0.41297350 0.04855246 0.03836681
0.51523302 0.06389313 0.04268037
0.60111666 0.08296084 0.04256749
0.67463962 0.10567369 0.03900787
0.73621671 0.13024872 0.03334386
0.78561295 0.15565486 0.02762251
0.82390151 0.18007068 0.02287827
0.85375586 0.20212893 0.01932775
0.88018392 0.22123917 0.01621872
0.91126313 0.23782545 0.01209168
0.95767062 0.25483438 0.00788137
0.00000000 0.00000000 0.00000000
0.00000000 0.00000000 0.00000000
0.00000000 0.00000000 0.00000000
0.08767902 0.01391523 0.01362296
0.19451475 0.02410254 0.02256255
0.30123507 0.03548178 0.03101423
0.41297350 0.04855246 0.03836681
0.51523302 0.06389313 0.04268037
0.60111666 0.08296084 0.04256749
0.67463962 0.10567369 0.03900787
0.73621671 0.13024872 0.03334386
0.78561295 0.15565486 0.02762251
0.82390151 0.18007068 0.02287827
0.85375586 0.20212893 0.01932775
0.88018392 0.22123917 0.01621872
0.91126313 0.23782545 0.01209168
0.95767062 0.25483438 0.00788137
0.00000000 0.00000000 0.00000000
0.00000000 0.00000000 0.00000000
0.00000000 0.00000000 0.00000000
0.08767902 0.01391523 0.01362296
0.19451475 0.02410254 0.02256255
0.30123507 0.03548178 0.03101423
0.41297350 0.04855246 0.03836681
0.51523302 0.06389313 0.04268037
0.60111666 0.08296084 0.04256749
0.67463962 0.10567369 0.03900787
0.73621671 0.13024872 0.03334386
0.78561295 0.15565486 0.02762251
0.82390151 0.18007068 0.02287827
0.85375586 0.20212893 0.01932775
0.88018392 0.22123917 0.01621872
0.91126313 0.23782545 0.01209168
0.95767062 0.25483438 0.00788137
0.03849709 0.11407753 0.03683660
0.03849709 0.11407753 0.03683660
0.03849709 0.11407753 0.03683660
0.12492676 0.12562378 0.03268629
0.22076832 0.13257638 0.03143753
0.32295327 0.13925019 0.03253099
0.43231440 0.14615538 0.03546206
0.53432464 0.15284850 0.04155903
0.62096559 0.16081938 0.04770017
0.69590493 0.17138037 0.05061523
0.75916643 0.18484749 0.05043276
0.81045143 0.20064172 0.04845468
0.85049352 0.21743439 0.04595672
0.88169402 0.23390232 0.04364490
0.90889866 0.24912827 0.04117648
0.93913650 0.26399108 0.03918228
0.98342660 0.28038233 0.03789916
0.06225133 0.22309386 0.05509370
0.06225133 0.22309386 0.05509370
0.06225133 0.22309386 0.05509370
0.14302289 0.23038232 0.04306020
0.23338442 0.23488308 0.03733557
0.33272035 0.23899703 0.03566451
0.44129723 0.24272093 0.03698359
0.54670258 0.24349657 0.04433653
0.63817339 0.24320599 0.05643797
0.71645090 0.24545921 0.06900022
0.78318985 0.25004630 0.07678838
0.83753934 0.25741934 0.08117554
0.87957831 0.26745021 0.08431836
0.91130854 0.27941017 0.08782689
0.93678845 0.29295792 0.09311814
0.96172225 0.30962196 0.10340890
0.99603158 0.33158077 0.12028957
0.08571619 0.33175532 0.06888019
0.08571619 0.33175532 0.06888019
0.08571619 0.33175532 0.06888019
0.15911522 0.33684893 0.05355504
0.24456988 0.34005905 0.04674204
0.34081863 0.34312640 0.04504945
0.44797764 0.34557313 0.04574844
0.55795741 0.34310685 0.05086587
0.65786506 0.33638481 0.06577755
0.74412376 0.33026143 0.08639766
0.81615342 0.32692105 0.10492964
0.87334286 0.32765283 0.12049499
0.91485378 0.33373390 0.13646789
0.94170279 0.34559754 0.15548861
0.95930948 0.36158194 0.17632110
0.97584979 0.38068610 0.19794865
1.00000000 0.40286912 0.21882154
0.11186220 0.44467201 0.08300616
0.11186220 0.44467201 0.08300616
0.11186220 0.44467201 0.08300616
0.17672783 0.44852929 0.06763310
0.25614491 0.45112468 0.06123246
0.34816048 0.45378500 0.06016049
0.45272943 0.45608369 0.06096702
0.56535959 0.45281406 0.06091278
0.67599660 0.44188443 0.06897746
0.77536777 0.42797917 0.09142193
0.85752572 0.41601569 0.12084112
0.91908906 0.41021047 0.15325271
0.95459346 0.41600587 0.19475100
0.97219496 0.42950472 0.23435181
0.98199280 0.44600809 0.26742508
0.99211521 0.46454593 0.29562710
1.00000000 0.48568097 0.31991517
0.13760792 0.54895681 0.09256083
0.13760792 0.54895681 0.09256083
0.13760792 0.54895681 0.09256083
0.19353016 0.55227636 0.08198256
0.26396327 0.55506307 0.07841661
0.34820606 0.55838985 0.07974176
0.44627815 0.56193747 0.08259864
0.55593729 0.56096487 0.08073243
0.67170551 0.55096693 0.07836006
0.78513349 0.53352841 0.08927084
0.88392916 0.51373255 0.12057464
0.95506501 0.50052054 0.17328624
0.98767711 0.50355333 0.24494926
1.00000000 0.51501133 0.30358982
1.00000000 0.52983526 0.34841397
1.00000000 0.54691769 0.38396560
1.00000000 0.56675207 0.41282279
0.16252272 0.63860494 0.09616156
0.16252272 0.63860494 0.09616156
0.16252272 0.63860494 0.09616156
0.21033816 0.64166361 0.09321531
0.27013795 0.64494115 0.09444367
0.34358290 0.64938478 0.09913053
0.43146593 0.65477205 0.10542710
0.53238143 0.65705227 0.10681678
0.64431965 0.65163224 0.10254725
0.76270492 0.63696006 0.10214702
0.87620625 0.61499246 0.12284354
0.96505526 0.59426368 0.18182364
1.00000000 0.58967087 0.27890390
1.00000000 0.59588746 0.35743698
1.00000000 0.60745580 0.41596363
1.00000000 0.62224318 0.46017053
1.00000000 0.64021597 0.49406244
0.18733878 0.71798408 0.09705741
0.18733878 0.71798408 0.09705741
0.18733878 0.71798408 0.09705741
0.22847110 0.72084474 0.10171553
0.27816710 0.72454006 0.10744088
0.33999721 0.72997212 0.11481737
0.41613621 0.73698550 0.12401747
0.50566065 0.74212075 0.12948091
0.60802341 0.74124524 0.12853469
0.72239308 0.73225472 0.12635223
0.84154421 0.71361153 0.13621239
0.94869018 0.68942575 0.18350550
1.00000000 0.67525370 0.29633059
1.00000000 0.67388435 0.39687220
1.00000000 0.68062617 0.47218225
1.00000000 0.69199561 0.52636892
1.00000000 0.70735473 0.56553639
0.21172552 0.78744929 0.09720911
0.21172552 0.78744929 0.09720911
0.21172552 0.78744929 0.09720911
0.24691666 0.79021694 0.10780612
0.28784181 0.79423347 0.11723674
0.33865152 0.80043300 0.12670996
0.40280943 0.80874620 0.13805743
0.47994450 0.81616697 0.14694662
0.57018343 0.81907679 0.15052396
0.67455588 0.81544041 0.15143314
0.79033641 0.80299856 0.15811527
0.90622044 0.78122905 0.19251787
0.99260209 0.75913131 0.29403438
1.00000000 0.74872851 0.41783919
1.00000000 0.74881700 0.51348398
1.00000000 0.75576098 0.58063476
1.00000000 0.76791968 0.62626240
0.23560323 0.84653771 0.09857389
0.23560323 0.84653771 0.09857389
0.23560323 0.84653771 0.09857389
0.26541614 0.84930296 0.11312221
0.29923808 0.85352566 0.12569742
0.34063854 0.86024239 0.13736581
0.39380218 0.86947318 0.15107633
0.45877005 0.87857691 0.16354602
0.53593827 0.88441761 0.17209025
0.62723189 0.88528278 0.17801287
0.73249441 0.87882283 0.18523721
0.84725363 0.86318080 0.20708630
0.95502285 0.83937513 0.27140216
1.00000000 0.82019962 0.41549386
1.00000000 0.81224998 0.53663228
1.00000000 0.81358351 0.62105406
1.00000000 0.82186819 0.67509839
0.26005742 0.89517476 0.10425564
0.26005742 0.89517476 0.10425564
0.26005742 0.89517476 0.10425564
0.28562911 0.89791570 0.12165010
0.31440012 0.90216356 0.13751075
0.34883785 0.90907156 0.15234490
0.39335994 0.91871661 0.16993360
0.44794608 0.92876929 0.18763434
0.51274285 0.93653904 0.20284947
0.58987282 0.94071931 0.21623812
0.68009489 0.93941455 0.22794519
0.78292753 0.93038197 0.24372639
0.89236126 0.91233362 0.28561572
0.98249680 0.88842534 0.39482702
1.00000000 0.87178338 0.54080183
1.00000000 0.86634642 0.64764278
1.00000000 0.87007430 0.71276216
0.28983462 0.93426250 0.12199714
0.28983462 0.93426250 0.12199714
0.28983462 0.93426250 0.12199714
0.31267042 0.93683556 0.14168124
0.33866767 0.94082693 0.16129462
0.36989303 0.94735834 0.18177424
0.41077588 0.95644938 0.20769727
0.45993217 0.96613509 0.23572556
0.51609936 0.97423899 0.26250825
0.58150378 0.97969228 0.28989444
0.65443597 0.98186309 0.31177953
0.73561272 0.97946903 0.32406986
0.82912923 0.96908198 0.34752702
0.92641518 0.95083009 0.40139442
0.99624189 0.92834948 0.53218333
1.00000000 0.91548707 0.66579651
1.00000000 0.91431646 0.74474166
0.33736448 0.96575709 0.16815348
0.33736448 0.96575709 0.16815348
0.33736448 0.96575709 0.16815348
0.35958051 0.96776181 0.19032181
0.38553437 0.97093351 0.21457000
0.41830087 0.97606735 0.24385082
0.46629512 0.98207674 0.28880895
0.52169107 0.98803401 0.33939706
0.57836647 0.99298660 0.38773801
0.63566669 0.99695672 0.43216154
0.69283026 0.99970717 0.46967118
0.75054877 1.00000000 0.49786139
0.81171312 0.99847431 0.51759542
0.87899278 0.99227761 0.52969206
0.95403546 0.98107713 0.54544877
1.00000000 0.96178264 0.69568236
1.00000000 0.95625761 0.78596551
0.42882286 0.99119147 0.27068362
0.42882286 0.99119147 0.27068362
0.42882286 0.99119147 0.27068362
0.45332866 0.99160350 0.29722284
0.48244470 0.99266331 0.32818228
0.51918666 0.99490070 0.36692317
0.56536491 0.99833819 0.41579703
0.61610728 1.00000000 0.46934814
0.66684974 1.00000000 0.52223568
0.71635645 1.00000000 0.57259167
0.76328273 1.00000000 0.61788444
0.80731339 1.00000000 0.65644513
0.84931545 1.00000000 0.68793282
0.89124650 1.00000000 0.71410395
0.93567690 1.00000000 0.74326376
0.98040372 0.99969059 0.80133220
1.00000000 0.99551158 0.86066896
0.54537876 1.00000000 0.40004629
0.54537876 1.00000000 0.40004629
0.54537876 1.00000000 0.40004629
0.56589963 1.00000000 0.42320042
0.59142920 1.00000000 0.45203443
0.62467854 1.00000000 0.48981524
0.66617218 1.00000000 0.53745434
0.71152525 1.00000000 0.59006961
0.75647628 1.00000000 0.64261975
0.79982547 1.00000000 0.69341573
0.84037635 1.00000000 0.74065560
0.87738101 1.00000000 0.78303138
0.91077458 1.00000000 0.82018083
0.94140905 1.00000000 0.85353224
1.00000000 1.00000000 1.00000000
1.00000000 1.00000000 1.00000000
1.00000000 1.00000000 1.00000000
0.00000000 0.00000000 0.00000000
0.00000000 0.00000000 0.00000000
0.00000000 0.00000000 0.00000000
0.08767902 0.01391523 0.01362296
0.19451475 0.02410254 0.02256255
0.30123507 0.03548178 0.03101423
0.41297350 0.04855246 0.03836681
0.51523302 0.06389313 0.04268037
0.60111666 0.08296084 0.04256749
0.67463962 0.10567369 0.03900787
0.73621671 0.13024872 0.03334386
0.78561295 0.15565486 0.02762251
0.82390151 0.18007068 0.02287827
0.85375586 0.20212893 0.01932775
0.88018392 0.22123917 0.01621872
0.91126313 0.23782545 0.01209168
0.95767062 0.25483438 0.00788137
0.00000000 0.00000000 0.00000000
0.00000000 0.00000000 0.00000000
0.00000000 0.00000000 0.00000000
0.08767902 0.01391523 0.01362296
0.19451475 0.02410254 0.02256255
0.30123507 0.03548178 0.03101423
0.41297350 0.04855246 0.03836681
0.51523302 0.06389313 0.04268037
0.60111666 0.08296084 0.04256749
0.67463962 0.10567369 0.03900787
0.73621671 0.13024872 0.03334386
0.78561295 0.15565486 0.02762251
0.82390151 0.18007068 0.02287827
0.85375586 0.20212893 0.01932775
0.88018392 0.22123917 0.01621872
0.91126313 0.23782545 0.01209168
0.95767062 0.25483438 0.00788137
0.00000000 0.00000000 0.00000000
0.00000000 0.00000000 0.00000000
0.00000000 0.00000000 0.00000000
0.08767902 0.01391523 0.01362296
0.19451475 0.02410254 0.02256255
0.30123507 0.03548178 0.03101423
0.41297350 0.04855246 0.03836681
0.51523302 0.06389313 0.04268037
0.60111666 0.08296084 0.04256749
0.67463962 0.10567369 0.03900787
0.73621671 0.13024872 0.03334386
0.78561295 0.15565486 0.02762251
0.82390151 0.18007068 0.02287827
0.85375586 0.20212893 0.01932775
0.88018392 0.22123917 0.01621872
0.91126313 0.23782545 0.01209168
0.95767062 0.25483438 0.00788137
0.03849709 0.11407753 0.03683660
0.03849709 0.11407753 0.03683660
0.03849709 0.11407753 0.03683660
0.12492676 0.12562378 0.03268629
0.22076832 0.13257638 0.03143753
0.32295327 0.13925019 0.03253099
0.43231440 0.14615538 0.03546206
0.53432464 0.15284850 0.04155903
0.62096559 0.16081938 0.04770017
0.69590493 0.17138037 0.05061523
0.75916643 0.18484749 0.05043276
0.81045143 0.20064172 0.04845468
0.85049352 0.21743439 0.04595672
0.88169402 0.23390232 0.04364490
0.90889866 0.24912827 0.04117648
0.93913650 0.26399108 0.03918228
0.98342660 0.28038233 0.03789916
0.06225133 0.22309386 0.05509370
0.06225133 0.22309386 0.05509370
0.06225133 0.22309386 0.05509370
0.14302289 0.23038232 0.04306020
0.23338442 0.23488308 0.03733557
0.33272035 0.23899703 0.03566451
0.44129723 0.24272093 0.03698359
0.54670258 0.24349657 0.04433653
0.63817339 0.24320599 0.05643797
0.71645090 0.24545921 0.06900022
0.78318985 0.25004630 0.07678838
0.83753934 0.25741934 0.08117554
0.87957831 0.26745021 0.08431836
0.91130854 0.27941017 0.08782689
0.93678845 0.29295792 0.09311814
0.96172225 0.30962196 0.10340890
0.99603158 0.33158077 0.12028957
0.08571619 0.33175532 0.06888019
0.08571619 0.33175532 0.06888019
0.08571619 0.33175532 0.06888019
0.15911522 0.33684893 0.05355504
0.24456988 0.34005905 0.04674204
0.34081863 0.34312640 0.04504945
0.44797764 0.34557313 0.04574844
0.55795741 0.34310685 0.05086587
0.65786506 0.33638481 0.06577755
0.74412376 0.33026143 0.08639766
0.81615342 0.32692105 0.10492964
0.87334286 0.32765283 0.12049499
0.91485378 0.33373390 0.13646789
0.94170279 0.34559754 0.15548861
0.95930948 0.36158194 0.17632110
0.97584979 0.38068610 0.19794865
1.00000000 0.40286912 0.21882154
0.11186220 0.44467201 0.08300616
0.11186220 0.44467201 0.08300616
0.11186220 0.44467201 0.08300616
0.17672783 0.44852929 0.06763310
0.25614491 0.45112468 0.06123246
0.34816048 0.45378500 0.06016049
0.45272943 0.45608369 0.06096702
0.56535959 0.45281406 0.06091278
0.67599660 0.44188443 0.06897746
0.77536777 0.42797917 0.09142193
0.85752572 0.41601569 0.12084112
0.91908906 0.41021047 0.15325271
0.95459346 0.41600587 0.19475100
0.97219496 0.42950472 0.23435181
0.98199280 0.44600809 0.26742508
0.99211521 0.46454593 0.29562710
1.00000000 0.48568097 0.31991517
0.13760792 0.54895681 0.09256083
0.13760792 0.54895681 0.09256083
0.13760792 0.54895681 0.09256083
0.19353016 0.55227636 0.08198256
0.26396327 0.55506307 0.07841661
0.34820606 0.55838985 0.07974176
0.44627815 0.56193747 0.08259864
0.55593729 0.56096487 0.08073243
0.67170551 0.55096693 0.07836006
0.78513349 0.53352841 0.08927084
0.88392916 0.51373255 0.12057464
0.95506501 0.50052054 0.17328624
0.98767711 0.50355333 0.24494926
1.00000000 0.51501133 0.30358982
1.00000000 0.52983526 0.34841397
1.00000000 0.54691769 0.38396560
1.00000000 0.56675207 0.41282279
0.16252272 0.63860494 0.09616156
0.16252272 0.63860494 0.09616156
0.16252272 0.63860494 0.09616156
0.21033816 0.64166361 0.09321531
0.27013795 0.64494115 0.09444367
0.34358290 0.64938478 0.09913053
0.43146593 0.65477205 0.10542710
0.53238143 0.65705227 0.10681678
0.64431965 0.65163224 0.10254725
0.76270492 0.63696006 0.10214702
0.87620625 0.61499246 0.12284354
0.96505526 0.59426368 0.18182364
1.00000000 0.58967087 0.27890390
1.00000000 0.59588746 0.35743698
1.00000000 0.60745580 0.41596363
1.00000000 0.62224318 0.46017053
1.00000000 0.64021597 0.49406244
0.18733878 0.71798408 0.09705741
0.18733878 0.71798408 0.09705741
0.18733878 0.71798408 0.09705741
0.22847110 0.72084474 0.10171553
0.27816710 0.72454006 0.10744088
0.33999721 0.72997212 0.11481737
0.41613621 0.73698550 0.12401747
0.50566065 0.74212075 0.12948091
0.60802341 0.74124524 0.12853469
0.72239308 0.73225472 0.12635223
0.84154421 0.71361153 0.13621239
0.94869018 0.68942575 0.18350550
1.00000000 0.67525370 0.29633059
1.00000000 0.67388435 0.39687220
1.00000000 0.68062617 0.47218225
1.00000000 0.69199561 0.52636892
1.00000000 0.70735473 0.56553639
0.21172552 0.78744929 0.09720911
0.21172552 0.78744929 0.09720911
0.21172552 0.78744929 0.09720911
0.24691666 0.79021694 0.10780612
0.28784181 0.79423347 0.11723674
0.33865152 0.80043300 0.12670996
0.40280943 0.80874620 0.13805743
0.47994450 0.81616697 0.14694662
0.57018343 0.81907679 0.15052396
0.67455588 0.81544041 0.15143314
0.79033641 0.80299856 0.15811527
0.90622044 0.78122905 0.19251787
0.99260209 0.75913131 0.29403438
1.00000000 0.74872851 0.41783919
1.00000000 0.74881700 0.51348398
1.00000000 0.75576098 0.58063476
1.00000000 0.76791968 0.62626240
0.23560323 0.84653771 0.09857389
0.23560323 0.84653771 0.09857389
0.23560323 0.84653771 0.09857389
0.26541614 0.84930296 0.11312221
0.29923808 0.85352566 0.12569742
0.34063854 0.86024239 0.13736581
0.39380218 0.86947318 0.15107633
0.45877005 0.87857691 0.16354602
0.53593827 0.88441761 0.17209025
0.62723189 0.88528278 0.17801287
0.73249441 0.87882283 0.18523721
0.84725363 0.86318080 0.20708630
0.95502285 0.83937513 0.27140216
1.00000000 0.82019962 0.41549386
1.00000000 0.81224998 0.53663228
1.00000000 0.81358351 0.62105406
1.00000000 0.82186819 0.67509839
0.26005742 0.89517476 0.10425564
0.26005742 0.89517476 0.10425564
0.26005742 0.89517476 0.10425564
0.28562911 0.89791570 0.12165010
0.31440012 0.90216356 0.13751075
0.34883785 0.90907156 0.15234490
0.39335994 0.91871661 0.16993360
0.44794608 0.92876929 0.18763434
0.51274285 0.93653904 0.20284947
0.58987282 0.94071931 0.21623812
0.68009489 0.93941455 0.22794519
0.78292753 0.93038197 0.24372639
0.89236126 0.91233362 0.28561572
0.98249680 0.88842534 0.39482702
1.00000000 0.87178338 0.54080183
1.00000000 0.86634642 0.64764278
1.00000000 0.87007430 0.71276216
0.28983462 0.93426250 0.12199714
0.28983462 0.93426250 0.12199714
0.28983462 0.93426250 0.12199714
0.31267042 0.93683556 0.14168124
0.33866767 0.94082693 0.16129462
0.36989303 0.94735834 0.18177424
0.41077588 0.95644938 0.20769727
0.45993217 0.96613509 0.23572556
0.51609936 0.97423899 0.26250825
0.58150378 0.97969228 0.28989444
0.65443597 0.98186309 0.31177953
0.73561272 0.97946903 0.32406986
0.82912923 0.96908198 0.34752702
0.92641518 0.95083009 0.40139442
0.99624189 0.92834948 0.53218333
1.00000000 0.91548707 0.66579651
1.00000000 0.91431646 0.74474166
0.33736448 0.96575709 0.16815348
0.33736448 0.96575709 0.16815348
0.33736448 0.96575709 0.16815348
0.35958051 0.96776181 0.19032181
0.38553437 0.97093351 0.21457000
0.41830087 0.97606735 0.24385082
0.46629512 0.98207674 0.28880895
0.52169107 0.98803401 0.33939706
0.57836647 0.99298660 0.38773801
0.63566669 0.99695672 0.43216154
0.69283026 0.99970717 0.46967118
0.75054877 1.00000000 0.49786139
0.81171312 0.99847431 0.51759542
0.87899278 0.99227761 0.52969206
0.95403546 0.98107713 0.54544877
1.00000000 0.96178264 0.69568236
1.00000000 0.95625761 0.78596551
0.42882286 0.99119147 0.27068362
0.42882286 0.99119147 0.27068362
0.42882286 0.99119147 0.27068362
0.45332866 0.99160350 0.29722284
0.48244470 0.99266331 0.32818228
0.51918666 0.99490070 0.36692317
0.56536491 0.99833819 0.41579703
0.61610728 1.00000000 0.46934814
0.66684974 1.00000000 0.52223568
0.71635645 1.00000000 0.57259167
0.76328273 1.00000000 0.61788444
0.80731339 1.00000000 0.65644513
0.84931545 1.00000000 0.68793282
0.89124650 1.00000000 0.71410395
0.93567690 1.00000000 0.74326376
0.98040372 0.99969059 0.80133220
1.00000000 0.99551158 0.86066896
0.54537876 1.00000000 0.40004629
0.54537876 1.00000000 0.40004629
0.54537876 1.00000000 0.40004629
0.56589963 1.00000000 0.42320042
0.59142920 1.00000000 0.45203443
0.62467854 1.00000000 0.48981524
0.66617218 1.00000000 0.53745434
0.71152525 1.00000000 0.59006961
0.75647628 1.00000000 0.64261975
0.79982547 1.00000000 0.69341573
0.84037635 1.00000000 0.74065560
0.87738101 1.00000000 0.78303138
0.91077458 1.00000000 0.82018083
0.94140905 1.00000000 0.85353224
1.00000000 1.00000000 1.00000000
1.00000000 1.00000000 1.00000000
1.00000000 1.00000000 1.00000000
0.00000000 0.00000000 0.00000000
0.00000000 0.00000000 0.00000000
0.00000000 0.00000000 0.00000000
0.08767902 0.01391523 0.01362296
0.19451475 0.02410254 0.02256255
0.30123507 0.03548178 0.03101423
0.41297350 0.04855246 0.03836681
0.51523302 0.06389313 0.04268037
0.60111666 0.08296084 0.04256749
0.67463962 0.10567369 0.03900787
0.73621671 0.13024872 0.03334386
0.78561295 0.15565486 0.02762251
0.82390151 0.18007068 0.02287827
0.85375586 0.20212893 0.01932775
0.88018392 0.22123917 0.01621872
0.91126313 0.23782545 0.01209168
0.95767062 0.25483438 0.00788137
0.00000000 0.00000000 0.00000000
0.00000000 0.00000000 0.00000000
0.00000000 0.00000000 0.00000000
0.08767902 0.01391523 0.01362296
0.19451475 0.02410254 0.02256255
0.30123507 0.03548178 0.03101423
0.41297350 0.04855246 0.03836681
0.51523302 0.06389313 0.04268037
0.60111666 0.08296084 0.04256749
0.67463962 0.10567369 0.03900787
0.73621671 0.13024872 0.03334386
0.78561295 0.15565486 0.02762251
0.82390151 0.18007068 0.02287827
0.85375586 0.20212893 0.01932775
0.88018392 0.22123917 0.01621872
0.91126313 0.23782545 0.01209168
0.95767062 0.25483438 0.00788137
0.00000000 0.00000000 0.00000000
0.00000000 0.00000000 0.00000000
0.00000000 0.00000000 0.00000000
0.08767902 0.01391523 0.01362296
0.19451475 0.02410254 0.02256255
0.30123507 0.03548178 0.03101423
0.41297350 0.04855246 0.03836681
0.51523302 0.06389313 0.04268037
0.60111666 0.08296084 0.04256749
0.67463962 0.10567369 0.03900787
0.73621671 0.13024872 0.03334386
0.78561295 0.15565486 0.02762251
0.82390151 0.18007068 0.02287827
0.85375586 0.20212893 0.01932775
0.88018392 0.22123917 0.01621872
0.91126313 0.23782545 0.01209168
0.95767062 0.25483438 0.00788137
0.03849709 0.11407753 0.03683660
0.03849709 0.11407753 0.03683660
0.03849709 0.11407753 0.03683660
0.12492676 0.12562378 0.03268629
0.22076832 0.13257638 0.03143753
0.32295327 0.13925019 0.03253099
0.43231440 0.14615538 0.03546206
0.53432464 0.15284850 0.04155903
0.62096559 0.16081938 0.04770017
0.69590493 0.17138037 0.05061523
0.75916643 0.18484749 0.05043276
0.81045143 0.20064172 0.04845468
0.85049352 0.21743439 0.04595672
0.88169402 0.23390232 0.04364490
0.90889866 0.24912827 0.04117648
0.93913650 0.26399108 0.03918228
0.98342660 0.28038233 0.03789916
0.06225133 0.22309386 0.05509370
0.06225133 0.22309386 0.05509370
0.06225133 0.22309386 0.05509370
0.14302289 0.23038232 0.04306020
0.23338442 0.23488308 0.03733557
0.33272035 0.23899703 0.03566451
0.44129723 0.24272093 0.03698359
0.54670258 0.24349657 0.04433653
0.63817339 0.24320599 0.05643797
0.71645090 0.24545921 0.06900022
0.78318985 0.25004630 0.07678838
0.83753934 0.25741934 0.08117554
0.87957831 0.26745021 0.08431836
0.91130854 0.27941017 0.08782689
0.93678845 0.29295792 0.09311814
0.96172225 0.30962196 0.10340890
0.99603158 0.33158077 0.12028957
0.08571619 0.33175532 0.06888019
0.08571619 0.33175532 0.06888019
0.08571619 0.33175532 0.06888019
0.15911522 0.33684893 0.05355504
0.24456988 0.34005905 0.04674204
0.34081863 0.34312640 0.04504945
0.44797764 0.34557313 0.04574844
0.55795741 0.34310685 0.05086587
0.65786506 0.33638481 0.06577755
0.74412376 0.33026143 0.08639766
0.81615342 0.32692105 0.10492964
0.87334286 0.32765283 0.12049499
0.91485378 0.33373390 0.13646789
0.94170279 0.34559754 0.15548861
0.95930948 0.36158194 0.17632110
0.97584979 0.38068610 0.19794865
1.00000000 0.40286912 0.21882154
0.11186220 0.44467201 0.08300616
0.11186220 0.44467201 0.08300616
0.11186220 0.44467201 0.08300616
0.17672783 0.44852929 0.06763310
0.25614491 0.45112468 0.06123246
0.34816048 0.45378500 0.06016049
0.45272943 0.45608369 0.06096702
0.56535959 0.45281406 0.06091278
0.67599660 0.44188443 0.06897746
0.77536777 0.42797917 0.09142193
0.85752572 0.41601569 0.12084112
0.91908906 0.41021047 0.15325271
0.95459346 0.41600587 0.19475100
0.97219496 0.42950472 0.23435181
0.98199280 0.44600809 0.26742508
0.99211521 0.46454593 0.29562710
1.00000000 0.48568097 0.31991517
0.13760792 0.54895681 0.09256083
0.13760792 0.54895681 0.09256083
0.13760792 0.54895681 0.09256083
0.19353016 0.55227636 0.08198256
0.26396327 0.55506307 0.07841661
0.34820606 0.55838985 0.07974176
0.44627815 0.56193747 0.08259864
0.55593729 0.56096487 0.08073243
0.67170551 0.55096693 0.07836006
0.78513349 0.53352841 0.08927084
0.88392916 0.51373255 0.12057464
0.95506501 0.50052054 0.17328624
0.98767711 0.50355333 0.24494926
1.00000000 0.51501133 0.30358982
1.00000000 0.52983526 0.34841397
1.00000000 0.54691769 0.38396560
1.00000000 0.56675207 0.41282279
0.16252272 0.63860494 0.09616156
0.16252272 0.63860494 0.09616156
0.16252272 0.63860494 0.09616156
0.21033816 0.64166361 0.09321531
0.27013795 0.64494115 0.09444367
0.34358290 0.64938478 0.09913053
