Luts Download/Canon Luts/3dlut/17grid-3dlut/full-to-full-range/BT709_CanonLog-to-BT709_WideDR_17_FF_Ver.2.0.cube
# Gamut : BT.709 to BT.709
# Gamma : Canon Log to Wide DR
# Range : Full in / Full out
# Version : 2.0 2019/10/24
# Copyright(c) 2019 Canon Inc. All Rights Reserved.
LUT_3D_SIZE 17
# LUT_3D_INPUT_RANGE 0.0 1.0
0.00000000 0.00000000 0.00000000
0.00000000 0.00000000 0.00000000
0.00000000 0.00000000 0.00000000
0.09571152 0.01484990 0.01452288
0.20283796 0.02584053 0.02419099
0.30487758 0.03666057 0.03219926
0.40701479 0.04787146 0.03843967
0.49907917 0.06088081 0.04268286
0.57584055 0.07599449 0.04334975
0.64185909 0.09445086 0.04149134
0.69890033 0.11418674 0.03726424
0.74720566 0.13477608 0.03180268
0.78713429 0.15540151 0.02605633
0.82009264 0.17441484 0.01961995
0.84812090 0.19051463 0.01160350
0.87311156 0.20401109 0.00259595
0.89787509 0.21578254 0.00000000
0.00000000 0.00000000 0.00000000
0.00000000 0.00000000 0.00000000
0.00000000 0.00000000 0.00000000
0.09571152 0.01484990 0.01452288
0.20283796 0.02584053 0.02419099
0.30487758 0.03666057 0.03219926
0.40701479 0.04787146 0.03843967
0.49907917 0.06088081 0.04268286
0.57584055 0.07599449 0.04334975
0.64185909 0.09445086 0.04149134
0.69890033 0.11418674 0.03726424
0.74720566 0.13477608 0.03180268
0.78713429 0.15540151 0.02605633
0.82009264 0.17441484 0.01961995
0.84812090 0.19051463 0.01160350
0.87311156 0.20401109 0.00259595
0.89787509 0.21578254 0.00000000
0.00000000 0.00000000 0.00000000
0.00000000 0.00000000 0.00000000
0.00000000 0.00000000 0.00000000
0.09571152 0.01484990 0.01452288
0.20283796 0.02584053 0.02419099
0.30487758 0.03666057 0.03219926
0.40701479 0.04787146 0.03843967
0.49907917 0.06088081 0.04268286
0.57584055 0.07599449 0.04334975
0.64185909 0.09445086 0.04149134
0.69890033 0.11418674 0.03726424
0.74720566 0.13477608 0.03180268
0.78713429 0.15540151 0.02605633
0.82009264 0.17441484 0.01961995
0.84812090 0.19051463 0.01160350
0.87311156 0.20401109 0.00259595
0.89787509 0.21578254 0.00000000
0.04185321 0.12220929 0.04000126
0.04185321 0.12220929 0.04000126
0.04185321 0.12220929 0.04000126
0.13346779 0.13421054 0.03533849
0.22999778 0.14133849 0.03387933
0.32740883 0.14751581 0.03425206
0.42688537 0.15332165 0.03621124
0.51870828 0.15863717 0.04120628
0.59594169 0.16453283 0.04755059
0.66338361 0.17181885 0.05150602
0.72177141 0.18123865 0.05314138
0.77206423 0.19194240 0.05164590
0.81440362 0.20353538 0.04786848
0.84995154 0.21475254 0.04158334
0.88008348 0.22488210 0.03310854
0.90678342 0.23373154 0.02305316
0.93298226 0.24165121 0.01216031
0.06659090 0.23243478 0.05892525
0.06659090 0.23243478 0.05892525
0.06659090 0.23243478 0.05892525
0.15187882 0.24000771 0.04592928
0.24307543 0.24462487 0.03985054
0.33757756 0.24850083 0.03765137
0.43607259 0.25172757 0.03821685
0.53052986 0.25241905 0.04365432
0.61245039 0.25143128 0.05392285
0.68360049 0.25151966 0.06504025
0.74503575 0.25363042 0.07458696
0.79833443 0.25700647 0.07948226
0.84336460 0.26174715 0.08076745
0.88083791 0.26736880 0.07890183
0.91208870 0.27330494 0.07439346
0.93917181 0.27922311 0.06789232
0.96567032 0.28465049 0.05893274
0.08842337 0.33600459 0.07151703
0.08842337 0.33600459 0.07151703
0.08842337 0.33600459 0.07151703
0.16674919 0.34135665 0.05542683
0.25358059 0.34469721 0.04840117
0.34533756 0.34764335 0.04637137
0.44245270 0.34985815 0.04663115
0.53992648 0.34833266 0.05003296
0.62872324 0.34270928 0.06067628
0.70682234 0.33663139 0.07687817
0.77415040 0.33193572 0.09374119
0.83128628 0.32928712 0.10730055
0.87829955 0.32920514 0.11818594
0.91526253 0.33213402 0.12808979
0.94360364 0.33769872 0.13741247
0.96558198 0.34542528 0.14655815
0.98640478 0.35350275 0.15287409
0.11140111 0.43853911 0.08383143
0.11140111 0.43853911 0.08383143
0.11140111 0.43853911 0.08383143
0.18202579 0.44266737 0.06773253
0.26365593 0.44540789 0.06120191
0.35188650 0.44798779 0.05990819
0.44683574 0.45008885 0.06053954
0.54557953 0.44811835 0.06057836
0.64154225 0.44004149 0.06514478
0.72966185 0.42886736 0.07945727
0.80642072 0.41761878 0.10075638
0.87034089 0.40861330 0.12355291
0.92011566 0.40399306 0.14774379
0.95249613 0.40705690 0.17833158
0.97233412 0.41553369 0.20833006
0.98744617 0.42516462 0.23138487
1.00000000 0.43397072 0.24654060
0.13435928 0.53205475 0.09312454
0.13435928 0.53205475 0.09312454
0.13435928 0.53205475 0.09312454
0.19650178 0.53565051 0.08088234
0.27057560 0.53849525 0.07664385
0.35276639 0.54154534 0.07721113
0.44293083 0.54451147 0.07922036
0.53940973 0.54407490 0.07800725
0.63826094 0.53682675 0.07531995
0.73525143 0.52396579 0.07999746
0.82418306 0.50798523 0.09691889
0.89931903 0.49264182 0.12528900
0.95407638 0.48335398 0.16717041
0.98225911 0.48582160 0.22331140
0.99658724 0.49414573 0.27089636
1.00000000 0.50372352 0.30578616
1.00000000 0.51212683 0.32831892
0.15568239 0.61150975 0.09672726
0.15568239 0.61150975 0.09672726
0.15568239 0.61150975 0.09672726
0.20998751 0.61486318 0.09115088
0.27490596 0.61815936 0.09097538
0.34871052 0.62213527 0.09445181
0.43137818 0.62652892 0.09909360
0.52169722 0.62840545 0.09985486
0.61775217 0.62431528 0.09585044
0.71718611 0.61365655 0.09288823
0.81476263 0.59731145 0.09946818
0.90231394 0.57830172 0.12439705
0.96745432 0.56364032 0.17772811
0.99862916 0.56185556 0.25538911
1.00000000 0.56720558 0.31915172
1.00000000 0.57504348 0.36575318
1.00000000 0.58231147 0.39603542
0.17676124 0.68188183 0.09772824
0.17676124 0.68188183 0.09772824
0.17676124 0.68188183 0.09772824
0.22447282 0.68504522 0.09925411
0.28039014 0.68875016 0.10318586
0.34490889 0.69360682 0.10910293
0.41879024 0.69934216 0.11610127
0.50102598 0.70335336 0.11981783
0.59057349 0.70245029 0.11796865
0.68701844 0.69568897 0.11395817
0.78681235 0.68218430 0.11380614
0.88311559 0.66325191 0.12983608
0.96287152 0.64399148 0.17897339
1.00000000 0.63592831 0.27376708
1.00000000 0.63644538 0.35421625
1.00000000 0.64127203 0.41388267
1.00000000 0.64648553 0.45236607
0.19775144 0.74450147 0.09782535
0.19775144 0.74450147 0.09782535
0.19775144 0.74450147 0.09782535
0.23970578 0.74753663 0.10561568
0.28735008 0.75157837 0.11303456
0.34261539 0.75717704 0.12079018
0.40725760 0.76404941 0.12953473
0.48052909 0.76986470 0.13572675
0.56177240 0.77173164 0.13668559
0.65161488 0.76865795 0.13435695
0.74860875 0.75944689 0.13259723
0.84787819 0.74338206 0.14106631
0.93910189 0.72307481 0.17951744
0.99806358 0.70803947 0.27619270
1.00000000 0.70251599 0.37441776
1.00000000 0.70317746 0.44946439
1.00000000 0.70530695 0.49667096
0.21784111 0.79970038 0.09735361
0.21784111 0.79970038 0.09735361
0.21784111 0.79970038 0.09735361
0.25441764 0.80271194 0.10967882
0.29491047 0.80702432 0.11993416
0.34166830 0.81320752 0.12915986
0.39729150 0.82100463 0.13917765
0.46139834 0.82829361 0.14726149
0.53360812 0.83244676 0.15095867
0.61505462 0.83256981 0.15142248
0.70549673 0.82738220 0.15075134
0.80266333 0.81575500 0.15557982
0.89947155 0.79752976 0.18185178
0.97879074 0.77771528 0.25886323
1.00000000 0.76566902 0.37577079
1.00000000 0.76102349 0.46903778
1.00000000 0.75924811 0.52672625
0.23641050 0.84757445 0.09644626
0.23641050 0.84757445 0.09644626
0.23641050 0.84757445 0.09644626
0.26800419 0.85064640 0.11168288
0.30254571 0.85516424 0.12429547
0.34197325 0.86177976 0.13496488
0.38945107 0.87026786 0.14642221
0.44489432 0.87868013 0.15662778
0.50804853 0.88463077 0.16334678
0.58028342 0.88738492 0.16728289
0.66203631 0.88576179 0.16925428
0.75265604 0.87843514 0.17288785
0.84895771 0.86452684 0.18866532
0.94088632 0.84468337 0.23794980
1.00000000 0.82638146 0.35437120
1.00000000 0.81553266 0.46842809
1.00000000 0.80912242 0.53951826
0.25277806 0.88848905 0.09466628
0.25277806 0.88848905 0.09466628
0.25277806 0.88848905 0.09466628
0.28011879 0.89164700 0.11188345
0.31010660 0.89627699 0.12690415
0.34381342 0.90314162 0.13959150
0.38468141 0.91204371 0.15338460
0.43281368 0.92116907 0.16689029
0.48790338 0.92834107 0.17813522
0.55112778 0.93304352 0.18718000
0.62313355 0.93432297 0.19370445
0.70424735 0.93094232 0.19894773
0.79369511 0.92164214 0.20821637
0.88750515 0.90587506 0.23540543
0.97226462 0.88507062 0.30713817
1.00000000 0.86786871 0.44312391
1.00000000 0.85626718 0.53194645
0.26641841 0.92341329 0.09126264
0.26641841 0.92341329 0.09126264
0.26641841 0.92341329 0.09126264
0.29022076 0.92666785 0.10982645
0.31695258 0.93132706 0.12742550
0.34737702 0.93815183 0.14401000
0.38453012 0.94700956 0.16292090
0.42858771 0.95615688 0.18350765
0.47892387 0.96357406 0.20417043
0.53532801 0.96914218 0.22297159
0.59793749 0.97229254 0.23809581
0.66746241 0.97211332 0.24874336
0.74475434 0.96744198 0.25598953
0.82984697 0.95704819 0.26593224
0.91890465 0.94040764 0.29819439
0.99278433 0.91951463 0.39826350
1.00000000 0.90251728 0.50313075
0.27602305 0.95436833 0.08350601
0.27602305 0.95436833 0.08350601
0.27602305 0.95436833 0.08350601
0.29657887 0.95777392 0.10255102
0.32140371 0.96237115 0.12343982
0.35277787 0.96860415 0.14882834
0.39213769 0.97646031 0.17996929
0.43954827 0.98413831 0.21682830
0.49478941 0.98939209 0.26003256
0.55162597 0.99334482 0.29970246
0.60854987 0.99616512 0.33217083
0.66585060 0.99762160 0.35489367
0.72501976 0.99720005 0.36501207
0.78902211 0.99395658 0.35940784
0.86265658 0.98587757 0.34201550
0.94510432 0.96970544 0.37220750
1.00000000 0.94961352 0.45902214
0.27535712 0.98526601 0.05926363
0.27535712 0.98526601 0.05926363
0.27535712 0.98526601 0.05926363
0.29090594 0.98915265 0.07360312
0.31509517 0.99366662 0.10003503
0.35870939 0.99777923 0.15209258
0.41379566 1.00000000 0.21301884
0.47244162 1.00000000 0.27308687
0.52992622 1.00000000 0.32807976
0.58504150 1.00000000 0.37695724
0.63722869 1.00000000 0.41830470
0.68664295 1.00000000 0.45047885
0.73431406 1.00000000 0.47166571
0.78241252 1.00000000 0.47991523
0.83498734 1.00000000 0.47556323
0.89675674 1.00000000 0.46438774
0.97052763 0.99746009 0.43439893
0.00000000 0.00000000 0.00000000
0.00000000 0.00000000 0.00000000
0.00000000 0.00000000 0.00000000
0.09571152 0.01484990 0.01452288
0.20283796 0.02584053 0.02419099
0.30487758 0.03666057 0.03219926
0.40701479 0.04787146 0.03843967
0.49907917 0.06088081 0.04268286
0.57584055 0.07599449 0.04334975
0.64185909 0.09445086 0.04149134
0.69890033 0.11418674 0.03726424
0.74720566 0.13477608 0.03180268
0.78713429 0.15540151 0.02605633
0.82009264 0.17441484 0.01961995
0.84812090 0.19051463 0.01160350
0.87311156 0.20401109 0.00259595
0.89787509 0.21578254 0.00000000
0.00000000 0.00000000 0.00000000
0.00000000 0.00000000 0.00000000
0.00000000 0.00000000 0.00000000
0.09571152 0.01484990 0.01452288
0.20283796 0.02584053 0.02419099
0.30487758 0.03666057 0.03219926
0.40701479 0.04787146 0.03843967
0.49907917 0.06088081 0.04268286
0.57584055 0.07599449 0.04334975
0.64185909 0.09445086 0.04149134
0.69890033 0.11418674 0.03726424
0.74720566 0.13477608 0.03180268
0.78713429 0.15540151 0.02605633
0.82009264 0.17441484 0.01961995
0.84812090 0.19051463 0.01160350
0.87311156 0.20401109 0.00259595
0.89787509 0.21578254 0.00000000
0.00000000 0.00000000 0.00000000
0.00000000 0.00000000 0.00000000
0.00000000 0.00000000 0.00000000
0.09571152 0.01484990 0.01452288
0.20283796 0.02584053 0.02419099
0.30487758 0.03666057 0.03219926
0.40701479 0.04787146 0.03843967
0.49907917 0.06088081 0.04268286
0.57584055 0.07599449 0.04334975
0.64185909 0.09445086 0.04149134
0.69890033 0.11418674 0.03726424
0.74720566 0.13477608 0.03180268
0.78713429 0.15540151 0.02605633
0.82009264 0.17441484 0.01961995
0.84812090 0.19051463 0.01160350
0.87311156 0.20401109 0.00259595
0.89787509 0.21578254 0.00000000
0.04185321 0.12220929 0.04000126
0.04185321 0.12220929 0.04000126
0.04185321 0.12220929 0.04000126
0.13346779 0.13421054 0.03533849
0.22999778 0.14133849 0.03387933
0.32740883 0.14751581 0.03425206
0.42688537 0.15332165 0.03621124
0.51870828 0.15863717 0.04120628
0.59594169 0.16453283 0.04755059
0.66338361 0.17181885 0.05150602
0.72177141 0.18123865 0.05314138
0.77206423 0.19194240 0.05164590
0.81440362 0.20353538 0.04786848
0.84995154 0.21475254 0.04158334
0.88008348 0.22488210 0.03310854
0.90678342 0.23373154 0.02305316
0.93298226 0.24165121 0.01216031
0.06659090 0.23243478 0.05892525
0.06659090 0.23243478 0.05892525
0.06659090 0.23243478 0.05892525
0.15187882 0.24000771 0.04592928
0.24307543 0.24462487 0.03985054
0.33757756 0.24850083 0.03765137
0.43607259 0.25172757 0.03821685
0.53052986 0.25241905 0.04365432
0.61245039 0.25143128 0.05392285
0.68360049 0.25151966 0.06504025
0.74503575 0.25363042 0.07458696
0.79833443 0.25700647 0.07948226
0.84336460 0.26174715 0.08076745
0.88083791 0.26736880 0.07890183
0.91208870 0.27330494 0.07439346
0.93917181 0.27922311 0.06789232
0.96567032 0.28465049 0.05893274
0.08842337 0.33600459 0.07151703
0.08842337 0.33600459 0.07151703
0.08842337 0.33600459 0.07151703
0.16674919 0.34135665 0.05542683
0.25358059 0.34469721 0.04840117
0.34533756 0.34764335 0.04637137
0.44245270 0.34985815 0.04663115
0.53992648 0.34833266 0.05003296
0.62872324 0.34270928 0.06067628
0.70682234 0.33663139 0.07687817
0.77415040 0.33193572 0.09374119
0.83128628 0.32928712 0.10730055
0.87829955 0.32920514 0.11818594
0.91526253 0.33213402 0.12808979
0.94360364 0.33769872 0.13741247
0.96558198 0.34542528 0.14655815
0.98640478 0.35350275 0.15287409
0.11140111 0.43853911 0.08383143
0.11140111 0.43853911 0.08383143
0.11140111 0.43853911 0.08383143
0.18202579 0.44266737 0.06773253
0.26365593 0.44540789 0.06120191
0.35188650 0.44798779 0.05990819
0.44683574 0.45008885 0.06053954
0.54557953 0.44811835 0.06057836
0.64154225 0.44004149 0.06514478
0.72966185 0.42886736 0.07945727
0.80642072 0.41761878 0.10075638
0.87034089 0.40861330 0.12355291
0.92011566 0.40399306 0.14774379
0.95249613 0.40705690 0.17833158
0.97233412 0.41553369 0.20833006
0.98744617 0.42516462 0.23138487
1.00000000 0.43397072 0.24654060
0.13435928 0.53205475 0.09312454
0.13435928 0.53205475 0.09312454
0.13435928 0.53205475 0.09312454
0.19650178 0.53565051 0.08088234
0.27057560 0.53849525 0.07664385
0.35276639 0.54154534 0.07721113
0.44293083 0.54451147 0.07922036
0.53940973 0.54407490 0.07800725
0.63826094 0.53682675 0.07531995
0.73525143 0.52396579 0.07999746
0.82418306 0.50798523 0.09691889
0.89931903 0.49264182 0.12528900
0.95407638 0.48335398 0.16717041
0.98225911 0.48582160 0.22331140
0.99658724 0.49414573 0.27089636
1.00000000 0.50372352 0.30578616
1.00000000 0.51212683 0.32831892
0.15568239 0.61150975 0.09672726
0.15568239 0.61150975 0.09672726
0.15568239 0.61150975 0.09672726
0.20998751 0.61486318 0.09115088
0.27490596 0.61815936 0.09097538
0.34871052 0.62213527 0.09445181
0.43137818 0.62652892 0.09909360
0.52169722 0.62840545 0.09985486
0.61775217 0.62431528 0.09585044
0.71718611 0.61365655 0.09288823
0.81476263 0.59731145 0.09946818
0.90231394 0.57830172 0.12439705
0.96745432 0.56364032 0.17772811
0.99862916 0.56185556 0.25538911
1.00000000 0.56720558 0.31915172
1.00000000 0.57504348 0.36575318
1.00000000 0.58231147 0.39603542
0.17676124 0.68188183 0.09772824
0.17676124 0.68188183 0.09772824
0.17676124 0.68188183 0.09772824
0.22447282 0.68504522 0.09925411
0.28039014 0.68875016 0.10318586
0.34490889 0.69360682 0.10910293
0.41879024 0.69934216 0.11610127
0.50102598 0.70335336 0.11981783
0.59057349 0.70245029 0.11796865
0.68701844 0.69568897 0.11395817
0.78681235 0.68218430 0.11380614
0.88311559 0.66325191 0.12983608
0.96287152 0.64399148 0.17897339
1.00000000 0.63592831 0.27376708
1.00000000 0.63644538 0.35421625
1.00000000 0.64127203 0.41388267
1.00000000 0.64648553 0.45236607
0.19775144 0.74450147 0.09782535
0.19775144 0.74450147 0.09782535
0.19775144 0.74450147 0.09782535
0.23970578 0.74753663 0.10561568
0.28735008 0.75157837 0.11303456
0.34261539 0.75717704 0.12079018
0.40725760 0.76404941 0.12953473
0.48052909 0.76986470 0.13572675
0.56177240 0.77173164 0.13668559
0.65161488 0.76865795 0.13435695
0.74860875 0.75944689 0.13259723
0.84787819 0.74338206 0.14106631
0.93910189 0.72307481 0.17951744
0.99806358 0.70803947 0.27619270
1.00000000 0.70251599 0.37441776
1.00000000 0.70317746 0.44946439
1.00000000 0.70530695 0.49667096
0.21784111 0.79970038 0.09735361
0.21784111 0.79970038 0.09735361
0.21784111 0.79970038 0.09735361
0.25441764 0.80271194 0.10967882
0.29491047 0.80702432 0.11993416
0.34166830 0.81320752 0.12915986
0.39729150 0.82100463 0.13917765
0.46139834 0.82829361 0.14726149
0.53360812 0.83244676 0.15095867
0.61505462 0.83256981 0.15142248
0.70549673 0.82738220 0.15075134
0.80266333 0.81575500 0.15557982
0.89947155 0.79752976 0.18185178
0.97879074 0.77771528 0.25886323
1.00000000 0.76566902 0.37577079
1.00000000 0.76102349 0.46903778
1.00000000 0.75924811 0.52672625
0.23641050 0.84757445 0.09644626
0.23641050 0.84757445 0.09644626
0.23641050 0.84757445 0.09644626
0.26800419 0.85064640 0.11168288
0.30254571 0.85516424 0.12429547
0.34197325 0.86177976 0.13496488
0.38945107 0.87026786 0.14642221
0.44489432 0.87868013 0.15662778
0.50804853 0.88463077 0.16334678
0.58028342 0.88738492 0.16728289
0.66203631 0.88576179 0.16925428
0.75265604 0.87843514 0.17288785
0.84895771 0.86452684 0.18866532
0.94088632 0.84468337 0.23794980
1.00000000 0.82638146 0.35437120
1.00000000 0.81553266 0.46842809
1.00000000 0.80912242 0.53951826
0.25277806 0.88848905 0.09466628
0.25277806 0.88848905 0.09466628
0.25277806 0.88848905 0.09466628
0.28011879 0.89164700 0.11188345
0.31010660 0.89627699 0.12690415
0.34381342 0.90314162 0.13959150
0.38468141 0.91204371 0.15338460
0.43281368 0.92116907 0.16689029
0.48790338 0.92834107 0.17813522
0.55112778 0.93304352 0.18718000
0.62313355 0.93432297 0.19370445
0.70424735 0.93094232 0.19894773
0.79369511 0.92164214 0.20821637
0.88750515 0.90587506 0.23540543
0.97226462 0.88507062 0.30713817
1.00000000 0.86786871 0.44312391
1.00000000 0.85626718 0.53194645
0.26641841 0.92341329 0.09126264
0.26641841 0.92341329 0.09126264
0.26641841 0.92341329 0.09126264
0.29022076 0.92666785 0.10982645
0.31695258 0.93132706 0.12742550
0.34737702 0.93815183 0.14401000
0.38453012 0.94700956 0.16292090
0.42858771 0.95615688 0.18350765
0.47892387 0.96357406 0.20417043
0.53532801 0.96914218 0.22297159
0.59793749 0.97229254 0.23809581
0.66746241 0.97211332 0.24874336
0.74475434 0.96744198 0.25598953
0.82984697 0.95704819 0.26593224
0.91890465 0.94040764 0.29819439
0.99278433 0.91951463 0.39826350
1.00000000 0.90251728 0.50313075
0.27602305 0.95436833 0.08350601
0.27602305 0.95436833 0.08350601
0.27602305 0.95436833 0.08350601
0.29657887 0.95777392 0.10255102
0.32140371 0.96237115 0.12343982
0.35277787 0.96860415 0.14882834
0.39213769 0.97646031 0.17996929
0.43954827 0.98413831 0.21682830
0.49478941 0.98939209 0.26003256
0.55162597 0.99334482 0.29970246
0.60854987 0.99616512 0.33217083
0.66585060 0.99762160 0.35489367
0.72501976 0.99720005 0.36501207
0.78902211 0.99395658 0.35940784
0.86265658 0.98587757 0.34201550
0.94510432 0.96970544 0.37220750
1.00000000 0.94961352 0.45902214
0.27535712 0.98526601 0.05926363
0.27535712 0.98526601 0.05926363
0.27535712 0.98526601 0.05926363
0.29090594 0.98915265 0.07360312
0.31509517 0.99366662 0.10003503
0.35870939 0.99777923 0.15209258
0.41379566 1.00000000 0.21301884
0.47244162 1.00000000 0.27308687
0.52992622 1.00000000 0.32807976
0.58504150 1.00000000 0.37695724
0.63722869 1.00000000 0.41830470
0.68664295 1.00000000 0.45047885
0.73431406 1.00000000 0.47166571
0.78241252 1.00000000 0.47991523
0.83498734 1.00000000 0.47556323
0.89675674 1.00000000 0.46438774
0.97052763 0.99746009 0.43439893
0.00000000 0.00000000 0.00000000
0.00000000 0.00000000 0.00000000
0.00000000 0.00000000 0.00000000
0.09571152 0.01484990 0.01452288
0.20283796 0.02584053 0.02419099
0.30487758 0.03666057 0.03219926
0.40701479 0.04787146 0.03843967
0.49907917 0.06088081 0.04268286
0.57584055 0.07599449 0.04334975
0.64185909 0.09445086 0.04149134
0.69890033 0.11418674 0.03726424
0.74720566 0.13477608 0.03180268
0.78713429 0.15540151 0.02605633
0.82009264 0.17441484 0.01961995
0.84812090 0.19051463 0.01160350
0.87311156 0.20401109 0.00259595
0.89787509 0.21578254 0.00000000
0.00000000 0.00000000 0.00000000
0.00000000 0.00000000 0.00000000
0.00000000 0.00000000 0.00000000
0.09571152 0.01484990 0.01452288
0.20283796 0.02584053 0.02419099
0.30487758 0.03666057 0.03219926
0.40701479 0.04787146 0.03843967
0.49907917 0.06088081 0.04268286
0.57584055 0.07599449 0.04334975
0.64185909 0.09445086 0.04149134
0.69890033 0.11418674 0.03726424
0.74720566 0.13477608 0.03180268
0.78713429 0.15540151 0.02605633
0.82009264 0.17441484 0.01961995
0.84812090 0.19051463 0.01160350
0.87311156 0.20401109 0.00259595
0.89787509 0.21578254 0.00000000
0.00000000 0.00000000 0.00000000
0.00000000 0.00000000 0.00000000
0.00000000 0.00000000 0.00000000
0.09571152 0.01484990 0.01452288
0.20283796 0.02584053 0.02419099
0.30487758 0.03666057 0.03219926
0.40701479 0.04787146 0.03843967
0.49907917 0.06088081 0.04268286
0.57584055 0.07599449 0.04334975
0.64185909 0.09445086 0.04149134
0.69890033 0.11418674 0.03726424
0.74720566 0.13477608 0.03180268
0.78713429 0.15540151 0.02605633
0.82009264 0.17441484 0.01961995
0.84812090 0.19051463 0.01160350
0.87311156 0.20401109 0.00259595
0.89787509 0.21578254 0.00000000
0.04185321 0.12220929 0.04000126
0.04185321 0.12220929 0.04000126
0.04185321 0.12220929 0.04000126
0.13346779 0.13421054 0.03533849
0.22999778 0.14133849 0.03387933
0.32740883 0.14751581 0.03425206
0.42688537 0.15332165 0.03621124
0.51870828 0.15863717 0.04120628
0.59594169 0.16453283 0.04755059
0.66338361 0.17181885 0.05150602
0.72177141 0.18123865 0.05314138
0.77206423 0.19194240 0.05164590
0.81440362 0.20353538 0.04786848
0.84995154 0.21475254 0.04158334
0.88008348 0.22488210 0.03310854
0.90678342 0.23373154 0.02305316
0.93298226 0.24165121 0.01216031
0.06659090 0.23243478 0.05892525
0.06659090 0.23243478 0.05892525
0.06659090 0.23243478 0.05892525
0.15187882 0.24000771 0.04592928
0.24307543 0.24462487 0.03985054
0.33757756 0.24850083 0.03765137
0.43607259 0.25172757 0.03821685
0.53052986 0.25241905 0.04365432
0.61245039 0.25143128 0.05392285
0.68360049 0.25151966 0.06504025
0.74503575 0.25363042 0.07458696
0.79833443 0.25700647 0.07948226
0.84336460 0.26174715 0.08076745
0.88083791 0.26736880 0.07890183
0.91208870 0.27330494 0.07439346
0.93917181 0.27922311 0.06789232
0.96567032 0.28465049 0.05893274
0.08842337 0.33600459 0.07151703
0.08842337 0.33600459 0.07151703
0.08842337 0.33600459 0.07151703
0.16674919 0.34135665 0.05542683
0.25358059 0.34469721 0.04840117
0.34533756 0.34764335 0.04637137
0.44245270 0.34985815 0.04663115
0.53992648 0.34833266 0.05003296
0.62872324 0.34270928 0.06067628
0.70682234 0.33663139 0.07687817
0.77415040 0.33193572 0.09374119
0.83128628 0.32928712 0.10730055
0.87829955 0.32920514 0.11818594
0.91526253 0.33213402 0.12808979
0.94360364 0.33769872 0.13741247
0.96558198 0.34542528 0.14655815
0.98640478 0.35350275 0.15287409
0.11140111 0.43853911 0.08383143
0.11140111 0.43853911 0.08383143
0.11140111 0.43853911 0.08383143
0.18202579 0.44266737 0.06773253
0.26365593 0.44540789 0.06120191
0.35188650 0.44798779 0.05990819
0.44683574 0.45008885 0.06053954
0.54557953 0.44811835 0.06057836
0.64154225 0.44004149 0.06514478
0.72966185 0.42886736 0.07945727
0.80642072 0.41761878 0.10075638
0.87034089 0.40861330 0.12355291
0.92011566 0.40399306 0.14774379
0.95249613 0.40705690 0.17833158
0.97233412 0.41553369 0.20833006
0.98744617 0.42516462 0.23138487
1.00000000 0.43397072 0.24654060
0.13435928 0.53205475 0.09312454
0.13435928 0.53205475 0.09312454
0.13435928 0.53205475 0.09312454
0.19650178 0.53565051 0.08088234
0.27057560 0.53849525 0.07664385
0.35276639 0.54154534 0.07721113
0.44293083 0.54451147 0.07922036
0.53940973 0.54407490 0.07800725
0.63826094 0.53682675 0.07531995
0.73525143 0.52396579 0.07999746
0.82418306 0.50798523 0.09691889
0.89931903 0.49264182 0.12528900
0.95407638 0.48335398 0.16717041
0.98225911 0.48582160 0.22331140
0.99658724 0.49414573 0.27089636
1.00000000 0.50372352 0.30578616
1.00000000 0.51212683 0.32831892
0.15568239 0.61150975 0.09672726
0.15568239 0.61150975 0.09672726
0.15568239 0.61150975 0.09672726
0.20998751 0.61486318 0.09115088
0.27490596 0.61815936 0.09097538
0.34871052 0.62213527 0.09445181
