Luts Download/Canon Luts/3dlut/17grid-3dlut/full-to-full-range/BT709_CanonLog-to-BT709_WideDR_17_FF_Ver.2.0.cube
# Gamut : BT.709 to BT.709
# Gamma : Canon Log to Wide DR
# Range : Full in / Full out
# Version : 2.0 2019/10/24
# Copyright(c) 2019 Canon Inc. All Rights Reserved.
LUT_3D_SIZE 9
# LUT_3D_INPUT_RANGE 0.0 1.0
0.00000000 0.00000000 0.00000000
0.00000000 0.00000000 0.00000000
0.20283796 0.02584053 0.02419099
0.40701479 0.04787146 0.03843967
0.57584055 0.07599449 0.04334975
0.69890033 0.11418674 0.03726424
0.78713429 0.15540151 0.02605633
0.84812090 0.19051463 0.01160350
0.89787509 0.21578254 0.00000000
0.00000000 0.00000000 0.00000000
0.00000000 0.00000000 0.00000000
0.20283796 0.02584053 0.02419099
0.40701479 0.04787146 0.03843967
0.57584055 0.07599449 0.04334975
0.69890033 0.11418674 0.03726424
0.78713429 0.15540151 0.02605633
0.84812090 0.19051463 0.01160350
0.89787509 0.21578254 0.00000000
0.06659090 0.23243478 0.05892525
0.06659090 0.23243478 0.05892525
0.24307543 0.24462487 0.03985054
0.43607259 0.25172757 0.03821685
0.61245039 0.25143128 0.05392285
0.74503575 0.25363042 0.07458696
0.84336460 0.26174715 0.08076745
0.91208870 0.27330494 0.07439346
0.96567032 0.28465049 0.05893274
0.11140111 0.43853911 0.08383143
0.11140111 0.43853911 0.08383143
0.26365593 0.44540789 0.06120191
0.44683574 0.45008885 0.06053954
0.64154225 0.44004149 0.06514478
0.80642072 0.41761878 0.10075638
0.92011566 0.40399306 0.14774379
0.97233412 0.41553369 0.20833006
1.00000000 0.43397072 0.24654060
0.15568239 0.61150975 0.09672726
0.15568239 0.61150975 0.09672726
0.27490596 0.61815936 0.09097538
0.43137818 0.62652892 0.09909360
0.61775217 0.62431528 0.09585044
0.81476263 0.59731145 0.09946818
0.96745432 0.56364032 0.17772811
1.00000000 0.56720558 0.31915172
1.00000000 0.58231147 0.39603542
0.19775144 0.74450147 0.09782535
0.19775144 0.74450147 0.09782535
0.28735008 0.75157837 0.11303456
0.40725760 0.76404941 0.12953473
0.56177240 0.77173164 0.13668559
0.74860875 0.75944689 0.13259723
0.93910189 0.72307481 0.17951744
1.00000000 0.70251599 0.37441776
1.00000000 0.70530695 0.49667096
0.23641050 0.84757445 0.09644626
0.23641050 0.84757445 0.09644626
0.30254571 0.85516424 0.12429547
0.38945107 0.87026786 0.14642221
0.50804853 0.88463077 0.16334678
0.66203631 0.88576179 0.16925428
0.84895771 0.86452684 0.18866532
1.00000000 0.82638146 0.35437120
1.00000000 0.80912242 0.53951826
0.26641841 0.92341329 0.09126264
0.26641841 0.92341329 0.09126264
0.31695258 0.93132706 0.12742550
0.38453012 0.94700956 0.16292090
0.47892387 0.96357406 0.20417043
0.59793749 0.97229254 0.23809581
0.74475434 0.96744198 0.25598953
0.91890465 0.94040764 0.29819439
1.00000000 0.90251728 0.50313075
0.27535712 0.98526601 0.05926363
0.27535712 0.98526601 0.05926363
0.31509517 0.99366662 0.10003503
0.41379566 1.00000000 0.21301884
0.52992622 1.00000000 0.32807976
0.63722869 1.00000000 0.41830470
0.73431406 1.00000000 0.47166571
0.83498734 1.00000000 0.47556323
0.97052763 0.99746009 0.43439893
0.00000000 0.00000000 0.00000000
0.00000000 0.00000000 0.00000000
0.20283796 0.02584053 0.02419099
0.40701479 0.04787146 0.03843967
0.57584055 0.07599449 0.04334975
0.69890033 0.11418674 0.03726424
0.78713429 0.15540151 0.02605633
0.84812090 0.19051463 0.01160350
0.89787509 0.21578254 0.00000000
0.00000000 0.00000000 0.00000000
0.00000000 0.00000000 0.00000000
0.20283796 0.02584053 0.02419099
0.40701479 0.04787146 0.03843967
0.57584055 0.07599449 0.04334975
0.69890033 0.11418674 0.03726424
0.78713429 0.15540151 0.02605633
0.84812090 0.19051463 0.01160350
0.89787509 0.21578254 0.00000000
0.06659090 0.23243478 0.05892525
0.06659090 0.23243478 0.05892525
0.24307543 0.24462487 0.03985054
0.43607259 0.25172757 0.03821685
0.61245039 0.25143128 0.05392285
0.74503575 0.25363042 0.07458696
0.84336460 0.26174715 0.08076745
0.91208870 0.27330494 0.07439346
0.96567032 0.28465049 0.05893274
0.11140111 0.43853911 0.08383143
0.11140111 0.43853911 0.08383143
0.26365593 0.44540789 0.06120191
0.44683574 0.45008885 0.06053954
0.64154225 0.44004149 0.06514478
0.80642072 0.41761878 0.10075638
0.92011566 0.40399306 0.14774379
0.97233412 0.41553369 0.20833006
1.00000000 0.43397072 0.24654060
0.15568239 0.61150975 0.09672726
0.15568239 0.61150975 0.09672726
0.27490596 0.61815936 0.09097538
0.43137818 0.62652892 0.09909360
0.61775217 0.62431528 0.09585044
0.81476263 0.59731145 0.09946818
0.96745432 0.56364032 0.17772811
1.00000000 0.56720558 0.31915172
1.00000000 0.58231147 0.39603542
0.19775144 0.74450147 0.09782535
0.19775144 0.74450147 0.09782535
0.28735008 0.75157837 0.11303456
0.40725760 0.76404941 0.12953473
0.56177240 0.77173164 0.13668559
0.74860875 0.75944689 0.13259723
0.93910189 0.72307481 0.17951744
1.00000000 0.70251599 0.37441776
1.00000000 0.70530695 0.49667096
0.23641050 0.84757445 0.09644626
0.23641050 0.84757445 0.09644626
0.30254571 0.85516424 0.12429547
0.38945107 0.87026786 0.14642221
0.50804853 0.88463077 0.16334678
0.66203631 0.88576179 0.16925428
0.84895771 0.86452684 0.18866532
1.00000000 0.82638146 0.35437120
1.00000000 0.80912242 0.53951826
0.26641841 0.92341329 0.09126264
0.26641841 0.92341329 0.09126264
0.31695258 0.93132706 0.12742550
0.38453012 0.94700956 0.16292090
0.47892387 0.96357406 0.20417043
0.59793749 0.97229254 0.23809581
0.74475434 0.96744198 0.25598953
0.91890465 0.94040764 0.29819439
1.00000000 0.90251728 0.50313075
0.27535712 0.98526601 0.05926363
0.27535712 0.98526601 0.05926363
0.31509517 0.99366662 0.10003503
0.41379566 1.00000000 0.21301884
0.52992622 1.00000000 0.32807976
0.63722869 1.00000000 0.41830470
0.73431406 1.00000000 0.47166571
0.83498734 1.00000000 0.47556323
0.97052763 0.99746009 0.43439893
0.01097081 0.01655122 0.17834233
0.01097081 0.01655122 0.17834233
0.21932094 0.02875940 0.21584742
0.41514751 0.04792528 0.23512431
0.58769062 0.06924416 0.22677652
0.72004234 0.09584944 0.19376887
0.81909546 0.12615087 0.14429140
0.88385376 0.16198044 0.08695973
0.93087811 0.19464520 0.03396629
0.01097081 0.01655122 0.17834233
0.01097081 0.01655122 0.17834233
0.21932094 0.02875940 0.21584742
0.41514751 0.04792528 0.23512431
0.58769062 0.06924416 0.22677652
0.72004234 0.09584944 0.19376887
0.81909546 0.12615087 0.14429140
0.88385376 0.16198044 0.08695973
0.93087811 0.19464520 0.03396629
0.05636104 0.23834902 0.23796602
0.05636104 0.23834902 0.23796602
0.24578998 0.24578998 0.24578998
0.45022617 0.24587571 0.24542935
0.62307306 0.24699596 0.24139802
0.75502788 0.25143071 0.22806852
0.85440631 0.26089047 0.20402597
0.92328159 0.27464965 0.17279024
0.97464597 0.29003375 0.13968781
0.09564194 0.44093105 0.26111120
0.09564194 0.44093105 0.26111120
0.24719079 0.45005599 0.24527906
0.44981013 0.45043138 0.24589421
0.64807153 0.43819053 0.25201020
0.79490311 0.42601075 0.27485063
0.89854826 0.42252472 0.28775109
0.94996015 0.43744760 0.30776550
0.98945926 0.45246030 0.31372761
0.14652877 0.61351250 0.25380826
0.14652877 0.61351250 0.25380826
0.25876455 0.62216337 0.24218216
0.42885257 0.62838257 0.25278632
0.62104503 0.62464960 0.24643981
0.82101579 0.59660091 0.24508600
0.95563533 0.57199196 0.30746693
0.99964692 0.57871781 0.39389190
1.00000000 0.59365410 0.44279520
0.20520506 0.74567271 0.23391694
0.20520506 0.74567271 0.23391694
0.28534452 0.75396619 0.23627111
0.41289124 0.76472712 0.25726043
0.56603204 0.77223457 0.26372709
0.75183828 0.76032523 0.24738173
0.95409688 0.72121157 0.23699647
1.00000000 0.70776198 0.43272496
1.00000000 0.71280204 0.53226611
0.25387158 0.84851316 0.21018415
0.25387158 0.84851316 0.21018415
0.31791449 0.85590815 0.22961776
0.40953697 0.86936384 0.25741371
0.52460041 0.88326504 0.27657920
0.66933070 0.88599953 0.27275020
0.85307622 0.86646133 0.24837395
1.00000000 0.82995161 0.41574918
1.00000000 0.81518376 0.57369030
0.30464892 0.92235366 0.20197367
0.30464892 0.92235366 0.20197367
0.34796526 0.93061178 0.22358410
0.41441127 0.94557697 0.25554047
0.49914296 0.96304219 0.28319407
0.60490673 0.97441375 0.29303917
0.74534188 0.97187982 0.28099375
0.92732717 0.94483242 0.24924305
1.00000000 0.90693605 0.54610489
0.34064747 0.98111623 0.19599245
0.34064747 0.98111623 0.19599245
0.37265435 0.98974076 0.21868787
0.45350121 0.99949751 0.29170300
0.55784590 1.00000000 0.38554294
0.65842871 1.00000000 0.46656598
0.75076510 1.00000000 0.51769097
0.84599957 1.00000000 0.52605716
0.97157159 0.99822569 0.50133123
0.01838258 0.04812776 0.34942490
0.01838258 0.04812776 0.34942490
0.22571695 0.04707397 0.39373224
0.42186490 0.05828555 0.41387782
0.60342676 0.06614577 0.39906426
0.74638184 0.07930384 0.35025391
0.85295402 0.10358835 0.28443459
0.92473578 0.13594097 0.20884596
0.97433477 0.17133076 0.13132569
0.01838258 0.04812776 0.34942490
0.01838258 0.04812776 0.34942490
0.22571695 0.04707397 0.39373224
0.42186490 0.05828555 0.41387782
0.60342676 0.06614577 0.39906426
0.74638184 0.07930384 0.35025391
0.85295402 0.10358835 0.28443459
0.92473578 0.13594097 0.20884596
0.97433477 0.17133076 0.13132569
0.05722898 0.24635920 0.41284345
0.05722898 0.24635920 0.41284345
0.24469114 0.24611983 0.45043245
0.45090188 0.24554842 0.44981726
0.63798791 0.24121066 0.42252281
0.77568571 0.24576483 0.37878525
0.87517684 0.25905195 0.33166740
0.94129641 0.27893686 0.28256621
0.98729112 0.30204828 0.23697769
0.08385197 0.44407130 0.44342864
0.08385197 0.44407130 0.44342864
0.24576125 0.45030265 0.45018216
0.45028250 0.45028250 0.45028250
0.62360713 0.45049676 0.44936527
0.75699694 0.45190899 0.44405079
0.85878555 0.45579273 0.43162735
0.93003675 0.46281384 0.41272091
0.98240217 0.47240548 0.39081495
0.17276363 0.61361172 0.42593592
0.17276363 0.61361172 0.42593592
0.29457328 0.61836840 0.43152539
0.45384850 0.62306246 0.44887669
0.62223570 0.62426352 0.45057573
0.79301962 0.60847013 0.45609378
0.91121393 0.59739541 0.47601848
0.96338242 0.60523462 0.50565503
0.99769311 0.61739314 0.52012066
0.27484883 0.74100416 0.40258754
0.27484883 0.74100416 0.40258754
0.35865188 0.74546212 0.41942558
0.46865037 0.75507985 0.44434912
0.59625933 0.76488261 0.45840977
0.75258528 0.76006433 0.45139324
0.92430942 0.73379557 0.44893639
1.00000000 0.72184877 0.53389096
1.00000000 0.72883909 0.59667476
0.36495224 0.83757233 0.39134049
0.36495224 0.83757233 0.39134049
0.41620509 0.84406891 0.40997546
0.49230678 0.85653309 0.43831997
0.58586151 0.87108966 0.46138144
0.70155297 0.87782743 0.46528519
0.85265752 0.86655626 0.45237754
0.99090617 0.83778153 0.52415852
1.00000000 0.82687729 0.63548320
0.42735524 0.90888819 0.38345393
0.42735524 0.90888819 0.38345393
0.46237986 0.91642641 0.40263901
0.51747502 0.93043494 0.43254750
0.58624661 0.94773666 0.46082447
0.66888036 0.96094520 0.47485587
0.77875634 0.96323082 0.47139305
0.92569172 0.94530174 0.45326800
1.00000000 0.91482991 0.62279824
0.47029767 0.96610647 0.37848764
0.47029767 0.96610647 0.37848764
0.49682950 0.97409684 0.39757287
0.53972027 0.98877445 0.42784052
0.61453040 1.00000000 0.48694890
0.69936869 1.00000000 0.55107766
0.78212404 1.00000000 0.59831448
0.86706198 1.00000000 0.61433265
0.97441082 0.99925748 0.60525276
0.01200114 0.09903285 0.48257372
0.01200114 0.09903285 0.48257372
0.20726394 0.07797805 0.55957934
0.40466674 0.08547231 0.58919498
0.59693811 0.08214121 0.58277379
0.75855652 0.07478769 0.52690895
0.88090785 0.08230101 0.44421359
0.95906869 0.11800279 0.35116609
1.00000000 0.17659819 0.26726252
0.01200114 0.09903285 0.48257372
0.01200114 0.09903285 0.48257372
0.20726394 0.07797805 0.55957934
0.40466674 0.08547231 0.58919498
0.59693811 0.08214121 0.58277379
0.75855652 0.07478769 0.52690895
0.88090785 0.08230101 0.44421359
0.95906869 0.11800279 0.35116609
1.00000000 0.17659819 0.26726252
0.06555988 0.25478078 0.56812244
0.06555988 0.25478078 0.56812244
0.23394501 0.24920789 0.62511598
0.42790159 0.25500250 0.63330681
0.62723897 0.24417341 0.62048585
0.79744325 0.22797549 0.55924226
0.91989229 0.22629773 0.47798068
0.96810002 0.27535658 0.40547880
1.00000000 0.31339963 0.34547953
0.14433196 0.43764730 0.61677923
0.14433196 0.43764730 0.61677923
0.28101784 0.44249443 0.62633844
0.44739223 0.45115539 0.62423862
0.62587308 0.44961165 0.62230513
0.78237448 0.44410307 0.58508383
0.89021124 0.44838590 0.54146073
0.95007031 0.46552511 0.50365613
0.99133628 0.48425454 0.47047407
0.07548196 0.61981487 0.61895202
0.07548196 0.61981487 0.61895202
0.24561632 0.62387460 0.62329188
0.45020384 0.62384827 0.62343945
0.62377960 0.62377960 0.62377960
0.75803236 0.62404976 0.62260469
0.86176277 0.62539263 0.61739013
0.93600847 0.62856974 0.60674498
0.99140709 0.63399251 0.59137042
0.25508758 0.74760962 0.55217542
0.25508758 0.74760962 0.55217542
0.36716295 0.74793075 0.56760068
0.50235027 0.75062501 0.59583155
0.62835690 0.75724836 0.62181969
0.75598827 0.75898365 0.62419887
0.89169154 0.74659906 0.62798526
0.96862335 0.74228560 0.65466542
1.00000000 0.74997128 0.67775862
0.41678923 0.83460758 0.52908727
0.41678923 0.83460758 0.52908727
0.47296718 0.83855802 0.55012448
0.55409306 0.84713912 0.58440316
0.64261210 0.85936817 0.61684759
0.73668533 0.86872676 0.63026456
0.85601189 0.86547374 0.62512554
0.97742166 0.84664660 0.64818144
1.00000000 0.84094853 0.71320344
0.50571056 0.90058346 0.51970591
0.50571056 0.90058346 0.51970591
0.54159108 0.90645293 0.54118605
0.59744822 0.91785216 0.57586598
0.66218329 0.93314706 0.61097228
0.73073025 0.94695002 0.63228854
0.81510135 0.95353733 0.63633006
0.92816439 0.94448108 0.62611983
1.00000000 0.92362883 0.71307664
0.56188157 0.95473297 0.51543811
0.56188157 0.95473297 0.51543811
0.58850765 0.96147253 0.53620792
0.63143590 0.97413615 0.56993199
0.68202803 0.99093695 0.60564457
0.74815114 1.00000000 0.65135127
0.81919722 1.00000000 0.69222909
0.89244332 1.00000000 0.71377870
0.97999671 1.00000000 0.71514758
0.00000000 0.15559158 0.56110680
0.00000000 0.15559158 0.56110680
0.15074408 0.11836194 0.69264852
0.35415407 0.12178697 0.74398069
0.55330633 0.11710857 0.75730313
0.73357281 0.09931075 0.71203134
0.87736691 0.08937627 0.62285579
0.97063609 0.11773932 0.51257689
1.00000000 0.18463448 0.40951301
0.00000000 0.15559158 0.56110680
0.00000000 0.15559158 0.56110680
0.15074408 0.11836194 0.69264852
0.35415407 0.12178697 0.74398069
0.55330633 0.11710857 0.75730313
0.73357281 0.09931075 0.71203134
0.87736691 0.08937627 0.62285579
0.97063609 0.11773932 0.51257689
1.00000000 0.18463448 0.40951301
0.05621150 0.26873404 0.68055713
0.05621150 0.26873404 0.68055713
0.19934409 0.25822393 0.76230518
0.38332111 0.27222260 0.77836040
0.57694473 0.26774110 0.78870719
0.76614271 0.24178446 0.74962559
0.92265546 0.21521986 0.66181277
0.98387803 0.26986838 0.55059100
1.00000000 0.31633598 0.46526459
0.16713612 0.43165314 0.76341391
0.16713612 0.43165314 0.76341391
0.29160249 0.44058855 0.75842328
0.43258558 0.45547893 0.76073986
0.59282908 0.46085707 0.77142126
0.76596663 0.44753056 0.75174572
0.91201633 0.43402273 0.68977581
0.98030079 0.45412600 0.61448843
1.00000000 0.48160816 0.55756667
0.23309725 0.59765467 0.78951454
0.23309725 0.59765467 0.78951454
0.35125909 0.60240743 0.77831510
0.48868660 0.61321028 0.76261982
0.61993929 0.62494861 0.75890458
0.76149261 0.62283658 0.75616457
0.88744846 0.61829276 0.72400311
0.95925444 0.62610210 0.68834355
1.00000000 0.64041706 0.66123659
0.06398010 0.75559793 0.75441267
0.06398010 0.75559793 0.75441267
0.24536824 0.75846868 0.75724593
0.45000421 0.75848563 0.75718279
0.62367017 0.75837858 0.75774780
0.75827205 0.75827205 0.75827205
0.86297830 0.75853171 0.75713308
0.93922611 0.75966493 0.75265376
0.99764201 0.76222189 0.74388002
0.32616036 0.85172366 0.64876257
0.32616036 0.85172366 0.64876257
0.41934231 0.85179606 0.66559015
0.54403146 0.85290415 0.69630747
0.66509182 0.85625670 0.73217610
0.76271819 0.86217301 0.75626538
0.86082954 0.86396275 0.75870836
0.96546296 0.85352034 0.76152665
1.00000000 0.85454990 0.79301074
0.51033525 0.90584108 0.61566940
0.51033525 0.90584108 0.61566940
0.55684431 0.90903336 0.63863672
0.62813987 0.91568162 0.67764296
0.70553275 0.92570759 0.72078879
0.77483429 0.93689403 0.75159554
0.84498243 0.94542837 0.76389545
0.93341595 0.94282355 0.75960347
1.00000000 0.93071124 0.79869146
0.60008400 0.95325398 0.60802138
0.60008400 0.95325398 0.60802138
0.63118002 0.95818004 0.63122865
0.68120896 0.96765759 0.67004270
0.73810817 0.98087660 0.71314710
0.79071692 0.99483205 0.74621872
0.85235545 1.00000000 0.78081499
0.91529538 1.00000000 0.80260215
0.98701972 1.00000000 0.80983882
0.00000000 0.20737933 0.59580712
0.00000000 0.20737933 0.59580712
0.05139443 0.17441753 0.76531410
0.26905113 0.16888169 0.85975347
0.47171343 0.17204947 0.89740327
0.66645118 0.15031884 0.88256343
0.83680491 0.12254518 0.80781648
0.95934233 0.12200614 0.68960730
1.00000000 0.18202770 0.56285499
0.00000000 0.20737933 0.59580712
0.00000000 0.20737933 0.59580712
0.05139443 0.17441753 0.76531410
0.26905113 0.16888169 0.85975347
0.47171343 0.17204947 0.89740327
0.66645118 0.15031884 0.88256343
0.83680491 0.12254518 0.80781648
0.95934233 0.12200614 0.68960730
1.00000000 0.18202770 0.56285499
0.03071979 0.29169365 0.74721530
0.03071979 0.29169365 0.74721530
0.12886901 0.27283155 0.87014847
0.31534632 0.29501269 0.89213791
0.49868474 0.30951741 0.90316323
0.69521460 0.27713081 0.91412295
0.87525571 0.23937116 0.84876112
0.97514690 0.27014948 0.71598534
1.00000000 0.31453490 0.60163344
0.16881655 0.43195231 0.86575910
0.16881655 0.43195231 0.86575910
0.27379490 0.44465332 0.86291660
0.39974417 0.46451243 0.86903786
0.54491897 0.47673825 0.88783992
0.71069924 0.46779427 0.89148949
0.87731906 0.44492130 0.84970070
0.97912307 0.45195941 0.75301901
1.00000000 0.47897520 0.66666019
0.31582344 0.58519525 0.88637477
0.31582344 0.58519525 0.88637477
0.39222844 0.59494509 0.87525707
0.49367679 0.61249749 0.86393459
0.60475045 0.62946584 0.86603009
0.73141692 0.63229062 0.87400059
0.87362234 0.62049219 0.85532459
0.97480416 0.61905514 0.79645144
1.00000000 0.63576007 0.74139937
0.31593507 0.72108509 0.91963433
0.31593507 0.72108509 0.91963433
0.40917392 0.72623536 0.90659243
0.53226414 0.73649523 0.88544556
0.65208240 0.74966665 0.86687514
0.75445810 0.75943952 0.86385358
0.86668699 0.75730240 0.86106144
0.96412712 0.75324302 0.83308511
1.00000000 0.76468610 0.80683092
0.07981834 0.86034042 0.85874966
0.07981834 0.86034042 0.85874966
0.25997882 0.86222455 0.86033751
0.44977647 0.86357447 0.86138550
0.62345908 0.86351234 0.86174391
0.75816015 0.86333564 0.86265680
0.86322055 0.86322055 0.86322055
0.94038235 0.86343876 0.86225785
0.99365423 0.86666846 0.86121792
0.37383409 0.93006228 0.71856612
0.37383409 0.93006228 0.71856612
0.45646802 0.93007494 0.73590163
0.57392428 0.93050542 0.76715861
0.69397344 0.93177426 0.80555754
0.79183582 0.93453102 0.83948862
0.86698589 0.93967543 0.86145150
0.93846349 0.94125227 0.86360966
1.00000000 0.93654244 0.87750781
0.57331637 0.96473478 0.67720578
0.57331637 0.96473478 0.67720578
0.61521778 0.96739680 0.70066873
0.68217353 0.97261873 0.74132820
0.75718342 0.98018099 0.78942662
0.82241445 0.98906923 0.83019551
0.87692276 0.99859790 0.85735095
0.93422672 1.00000000 0.87940004
0.99391683 1.00000000 0.88971050
0.00000000 0.24575575 0.61174217
0.00000000 0.24575575 0.61174217
0.00000000 0.24352531 0.74259275
0.15411856 0.23316393 0.90108049
0.35780621 0.25147338 0.95830191
0.55079335 0.24811169 0.97464281
0.74253573 0.20557984 0.95623367
0.90955086 0.14932342 0.87378890
1.00000000 0.16273996 0.73634937
0.00000000 0.24575575 0.61174217
0.00000000 0.24575575 0.61174217
0.00000000 0.24352531 0.74259275
0.15411856 0.23316393 0.90108049
0.35780621 0.25147338 0.95830191
0.55079335 0.24811169 0.97464281
0.74253573 0.20557984 0.95623367
0.90955086 0.14932342 0.87378890
1.00000000 0.16273996 0.73634937
0.00307782 0.31723738 0.77826145
0.00307782 0.31723738 0.77826145
0.06319129 0.31594999 0.87306192
0.23202944 0.33610449 0.93063816
0.40341051 0.35961878 0.96004501
0.57977104 0.35922263 0.97440564
0.76394201 0.32711735 0.96266930
0.92964786 0.28401876 0.89081496
1.00000000 0.30352418 0.75849764
0.16256702 0.44226604 0.91227120
0.16256702 0.44226604 0.91227120
0.24108066 0.45549354 0.92614910
0.35331013 0.47990721 0.93618977
0.48303481 0.50165238 0.95227668
0.62900719 0.50566070 0.96554913
0.79124474 0.48736789 0.95878646
0.94115984 0.46200019 0.90039799
1.00000000 0.47391209 0.79500519
0.34009405 0.58392969 0.94709978
0.34009405 0.58392969 0.94709978
0.39646056 0.59611998 0.94219289
0.47802737 0.61682451 0.94045799
0.57693067 0.63844003 0.94172006
0.68742287 0.64797633 0.95334439
0.81821113 0.64097445 0.95372640
0.95863114 0.61781528 0.92546624
1.00000000 0.63291852 0.84078266
0.44221173 0.70222469 0.97256420
0.44221173 0.70222469 0.97256420
0.49303959 0.71192572 0.96297549
0.56565012 0.72928492 0.95497010
0.65489521 0.74933119 0.94129137
0.74095110 0.76351673 0.94318548
0.83965605 0.76546370 0.94970391
0.95146988 0.75506927 0.93299463
1.00000000 0.76109100 0.88315663
0.43299856 0.81245120 0.99528308
0.43299856 0.81245120 0.99528308
0.49337441 0.81876164 0.98758211
0.58428415 0.83031792 0.97509350
0.68541833 0.84420910 0.96096259
0.78151128 0.85573107 0.94400148
0.85993523 0.86423070 0.94113833
0.94375395 0.86236341 0.93869950
1.00000000 0.86441856 0.91713949
0.18720933 0.93286579 0.93056100
0.18720933 0.93286579 0.93056100
0.31582487 0.93479236 0.93213099
0.44957284 0.94105811 0.93815869
0.62325319 0.94104956 0.93824546
0.75796519 0.94090027 0.93904898
0.86312218 0.94069808 0.94008091
0.94059311 0.94059311 0.94059311
0.99764447 0.94200660 0.94107715
0.40513405 0.99247329 0.77150587
0.40513405 0.99247329 0.77150587
0.48122326 0.99255265 0.78878938
0.59309653 0.99286990 0.81966549
0.71073777 0.99353125 0.85801393
0.80970965 0.99473413 0.89374513
0.88727842 0.99723191 0.92285686
0.94678762 0.99963024 0.94233750
0.99896412 1.00000000 0.95396539
0.00000000 0.27338513 0.62887217
0.00000000 0.27338513 0.62887217
0.00000000 0.28340049 0.73520931
0.01836323 0.28500402 0.90937452
0.23407138 0.30704811 0.99660384
0.42294426 0.32573430 1.00000000
0.60949109 0.30890282 1.00000000
0.80081893 0.24115952 1.00000000
0.97519075 0.14745239 0.93556953
0.00000000 0.27338513 0.62887217
0.00000000 0.27338513 0.62887217
0.00000000 0.28340049 0.73520931
0.01836323 0.28500402 0.90937452
0.23407138 0.30704811 0.99660384
0.42294426 0.32573430 1.00000000
0.60949109 0.30890282 1.00000000
0.80081893 0.24115952 1.00000000
0.97519075 0.14745239 0.93556953
0.00000000 0.33914343 0.80093414
0.00000000 0.33914343 0.80093414
0.00000000 0.34408629 0.89025873
0.12769606 0.36317607 0.97541382
0.30343059 0.39754557 1.00000000
0.46779163 0.41503021 1.00000000
0.63975961 0.40311346 1.00000000
0.82155748 0.35337109 1.00000000
0.98579094 0.29794311 0.93970606
0.11673446 0.45211465 0.96214898
0.11673446 0.45211465 0.96214898
0.18715397 0.46681007 0.98105995
0.29410240 0.49510645 0.99201163
0.41525990 0.52458238 1.00000000
0.54523098 0.54041948 1.00000000
0.69055711 0.53528398 1.00000000
0.85039470 0.50434199 1.00000000
0.99398745 0.47427533 0.94343469
0.33287269 0.58856550 0.99456896
0.33287269 0.58856550 0.99456896
0.37848298 0.60204723 0.99487427
0.45090375 0.62533713 0.99420075
0.53897905 0.65050959 0.99790535
0.63675509 0.66671427 1.00000000
0.75012252 0.66841574 1.00000000
0.88026492 0.65168796 1.00000000
1.00000000 0.63518147 0.95535504
0.47964314 0.69979041 1.00000000
0.47964314 0.69979041 1.00000000
0.51460006 0.71115175 1.00000000
0.57222312 0.73104929 0.99723915
0.64315803 0.75398225 0.99562564
0.71847081 0.77151244 0.99946268
0.80342586 0.77911214 1.00000000
0.90364314 0.77272507 1.00000000
1.00000000 0.76349942 0.97164484
0.56578600 0.79145227 1.00000000
0.56578600 0.79145227 1.00000000
0.59776514 0.80110687 1.00000000
0.65144984 0.81814803 1.00000000
0.71774164 0.83856961 1.00000000
0.78387296 0.85622331 0.99768762
0.84942496 0.86808869 0.99988126
0.92240420 0.86971672 1.00000000
1.00000000 0.86555890 0.98668081
0.54592146 0.87656788 1.00000000
0.54592146 0.87656788 1.00000000
0.58622672 0.88370038 1.00000000
0.65378109 0.89619279 1.00000000
0.73471692 0.91124156 1.00000000
0.81188586 0.92467239 1.00000000
0.88038110 0.93549326 1.00000000
0.93823930 0.94176796 0.99925778
0.99969556 0.94229525 0.99564972
0.24386551 0.99095125 0.98813566
0.24386551 0.99095125 0.98813566
0.35458927 0.99272394 0.98950793
0.50447142 0.99491282 0.99124478
0.65104673 0.99730505 0.99370150
0.77181722 0.99919731 0.99635573
0.87045819 1.00000000 0.99857091
0.94648281 1.00000000 0.99977394
1.00000000 1.00000000 1.00000000
