Luts Download/Canon Luts/3dlut/17grid-3dlut/full-to-full-range/CinemaGamut_CanonLog3-to-BT2020_PQ_17_FF_Ver.2.0.cube
# Gamut : Cinema Gamut to BT.2020
# Gamma : Canon Log 3 to PQ
# Range : Full in / Full out
# Version : 2.0 2019/10/24
# Copyright(c) 2019 Canon Inc. All Rights Reserved.
LUT_3D_SIZE 5
# LUT_3D_INPUT_RANGE 0.0 1.0
0.00000000 0.00000000 0.00000000
0.27082739 0.03497478 0.05604640
0.52148191 0.00000000 0.13530647
0.72117369 0.00000000 0.25410516
0.90537324 0.00000000 0.39073158
0.13259501 0.25043958 0.07923771
0.27678213 0.28722471 0.03804953
0.52002500 0.29572223 0.03180617
0.72398723 0.18235769 0.16247712
0.90796912 0.00000000 0.36694524
0.28393995 0.48850065 0.02812837
0.33865217 0.49724224 0.00708900
0.51128242 0.52390245 0.00000000
0.71814123 0.53627568 0.01593767
0.91037265 0.50979663 0.31702916
0.46918546 0.68825569 0.00529882
0.48414253 0.69022260 0.00827219
0.55774414 0.70124315 0.00000000
0.71195161 0.72524673 0.00000000
0.90625145 0.74029622 0.22693453
0.66193126 0.87852043 0.00000000
0.66533610 0.87887676 0.00000000
0.68628823 0.88128473 0.04695128
0.75553877 0.89091082 0.07813129
0.89875835 0.91269844 0.64421773
0.04166176 0.00485754 0.23023312
0.25967201 0.00000000 0.27307055
0.51724381 0.00000000 0.32804535
0.72060889 0.00000000 0.36287684
0.90410520 0.00415607 0.41188375
0.04056621 0.27934246 0.27501643
0.28106553 0.28106553 0.28106553
0.52895438 0.23153108 0.27534829
0.72389447 0.16000754 0.31605173
0.90675868 0.00000000 0.39035780
0.23165884 0.52209114 0.10504745
0.31638350 0.52692815 0.01642506
0.52210132 0.53476744 0.00000000
0.72405076 0.52695482 0.01911133
0.91069073 0.49888758 0.33429648
0.46144316 0.69510820 0.00842021
0.47790219 0.69685198 0.00854708
0.55704642 0.70668081 0.00000000
0.71416749 0.72746217 0.00000000
0.90678314 0.73987680 0.26021623
0.66029325 0.87992148 0.00000000
0.66377762 0.88026279 0.00000000
0.68523987 0.88259884 0.03959425
0.75563772 0.89194931 0.09967790
0.89907626 0.91299825 0.65280952
0.19396891 0.01982571 0.47097345
0.26431491 0.00000000 0.45935245
0.50574690 0.00000000 0.51168534
0.71357360 0.03241924 0.56173718
0.89966249 0.21683171 0.58035658
0.05612305 0.18954590 0.49214237
0.20481408 0.00000000 0.49592761
0.50905970 0.00000000 0.51930277
0.71701621 0.06484167 0.55370179
0.90197033 0.20283549 0.57301848
0.13584528 0.51574071 0.51033278
0.23600342 0.51801250 0.51325999
0.51527328 0.51527328 0.51527328
0.72833183 0.48403955 0.51138389
0.90971153 0.45490706 0.53412693
0.26173675 0.73901458 0.28536700
0.30559015 0.73996070 0.24075643
0.51992058 0.74320119 0.00000000
0.72723735 0.74031248 0.00000000
0.91129692 0.73374330 0.36040388
0.64794237 0.88927873 0.04779222
0.65195813 0.88959058 0.04181821
0.67710548 0.89147051 0.09404120
0.75661070 0.89888269 0.23817653
0.90130456 0.91498324 0.69740659
0.34412110 0.02927926 0.66792624
0.36556874 0.07850540 0.65841376
0.48352248 0.00000000 0.64231195
0.70709341 0.00000000 0.70624180
0.88729447 0.32886893 0.74604660
0.32095429 0.02518366 0.67968412
0.34729983 0.04443467 0.67120474
0.46968693 0.00000000 0.64659324
0.70829878 0.00000000 0.70780862
0.88878391 0.30529200 0.74503303
0.00000000 0.44981267 0.67846502
0.00000000 0.42990633 0.68738253
0.43779816 0.29402747 0.70860048
0.70800649 0.30679416 0.71928577
0.90049027 0.31667188 0.74008413
0.26261342 0.71518019 0.70946089
0.29291121 0.71587077 0.71030589
0.45836416 0.71897044 0.71440501
0.71533747 0.71533747 0.71533747
0.91017683 0.70573227 0.72201937
0.69481823 0.91871692 0.63009954
0.69716071 0.91899102 0.62863212
0.71431611 0.92029267 0.62176574
0.78683544 0.91937652 0.64268976
0.90698993 0.90698993 0.90698993
0.51079327 0.10031226 0.85368518
0.51530082 0.19015126 0.85009217
0.54343258 0.31666744 0.82918077
0.66260295 0.00000000 0.80470008
0.86962473 0.09940309 0.86558020
0.50695813 0.00000000 0.85790221
0.51148879 0.11780810 0.85424349
0.54059229 0.30251986 0.83322798
0.66007316 0.00000000 0.80515404
0.86988690 0.03744773 0.86588837
0.46941861 0.17586802 0.87543975
0.47636238 0.15812762 0.87369952
0.51611211 0.20407685 0.85771033
0.64017391 0.00000000 0.81442135
0.87345644 0.00000000 0.87062242
0.00000000 0.65389432 0.84921026
0.00000000 0.65095153 0.85157973
0.00000000 0.62353683 0.86972700
0.63917495 0.50525420 0.90134127
0.89496160 0.48743019 0.90642826
0.53927753 0.90341774 0.89782315
0.53787350 0.90373154 0.89816771
0.55982783 0.90514533 0.89980265
0.71755046 0.90612628 0.90185021
0.90698993 0.90698993 0.90698993
