Luts Download/Canon Luts/3dlut/17grid-3dlut/full-to-full-range/CinemaGamut_CanonLog3-to-BT2020_PQ_17_FF_Ver.2.0.cube
# Gamut : Cinema Gamut to BT.2020
# Gamma : Canon Log 3 to PQ
# Range : Full in / Full out
# Version : 2.0 2019/10/24
# Copyright(c) 2019 Canon Inc. All Rights Reserved.
LUT_3D_SIZE 17
# LUT_3D_INPUT_RANGE 0.0 1.0
0.00000000 0.00000000 0.00000000
0.00000000 0.00000000 0.00000000
0.00000000 0.00000000 0.00000000
0.16676425 0.02688558 0.03420707
0.27082739 0.03497478 0.05604640
0.34668593 0.02990562 0.07219144
0.41024806 0.01734228 0.08981531
0.46755813 0.00214413 0.11128104
0.52148191 0.00000000 0.13530647
0.57336165 0.00000000 0.16126146
0.62373999 0.00000000 0.19030573
0.67295172 0.00000000 0.22164855
0.72117369 0.00000000 0.25410516
0.76849721 0.00000000 0.28701635
0.81495603 0.00000000 0.32055028
0.86057380 0.00000000 0.35502840
0.90537324 0.00000000 0.39073158
0.00000000 0.00000000 0.00000000
0.00000000 0.01533325 0.00000000
0.10544111 0.08272983 0.00000000
0.16676425 0.02688558 0.03420707
0.27082739 0.03497478 0.05604640
0.34668593 0.02990562 0.07219144
0.41024806 0.01734228 0.08981531
0.46755813 0.00214413 0.11128104
0.52148191 0.00000000 0.13530647
0.57336165 0.00000000 0.16126146
0.62373999 0.00000000 0.19030573
0.67295172 0.00000000 0.22164855
0.72117369 0.00000000 0.25410516
0.76849721 0.00000000 0.28701635
0.81495603 0.00000000 0.32055028
0.86057380 0.00000000 0.35502840
0.90537324 0.00000000 0.39073158
0.17928283 0.24165170 0.08766307
0.18390280 0.21886520 0.02237798
0.10735846 0.13029043 0.00000000
0.16676425 0.02688558 0.03420707
0.27082739 0.03497478 0.05604640
0.34668593 0.02990562 0.07219144
0.41024806 0.01734228 0.08981531
0.46755813 0.00214413 0.11128104
0.52148191 0.00000000 0.13530647
0.57336165 0.00000000 0.16126146
0.62373999 0.00000000 0.19030573
0.67295172 0.00000000 0.22164855
0.72117369 0.00000000 0.25410516
0.76849721 0.00000000 0.28701635
0.81495603 0.00000000 0.32055028
0.86057380 0.00000000 0.35502840
0.90537324 0.00000000 0.39073158
0.07796880 0.15658614 0.05633155
0.07796880 0.15658614 0.05633155
0.07796880 0.15658614 0.05633155
0.18663146 0.19475977 0.05614972
0.27337424 0.20922049 0.04964704
0.34612258 0.21379526 0.04448019
0.40963082 0.21181344 0.04539923
0.46746735 0.20443304 0.05440335
0.52191189 0.18999994 0.07145701
0.57426348 0.16372613 0.09637725
0.62484763 0.12639901 0.13430989
0.67423174 0.06828696 0.17581076
0.72258131 0.00335116 0.21800912
0.76995909 0.00000000 0.25949081
0.81638746 0.00000000 0.30012737
0.86190354 0.00000000 0.34016812
0.90666284 0.00000000 0.37968141
0.13259501 0.25043958 0.07923771
0.13259501 0.25043958 0.07923771
0.13259501 0.25043958 0.07923771
0.20439042 0.27318846 0.05617392
0.27678213 0.28722471 0.03804953
0.34429777 0.29577167 0.02625602
0.40663679 0.29997522 0.02156235
0.46479552 0.30011595 0.02388513
0.52002500 0.29572223 0.03180617
0.57318244 0.28533227 0.04604833
0.62475282 0.26646127 0.07197068
0.67506443 0.23334217 0.11066441
0.72398723 0.18235769 0.16247712
0.77161061 0.10094305 0.21769969
0.81807991 0.00000000 0.27021323
0.86349303 0.00000000 0.31979673
0.90796912 0.00000000 0.36694524
0.17027073 0.32081604 0.07725750
0.17027073 0.32081604 0.07725750
0.17027073 0.32081604 0.07725750
0.22359320 0.33501122 0.04615030
0.28358554 0.34652197 0.02536092
0.34451910 0.35593748 0.01352628
0.40386754 0.36291832 0.00856578
0.46127478 0.36725567 0.00812934
0.51678042 0.36842066 0.01181744
0.57063967 0.36561803 0.01980404
0.62309652 0.35740283 0.03313867
0.67426868 0.34134503 0.05851847
0.72425394 0.31257328 0.10121154
0.77300084 0.26044329 0.15485622
0.81990386 0.19138428 0.22540472
0.86529228 0.10770887 0.29118775
0.90909903 0.15895140 0.35363761
0.20497607 0.38104924 0.06134487
0.20497607 0.38104924 0.06134487
0.20497607 0.38104924 0.06134487
0.24672717 0.39004829 0.03398815
0.29569446 0.39894218 0.01542798
0.34885794 0.40763437 0.00563229
0.40362091 0.41556258 0.00185891
0.45863739 0.42203641 0.00124492
0.51335027 0.42653378 0.00233814
0.56732612 0.42830731 0.00602600
0.62033218 0.42643793 0.01418865
0.67228225 0.41951959 0.02830570
0.72310581 0.40521052 0.05508100
0.77273637 0.37920470 0.10451470
0.82094585 0.33501939 0.16868058
0.86690728 0.28968828 0.25196453
0.91003883 0.32263527 0.33918226
0.24257438 0.43611405 0.04292523
0.24257438 0.43611405 0.04292523
0.24257438 0.43611405 0.04292523
0.27503629 0.44202540 0.02301775
0.31404290 0.44862246 0.00934732
0.35876522 0.45595802 0.00170478
0.40740285 0.46355158 0.00000000
0.45857149 0.47088783 0.00000000
0.51105020 0.47715081 0.00000000
0.56412285 0.48176716 0.00039675
0.61709716 0.48392216 0.00358121
0.66946827 0.48264916 0.01283200
0.72095254 0.47660044 0.03038349
0.77133209 0.46375172 0.06517982
0.82035302 0.44150606 0.13194503
0.86740165 0.41291243 0.21616251
0.91050066 0.42747864 0.32621835
0.28393995 0.48850065 0.02812837
0.28393995 0.48850065 0.02812837
0.28393995 0.48850065 0.02812837
0.30847380 0.49241990 0.01644875
0.33865217 0.49724224 0.00708900
0.37491149 0.50308418 0.00083629
0.41647144 0.50973910 0.00000000
0.46229835 0.51685152 0.00000000
0.51128242 0.52390245 0.00000000
0.56215665 0.53004246 0.00000000
0.61412480 0.53472614 0.00000000
0.66634365 0.53712416 0.00264625
0.71814123 0.53627568 0.01593767
0.76908044 0.53103514 0.04556407
0.81877802 0.52018202 0.10567192
0.86653158 0.50563735 0.19960379
0.91037265 0.50979663 0.31702916
0.32819891 0.53947111 0.01862613
0.32819891 0.53947111 0.01862613
0.32819891 0.53947111 0.01862613
0.34621506 0.54211632 0.01304138
0.36891119 0.54562323 0.00590005
0.39738358 0.55000132 0.00225689
0.43155731 0.55547097 0.00000000
0.47104172 0.56178706 0.00000000
0.51508042 0.56863785 0.00000000
0.56265958 0.57552858 0.00000000
0.61242534 0.58157375 0.00000000
0.66355499 0.58628897 0.00000000
0.71510853 0.58886390 0.00434256
0.76628916 0.58842095 0.03127554
0.81650096 0.58422221 0.09202792
0.86497618 0.57709144 0.18556539
0.90986045 0.57761870 0.30707904
0.37428677 0.58962379 0.01308460
0.37428677 0.58962379 0.01308460
0.37428677 0.58962379 0.01308460
0.38720810 0.59142162 0.01125342
0.40394354 0.59386631 0.00800925
0.42563351 0.59715829 0.00352595
0.45279645 0.60136321 0.00079497
0.48556197 0.60660981 0.00000000
0.52369080 0.61272227 0.00000000
0.56653908 0.61941164 0.00000000
0.61313432 0.62619946 0.00000000
0.66204644 0.63216173 0.00000000
0.71245422 0.63689104 0.00000000
0.76334310 0.63962607 0.01513399
0.81378648 0.63967370 0.07519091
0.86289813 0.63717210 0.17400325
0.90907380 0.63663051 0.29044796
0.42143712 0.63919878 0.00923010
0.42143712 0.63919878 0.00923010
0.42143712 0.63919878 0.00923010
0.43055735 0.64041836 0.00965230
0.44264709 0.64210363 0.00907980
0.45880971 0.64447458 0.00595764
0.47975014 0.64761803 0.00314734
0.50602930 0.65173066 0.00000000
0.53784671 0.65682126 0.00000000
0.57505203 0.66279536 0.00000000
0.61704379 0.66937306 0.00000000
0.66288335 0.67609075 0.00000000
0.71106551 0.68197516 0.00000000
0.76078772 0.68672051 0.00304265
0.81094994 0.68964555 0.05050153
0.86044671 0.69036742 0.15333231
0.90792604 0.69026665 0.26620560
0.46918546 0.68825569 0.00529882
0.46918546 0.68825569 0.00529882
0.46918546 0.68825569 0.00529882
0.47554738 0.68907619 0.00697225
0.48414253 0.69022260 0.00827219
0.49592489 0.69186123 0.00815081
0.51166056 0.69417007 0.00379257
0.53209076 0.69722219 0.00256664
0.55774414 0.70124315 0.00000000
0.58889730 0.70621251 0.00000000
0.62541518 0.71207780 0.00000000
0.66673964 0.71857082 0.00000000
0.71195161 0.72524673 0.00000000
0.75945455 0.73108143 0.00000000
0.80846426 0.73587268 0.03288554
0.85779380 0.73902944 0.12479639
0.90625145 0.74029622 0.22693453
0.51730232 0.73677312 0.00160491
0.51730232 0.73677312 0.00160491
0.51730232 0.73677312 0.00160491
0.52168825 0.73731829 0.00349727
0.52770739 0.73808622 0.00573366
0.53612609 0.73919636 0.00768535
0.54767003 0.74078629 0.00745453
0.56310614 0.74305642 0.00111488
0.58313485 0.74600625 0.00136926
0.60832387 0.74993771 0.00000000
0.63895877 0.75479855 0.00000000
0.67492641 0.76056991 0.00000000
0.71569654 0.76700078 0.00000000
0.76033938 0.77367282 0.00000000
0.80713119 0.77952166 0.03371852
0.85527251 0.78446974 0.14049072
0.90355963 0.78797004 0.22492632
0.56573547 0.78469405 0.00136953
0.56573547 0.78469405 0.00136953
0.56573547 0.78469405 0.00136953
0.56872922 0.78505129 0.00354343
0.57287943 0.78555762 0.00630272
0.57877318 0.78629566 0.00938587
0.58703440 0.78736903 0.01195587
0.59837545 0.78892338 0.01055280
0.61351943 0.79112271 0.00000308
0.63319391 0.79397338 0.00085687
0.65800295 0.79780871 0.00000000
0.68820561 0.80256417 0.00000000
0.72371787 0.80825029 0.00000000
0.76400112 0.81464420 0.00000000
0.80804153 0.82139118 0.10108613
0.85380277 0.82742835 0.22137334
0.90038151 0.83289982 0.30879018
0.61403594 0.83195536 0.00019320
0.61403594 0.83195536 0.00019320
0.61403594 0.83195536 0.00019320
0.61608205 0.83218556 0.00244967
0.61894148 0.83251348 0.00633061
0.62304479 0.83299519 0.01166669
0.62888295 0.83370873 0.01805246
0.63704467 0.83474477 0.02327364
0.64822395 0.83623541 0.02204098
0.66315149 0.83834083 0.00646919
0.68254090 0.84109992 0.01246463
0.70699650 0.84482685 0.00000000
0.73684498 0.84946577 0.00000000
0.77202853 0.85504586 0.06958299
0.81187549 0.86139577 0.21352114
0.85491957 0.86838975 0.34205968
0.89771005 0.87508898 0.45157058
0.66193126 0.87852043 0.00000000
0.66193126 0.87852043 0.00000000
0.66193126 0.87852043 0.00000000
0.66334713 0.87866696 0.00000000
0.66533610 0.87887676 0.00000000
0.66820851 0.87918653 0.00304876
0.67232674 0.87964231 0.01521298
0.67816030 0.88031042 0.03132664
0.68628823 0.88128473 0.04695128
0.69737537 0.88269457 0.05373638
0.71212781 0.88469242 0.04283480
0.73128916 0.88733779 0.06811565
0.75553877 0.89091082 0.07813129
0.78528837 0.89533161 0.17803624
0.82052622 0.90053573 0.31069801
0.86003714 0.90621151 0.46638636
0.89875835 0.91269844 0.64421773
0.00000000 0.00000000 0.00000000
0.00000000 0.00000000 0.00000000
0.00000000 0.00000000 0.00000000
0.16676425 0.02688558 0.03420707
0.27082739 0.03497478 0.05604640
0.34668593 0.02990562 0.07219144
0.41024806 0.01734228 0.08981531
0.46755813 0.00214413 0.11128104
0.52148191 0.00000000 0.13530647
0.57336165 0.00000000 0.16126146
0.62373999 0.00000000 0.19030573
0.67295172 0.00000000 0.22164855
0.72117369 0.00000000 0.25410516
0.76849721 0.00000000 0.28701635
0.81495603 0.00000000 0.32055028
0.86057380 0.00000000 0.35502840
0.90537324 0.00000000 0.39073158
0.00000000 0.00000000 0.00000000
0.00000000 0.00000000 0.00000000
0.00000000 0.00000000 0.00000000
0.16676425 0.02688558 0.03420707
0.27082739 0.03497478 0.05604640
0.34668593 0.02990562 0.07219144
0.41024806 0.01734228 0.08981531
0.46755813 0.00214413 0.11128104
0.52148191 0.00000000 0.13530647
0.57336165 0.00000000 0.16126146
0.62373999 0.00000000 0.19030573
0.67295172 0.00000000 0.22164855
0.72117369 0.00000000 0.25410516
0.76849721 0.00000000 0.28701635
0.81495603 0.00000000 0.32055028
0.86057380 0.00000000 0.35502840
0.90537324 0.00000000 0.39073158
0.00000000 0.00000000 0.00000000
0.00000000 0.00000000 0.00000000
0.00000000 0.00000000 0.00000000
0.16676425 0.02688558 0.03420707
0.27082739 0.03497478 0.05604640
0.34668593 0.02990562 0.07219144
0.41024806 0.01734228 0.08981531
0.46755813 0.00214413 0.11128104
0.52148191 0.00000000 0.13530647
0.57336165 0.00000000 0.16126146
0.62373999 0.00000000 0.19030573
0.67295172 0.00000000 0.22164855
0.72117369 0.00000000 0.25410516
0.76849721 0.00000000 0.28701635
0.81495603 0.00000000 0.32055028
0.86057380 0.00000000 0.35502840
0.90537324 0.00000000 0.39073158
0.07796880 0.15658614 0.05633155
0.07796880 0.15658614 0.05633155
0.07796880 0.15658614 0.05633155
0.18663146 0.19475977 0.05614972
0.27337424 0.20922049 0.04964704
0.34612258 0.21379526 0.04448019
0.40963082 0.21181344 0.04539923
0.46746735 0.20443304 0.05440335
0.52191189 0.18999994 0.07145701
0.57426348 0.16372613 0.09637725
0.62484763 0.12639901 0.13430989
0.67423174 0.06828696 0.17581076
0.72258131 0.00335116 0.21800912
0.76995909 0.00000000 0.25949081
0.81638746 0.00000000 0.30012737
0.86190354 0.00000000 0.34016812
0.90666284 0.00000000 0.37968141
0.13259501 0.25043958 0.07923771
0.13259501 0.25043958 0.07923771
0.13259501 0.25043958 0.07923771
0.20439042 0.27318846 0.05617392
0.27678213 0.28722471 0.03804953
0.34429777 0.29577167 0.02625602
0.40663679 0.29997522 0.02156235
0.46479552 0.30011595 0.02388513
0.52002500 0.29572223 0.03180617
0.57318244 0.28533227 0.04604833
0.62475282 0.26646127 0.07197068
0.67506443 0.23334217 0.11066441
0.72398723 0.18235769 0.16247712
0.77161061 0.10094305 0.21769969
0.81807991 0.00000000 0.27021323
0.86349303 0.00000000 0.31979673
0.90796912 0.00000000 0.36694524
0.17027073 0.32081604 0.07725750
0.17027073 0.32081604 0.07725750
0.17027073 0.32081604 0.07725750
0.22359320 0.33501122 0.04615030
0.28358554 0.34652197 0.02536092
0.34451910 0.35593748 0.01352628
0.40386754 0.36291832 0.00856578
0.46127478 0.36725567 0.00812934
0.51678042 0.36842066 0.01181744
0.57063967 0.36561803 0.01980404
0.62309652 0.35740283 0.03313867
0.67426868 0.34134503 0.05851847
0.72425394 0.31257328 0.10121154
0.77300084 0.26044329 0.15485622
0.81990386 0.19138428 0.22540472
0.86529228 0.10770887 0.29118775
0.90909903 0.15895140 0.35363761
0.20497607 0.38104924 0.06134487
0.20497607 0.38104924 0.06134487
0.20497607 0.38104924 0.06134487
0.24672717 0.39004829 0.03398815
0.29569446 0.39894218 0.01542798
0.34885794 0.40763437 0.00563229
0.40362091 0.41556258 0.00185891
0.45863739 0.42203641 0.00124492
0.51335027 0.42653378 0.00233814
0.56732612 0.42830731 0.00602600
0.62033218 0.42643793 0.01418865
0.67228225 0.41951959 0.02830570
0.72310581 0.40521052 0.05508100
0.77273637 0.37920470 0.10451470
0.82094585 0.33501939 0.16868058
0.86690728 0.28968828 0.25196453
0.91003883 0.32263527 0.33918226
0.24257438 0.43611405 0.04292523
0.24257438 0.43611405 0.04292523
0.24257438 0.43611405 0.04292523
0.27503629 0.44202540 0.02301775
0.31404290 0.44862246 0.00934732
0.35876522 0.45595802 0.00170478
0.40740285 0.46355158 0.00000000
0.45857149 0.47088783 0.00000000
0.51105020 0.47715081 0.00000000
0.56412285 0.48176716 0.00039675
0.61709716 0.48392216 0.00358121
0.66946827 0.48264916 0.01283200
0.72095254 0.47660044 0.03038349
0.77133209 0.46375172 0.06517982
0.82035302 0.44150606 0.13194503
0.86740165 0.41291243 0.21616251
0.91050066 0.42747864 0.32621835
0.28393995 0.48850065 0.02812837
0.28393995 0.48850065 0.02812837
0.28393995 0.48850065 0.02812837
0.30847380 0.49241990 0.01644875
0.33865217 0.49724224 0.00708900
0.37491149 0.50308418 0.00083629
0.41647144 0.50973910 0.00000000
0.46229835 0.51685152 0.00000000
0.51128242 0.52390245 0.00000000
0.56215665 0.53004246 0.00000000
0.61412480 0.53472614 0.00000000
0.66634365 0.53712416 0.00264625
0.71814123 0.53627568 0.01593767
0.76908044 0.53103514 0.04556407
0.81877802 0.52018202 0.10567192
0.86653158 0.50563735 0.19960379
0.91037265 0.50979663 0.31702916
0.32819891 0.53947111 0.01862613
0.32819891 0.53947111 0.01862613
0.32819891 0.53947111 0.01862613
0.34621506 0.54211632 0.01304138
0.36891119 0.54562323 0.00590005
0.39738358 0.55000132 0.00225689
0.43155731 0.55547097 0.00000000
0.47104172 0.56178706 0.00000000
0.51508042 0.56863785 0.00000000
0.56265958 0.57552858 0.00000000
0.61242534 0.58157375 0.00000000
0.66355499 0.58628897 0.00000000
0.71510853 0.58886390 0.00434256
0.76628916 0.58842095 0.03127554
0.81650096 0.58422221 0.09202792
0.86497618 0.57709144 0.18556539
0.90986045 0.57761870 0.30707904
0.37428677 0.58962379 0.01308460
0.37428677 0.58962379 0.01308460
0.37428677 0.58962379 0.01308460
0.38720810 0.59142162 0.01125342
0.40394354 0.59386631 0.00800925
0.42563351 0.59715829 0.00352595
0.45279645 0.60136321 0.00079497
0.48556197 0.60660981 0.00000000
0.52369080 0.61272227 0.00000000
0.56653908 0.61941164 0.00000000
0.61313432 0.62619946 0.00000000
0.66204644 0.63216173 0.00000000
0.71245422 0.63689104 0.00000000
0.76334310 0.63962607 0.01513399
0.81378648 0.63967370 0.07519091
0.86289813 0.63717210 0.17400325
0.90907380 0.63663051 0.29044796
0.42143712 0.63919878 0.00923010
0.42143712 0.63919878 0.00923010
0.42143712 0.63919878 0.00923010
0.43055735 0.64041836 0.00965230
0.44264709 0.64210363 0.00907980
0.45880971 0.64447458 0.00595764
0.47975014 0.64761803 0.00314734
0.50602930 0.65173066 0.00000000
0.53784671 0.65682126 0.00000000
0.57505203 0.66279536 0.00000000
0.61704379 0.66937306 0.00000000
0.66288335 0.67609075 0.00000000
0.71106551 0.68197516 0.00000000
0.76078772 0.68672051 0.00304265
0.81094994 0.68964555 0.05050153
0.86044671 0.69036742 0.15333231
0.90792604 0.69026665 0.26620560
0.46918546 0.68825569 0.00529882
0.46918546 0.68825569 0.00529882
0.46918546 0.68825569 0.00529882
0.47554738 0.68907619 0.00697225
0.48414253 0.69022260 0.00827219
0.49592489 0.69186123 0.00815081
0.51166056 0.69417007 0.00379257
0.53209076 0.69722219 0.00256664
0.55774414 0.70124315 0.00000000
0.58889730 0.70621251 0.00000000
0.62541518 0.71207780 0.00000000
0.66673964 0.71857082 0.00000000
0.71195161 0.72524673 0.00000000
0.75945455 0.73108143 0.00000000
0.80846426 0.73587268 0.03288554
0.85779380 0.73902944 0.12479639
0.90625145 0.74029622 0.22693453
0.51730232 0.73677312 0.00160491
0.51730232 0.73677312 0.00160491
0.51730232 0.73677312 0.00160491
0.52168825 0.73731829 0.00349727
0.52770739 0.73808622 0.00573366
0.53612609 0.73919636 0.00768535
0.54767003 0.74078629 0.00745453
0.56310614 0.74305642 0.00111488
0.58313485 0.74600625 0.00136926
0.60832387 0.74993771 0.00000000
0.63895877 0.75479855 0.00000000
0.67492641 0.76056991 0.00000000
0.71569654 0.76700078 0.00000000
0.76033938 0.77367282 0.00000000
0.80713119 0.77952166 0.03371852
0.85527251 0.78446974 0.14049072
0.90355963 0.78797004 0.22492632
0.56573547 0.78469405 0.00136953
0.56573547 0.78469405 0.00136953
0.56573547 0.78469405 0.00136953
0.56872922 0.78505129 0.00354343
0.57287943 0.78555762 0.00630272
0.57877318 0.78629566 0.00938587
0.58703440 0.78736903 0.01195587
0.59837545 0.78892338 0.01055280
0.61351943 0.79112271 0.00000308
0.63319391 0.79397338 0.00085687
0.65800295 0.79780871 0.00000000
0.68820561 0.80256417 0.00000000
0.72371787 0.80825029 0.00000000
0.76400112 0.81464420 0.00000000
0.80804153 0.82139118 0.10108613
0.85380277 0.82742835 0.22137334
0.90038151 0.83289982 0.30879018
0.61403594 0.83195536 0.00019320
0.61403594 0.83195536 0.00019320
0.61403594 0.83195536 0.00019320
0.61608205 0.83218556 0.00244967
0.61894148 0.83251348 0.00633061
0.62304479 0.83299519 0.01166669
0.62888295 0.83370873 0.01805246
0.63704467 0.83474477 0.02327364
0.64822395 0.83623541 0.02204098
0.66315149 0.83834083 0.00646919
0.68254090 0.84109992 0.01246463
0.70699650 0.84482685 0.00000000
0.73684498 0.84946577 0.00000000
0.77202853 0.85504586 0.06958299
0.81187549 0.86139577 0.21352114
0.85491957 0.86838975 0.34205968
0.89771005 0.87508898 0.45157058
0.66193126 0.87852043 0.00000000
0.66193126 0.87852043 0.00000000
0.66193126 0.87852043 0.00000000
0.66334713 0.87866696 0.00000000
0.66533610 0.87887676 0.00000000
0.66820851 0.87918653 0.00304876
0.67232674 0.87964231 0.01521298
0.67816030 0.88031042 0.03132664
0.68628823 0.88128473 0.04695128
0.69737537 0.88269457 0.05373638
0.71212781 0.88469242 0.04283480
0.73128916 0.88733779 0.06811565
0.75553877 0.89091082 0.07813129
0.78528837 0.89533161 0.17803624
0.82052622 0.90053573 0.31069801
0.86003714 0.90621151 0.46638636
0.89875835 0.91269844 0.64421773
0.00000000 0.00000000 0.00000000
0.00000000 0.00000000 0.00000000
0.00000000 0.00000000 0.00000000
0.16676425 0.02688558 0.03420707
0.27082739 0.03497478 0.05604640
0.34668593 0.02990562 0.07219144
0.41024806 0.01734228 0.08981531
0.46755813 0.00214413 0.11128104
0.52148191 0.00000000 0.13530647
0.57336165 0.00000000 0.16126146
0.62373999 0.00000000 0.19030573
0.67295172 0.00000000 0.22164855
0.72117369 0.00000000 0.25410516
0.76849721 0.00000000 0.28701635
0.81495603 0.00000000 0.32055028
0.86057380 0.00000000 0.35502840
0.90537324 0.00000000 0.39073158
0.00000000 0.00000000 0.00000000
0.00000000 0.00000000 0.00000000
0.00000000 0.00000000 0.00000000
0.16676425 0.02688558 0.03420707
0.27082739 0.03497478 0.05604640
0.34668593 0.02990562 0.07219144
0.41024806 0.01734228 0.08981531
0.46755813 0.00214413 0.11128104
0.52148191 0.00000000 0.13530647
0.57336165 0.00000000 0.16126146
0.62373999 0.00000000 0.19030573
0.67295172 0.00000000 0.22164855
0.72117369 0.00000000 0.25410516
0.76849721 0.00000000 0.28701635
0.81495603 0.00000000 0.32055028
0.86057380 0.00000000 0.35502840
0.90537324 0.00000000 0.39073158
0.00000000 0.00000000 0.00000000
0.00000000 0.00000000 0.00000000
0.00000000 0.00000000 0.00000000
0.16676425 0.02688558 0.03420707
0.27082739 0.03497478 0.05604640
0.34668593 0.02990562 0.07219144
0.41024806 0.01734228 0.08981531
0.46755813 0.00214413 0.11128104
0.52148191 0.00000000 0.13530647
0.57336165 0.00000000 0.16126146
0.62373999 0.00000000 0.19030573
0.67295172 0.00000000 0.22164855
0.72117369 0.00000000 0.25410516
0.76849721 0.00000000 0.28701635
0.81495603 0.00000000 0.32055028
0.86057380 0.00000000 0.35502840
0.90537324 0.00000000 0.39073158
0.07796880 0.15658614 0.05633155
0.07796880 0.15658614 0.05633155
0.07796880 0.15658614 0.05633155
0.18663146 0.19475977 0.05614972
0.27337424 0.20922049 0.04964704
0.34612258 0.21379526 0.04448019
0.40963082 0.21181344 0.04539923
0.46746735 0.20443304 0.05440335
0.52191189 0.18999994 0.07145701
0.57426348 0.16372613 0.09637725
0.62484763 0.12639901 0.13430989
0.67423174 0.06828696 0.17581076
0.72258131 0.00335116 0.21800912
0.76995909 0.00000000 0.25949081
0.81638746 0.00000000 0.30012737
0.86190354 0.00000000 0.34016812
0.90666284 0.00000000 0.37968141
0.13259501 0.25043958 0.07923771
0.13259501 0.25043958 0.07923771
0.13259501 0.25043958 0.07923771
0.20439042 0.27318846 0.05617392
0.27678213 0.28722471 0.03804953
0.34429777 0.29577167 0.02625602
0.40663679 0.29997522 0.02156235
0.46479552 0.30011595 0.02388513
0.52002500 0.29572223 0.03180617
0.57318244 0.28533227 0.04604833
0.62475282 0.26646127 0.07197068
0.67506443 0.23334217 0.11066441
0.72398723 0.18235769 0.16247712
0.77161061 0.10094305 0.21769969
0.81807991 0.00000000 0.27021323
0.86349303 0.00000000 0.31979673
0.90796912 0.00000000 0.36694524
0.17027073 0.32081604 0.07725750
0.17027073 0.32081604 0.07725750
0.17027073 0.32081604 0.07725750
0.22359320 0.33501122 0.04615030
0.28358554 0.34652197 0.02536092
0.34451910 0.35593748 0.01352628
0.40386754 0.36291832 0.00856578
0.46127478 0.36725567 0.00812934
0.51678042 0.36842066 0.01181744
0.57063967 0.36561803 0.01980404
0.62309652 0.35740283 0.03313867
0.67426868 0.34134503 0.05851847
0.72425394 0.31257328 0.10121154
0.77300084 0.26044329 0.15485622
0.81990386 0.19138428 0.22540472
0.86529228 0.10770887 0.29118775
0.90909903 0.15895140 0.35363761
0.20497607 0.38104924 0.06134487
0.20497607 0.38104924 0.06134487
0.20497607 0.38104924 0.06134487
0.24672717 0.39004829 0.03398815
0.29569446 0.39894218 0.01542798
0.34885794 0.40763437 0.00563229
0.40362091 0.41556258 0.00185891
0.45863739 0.42203641 0.00124492
0.51335027 0.42653378 0.00233814
0.56732612 0.42830731 0.00602600
0.62033218 0.42643793 0.01418865
0.67228225 0.41951959 0.02830570
0.72310581 0.40521052 0.05508100
0.77273637 0.37920470 0.10451470
0.82094585 0.33501939 0.16868058
0.86690728 0.28968828 0.25196453
0.91003883 0.32263527 0.33918226
0.24257438 0.43611405 0.04292523
0.24257438 0.43611405 0.04292523
0.24257438 0.43611405 0.04292523
0.27503629 0.44202540 0.02301775
0.31404290 0.44862246 0.00934732
0.35876522 0.45595802 0.00170478
0.40740285 0.46355158 0.00000000
0.45857149 0.47088783 0.00000000
0.51105020 0.47715081 0.00000000
0.56412285 0.48176716 0.00039675
0.61709716 0.48392216 0.00358121
0.66946827 0.48264916 0.01283200
0.72095254 0.47660044 0.03038349
0.77133209 0.46375172 0.06517982
0.82035302 0.44150606 0.13194503
0.86740165 0.41291243 0.21616251
0.91050066 0.42747864 0.32621835
0.28393995 0.48850065 0.02812837
0.28393995 0.48850065 0.02812837
0.28393995 0.48850065 0.02812837
0.30847380 0.49241990 0.01644875
0.33865217 0.49724224 0.00708900
0.37491149 0.50308418 0.00083629
