Luts Download/Canon Luts/3dlut/17grid-3dlut/full-to-full-range/CinemaGamut_CanonLog2-to-DCIP3_DCI_17_FF_Ver.2.0.cube
# Gamut : Cinema Gamut to DCI-P3
# Gamma : Canon Log 2 to DCI
# Range : Full in / Full out
# Version : 2.0 2019/10/24
# Copyright(c) 2019 Canon Inc. All Rights Reserved.
LUT_3D_SIZE 9
# LUT_3D_INPUT_RANGE 0.0 1.0
0.00000276 0.00000000 0.00000177
0.00939330 0.00939091 0.00939279
0.18002101 0.05199472 0.07179999
0.44185461 0.07984872 0.14552614
0.75079506 0.06782118 0.21164781
0.93801158 0.13340734 0.23591682
1.00000000 0.29043996 0.28257440
1.00000000 0.38063363 0.32623666
1.00000000 0.41237755 0.33887213
0.00939330 0.00939091 0.00939279
0.01608552 0.01609200 0.01446757
0.17745498 0.06161273 0.00524293
0.44120369 0.08922569 0.11754675
0.75184945 0.06076224 0.19776163
0.93918958 0.12693657 0.22960930
1.00000000 0.29033792 0.28103632
1.00000000 0.38103397 0.32613296
1.00000000 0.41284608 0.33915858
0.07391988 0.15386756 0.07607169
0.07941324 0.15379452 0.06641666
0.16923107 0.17662136 0.08099142
0.41044851 0.22770350 0.00000000
0.75158053 0.19479258 0.08641503
0.95029608 0.17102403 0.19628111
1.00000000 0.32431954 0.29045799
1.00000000 0.40690714 0.34412020
0.99937895 0.43645116 0.35957469
0.10752662 0.37347763 0.12724690
0.11399227 0.37323062 0.11513482
0.20663219 0.37941364 0.06271138
0.40323822 0.42147228 0.10227213
0.72491412 0.44944342 0.12477970
0.96163239 0.41637100 0.25282176
0.99633563 0.48656094 0.39650173
0.99194330 0.53549604 0.45776486
0.98931835 0.55493050 0.47584324
0.07239409 0.63634167 0.16203791
0.06984531 0.63627977 0.15206700
0.17559649 0.63947374 0.09337036
0.37531434 0.66841990 0.01337460
0.68306817 0.71406332 0.11403340
0.99228213 0.67712492 0.29602261
1.00000000 0.68979942 0.54382478
1.00000000 0.71628634 0.63556387
1.00000000 0.72748971 0.66097307
0.09288346 0.80408344 0.13760747
0.08833145 0.80412237 0.13040636
0.13719611 0.80758806 0.08721768
0.29461980 0.83421778 0.08293017
0.54216025 0.89422212 0.17333139
0.86025904 0.90286444 0.30180553
1.00000000 0.85663011 0.59924036
1.00000000 0.84236388 0.74723670
1.00000000 0.83998496 0.78385456
0.16954674 0.89988116 0.08310834
0.17113054 0.89985730 0.08022683
0.19527522 0.90273313 0.08114331
0.28142741 0.92726155 0.13915031
0.48997488 0.98425233 0.29359695
0.75416343 1.00000000 0.51242424
0.95401139 0.99354072 0.67737687
1.00000000 0.94744463 0.83409686
1.00000000 0.91724842 0.86482371
0.24981116 0.94632739 0.06577621
0.25084707 0.94629244 0.06799198
0.26740994 0.94873688 0.10224493
0.35189336 0.96926719 0.20998668
0.60869435 1.00000000 0.46850020
0.81236156 1.00000000 0.69929473
0.93095648 1.00000000 0.85024224
1.00000000 1.00000000 1.00000000
1.00000000 0.98307225 0.94698168
0.30097886 0.96296654 0.05970980
0.30170485 0.96293202 0.06502942
0.31595658 0.96514740 0.11211818
0.40440396 0.98293662 0.24431415
0.66639100 1.00000000 0.53489638
0.84487849 1.00000000 0.76054910
0.94292757 1.00000000 0.90009213
1.00000000 1.00000000 1.00000000
1.00000000 1.00000000 1.00000000
0.00939330 0.00939091 0.00939279
0.01712404 0.01214311 0.01670213
0.17963203 0.04611993 0.08791946
0.44082399 0.07452065 0.16713840
0.74966966 0.07213385 0.22614952
0.93684929 0.13911966 0.24176518
1.00000000 0.29144388 0.28453753
1.00000000 0.38097506 0.32689529
1.00000000 0.41258490 0.33917309
0.01239464 0.01730897 0.01714257
0.01933178 0.01933178 0.01933178
0.18227202 0.04803577 0.07021836
0.44241773 0.07728454 0.14585778
0.75112124 0.06425110 0.21066522
0.93811173 0.13302885 0.23567118
1.00000000 0.29133397 0.28301259
1.00000000 0.38137250 0.32679057
1.00000000 0.41303644 0.33944460
0.06964677 0.15439550 0.08169534
0.07322245 0.15474999 0.07149950
0.16931011 0.17682077 0.08082491
0.41526111 0.22319285 0.00000000
0.75393859 0.18678764 0.10709333
0.94942804 0.17395066 0.20314479
1.00000000 0.32517388 0.29238086
1.00000000 0.40717921 0.34472334
0.99917332 0.43659669 0.35982396
0.11006299 0.37347152 0.13707690
0.11248726 0.37341496 0.12566436
0.20296263 0.37995717 0.07168574
0.40322477 0.42153145 0.10232638
0.72732316 0.44768203 0.12649467
0.96146862 0.41618676 0.25665040
0.99586985 0.48674721 0.39770804
0.99172613 0.53556952 0.45813904
0.98918900 0.55498397 0.47599784
0.09108856 0.63627581 0.17135874
0.08583693 0.63627067 0.16220978
0.17084457 0.63976021 0.10251172
0.37316480 0.66874190 0.04491516
0.68306868 0.71409017 0.11459879
0.99259468 0.67684351 0.29780756
1.00000000 0.68979994 0.54461025
1.00000000 0.71631682 0.63583028
1.00000000 0.72752414 0.66109271
0.10475462 0.80399120 0.14531056
0.10018319 0.80404986 0.13883242
0.13567355 0.80765642 0.09569221
0.29289514 0.83435395 0.08758076
0.54158897 0.89431971 0.17479017
0.86025524 0.90287017 0.30288919
1.00000000 0.85663725 0.60011409
1.00000000 0.84242032 0.74761137
1.00000000 0.84004370 0.78403872
0.17173952 0.89984493 0.09039105
0.17301086 0.89982776 0.08787235
0.19621320 0.90272173 0.08757508
0.28243038 0.92721679 0.14278414
0.49095382 0.98410237 0.29573008
0.75467713 1.00000000 0.51398108
0.95401102 0.99342846 0.67879850
1.00000000 0.94746104 0.83480845
1.00000000 0.91731409 0.86515071
0.25169921 0.94625671 0.07587414
0.25275508 0.94621960 0.07742392
0.26948851 0.94864444 0.10804030
0.35425218 0.96908395 0.21318102
0.61034330 1.00000000 0.47060752
0.81320110 1.00000000 0.70077595
0.93133865 1.00000000 0.85132714
1.00000000 1.00000000 1.00000000
1.00000000 0.98307230 0.94736467
0.30301860 0.96285533 0.07453200
0.30378960 0.96281655 0.07746331
0.31828432 0.96500379 0.11846368
0.40692909 0.98268396 0.24751551
0.66797599 1.00000000 0.53694496
0.84570452 1.00000000 0.76192030
0.94335380 1.00000000 0.90097437
1.00000000 1.00000000 1.00000000
1.00000000 1.00000000 1.00000000
0.04667370 0.03941774 0.12934011
0.06207352 0.00688228 0.12796323
0.16894158 0.00000000 0.15232171
0.42366300 0.06274173 0.26675128
0.74016027 0.00000000 0.33237236
0.93308019 0.10803562 0.30556491
1.00000000 0.28136562 0.29108178
1.00000000 0.37098573 0.32250888
1.00000000 0.40264361 0.33149400
0.00000000 0.04911300 0.12702707
0.04423467 0.03796151 0.13182698
0.17032362 0.00000000 0.15353186
0.42652301 0.04908037 0.26210587
0.74263980 0.00000000 0.32411090
0.93435991 0.09951149 0.30018973
1.00000000 0.28127985 0.28958549
1.00000000 0.37142636 0.32241578
1.00000000 0.40309553 0.33175206
0.04387479 0.16696603 0.16190259
0.02346374 0.16776396 0.16257505
0.17241401 0.17241401 0.17241401
0.45533039 0.14933859 0.20183608
0.76722742 0.04293584 0.25732751
0.94955493 0.13069361 0.26581312
1.00000000 0.31240059 0.29596832
1.00000000 0.39554262 0.33829889
1.00000000 0.42516507 0.35033196
0.00000000 0.40776636 0.22167036
0.00000000 0.40803800 0.21443767
0.10995186 0.41634318 0.15135024
0.41697466 0.43388088 0.10154829
0.76525625 0.42188242 0.14732822
0.96657516 0.40701691 0.27977258
0.99689280 0.48221872 0.40180727
0.99354456 0.53163908 0.45640541
0.99114840 0.55106367 0.47238896
0.13710313 0.64945564 0.23630917
0.13132282 0.64955227 0.22949813
0.14634502 0.65430157 0.17566014
0.35501732 0.68225977 0.09030825
0.68827944 0.71965407 0.11314676
0.99964594 0.67679228 0.31412920
1.00000000 0.69123389 0.55222624
1.00000000 0.71772109 0.63894804
1.00000000 0.72889005 0.66294758
0.15167628 0.81218278 0.19564873
0.14758338 0.81228248 0.19091983
0.14459525 0.81638833 0.15591042
0.27792820 0.84334350 0.12059306
0.53945528 0.90060342 0.18856446
0.86363072 0.90647745 0.31574893
1.00000000 0.85954659 0.61252393
1.00000000 0.84525639 0.75372708
1.00000000 0.84269641 0.78801270
0.19567853 0.90643457 0.14072120
0.19634691 0.90642998 0.13913323
0.21411459 0.90931444 0.13714485
0.30121627 0.93276744 0.18196539
0.51550204 0.98547195 0.33375687
0.76720574 1.00000000 0.54197469
0.95655869 0.99378888 0.70763357
1.00000000 0.94995292 0.84731675
1.00000000 0.92023496 0.87154111
0.28413988 0.95120016 0.14794593
0.28531075 0.95114510 0.14891369
0.30429112 0.95317848 0.16918830
0.39426805 0.97148065 0.26050825
0.64131942 1.00000000 0.50832876
0.82903902 1.00000000 0.72625659
0.93963885 1.00000000 0.87034370
1.00000000 1.00000000 1.00000000
1.00000000 0.98510262 0.95480552
0.33950668 0.96671926 0.16344281
0.34049069 0.96665284 0.16487351
0.35777392 0.96833643 0.18950025
0.45147844 0.98338482 0.29985954
0.69655783 1.00000000 0.57303391
0.86078727 1.00000000 0.78524138
0.95196711 1.00000000 0.91636147
1.00000000 1.00000000 1.00000000
1.00000000 1.00000000 1.00000000
0.10066664 0.09784960 0.31355600
0.11843345 0.08976730 0.31235332
0.20869299 0.00000000 0.28894487
0.40767106 0.00000000 0.36464546
0.71102731 0.02251532 0.46243212
0.91311837 0.10922025 0.43154092
0.99578928 0.26209552 0.36575484
0.99891343 0.36832990 0.33417999
0.99845432 0.40031583 0.33276431
0.07139267 0.11052444 0.30631458
0.09982262 0.09940186 0.31260600
0.20520414 0.00000000 0.29286788
0.40871681 0.00000000 0.36551093
0.71271227 0.00000000 0.46065591
0.91437022 0.10118402 0.42853657
0.99599028 0.26192461 0.36435283
0.99869850 0.36869836 0.33388631
0.99818419 0.40066523 0.33293298
0.00000000 0.17926393 0.28215554
0.00000000 0.17682630 0.28781443
0.12548669 0.08135199 0.33759871
0.42189398 0.00000000 0.39512627
0.74141557 0.00000000 0.44546757
0.93386495 0.00000000 0.40824692
0.99872404 0.28525843 0.36323324
0.99653643 0.38908863 0.34495400
0.99525313 0.41947481 0.34845996
0.09513460 0.39700875 0.38468081
0.07216533 0.39767372 0.38524778
0.00000000 0.40521901 0.39295551
0.40773944 0.40773944 0.40773944
0.80503253 0.33940838 0.40736539
0.95488389 0.38471571 0.43316429
0.98800461 0.47439251 0.45288639
0.98303573 0.53123721 0.46478066
0.98217369 0.54986391 0.47439537
0.00000000 0.73641945 0.40684823
0.00000000 0.73674737 0.40301355
0.00000000 0.74110470 0.37059697
0.16556598 0.75334422 0.30164238
0.71750409 0.74363611 0.26691623
1.00000000 0.67377832 0.41262095
1.00000000 0.70288787 0.59018678
1.00000000 0.73110104 0.65857261
1.00000000 0.74207517 0.67840808
0.00000000 0.88567241 0.27830444
0.00000000 0.88580445 0.27491291
0.00000000 0.89032427 0.24533926
0.10159576 0.91470869 0.16989661
0.53197612 0.95134872 0.20323930
0.89192369 0.93617291 0.34647767
1.00000000 0.87866974 0.64661551
1.00000000 0.86178080 0.77461468
1.00000000 0.85876738 0.80560796
0.27529998 0.96196518 0.24751135
0.27561267 0.96197163 0.24665701
0.29030625 0.96424537 0.24735789
0.38160628 0.98138606 0.29160867
0.62300539 1.00000000 0.47451433
0.82413473 1.00000000 0.64739801
0.97816751 1.00000000 0.81031672
1.00000000 0.96850787 0.89254479
1.00000000 0.93922831 0.90032312
0.44721740 0.99072466 0.33020665
0.44835766 0.99059397 0.33107674
0.47290850 0.99019154 0.35301463
0.57696313 0.99513515 0.45374416
0.75710364 1.00000000 0.65174873
0.89267034 1.00000000 0.82220141
0.97670237 1.00000000 0.93910642
1.00000000 1.00000000 1.00000000
1.00000000 1.00000000 1.00000000
0.53057950 0.99606866 0.38941228
0.53162696 0.99589529 0.39051739
0.55275985 0.99485040 0.41330014
0.64309359 0.99714896 0.51401462
0.80285215 1.00000000 0.71015996
0.92141787 1.00000000 0.87391909
1.00000000 1.00000000 1.00000000
1.00000000 1.00000000 1.00000000
1.00000000 1.00000000 1.00000000
0.14250368 0.13464394 0.54906608
0.15645225 0.13021457 0.54778819
0.23915377 0.10631140 0.52035655
0.39029003 0.00000000 0.49952543
0.68388254 0.00000000 0.60602829
0.88986125 0.00000000 0.58293899
0.99754315 0.18121799 0.48432267
1.00000000 0.31948384 0.39157531
1.00000000 0.37399017 0.32770047
0.12639985 0.14946623 0.54230303
0.14305022 0.14076689 0.54534596
0.23220917 0.10871145 0.52305048
0.38927670 0.00000000 0.50207441
0.68452804 0.00000000 0.60662963
0.89060765 0.00000000 0.58235741
0.99776258 0.18076876 0.48342327
1.00000000 0.31983564 0.39129862
1.00000000 0.37432596 0.32776829
0.00000000 0.23256513 0.47852092
0.00000000 0.22774872 0.48662081
0.14872519 0.16754917 0.53277257
0.37393013 0.00000000 0.52994972
0.69754708 0.00000000 0.61921121
0.90572793 0.00000000 0.57971287
1.00000000 0.17691199 0.47738559
1.00000000 0.32740513 0.39170824
0.99903401 0.38165319 0.33201338
0.00000000 0.35872759 0.49958284
0.00000000 0.35800646 0.50301517
0.00000000 0.34007348 0.54059503
0.33538300 0.28689564 0.65133112
0.73397924 0.23117435 0.69189925
0.95872209 0.24428178 0.60292463
1.00000000 0.38627653 0.52605104
1.00000000 0.47059952 0.47639565
0.99240373 0.50631021 0.43985339
0.00000000 0.67570102 0.65293081
0.00000000 0.67615830 0.65333025
0.00000000 0.68200595 0.65884156
0.00000000 0.69775701 0.67726163
0.69019238 0.69019238 0.69019238
0.93612734 0.67795475 0.69449764
0.98747287 0.71441768 0.71131045
0.98402572 0.74819616 0.71994618
0.97948103 0.76328359 0.71697743
0.32889373 0.88662082 0.55962435
0.32818661 0.88673977 0.55867145
0.32974032 0.88919081 0.55292598
0.40926652 0.90036872 0.55840226
0.61758431 0.92643527 0.59611134
0.88938714 0.92009699 0.61551072
1.00000000 0.89633218 0.79138935
1.00000000 0.90957665 0.86727814
1.00000000 0.91648328 0.88793440
0.55117028 0.98930386 0.50790787
0.55185381 0.98920729 0.50802392
0.56453730 0.98893377 0.51480030
0.62999506 0.99163212 0.56249678
0.77230743 1.00000000 0.68738566
0.90067944 1.00000000 0.80685263
0.99758012 1.00000000 0.91931087
1.00000000 1.00000000 1.00000000
1.00000000 1.00000000 1.00000000
0.71703317 1.00000000 0.62089632
0.71746986 1.00000000 0.62133027
0.72952531 1.00000000 0.63494755
0.78551282 1.00000000 0.70154926
0.89610445 1.00000000 0.84279442
1.00000000 1.00000000 1.00000000
1.00000000 1.00000000 1.00000000
1.00000000 1.00000000 1.00000000
1.00000000 1.00000000 1.00000000
0.78053425 1.00000000 0.68133216
0.78096690 1.00000000 0.68191601
0.79201209 1.00000000 0.69682386
0.83978790 1.00000000 0.76165874
0.93613915 1.00000000 0.89638713
1.00000000 1.00000000 1.00000000
1.00000000 1.00000000 1.00000000
1.00000000 1.00000000 1.00000000
1.00000000 1.00000000 1.00000000
0.11568857 0.15694613 0.70688091
0.12683334 0.15271643 0.70745972
0.19389621 0.14690243 0.69189242
0.29374153 0.00000000 0.65256743
0.61135118 0.00000000 0.74746224
0.84561832 0.00000000 0.74077470
0.97587309 0.13461523 0.64560316
1.00000000 0.27644393 0.51493607
1.00000000 0.34231084 0.39874850
0.10518227 0.17079647 0.69992139
0.11720519 0.16305763 0.70348512
0.18802061 0.14941143 0.69222525
0.29092352 0.00000000 0.65450181
0.61112910 0.00000000 0.74891385
0.84595364 0.00000000 0.74108495
0.97606089 0.13351840 0.64541750
1.00000000 0.27673283 0.51471481
1.00000000 0.34262351 0.39875560
0.03008914 0.25308490 0.63918978
0.04026593 0.24744293 0.64658185
0.13147364 0.19738409 0.68414601
0.26644558 0.00000000 0.67363725
0.61109215 0.00000000 0.76872412
0.85353673 0.00000000 0.74817743
0.98083875 0.11067463 0.64523463
1.00000000 0.28247593 0.51412860
1.00000000 0.34864733 0.40081047
0.00000000 0.35415823 0.62585334
0.00000000 0.35270633 0.62941546
0.00000000 0.33411617 0.65819987
0.14077187 0.19074303 0.73494962
0.62719488 0.00000000 0.85341696
0.89921782 0.00000000 0.79223780
1.00000000 0.27325624 0.66793058
1.00000000 0.39175992 0.55151545
1.00000000 0.44163096 0.45919182
0.00000000 0.60989880 0.78311742
0.00000000 0.60980509 0.78479658
0.00000000 0.61178271 0.80220900
0.22215517 0.62049787 0.85536374
0.63209114 0.62727528 0.92617659
0.96494333 0.57896507 0.90113979
1.00000000 0.65709939 0.78615947
1.00000000 0.70350851 0.74221476
0.99963846 0.72632987 0.70934528
0.00000000 0.86109799 0.83014103
0.00000000 0.86134289 0.83035514
0.00000000 0.86500148 0.83380166
0.00000000 0.87800495 0.84796204
0.50193570 0.89506789 0.87404439
0.87519428 0.87519428 0.87519428
0.98808211 0.88204530 0.88637632
0.99442174 0.90431782 0.90090779
0.99221431 0.91512175 0.90388419
0.46739884 0.97397001 0.64572316
0.46756439 0.97397353 0.64553650
0.47929089 0.97445076 0.64810215
0.57049955 0.97611109 0.68307699
0.75806788 0.98342414 0.78618985
0.90071581 0.99265290 0.88073010
0.99036189 0.99928729 0.93996588
1.00000000 1.00000000 1.00000000
1.00000000 1.00000000 1.00000000
0.72720567 0.99641723 0.66353953
0.72753806 0.99632558 0.66382571
0.73670568 0.99544028 0.67319369
0.78663009 0.99499775 0.72768676
0.89848926 1.00000000 0.86053045
1.00000000 1.00000000 1.00000000
1.00000000 1.00000000 1.00000000
1.00000000 1.00000000 1.00000000
1.00000000 1.00000000 1.00000000
0.79424838 1.00000000 0.71049026
0.79457182 1.00000000 0.71092439
0.80283292 1.00000000 0.72186053
0.84637601 0.99989557 0.77981031
0.94375350 1.00000000 0.91356841
1.00000000 1.00000000 1.00000000
1.00000000 1.00000000 1.00000000
1.00000000 1.00000000 1.00000000
1.00000000 1.00000000 1.00000000
0.04652572 0.23200004 0.75518566
0.05460458 0.22790039 0.75853032
0.10790782 0.20526497 0.76830957
0.18226690 0.13817925 0.74970310
0.41972068 0.00000000 0.89879878
0.74894221 0.00000000 0.89191602
0.93014576 0.12611969 0.80832426
1.00000000 0.23320352 0.67238451
1.00000000 0.30568793 0.52606216
0.04634448 0.23755711 0.74996032
0.05124336 0.23327998 0.75392184
0.10328018 0.20800632 0.76675415
0.17966533 0.13818229 0.75024611
0.41863945 0.00000000 0.89990681
0.74893370 0.00000000 0.89255103
0.93025156 0.12494010 0.80841916
1.00000000 0.23341938 0.67231128
1.00000000 0.30598676 0.52602667
0.03444061 0.27034301 0.72510213
0.03254359 0.26721451 0.72902028
0.07488806 0.24171579 0.75001421
0.15892348 0.15124478 0.75738829
0.40885732 0.00000000 0.91466434
0.75113106 0.00000000 0.90300588
0.93351770 0.09304459 0.81135819
1.00000000 0.23763838 0.67239171
1.00000000 0.31153629 0.52675872
0.00000000 0.34157309 0.73556961
0.00000000 0.34013349 0.73812124
0.00000000 0.32447436 0.75491063
0.09409523 0.24489873 0.78670075
0.38597999 0.00000000 0.96878538
0.77501062 0.00000000 0.95448922
0.95769797 0.14234701 0.83263495
1.00000000 0.31752116 0.68579568
1.00000000 0.37920802 0.55117673
0.00000000 0.54124765 0.88306801
0.00000000 0.54079312 0.88479162
0.00000000 0.54083202 0.90025406
0.25638768 0.56434776 0.92736583
0.50931829 0.62659202 0.95489269
0.84365243 0.60335991 0.97219009
0.99415708 0.61983068 0.88849116
1.00000000 0.66744790 0.80727982
1.00000000 0.69127794 0.74393303
0.18001326 0.79112802 0.97937453
0.17562193 0.79114259 0.98004372
0.15500718 0.79329858 0.98688500
0.31764863 0.80785973 0.99342229
0.63344230 0.83656832 0.97600040
0.84372695 0.85200280 0.97571451
0.98831030 0.85465636 0.95262798
1.00000000 0.88143546 0.92010435
1.00000000 0.89537553 0.90565608
0.00000000 0.95936474 0.92579497
0.00000000 0.95942987 0.92585406
0.00000000 0.96084846 0.92738091
0.00000000 0.96737517 0.93573594
0.61466433 0.97737478 0.95469053
0.85723804 0.98021501 0.97090818
0.98320425 0.98320425 0.98320425
1.00000000 0.99666149 0.99705416
1.00000000 1.00000000 1.00000000
0.63561161 0.99578408 0.73063582
0.63597143 0.99571601 0.73074949
0.64776833 0.99500540 0.73661769
0.71566922 0.99409280 0.77619493
0.86452853 0.99782455 0.88225392
0.97722081 1.00000000 0.97796705
1.00000000 1.00000000 1.00000000
1.00000000 1.00000000 1.00000000
1.00000000 1.00000000 1.00000000
0.77326060 0.99638955 0.70870146
0.77352496 0.99630226 0.70900413
0.78129332 0.99551646 0.71806548
0.82694005 0.99477105 0.77274331
0.93232517 1.00000000 0.90628321
1.00000000 1.00000000 1.00000000
1.00000000 1.00000000 1.00000000
1.00000000 1.00000000 1.00000000
1.00000000 1.00000000 1.00000000
0.00000000 0.28728907 0.74819218
0.00000000 0.28647515 0.74922518
0.00000000 0.28099353 0.75011564
0.00000000 0.24539282 0.74415425
0.23628489 0.17822738 0.92807882
0.49998788 0.24586235 1.00000000
0.81975556 0.17355746 0.95456951
0.96830944 0.18402286 0.83646918
1.00000000 0.25375035 0.68281635
0.00000000 0.28824720 0.74693107
0.00000000 0.28742338 0.74800328
0.00000000 0.28180934 0.74914685
0.00000000 0.24609642 0.74356051
0.23539979 0.17849113 0.92813507
0.49960021 0.24557258 1.00000000
0.81974310 0.17312759 0.95474119
0.96829389 0.18414435 0.83645519
1.00000000 0.25404177 0.68277967
0.00000000 0.29566707 0.74766130
0.00000000 0.29486720 0.74875969
0.00000000 0.28873564 0.75107560
0.00000000 0.25309382 0.74634015
0.22566016 0.16466883 0.93276572
0.49672769 0.23595282 1.00000000
0.82100678 0.16174751 0.95857231
0.96912948 0.18504144 0.83718621
1.00000000 0.25965501 0.68293600
0.04997063 0.33429306 0.79326198
0.05051871 0.33365781 0.79420057
0.05323115 0.32661605 0.79703974
0.00000000 0.29026090 0.78950017
0.19074702 0.03833927 0.95926847
0.49444735 0.22407939 1.00000000
0.83571432 0.14821127 0.98204212
0.97853906 0.22995079 0.84545875
1.00000000 0.31552543 0.69088177
0.20889110 0.49649641 0.95143925
0.20898693 0.49618122 0.95211700
0.20511307 0.49100975 0.95815560
0.30788729 0.52907014 0.94720726
0.47612243 0.61603363 0.95854219
0.64565637 0.65764463 1.00000000
0.90822487 0.62859023 0.97501133
0.99588644 0.64612512 0.88854178
1.00000000 0.66712655 0.81099101
0.46240006 0.74245651 1.00000000
0.46230163 0.74240966 1.00000000
0.46753980 0.74446651 1.00000000
0.52162230 0.76338724 1.00000000
0.66768613 0.81508883 0.98298889
0.78863546 0.85571174 0.98986355
0.94566694 0.85423275 0.98822951
1.00000000 0.86857775 0.95117521
1.00000000 0.88123085 0.92545720
0.51777881 0.88493977 1.00000000
0.51773049 0.88493950 1.00000000
0.52463496 0.88638708 1.00000000
0.58604314 0.89783472 1.00000000
0.74931572 0.92960295 1.00000000
0.89443756 0.95639807 0.99721948
0.97343862 0.97597691 1.00000000
1.00000000 0.98948370 1.00000000
1.00000000 1.00000000 1.00000000
0.37002446 0.99285898 0.96207184
0.37092590 0.99280394 0.96203547
0.40187386 0.99228238 0.96208001
0.54903170 0.99178314 0.96525630
0.79564263 0.99516075 0.97980138
0.95797467 1.00000000 1.00000000
1.00000000 1.00000000 1.00000000
1.00000000 1.00000000 1.00000000
1.00000000 1.00000000 1.00000000
0.70954604 0.99664518 0.77277657
0.70988343 0.99656185 0.77295075
0.72003274 0.99572437 0.77912731
0.77814083 0.99465626 0.81821407
0.90892461 0.99925391 0.92014594
1.00000000 1.00000000 1.00000000
1.00000000 1.00000000 1.00000000
1.00000000 1.00000000 1.00000000
1.00000000 1.00000000 1.00000000
0.00000000 0.31293366 0.73458078
0.00000000 0.31290213 0.73455822
0.00000000 0.31246679 0.72871039
0.00000000 0.29411223 0.70888614
0.00000000 0.27487598 0.88354964
0.29938378 0.34549319 1.00000000
0.53687091 0.35525993 1.00000000
0.85850447 0.19850005 0.98774664
0.98822575 0.17214204 0.84962238
0.00000000 0.31297163 0.73462731
0.00000000 0.31293007 0.73460572
0.00000000 0.31247066 0.72880369
0.00000000 0.29412395 0.70895729
0.00000000 0.27498720 0.88347861
0.29908629 0.34537133 1.00000000
0.53674183 0.35523437 1.00000000
0.85847233 0.19861472 0.98774194
0.98818360 0.17247150 0.84958565
0.00000000 0.31433797 0.74415545
0.00000000 0.31427413 0.74417546
0.00000000 0.31356535 0.73877437
0.00000000 0.29545688 0.71772680
0.00000000 0.26942045 0.88633690
0.29580828 0.34156229 1.00000000
0.53607348 0.35396849 1.00000000
0.85892987 0.19946306 0.98860941
0.98833335 0.17803083 0.84971885
0.00000000 0.33961673 0.80545956
0.00000000 0.33949070 0.80558904
0.00000000 0.33742784 0.80156433
0.00000000 0.31627360 0.77671102
0.00000000 0.21545218 0.91197517
0.28814040 0.33013366 1.00000000
0.53986220 0.35975018 1.00000000
0.86655733 0.22757407 0.99597634
0.99001458 0.24150783 0.85133294
0.25168741 0.48775745 0.96211288
0.25173934 0.48763503 0.96234555
0.24875713 0.48425778 0.96392816
0.31100138 0.51749118 0.95130035
0.45484483 0.61303626 0.95989256
0.56451628 0.67582733 1.00000000
0.70458288 0.69211980 1.00000000
0.92854892 0.65050584 0.97621984
0.99774758 0.65495277 0.88951070
0.53201697 0.72133626 1.00000000
0.53197527 0.72131148 1.00000000
0.53619515 0.72379928 1.00000000
0.57598695 0.74535997 1.00000000
0.68797438 0.80401542 0.98397631
0.78012628 0.85346133 0.98912417
0.85808472 0.87671685 1.00000000
0.97111153 0.86848191 0.98554674
1.00000000 0.87545948 0.95177020
0.65556509 0.84865407 1.00000000
0.65557511 0.84865181 1.00000000
0.66000384 0.85051384 1.00000000
0.69721341 0.86582340 1.00000000
0.80441180 0.90931047 1.00000000
0.90375193 0.94958491 0.99669002
0.96151000 0.97604873 1.00000000
1.00000000 0.98733903 1.00000000
1.00000000 0.99438313 1.00000000
0.65511185 0.92751996 1.00000000
0.65534932 0.92749341 1.00000000
0.66415459 0.92837502 1.00000000
0.71946641 0.93745289 1.00000000
0.85455111 0.96599279 1.00000000
0.96627966 0.99570404 1.00000000
1.00000000 1.00000000 1.00000000
1.00000000 1.00000000 1.00000000
1.00000000 1.00000000 1.00000000
0.52542976 0.99944517 0.97160206
0.52621361 0.99935982 0.97154365
0.54800623 0.99843390 0.97131885
0.65744876 0.99680274 0.97384913
0.86336777 0.99986315 0.98852119
1.00000000 1.00000000 1.00000000
1.00000000 1.00000000 1.00000000
1.00000000 1.00000000 1.00000000
1.00000000 1.00000000 1.00000000
