Luts Download/Canon Luts/3dlut/17grid-3dlut/full-to-full-range/CinemaGamut_CanonLog2-to-BT2020_HLGKnee_17_FF_Ver.2.0.cube
# Gamut : Cinema Gamut to BT.2020
# Gamma : Canon Log 2 to HLGKnee
# Range : Full in / Full out
# Version : 2.0 2019/10/24
# Copyright(c) 2019 Canon Inc. All Rights Reserved.
LUT_3D_SIZE 17
# LUT_3D_INPUT_RANGE 0.0 1.0
0.00000004 0.00000000 0.00000003
0.00000004 0.00000000 0.00000003
0.02636438 0.02636435 0.02636437
0.09169957 0.03672267 0.04023933
0.15773582 0.04224140 0.05083558
0.23833078 0.03861477 0.05730812
0.33921958 0.02826822 0.06493949
0.46953670 0.00000000 0.07485571
0.61361115 0.00000000 0.08985833
0.73607994 0.00000000 0.11559886
0.84772530 0.06466219 0.15258440
0.93808566 0.16038439 0.20254332
0.98062422 0.31291418 0.26769079
0.99822150 0.56898364 0.42935491
1.00000000 0.72894844 0.62019909
1.00000000 0.83208338 0.75502448
1.00000000 0.90699206 0.85040553
0.00000004 0.00000000 0.00000003
0.03896770 0.04746515 0.00000000
0.02636438 0.02636435 0.02636437
0.09169957 0.03672267 0.04023933
0.15773582 0.04224140 0.05083558
0.23833078 0.03861477 0.05730812
0.33921958 0.02826822 0.06493949
0.46953670 0.00000000 0.07485571
0.61361115 0.00000000 0.08985833
0.73607994 0.00000000 0.11559886
0.84772530 0.06466219 0.15258440
0.93808566 0.16038439 0.20254332
0.98062422 0.31291418 0.26769079
0.99822150 0.56898364 0.42935491
1.00000000 0.72894844 0.62019909
1.00000000 0.83208338 0.75502448
1.00000000 0.90699206 0.85040553
0.02636438 0.02636435 0.02636437
0.02636438 0.02636435 0.02636437
0.04104192 0.04151351 0.03563170
0.09963795 0.05623852 0.04313318
0.16040484 0.06524436 0.04811754
0.23955408 0.06491641 0.05142348
0.34039200 0.05805153 0.05699831
0.47121004 0.03712436 0.06576653
0.61511722 0.00543586 0.08120828
0.73743846 0.00127234 0.10785569
0.84893257 0.06180468 0.14617656
0.93907210 0.15784365 0.19804658
0.98129376 0.31320497 0.26576563
0.99851055 0.57040361 0.42960385
1.00000000 0.72978860 0.62093802
1.00000000 0.83261993 0.75566229
1.00000000 0.90737624 0.85093921
0.04817880 0.08440720 0.03725854
0.04817880 0.08440720 0.03725854
0.06222848 0.09974426 0.04078753
0.10580800 0.11082114 0.03762518
0.16448544 0.11786603 0.03457738
0.24155102 0.12020773 0.03347238
0.34215530 0.11681420 0.03499610
0.47310260 0.10721644 0.04416531
0.61751494 0.08920857 0.06024458
0.74034348 0.06859356 0.08782371
0.85182587 0.07415967 0.12921891
0.94152545 0.15867342 0.18640868
0.98268143 0.31981945 0.26253182
0.99911363 0.57575197 0.43140020
1.00000000 0.73255277 0.62350748
1.00000000 0.83432205 0.75772987
1.00000000 0.90858300 0.85264375
0.07056677 0.14675584 0.04100208
0.07056677 0.14675584 0.04100208
0.07950688 0.15412274 0.03795861
0.11357075 0.16462363 0.02930140
0.16550250 0.17423424 0.02360872
0.23814885 0.18147471 0.02185531
0.33671541 0.18468363 0.02451859
0.46834515 0.18173518 0.03172689
0.61604066 0.16988013 0.04410840
0.74178402 0.14670058 0.06590111
0.85476332 0.12757122 0.10660977
0.94445960 0.18050650 0.17103477
0.98395266 0.34118878 0.26159153
0.99962889 0.58691732 0.43662452
1.00000000 0.73777283 0.62861625
1.00000000 0.83741581 0.76155016
1.00000000 0.91075267 0.85572585
0.09337299 0.21428067 0.03851857
0.09337299 0.21428067 0.03851857
0.10086970 0.21868234 0.03468275
0.12759830 0.22765548 0.02575515
0.17146713 0.23852745 0.01777309
0.23725223 0.24999846 0.01310072
0.33089627 0.25961586 0.01490145
0.46032787 0.26470199 0.02173001
0.61082225 0.26203234 0.03377807
0.73955497 0.24851338 0.05270664
0.85544830 0.22643235 0.08793644
0.94706646 0.24181163 0.15425241
0.98487972 0.38619541 0.26530778
0.99984589 0.60749337 0.44841072
1.00000000 0.74718119 0.63819794
1.00000000 0.84293471 0.76848308
1.00000000 0.91460001 0.86121808
0.12400168 0.29956932 0.03364036
0.12400168 0.29956932 0.03364036
0.13042985 0.30242951 0.03062746
0.15165469 0.30961451 0.02288627
0.18767134 0.31990451 0.01364121
0.24460890 0.33320562 0.00000000
0.33008247 0.34800567 0.00000000
0.45293507 0.36098369 0.01029939
0.60328739 0.36864269 0.02498389
0.73435732 0.36717841 0.04621993
0.85272078 0.35643543 0.08073387
0.95363882 0.30554756 0.08323375
0.98503881 0.46719423 0.27986139
0.99960275 0.64156087 0.47251981
1.00000000 0.76341090 0.65545817
1.00000000 0.85271089 0.78095314
1.00000000 0.92126591 0.87077114
0.16700841 0.41109635 0.02923011
0.16700841 0.41109635 0.02923011
0.17233199 0.41308121 0.02738678
0.18913467 0.41864243 0.02210546
0.21808235 0.42748659 0.01476321
0.26556555 0.44056974 0.00000000
0.34017085 0.45784984 0.00000000
0.45268561 0.47752020 0.00000000
0.59675682 0.49516998 0.01810574
0.72757022 0.50685260 0.04318712
0.84742751 0.51056281 0.08286586
0.94434239 0.51484754 0.16037328
0.98471728 0.57661298 0.30908091
0.99933128 0.69129028 0.51712708
1.00000000 0.79014377 0.68526226
1.00000000 0.86916701 0.80222318
1.00000000 0.93236184 0.88666140
0.22693021 0.55362358 0.02828337
0.22693021 0.55362358 0.02828337
0.23117431 0.55482442 0.02755593
0.24433380 0.55827336 0.02547492
0.26722354 0.56413093 0.02099343
0.30572586 0.57310883 0.01552544
0.36841732 0.58617866 0.00000000
0.46690590 0.60273924 0.00000000
0.59737257 0.62085676 0.01635407
0.72214248 0.63667187 0.04819620
0.84100110 0.64910096 0.09304973
0.94034810 0.65595638 0.18080891
0.98472630 0.68092908 0.35320675
0.99955331 0.75254446 0.57803830
1.00000000 0.82787075 0.72901713
1.00000000 0.89403190 0.83478451
1.00000000 0.94977692 0.91139297
0.31015191 0.68421747 0.03847815
0.31015191 0.68421747 0.03847815
0.31344520 0.68478224 0.03857539
0.32361045 0.68646489 0.03887685
0.34145240 0.68941396 0.03888516
0.37199360 0.69444477 0.03637935
0.42301314 0.70221208 0.03539482
0.50589163 0.71368587 0.03270463
0.61168971 0.72853194 0.03944511
0.72369437 0.74536959 0.06695381
0.83640930 0.76109965 0.12005931
0.93625673 0.77080886 0.21611170
0.98653283 0.77877514 0.41520131
1.00000000 0.82140412 0.65009017
1.00000000 0.87538474 0.78661384
1.00000000 0.92794897 0.87986424
1.00000000 0.97524770 0.94697863
0.42757457 0.80190152 0.07250612
0.42757457 0.80190152 0.07250612
0.43008764 0.80218174 0.07292633
0.43784623 0.80303182 0.07420127
0.45153646 0.80454885 0.07600609
0.47531275 0.80721792 0.07800216
0.51532369 0.81179391 0.07865274
0.57308468 0.81898955 0.08340347
0.64808075 0.82970884 0.09166432
0.73852268 0.84390096 0.11662934
0.83974617 0.86091876 0.17675470
0.93471115 0.87239265 0.28968600
0.99017691 0.87318786 0.51559209
1.00000000 0.89390980 0.73203252
1.00000000 0.92926465 0.85455664
1.00000000 0.96913316 0.93471881
1.00000000 1.00000000 1.00000000
0.57225210 0.89854139 0.14717840
0.57225210 0.89854139 0.14717840
0.57370780 0.89869476 0.14774871
0.57816546 0.89916333 0.14953531
0.58588791 0.90001084 0.15240793
0.59894715 0.90153166 0.15684305
0.62022139 0.90422242 0.16320950
0.65338186 0.90887352 0.17232086
0.70171425 0.91628212 0.19019301
0.76744776 0.92730541 0.22402993
0.84923696 0.94218437 0.29787175
0.93528642 0.95675494 0.44724389
0.99081881 0.95566046 0.65711130
1.00000000 0.96157897 0.82728294
1.00000000 0.98056023 0.92485196
1.00000000 1.00000000 1.00000000
1.00000000 1.00000000 1.00000000
0.68146156 0.95054910 0.28333899
0.68146156 0.95054910 0.28333899
0.68224196 0.95065334 0.28415449
0.68464364 0.95097206 0.28670004
0.68882964 0.95155608 0.29099914
0.69603473 0.95261779 0.29821568
0.70812788 0.95452949 0.31005090
0.72768370 0.95791895 0.32884619
0.75848181 0.96365462 0.36101164
0.80308367 0.97276925 0.41647360
0.86414534 0.98550790 0.52544232
0.93496040 0.99684805 0.70012619
0.98585747 1.00000000 0.83347161
1.00000000 1.00000000 0.92628424
1.00000000 1.00000000 1.00000000
1.00000000 1.00000000 1.00000000
1.00000000 1.00000000 1.00000000
0.80918805 0.99159884 0.57353315
0.80918805 0.99159884 0.57353315
0.80970410 0.99162079 0.57470686
0.81127103 0.99169000 0.57822809
0.81399461 0.99183353 0.58422633
0.81869838 0.99211597 0.59437334
0.82662903 0.99266770 0.61101622
0.83946524 0.99374461 0.63695895
0.85944787 0.99595253 0.67560908
0.88855176 0.99984592 0.73038598
0.92691846 1.00000000 0.80201969
0.96948571 1.00000000 0.88462733
1.00000000 1.00000000 1.00000000
1.00000000 1.00000000 1.00000000
1.00000000 1.00000000 1.00000000
1.00000000 1.00000000 1.00000000
1.00000000 1.00000000 1.00000000
0.93625793 1.00000000 0.84646110
0.93625793 1.00000000 0.84646110
0.93646403 1.00000000 0.84689263
0.93710030 1.00000000 0.84822783
0.93821180 1.00000000 0.85053108
0.94014717 1.00000000 0.85449918
0.94345876 1.00000000 0.86120282
0.94896140 1.00000000 0.87215634
0.95785160 1.00000000 0.88931055
0.97165488 1.00000000 0.91506046
1.00000000 1.00000000 1.00000000
1.00000000 1.00000000 1.00000000
1.00000000 1.00000000 1.00000000
1.00000000 1.00000000 1.00000000
1.00000000 1.00000000 1.00000000
1.00000000 1.00000000 1.00000000
1.00000000 1.00000000 1.00000000
1.00000000 1.00000000 1.00000000
1.00000000 1.00000000 1.00000000
1.00000000 1.00000000 1.00000000
1.00000000 1.00000000 1.00000000
1.00000000 1.00000000 1.00000000
1.00000000 1.00000000 1.00000000
1.00000000 1.00000000 1.00000000
1.00000000 1.00000000 1.00000000
1.00000000 1.00000000 1.00000000
1.00000000 1.00000000 1.00000000
1.00000000 1.00000000 1.00000000
1.00000000 1.00000000 1.00000000
1.00000000 1.00000000 1.00000000
1.00000000 1.00000000 1.00000000
1.00000000 1.00000000 1.00000000
1.00000000 1.00000000 1.00000000
1.00000000 1.00000000 1.00000000
1.00000000 1.00000000 1.00000000
1.00000000 1.00000000 1.00000000
1.00000000 1.00000000 1.00000000
1.00000000 1.00000000 1.00000000
1.00000000 1.00000000 1.00000000
1.00000000 1.00000000 1.00000000
1.00000000 1.00000000 1.00000000
1.00000000 1.00000000 1.00000000
1.00000000 1.00000000 1.00000000
1.00000000 1.00000000 1.00000000
1.00000000 1.00000000 1.00000000
1.00000000 1.00000000 1.00000000
1.00000000 1.00000000 1.00000000
1.00000000 1.00000000 1.00000000
1.00000000 1.00000000 1.00000000
1.00000000 1.00000000 1.00000000
1.00000000 1.00000000 1.00000000
0.00000004 0.00000000 0.00000003
0.00000004 0.00000000 0.00000003
0.02636438 0.02636435 0.02636437
0.09169957 0.03672267 0.04023933
0.15773582 0.04224140 0.05083558
0.23833078 0.03861477 0.05730812
0.33921958 0.02826822 0.06493949
0.46953670 0.00000000 0.07485571
0.61361115 0.00000000 0.08985833
0.73607994 0.00000000 0.11559886
0.84772530 0.06466219 0.15258440
0.93808566 0.16038439 0.20254332
0.98062422 0.31291418 0.26769079
0.99822150 0.56898364 0.42935491
1.00000000 0.72894844 0.62019909
1.00000000 0.83208338 0.75502448
1.00000000 0.90699206 0.85040553
0.00000004 0.00000000 0.00000003
0.00000004 0.00000000 0.00000003
0.02636438 0.02636435 0.02636437
0.09169957 0.03672267 0.04023933
0.15773582 0.04224140 0.05083558
0.23833078 0.03861477 0.05730812
0.33921958 0.02826822 0.06493949
0.46953670 0.00000000 0.07485571
0.61361115 0.00000000 0.08985833
0.73607994 0.00000000 0.11559886
0.84772530 0.06466219 0.15258440
0.93808566 0.16038439 0.20254332
0.98062422 0.31291418 0.26769079
0.99822150 0.56898364 0.42935491
1.00000000 0.72894844 0.62019909
1.00000000 0.83208338 0.75502448
1.00000000 0.90699206 0.85040553
0.02636438 0.02636435 0.02636437
0.02636438 0.02636435 0.02636437
0.04104192 0.04151351 0.03563170
0.09963795 0.05623852 0.04313318
0.16040484 0.06524436 0.04811754
0.23955408 0.06491641 0.05142348
0.34039200 0.05805153 0.05699831
0.47121004 0.03712436 0.06576653
0.61511722 0.00543586 0.08120828
0.73743846 0.00127234 0.10785569
0.84893257 0.06180468 0.14617656
0.93907210 0.15784365 0.19804658
0.98129376 0.31320497 0.26576563
0.99851055 0.57040361 0.42960385
1.00000000 0.72978860 0.62093802
1.00000000 0.83261993 0.75566229
1.00000000 0.90737624 0.85093921
0.04817880 0.08440720 0.03725854
0.04817880 0.08440720 0.03725854
0.06222848 0.09974426 0.04078753
0.10580800 0.11082114 0.03762518
0.16448544 0.11786603 0.03457738
0.24155102 0.12020773 0.03347238
0.34215530 0.11681420 0.03499610
0.47310260 0.10721644 0.04416531
0.61751494 0.08920857 0.06024458
0.74034348 0.06859356 0.08782371
0.85182587 0.07415967 0.12921891
0.94152545 0.15867342 0.18640868
0.98268143 0.31981945 0.26253182
0.99911363 0.57575197 0.43140020
1.00000000 0.73255277 0.62350748
1.00000000 0.83432205 0.75772987
1.00000000 0.90858300 0.85264375
0.07056677 0.14675584 0.04100208
0.07056677 0.14675584 0.04100208
0.07950688 0.15412274 0.03795861
0.11357075 0.16462363 0.02930140
0.16550250 0.17423424 0.02360872
0.23814885 0.18147471 0.02185531
0.33671541 0.18468363 0.02451859
0.46834515 0.18173518 0.03172689
0.61604066 0.16988013 0.04410840
0.74178402 0.14670058 0.06590111
0.85476332 0.12757122 0.10660977
0.94445960 0.18050650 0.17103477
0.98395266 0.34118878 0.26159153
0.99962889 0.58691732 0.43662452
1.00000000 0.73777283 0.62861625
1.00000000 0.83741581 0.76155016
1.00000000 0.91075267 0.85572585
0.09337299 0.21428067 0.03851857
0.09337299 0.21428067 0.03851857
0.10086970 0.21868234 0.03468275
0.12759830 0.22765548 0.02575515
0.17146713 0.23852745 0.01777309
0.23725223 0.24999846 0.01310072
0.33089627 0.25961586 0.01490145
0.46032787 0.26470199 0.02173001
0.61082225 0.26203234 0.03377807
0.73955497 0.24851338 0.05270664
0.85544830 0.22643235 0.08793644
0.94706646 0.24181163 0.15425241
0.98487972 0.38619541 0.26530778
0.99984589 0.60749337 0.44841072
1.00000000 0.74718119 0.63819794
1.00000000 0.84293471 0.76848308
1.00000000 0.91460001 0.86121808
0.12400168 0.29956932 0.03364036
0.12400168 0.29956932 0.03364036
0.13042985 0.30242951 0.03062746
0.15165469 0.30961451 0.02288627
0.18767134 0.31990451 0.01364121
0.24460890 0.33320562 0.00000000
0.33008247 0.34800567 0.00000000
0.45293507 0.36098369 0.01029939
0.60328739 0.36864269 0.02498389
0.73435732 0.36717841 0.04621993
0.85272078 0.35643543 0.08073387
0.95363882 0.30554756 0.08323375
0.98503881 0.46719423 0.27986139
0.99960275 0.64156087 0.47251981
1.00000000 0.76341090 0.65545817
1.00000000 0.85271089 0.78095314
1.00000000 0.92126591 0.87077114
0.16700841 0.41109635 0.02923011
0.16700841 0.41109635 0.02923011
0.17233199 0.41308121 0.02738678
0.18913467 0.41864243 0.02210546
0.21808235 0.42748659 0.01476321
0.26556555 0.44056974 0.00000000
0.34017085 0.45784984 0.00000000
0.45268561 0.47752020 0.00000000
0.59675682 0.49516998 0.01810574
0.72757022 0.50685260 0.04318712
0.84742751 0.51056281 0.08286586
0.94434239 0.51484754 0.16037328
0.98471728 0.57661298 0.30908091
0.99933128 0.69129028 0.51712708
1.00000000 0.79014377 0.68526226
1.00000000 0.86916701 0.80222318
1.00000000 0.93236184 0.88666140
0.22693021 0.55362358 0.02828337
0.22693021 0.55362358 0.02828337
0.23117431 0.55482442 0.02755593
0.24433380 0.55827336 0.02547492
0.26722354 0.56413093 0.02099343
0.30572586 0.57310883 0.01552544
0.36841732 0.58617866 0.00000000
0.46690590 0.60273924 0.00000000
0.59737257 0.62085676 0.01635407
0.72214248 0.63667187 0.04819620
0.84100110 0.64910096 0.09304973
0.94034810 0.65595638 0.18080891
0.98472630 0.68092908 0.35320675
0.99955331 0.75254446 0.57803830
1.00000000 0.82787075 0.72901713
1.00000000 0.89403190 0.83478451
1.00000000 0.94977692 0.91139297
0.31015191 0.68421747 0.03847815
0.31015191 0.68421747 0.03847815
0.31344520 0.68478224 0.03857539
0.32361045 0.68646489 0.03887685
0.34145240 0.68941396 0.03888516
0.37199360 0.69444477 0.03637935
0.42301314 0.70221208 0.03539482
0.50589163 0.71368587 0.03270463
0.61168971 0.72853194 0.03944511
0.72369437 0.74536959 0.06695381
0.83640930 0.76109965 0.12005931
0.93625673 0.77080886 0.21611170
0.98653283 0.77877514 0.41520131
1.00000000 0.82140412 0.65009017
1.00000000 0.87538474 0.78661384
1.00000000 0.92794897 0.87986424
1.00000000 0.97524770 0.94697863
0.42757457 0.80190152 0.07250612
0.42757457 0.80190152 0.07250612
0.43008764 0.80218174 0.07292633
0.43784623 0.80303182 0.07420127
0.45153646 0.80454885 0.07600609
0.47531275 0.80721792 0.07800216
0.51532369 0.81179391 0.07865274
0.57308468 0.81898955 0.08340347
0.64808075 0.82970884 0.09166432
0.73852268 0.84390096 0.11662934
0.83974617 0.86091876 0.17675470
0.93471115 0.87239265 0.28968600
0.99017691 0.87318786 0.51559209
1.00000000 0.89390980 0.73203252
1.00000000 0.92926465 0.85455664
1.00000000 0.96913316 0.93471881
1.00000000 1.00000000 1.00000000
0.57225210 0.89854139 0.14717840
0.57225210 0.89854139 0.14717840
0.57370780 0.89869476 0.14774871
0.57816546 0.89916333 0.14953531
0.58588791 0.90001084 0.15240793
0.59894715 0.90153166 0.15684305
0.62022139 0.90422242 0.16320950
0.65338186 0.90887352 0.17232086
0.70171425 0.91628212 0.19019301
0.76744776 0.92730541 0.22402993
0.84923696 0.94218437 0.29787175
0.93528642 0.95675494 0.44724389
0.99081881 0.95566046 0.65711130
1.00000000 0.96157897 0.82728294
1.00000000 0.98056023 0.92485196
1.00000000 1.00000000 1.00000000
1.00000000 1.00000000 1.00000000
0.68146156 0.95054910 0.28333899
0.68146156 0.95054910 0.28333899
0.68224196 0.95065334 0.28415449
0.68464364 0.95097206 0.28670004
0.68882964 0.95155608 0.29099914
0.69603473 0.95261779 0.29821568
0.70812788 0.95452949 0.31005090
0.72768370 0.95791895 0.32884619
0.75848181 0.96365462 0.36101164
0.80308367 0.97276925 0.41647360
0.86414534 0.98550790 0.52544232
0.93496040 0.99684805 0.70012619
0.98585747 1.00000000 0.83347161
1.00000000 1.00000000 0.92628424
1.00000000 1.00000000 1.00000000
1.00000000 1.00000000 1.00000000
1.00000000 1.00000000 1.00000000
0.80918805 0.99159884 0.57353315
0.80918805 0.99159884 0.57353315
0.80970410 0.99162079 0.57470686
0.81127103 0.99169000 0.57822809
0.81399461 0.99183353 0.58422633
0.81869838 0.99211597 0.59437334
0.82662903 0.99266770 0.61101622
0.83946524 0.99374461 0.63695895
0.85944787 0.99595253 0.67560908
0.88855176 0.99984592 0.73038598
0.92691846 1.00000000 0.80201969
0.96948571 1.00000000 0.88462733
1.00000000 1.00000000 1.00000000
1.00000000 1.00000000 1.00000000
1.00000000 1.00000000 1.00000000
1.00000000 1.00000000 1.00000000
1.00000000 1.00000000 1.00000000
0.93625793 1.00000000 0.84646110
0.93625793 1.00000000 0.84646110
0.93646403 1.00000000 0.84689263
0.93710030 1.00000000 0.84822783
0.93821180 1.00000000 0.85053108
0.94014717 1.00000000 0.85449918
0.94345876 1.00000000 0.86120282
0.94896140 1.00000000 0.87215634
0.95785160 1.00000000 0.88931055
0.97165488 1.00000000 0.91506046
1.00000000 1.00000000 1.00000000
1.00000000 1.00000000 1.00000000
1.00000000 1.00000000 1.00000000
1.00000000 1.00000000 1.00000000
1.00000000 1.00000000 1.00000000
1.00000000 1.00000000 1.00000000
1.00000000 1.00000000 1.00000000
1.00000000 1.00000000 1.00000000
1.00000000 1.00000000 1.00000000
1.00000000 1.00000000 1.00000000
1.00000000 1.00000000 1.00000000
1.00000000 1.00000000 1.00000000
1.00000000 1.00000000 1.00000000
1.00000000 1.00000000 1.00000000
1.00000000 1.00000000 1.00000000
1.00000000 1.00000000 1.00000000
1.00000000 1.00000000 1.00000000
1.00000000 1.00000000 1.00000000
1.00000000 1.00000000 1.00000000
1.00000000 1.00000000 1.00000000
1.00000000 1.00000000 1.00000000
1.00000000 1.00000000 1.00000000
1.00000000 1.00000000 1.00000000
1.00000000 1.00000000 1.00000000
1.00000000 1.00000000 1.00000000
1.00000000 1.00000000 1.00000000
1.00000000 1.00000000 1.00000000
1.00000000 1.00000000 1.00000000
1.00000000 1.00000000 1.00000000
1.00000000 1.00000000 1.00000000
1.00000000 1.00000000 1.00000000
1.00000000 1.00000000 1.00000000
1.00000000 1.00000000 1.00000000
1.00000000 1.00000000 1.00000000
1.00000000 1.00000000 1.00000000
1.00000000 1.00000000 1.00000000
1.00000000 1.00000000 1.00000000
1.00000000 1.00000000 1.00000000
1.00000000 1.00000000 1.00000000
1.00000000 1.00000000 1.00000000
1.00000000 1.00000000 1.00000000
0.02636438 0.02636435 0.02636437
0.02636438 0.02636435 0.02636437
0.04472668 0.03119828 0.04601953
0.09973322 0.03240794 0.05772451
0.15956919 0.03520786 0.07052016
0.23826283 0.02970815 0.07905415
0.33902193 0.00909109 0.08669344
0.46997089 0.00000000 0.09402863
0.61463478 0.00000000 0.10293852
0.73680415 0.00000000 0.12209070
0.84761215 0.06254105 0.15816597
0.93768245 0.16185288 0.20681159
0.98024318 0.31343543 0.27009839
0.99798733 0.56851072 0.43003167
1.00000000 0.72853823 0.62006331
1.00000000 0.83175896 0.75472134
1.00000000 0.90674280 0.85010686
0.02636438 0.02636435 0.02636437
0.02636438 0.02636435 0.02636437
0.04472668 0.03119828 0.04601953
0.09973322 0.03240794 0.05772451
0.15956919 0.03520786 0.07052016
0.23826283 0.02970815 0.07905415
0.33902193 0.00909109 0.08669344
0.46997089 0.00000000 0.09402863
0.61463478 0.00000000 0.10293852
0.73680415 0.00000000 0.12209070
0.84761215 0.06254105 0.15816597
0.93768245 0.16185288 0.20681159
0.98024318 0.31343543 0.27009839
0.99798733 0.56851072 0.43003167
1.00000000 0.72853823 0.62006331
1.00000000 0.83175896 0.75472134
1.00000000 0.90674280 0.85010686
0.03314149 0.04702889 0.04664207
0.03314149 0.04702889 0.04664207
0.05426708 0.05426708 0.05426708
0.11532497 0.04942564 0.05362151
0.17089947 0.05391871 0.06196781
0.24755397 0.04946573 0.06630145
0.34628957 0.03949673 0.07167376
0.47562528 0.00891151 0.07822317
0.61734151 0.00000000 0.08951364
0.73798237 0.00000000 0.11520982
0.84874406 0.06131248 0.15228782
0.93864460 0.15976534 0.20254052
0.98092110 0.31369584 0.26818096
0.99827990 0.56993904 0.43028412
1.00000000 0.72938387 0.62080562
1.00000000 0.83229814 0.75536092
1.00000000 0.90710909 0.85061939
0.04578665 0.11392789 0.05212730
0.04578665 0.11392789 0.05212730
0.06466199 0.11923464 0.04734255
0.11440970 0.11975141 0.04250872
0.17525991 0.11820727 0.03972253
0.25205270 0.11403388 0.03846226
0.35141239 0.10559926 0.03845563
0.47990102 0.09320099 0.04920713
0.62025294 0.07492159 0.06703320
0.74105403 0.05811034 0.09508717
0.85171602 0.07193936 0.13540250
0.94114655 0.15998800 0.19088115
0.98239961 0.31960782 0.26462644
0.99891200 0.57522067 0.43200063
1.00000000 0.73214715 0.62336444
1.00000000 0.83400375 0.75742982
1.00000000 0.90831751 0.85232366
0.06555806 0.16599607 0.04582502
0.06555806 0.16599607 0.04582502
0.07767407 0.17074442 0.03918083
0.11651130 0.17693040 0.02851358
0.17194407 0.18104068 0.02276436
0.24601001 0.18288296 0.02209167
0.34439086 0.18160258 0.02614958
0.47489163 0.17534693 0.03437088
0.61933141 0.16141112 0.04786584
0.74316234 0.13758465 0.07035238
0.85492720 0.12293811 0.11214018
0.94421253 0.18014863 0.17518149
0.98374184 0.34052734 0.26344907
0.99946118 0.58634052 0.43714074
1.00000000 0.73737117 0.62846155
1.00000000 0.83710371 0.76125220
1.00000000 0.91049127 0.85540821
0.08924976 0.22729934 0.04124319
0.08924976 0.22729934 0.04124319
0.09817656 0.23076224 0.03568128
0.12739528 0.23817799 0.02538554
0.17396051 0.24653780 0.01634255
0.24175573 0.25475299 0.01176416
0.33635149 0.26092200 0.01496878
0.46576565 0.26293677 0.02300917
0.61405582 0.25789932 0.03571110
0.74118377 0.24285846 0.05518336
0.85610526 0.22059143 0.09081148
0.94706484 0.23944114 0.15748898
0.98476940 0.38506215 0.26681216
0.99972514 0.60689553 0.44881782
1.00000000 0.74679422 0.63803378
1.00000000 0.84263423 0.76819005
1.00000000 0.91434716 0.86090834
0.12078732 0.30879417 0.03562094
0.12078732 0.30879417 0.03562094
0.12788602 0.31130194 0.03166299
0.15030499 0.31792359 0.02286678
0.18796214 0.32715488 0.01231347
0.24655910 0.33879435 0.00000000
0.33332450 0.35142827 0.00000000
0.45684188 0.36203020 0.00985586
0.60604082 0.36751105 0.02575195
0.73594909 0.36434355 0.04735869
0.85355278 0.35259008 0.08214728
0.96101163 0.24508638 0.01277172
0.98503076 0.46570994 0.28086999
0.99950532 0.64096046 0.47275558
1.00000000 0.76301538 0.65524108
1.00000000 0.85240404 0.78064095
1.00000000 0.92102768 0.87047500
0.16456538 0.41781794 0.03055198
0.16456538 0.41781794 0.03055198
0.17020155 0.41962472 0.02832491
0.18754808 0.42491354 0.02274778
0.21735883 0.43338007 0.01418928
0.26593709 0.44572756 0.00000000
0.34164933 0.46186172 0.00000000
0.45504994 0.48001613 0.00000000
0.59878536 0.49597580 0.01783480
0.72891488 0.50611459 0.04360087
0.84823705 0.50869771 0.08351541
0.94474439 0.51272582 0.16118738
0.98476120 0.57581623 0.31003162
0.99927098 0.69088991 0.51740349
1.00000000 0.78983256 0.68509938
1.00000000 0.86890959 0.80196075
1.00000000 0.93215117 0.88639895
0.22508971 0.55769501 0.02915039
0.22508971 0.55769501 0.02915039
0.22946478 0.55880511 0.02816884
0.24285997 0.56211618 0.02585374
0.26618917 0.56774325 0.02139466
0.30531517 0.57640304 0.01500665
