Luts Download/Canon Luts/3dlut/17grid-3dlut/full-to-full-range/CinemaGamut_CanonLog2-to-BT2020_HLGKnee-Vivid_17_FF_Ver.2.0.cube
# Gamut : Cinema Gamut to BT.2020
# Gamma : Canon Log 2 to HLGKnee-Vivid
# Range : Full in / Full out
# Version : 2.0 2019/10/24
# Copyright(c) 2019 Canon Inc. All Rights Reserved.
LUT_3D_SIZE 17
# LUT_3D_INPUT_RANGE 0.0 1.0
0.00000003 0.00000000 0.00000002
0.00000003 0.00000000 0.00000002
0.02636438 0.02636435 0.02636437
0.10424670 0.03629955 0.04131115
0.17704216 0.04286498 0.05475338
0.26643618 0.04016026 0.06539695
0.37856390 0.03241695 0.07847845
0.52169603 0.02369343 0.09543119
0.65815261 0.02883666 0.11718843
0.77702398 0.05375536 0.14696738
0.88605184 0.11228095 0.19006475
0.95631226 0.22724628 0.24157982
0.98658722 0.42082057 0.33482761
1.00000000 0.64215362 0.51638641
1.00000000 0.77416039 0.68237013
1.00000000 0.86570921 0.80263560
1.00000000 0.93492750 0.89069359
0.00000003 0.00000000 0.00000002
0.06026269 0.06750979 0.00000000
0.02636438 0.02636435 0.02636437
0.10424670 0.03629955 0.04131115
0.17704216 0.04286498 0.05475338
0.26643618 0.04016026 0.06539695
0.37856390 0.03241695 0.07847845
0.52169603 0.02369343 0.09543119
0.65815261 0.02883666 0.11718843
0.77702398 0.05375536 0.14696738
0.88605184 0.11228095 0.19006475
0.95631226 0.22724628 0.24157982
0.98658722 0.42082057 0.33482761
1.00000000 0.64215362 0.51638641
1.00000000 0.77416039 0.68237013
1.00000000 0.86570921 0.80263560
1.00000000 0.93492750 0.89069359
0.02636438 0.02636435 0.02636437
0.02636438 0.02636435 0.02636437
0.04127547 0.04174860 0.03584786
0.10815383 0.05577260 0.04097949
0.17707693 0.06418868 0.04158635
0.26609004 0.06150053 0.04735577
0.37872992 0.05213213 0.06113253
0.52231911 0.04012306 0.08053148
0.65886855 0.03643989 0.10476816
0.77770509 0.05153491 0.13710662
0.88664997 0.10824496 0.18265037
0.95677424 0.22516711 0.23678388
0.98682430 0.42071967 0.33260577
1.00000000 0.64232948 0.51554149
1.00000000 0.77429866 0.68224416
1.00000000 0.86580202 0.80267057
1.00000000 0.93500710 0.89077961
0.04306859 0.09492381 0.01180462
0.04306859 0.09492381 0.01180462
0.05414749 0.10494911 0.01202583
0.10774639 0.11286715 0.03590585
0.16981199 0.12010840 0.03090259
0.25698761 0.12086710 0.00280486
0.37081636 0.11533023 0.00602380
0.51793223 0.10308319 0.04198596
0.65843065 0.08516853 0.07242551
0.77854832 0.07566089 0.11103269
0.88791473 0.11022338 0.16253688
0.95799118 0.22393946 0.22383251
0.98744754 0.42258854 0.32707430
1.00000000 0.64350772 0.51376981
1.00000000 0.77497104 0.68220270
1.00000000 0.86621379 0.80296446
1.00000000 0.93532948 0.89117073
0.07322939 0.15214199 0.04426299
0.07322939 0.15214199 0.04426299
0.08078652 0.15622208 0.03898103
0.11372919 0.16499012 0.02890819
0.16637998 0.17503157 0.03128203
0.24159435 0.18462810 0.03197842
0.35169179 0.18810270 0.00000000
0.50197409 0.18220626 0.00000000
0.65151641 0.16726311 0.03352333
0.77699540 0.14361843 0.07530741
0.88859717 0.14482227 0.13311047
0.95939312 0.23470795 0.20494670
0.98812469 0.43089853 0.32012209
1.00000000 0.64692097 0.51234386
1.00000000 0.77663522 0.68281104
1.00000000 0.86716184 0.80382696
1.00000000 0.93602361 0.89207191
0.09579318 0.22145962 0.04213292
0.09579318 0.22145962 0.04213292
0.10257731 0.22332877 0.03671301
0.12802976 0.22941636 0.02498302
0.17170838 0.23908951 0.01747313
0.23852442 0.25123020 0.02794565
0.33497373 0.26388727 0.03625480
0.47671147 0.27092282 0.01246482
0.63697630 0.26593383 0.00000000
0.76942017 0.24962923 0.03935246
0.88632576 0.23150240 0.09846086
0.96018548 0.27541101 0.18041010
0.98850062 0.45387239 0.31311953
1.00000000 0.65506289 0.51289467
1.00000000 0.78035115 0.68506765
1.00000000 0.86919965 0.80593999
1.00000000 0.93745263 0.89401375
0.12649423 0.30948974 0.03753363
0.12649423 0.30948974 0.03753363
0.13262991 0.31034124 0.03368800
0.15296401 0.31418138 0.02411178
0.18803843 0.32185714 0.00998761
0.24498699 0.33400080 0.00000000
0.33185831 0.34978686 0.02742188
0.45820346 0.36670457 0.04268118
0.61631552 0.37818860 0.03119793
0.75575400 0.37552902 0.01258498
0.87872014 0.36383200 0.07218722
0.95812433 0.37367619 0.16393807
0.98814618 0.50656735 0.31160047
1.00000000 0.67242183 0.51962752
1.00000000 0.78813792 0.69114374
1.00000000 0.87361970 0.81093283
1.00000000 0.94030564 0.89800683
0.17017112 0.42469369 0.03342892
0.17017112 0.42469369 0.03342892
0.17537011 0.42508270 0.03138467
0.19168091 0.42732279 0.02595537
0.21956299 0.43281591 0.01523241
0.26601434 0.44298117 0.00000000
0.34069897 0.45893103 0.00000000
0.45509886 0.47999185 0.02990773
0.60168709 0.50276455 0.05384934
0.73816434 0.51979113 0.05631000
0.86584994 0.52371041 0.07012806
0.95265734 0.52064799 0.16173016
0.98720855 0.58741795 0.32256224
1.00000000 0.70510201 0.54047615
1.00000000 0.80446285 0.70641826
1.00000000 0.88278354 0.82186401
1.00000000 0.94580745 0.90582577
0.23162100 0.56856764 0.03289149
0.23162100 0.56856764 0.03289149
0.23578255 0.56869782 0.03235777
0.24861182 0.56968813 0.03071228
0.27080298 0.57235883 0.02677179
0.30779912 0.57811376 0.01632769
0.36909309 0.58841906 0.00000000
0.46763536 0.60376068 0.00000000
0.59968109 0.62307533 0.04191685
0.72650371 0.64290233 0.07890280
0.85030761 0.65993679 0.10694083
0.94487161 0.65940423 0.18195484
0.98575213 0.68074703 0.35322460
1.00000000 0.75485154 0.58178181
1.00000000 0.83211166 0.73514983
1.00000000 0.89916916 0.84227610
1.00000000 0.95595997 0.92032640
0.31765416 0.69739676 0.04403195
0.31765416 0.69739676 0.04403195
0.32085216 0.69741589 0.04436249
0.33069757 0.69774409 0.04503075
0.34788540 0.69876201 0.04512198
0.37728721 0.70119873 0.04288825
0.42607336 0.70633800 0.03665640
0.50692870 0.71555266 0.02735410
0.61235328 0.72942471 0.03826613
0.72572776 0.74735719 0.08077492
0.84051969 0.76653735 0.14285848
0.93751468 0.77372081 0.22871067
0.98512178 0.77753643 0.41617030
1.00000000 0.81957920 0.64672365
1.00000000 0.87353519 0.78329446
1.00000000 0.92600121 0.87713460
1.00000000 0.97351244 0.94517147
0.43993713 0.81421492 0.08080698
0.43993713 0.81421492 0.08080698
0.44230938 0.81419762 0.08128063
0.44965591 0.81427291 0.08256411
0.46261498 0.81461977 0.08414193
0.48516226 0.81557131 0.08566998
0.52275678 0.81781436 0.08592691
0.57661448 0.82265085 0.08560797
0.64900646 0.83133763 0.08887561
0.73903526 0.84468266 0.11471451
0.84159823 0.86273021 0.18434098
0.93565456 0.87405449 0.30256907
0.98808790 0.87235218 0.52254107
1.00000000 0.89252043 0.73255538
1.00000000 0.92654652 0.85088380
1.00000000 0.96411309 0.92798833
1.00000000 1.00000000 1.00000000
0.58386333 0.90573436 0.16175545
0.58386333 0.90573436 0.16175545
0.58505741 0.90571433 0.16214239
0.58878602 0.90572804 0.16335294
0.59534886 0.90587176 0.16525267
0.60665898 0.90632088 0.16817747
0.62553773 0.90746133 0.17249833
0.65573158 0.91014013 0.17869412
0.70099557 0.91567632 0.19133595
0.76503593 0.92556721 0.22011929
0.84765051 0.94095127 0.29358290
0.93638765 0.95781266 0.45101823
0.99129265 0.95680366 0.66552344
1.00000000 0.96358061 0.83430611
1.00000000 0.98301747 0.92957648
1.00000000 1.00000000 1.00000000
1.00000000 1.00000000 1.00000000
0.69490827 0.95510682 0.31177900
0.69490827 0.95510682 0.31177900
0.69539239 0.95509648 0.31209314
0.69696808 0.95511132 0.31320792
0.69985620 0.95521128 0.31526705
0.70508230 0.95550887 0.31905979
0.71435729 0.95625645 0.32596840
0.73036042 0.95797648 0.33848543
0.75705423 0.96192763 0.36144921
0.79862994 0.96925441 0.40898685
0.85876390 0.98157721 0.51131365
0.93335427 0.99612709 0.69317953
0.98661611 1.00000000 0.83717607
1.00000000 1.00000000 1.00000000
1.00000000 1.00000000 1.00000000
1.00000000 1.00000000 1.00000000
1.00000000 1.00000000 1.00000000
0.82819126 0.99420722 0.62374609
0.82819126 0.99420722 0.62374609
0.82836436 0.99419545 0.62397291
0.82898196 0.99417421 0.62487692
0.83020247 0.99416026 0.62676483
0.83256284 0.99417342 0.63057519
0.83701800 0.99427662 0.63798983
0.84523344 0.99460870 0.65207023
0.85999724 0.99566861 0.67799980
0.88439550 0.99824251 0.72175329
0.92029708 1.00000000 0.78837831
0.96613845 1.00000000 0.87714249
1.00000000 1.00000000 1.00000000
1.00000000 1.00000000 1.00000000
1.00000000 1.00000000 1.00000000
1.00000000 1.00000000 1.00000000
1.00000000 1.00000000 1.00000000
0.94811417 1.00000000 0.87012002
0.94811417 1.00000000 0.87012002
0.94817023 1.00000000 0.87022147
0.94838153 1.00000000 0.87061760
0.94881093 1.00000000 0.87143207
0.94966204 1.00000000 0.87306422
0.95131349 1.00000000 0.87625412
0.95444780 1.00000000 0.88234245
0.96033623 1.00000000 0.89370861
0.97073417 1.00000000 0.91336337
1.00000000 1.00000000 1.00000000
1.00000000 1.00000000 1.00000000
1.00000000 1.00000000 1.00000000
1.00000000 1.00000000 1.00000000
1.00000000 1.00000000 1.00000000
1.00000000 1.00000000 1.00000000
1.00000000 1.00000000 1.00000000
1.00000000 1.00000000 1.00000000
1.00000000 1.00000000 1.00000000
1.00000000 1.00000000 1.00000000
1.00000000 1.00000000 1.00000000
1.00000000 1.00000000 1.00000000
1.00000000 1.00000000 1.00000000
1.00000000 1.00000000 1.00000000
1.00000000 1.00000000 1.00000000
1.00000000 1.00000000 1.00000000
1.00000000 1.00000000 1.00000000
1.00000000 1.00000000 1.00000000
1.00000000 1.00000000 1.00000000
1.00000000 1.00000000 1.00000000
1.00000000 1.00000000 1.00000000
1.00000000 1.00000000 1.00000000
1.00000000 1.00000000 1.00000000
1.00000000 1.00000000 1.00000000
1.00000000 1.00000000 1.00000000
1.00000000 1.00000000 1.00000000
1.00000000 1.00000000 1.00000000
1.00000000 1.00000000 1.00000000
1.00000000 1.00000000 1.00000000
1.00000000 1.00000000 1.00000000
1.00000000 1.00000000 1.00000000
1.00000000 1.00000000 1.00000000
1.00000000 1.00000000 1.00000000
1.00000000 1.00000000 1.00000000
1.00000000 1.00000000 1.00000000
1.00000000 1.00000000 1.00000000
1.00000000 1.00000000 1.00000000
1.00000000 1.00000000 1.00000000
1.00000000 1.00000000 1.00000000
1.00000000 1.00000000 1.00000000
1.00000000 1.00000000 1.00000000
0.00000003 0.00000000 0.00000002
0.00000003 0.00000000 0.00000002
0.02636438 0.02636435 0.02636437
0.10424670 0.03629955 0.04131115
0.17704216 0.04286498 0.05475338
0.26643618 0.04016026 0.06539695
0.37856390 0.03241695 0.07847845
0.52169603 0.02369343 0.09543119
0.65815261 0.02883666 0.11718843
0.77702398 0.05375536 0.14696738
0.88605184 0.11228095 0.19006475
0.95631226 0.22724628 0.24157982
0.98658722 0.42082057 0.33482761
1.00000000 0.64215362 0.51638641
1.00000000 0.77416039 0.68237013
1.00000000 0.86570921 0.80263560
1.00000000 0.93492750 0.89069359
0.00000003 0.00000000 0.00000002
0.00000003 0.00000000 0.00000002
0.02636438 0.02636435 0.02636437
0.10424670 0.03629955 0.04131115
0.17704216 0.04286498 0.05475338
0.26643618 0.04016026 0.06539695
0.37856390 0.03241695 0.07847845
0.52169603 0.02369343 0.09543119
0.65815261 0.02883666 0.11718843
0.77702398 0.05375536 0.14696738
0.88605184 0.11228095 0.19006475
0.95631226 0.22724628 0.24157982
0.98658722 0.42082057 0.33482761
1.00000000 0.64215362 0.51638641
1.00000000 0.77416039 0.68237013
1.00000000 0.86570921 0.80263560
1.00000000 0.93492750 0.89069359
0.02636438 0.02636435 0.02636437
0.02636438 0.02636435 0.02636437
0.04127547 0.04174860 0.03584786
0.10815383 0.05577260 0.04097949
0.17707693 0.06418868 0.04158635
0.26609004 0.06150053 0.04735577
0.37872992 0.05213213 0.06113253
0.52231911 0.04012306 0.08053148
0.65886855 0.03643989 0.10476816
0.77770509 0.05153491 0.13710662
0.88664997 0.10824496 0.18265037
0.95677424 0.22516711 0.23678388
0.98682430 0.42071967 0.33260577
1.00000000 0.64232948 0.51554149
1.00000000 0.77429866 0.68224416
1.00000000 0.86580202 0.80267057
1.00000000 0.93500710 0.89077961
0.04306859 0.09492381 0.01180462
0.04306859 0.09492381 0.01180462
0.05414749 0.10494911 0.01202583
0.10774639 0.11286715 0.03590585
0.16981199 0.12010840 0.03090259
0.25698761 0.12086710 0.00280486
0.37081636 0.11533023 0.00602380
0.51793223 0.10308319 0.04198596
0.65843065 0.08516853 0.07242551
0.77854832 0.07566089 0.11103269
0.88791473 0.11022338 0.16253688
0.95799118 0.22393946 0.22383251
0.98744754 0.42258854 0.32707430
1.00000000 0.64350772 0.51376981
1.00000000 0.77497104 0.68220270
1.00000000 0.86621379 0.80296446
1.00000000 0.93532948 0.89117073
0.07322939 0.15214199 0.04426299
0.07322939 0.15214199 0.04426299
0.08078652 0.15622208 0.03898103
0.11372919 0.16499012 0.02890819
0.16637998 0.17503157 0.03128203
0.24159435 0.18462810 0.03197842
0.35169179 0.18810270 0.00000000
0.50197409 0.18220626 0.00000000
0.65151641 0.16726311 0.03352333
0.77699540 0.14361843 0.07530741
0.88859717 0.14482227 0.13311047
0.95939312 0.23470795 0.20494670
0.98812469 0.43089853 0.32012209
1.00000000 0.64692097 0.51234386
1.00000000 0.77663522 0.68281104
1.00000000 0.86716184 0.80382696
1.00000000 0.93602361 0.89207191
0.09579318 0.22145962 0.04213292
0.09579318 0.22145962 0.04213292
0.10257731 0.22332877 0.03671301
0.12802976 0.22941636 0.02498302
0.17170838 0.23908951 0.01747313
0.23852442 0.25123020 0.02794565
0.33497373 0.26388727 0.03625480
0.47671147 0.27092282 0.01246482
0.63697630 0.26593383 0.00000000
0.76942017 0.24962923 0.03935246
0.88632576 0.23150240 0.09846086
0.96018548 0.27541101 0.18041010
0.98850062 0.45387239 0.31311953
1.00000000 0.65506289 0.51289467
1.00000000 0.78035115 0.68506765
1.00000000 0.86919965 0.80593999
1.00000000 0.93745263 0.89401375
0.12649423 0.30948974 0.03753363
0.12649423 0.30948974 0.03753363
0.13262991 0.31034124 0.03368800
0.15296401 0.31418138 0.02411178
0.18803843 0.32185714 0.00998761
0.24498699 0.33400080 0.00000000
0.33185831 0.34978686 0.02742188
0.45820346 0.36670457 0.04268118
0.61631552 0.37818860 0.03119793
0.75575400 0.37552902 0.01258498
0.87872014 0.36383200 0.07218722
0.95812433 0.37367619 0.16393807
0.98814618 0.50656735 0.31160047
1.00000000 0.67242183 0.51962752
1.00000000 0.78813792 0.69114374
1.00000000 0.87361970 0.81093283
1.00000000 0.94030564 0.89800683
0.17017112 0.42469369 0.03342892
0.17017112 0.42469369 0.03342892
0.17537011 0.42508270 0.03138467
0.19168091 0.42732279 0.02595537
0.21956299 0.43281591 0.01523241
0.26601434 0.44298117 0.00000000
0.34069897 0.45893103 0.00000000
0.45509886 0.47999185 0.02990773
0.60168709 0.50276455 0.05384934
0.73816434 0.51979113 0.05631000
0.86584994 0.52371041 0.07012806
0.95265734 0.52064799 0.16173016
0.98720855 0.58741795 0.32256224
1.00000000 0.70510201 0.54047615
1.00000000 0.80446285 0.70641826
1.00000000 0.88278354 0.82186401
1.00000000 0.94580745 0.90582577
0.23162100 0.56856764 0.03289149
0.23162100 0.56856764 0.03289149
0.23578255 0.56869782 0.03235777
0.24861182 0.56968813 0.03071228
0.27080298 0.57235883 0.02677179
0.30779912 0.57811376 0.01632769
0.36909309 0.58841906 0.00000000
0.46763536 0.60376068 0.00000000
0.59968109 0.62307533 0.04191685
0.72650371 0.64290233 0.07890280
0.85030761 0.65993679 0.10694083
0.94487161 0.65940423 0.18195484
0.98575213 0.68074703 0.35322460
1.00000000 0.75485154 0.58178181
1.00000000 0.83211166 0.73514983
1.00000000 0.89916916 0.84227610
1.00000000 0.95595997 0.92032640
0.31765416 0.69739676 0.04403195
0.31765416 0.69739676 0.04403195
0.32085216 0.69741589 0.04436249
0.33069757 0.69774409 0.04503075
0.34788540 0.69876201 0.04512198
0.37728721 0.70119873 0.04288825
0.42607336 0.70633800 0.03665640
0.50692870 0.71555266 0.02735410
0.61235328 0.72942471 0.03826613
0.72572776 0.74735719 0.08077492
0.84051969 0.76653735 0.14285848
0.93751468 0.77372081 0.22871067
0.98512178 0.77753643 0.41617030
1.00000000 0.81957920 0.64672365
1.00000000 0.87353519 0.78329446
1.00000000 0.92600121 0.87713460
1.00000000 0.97351244 0.94517147
0.43993713 0.81421492 0.08080698
0.43993713 0.81421492 0.08080698
0.44230938 0.81419762 0.08128063
0.44965591 0.81427291 0.08256411
0.46261498 0.81461977 0.08414193
0.48516226 0.81557131 0.08566998
0.52275678 0.81781436 0.08592691
0.57661448 0.82265085 0.08560797
0.64900646 0.83133763 0.08887561
0.73903526 0.84468266 0.11471451
0.84159823 0.86273021 0.18434098
0.93565456 0.87405449 0.30256907
0.98808790 0.87235218 0.52254107
1.00000000 0.89252043 0.73255538
1.00000000 0.92654652 0.85088380
1.00000000 0.96411309 0.92798833
1.00000000 1.00000000 1.00000000
0.58386333 0.90573436 0.16175545
0.58386333 0.90573436 0.16175545
0.58505741 0.90571433 0.16214239
0.58878602 0.90572804 0.16335294
0.59534886 0.90587176 0.16525267
0.60665898 0.90632088 0.16817747
0.62553773 0.90746133 0.17249833
0.65573158 0.91014013 0.17869412
0.70099557 0.91567632 0.19133595
0.76503593 0.92556721 0.22011929
0.84765051 0.94095127 0.29358290
0.93638765 0.95781266 0.45101823
0.99129265 0.95680366 0.66552344
1.00000000 0.96358061 0.83430611
1.00000000 0.98301747 0.92957648
1.00000000 1.00000000 1.00000000
1.00000000 1.00000000 1.00000000
0.69490827 0.95510682 0.31177900
0.69490827 0.95510682 0.31177900
0.69539239 0.95509648 0.31209314
0.69696808 0.95511132 0.31320792
0.69985620 0.95521128 0.31526705
0.70508230 0.95550887 0.31905979
0.71435729 0.95625645 0.32596840
0.73036042 0.95797648 0.33848543
0.75705423 0.96192763 0.36144921
0.79862994 0.96925441 0.40898685
0.85876390 0.98157721 0.51131365
0.93335427 0.99612709 0.69317953
0.98661611 1.00000000 0.83717607
1.00000000 1.00000000 1.00000000
1.00000000 1.00000000 1.00000000
1.00000000 1.00000000 1.00000000
1.00000000 1.00000000 1.00000000
0.82819126 0.99420722 0.62374609
0.82819126 0.99420722 0.62374609
0.82836436 0.99419545 0.62397291
0.82898196 0.99417421 0.62487692
0.83020247 0.99416026 0.62676483
0.83256284 0.99417342 0.63057519
0.83701800 0.99427662 0.63798983
0.84523344 0.99460870 0.65207023
0.85999724 0.99566861 0.67799980
0.88439550 0.99824251 0.72175329
0.92029708 1.00000000 0.78837831
0.96613845 1.00000000 0.87714249
1.00000000 1.00000000 1.00000000
1.00000000 1.00000000 1.00000000
1.00000000 1.00000000 1.00000000
1.00000000 1.00000000 1.00000000
1.00000000 1.00000000 1.00000000
0.94811417 1.00000000 0.87012002
0.94811417 1.00000000 0.87012002
0.94817023 1.00000000 0.87022147
0.94838153 1.00000000 0.87061760
0.94881093 1.00000000 0.87143207
0.94966204 1.00000000 0.87306422
0.95131349 1.00000000 0.87625412
0.95444780 1.00000000 0.88234245
0.96033623 1.00000000 0.89370861
0.97073417 1.00000000 0.91336337
1.00000000 1.00000000 1.00000000
1.00000000 1.00000000 1.00000000
1.00000000 1.00000000 1.00000000
1.00000000 1.00000000 1.00000000
1.00000000 1.00000000 1.00000000
1.00000000 1.00000000 1.00000000
1.00000000 1.00000000 1.00000000
1.00000000 1.00000000 1.00000000
1.00000000 1.00000000 1.00000000
1.00000000 1.00000000 1.00000000
1.00000000 1.00000000 1.00000000
1.00000000 1.00000000 1.00000000
1.00000000 1.00000000 1.00000000
1.00000000 1.00000000 1.00000000
1.00000000 1.00000000 1.00000000
1.00000000 1.00000000 1.00000000
1.00000000 1.00000000 1.00000000
1.00000000 1.00000000 1.00000000
1.00000000 1.00000000 1.00000000
1.00000000 1.00000000 1.00000000
1.00000000 1.00000000 1.00000000
1.00000000 1.00000000 1.00000000
1.00000000 1.00000000 1.00000000
1.00000000 1.00000000 1.00000000
1.00000000 1.00000000 1.00000000
1.00000000 1.00000000 1.00000000
1.00000000 1.00000000 1.00000000
1.00000000 1.00000000 1.00000000
1.00000000 1.00000000 1.00000000
1.00000000 1.00000000 1.00000000
1.00000000 1.00000000 1.00000000
1.00000000 1.00000000 1.00000000
1.00000000 1.00000000 1.00000000
1.00000000 1.00000000 1.00000000
1.00000000 1.00000000 1.00000000
1.00000000 1.00000000 1.00000000
1.00000000 1.00000000 1.00000000
1.00000000 1.00000000 1.00000000
1.00000000 1.00000000 1.00000000
1.00000000 1.00000000 1.00000000
1.00000000 1.00000000 1.00000000
0.02636438 0.02636435 0.02636437
0.02636438 0.02636435 0.02636437
0.04482693 0.03116496 0.04615517
0.10867418 0.03190128 0.05938394
0.17705909 0.03652860 0.07585387
0.26591608 0.03227646 0.08750603
0.37870635 0.01072760 0.09943845
0.52305036 0.00000000 0.11305260
0.65859372 0.00660466 0.13097491
0.77682467 0.05697306 0.15624637
0.88565907 0.11677995 0.19729431
0.95593995 0.22989204 0.24647866
0.98634366 0.42162208 0.33743545
1.00000000 0.64226274 0.51758421
1.00000000 0.77413785 0.68266941
1.00000000 0.86566791 0.80269534
1.00000000 0.93489327 0.89069020
0.02636438 0.02636435 0.02636437
0.02636438 0.02636435 0.02636437
0.04482693 0.03116496 0.04615517
0.10867418 0.03190128 0.05938394
0.17705909 0.03652860 0.07585387
0.26591608 0.03227646 0.08750603
0.37870635 0.01072760 0.09943845
0.52305036 0.00000000 0.11305260
0.65859372 0.00660466 0.13097491
0.77682467 0.05697306 0.15624637
0.88565907 0.11677995 0.19729431
0.95593995 0.22989204 0.24647866
0.98634366 0.42162208 0.33743545
1.00000000 0.64226274 0.51758421
1.00000000 0.77413785 0.68266941
1.00000000 0.86566791 0.80269534
1.00000000 0.93489327 0.89069020
0.03341142 0.04712390 0.04674223
0.03341142 0.04712390 0.04674223
0.05426708 0.05426708 0.05426708
0.12497067 0.04421289 0.05031725
0.18671024 0.05021975 0.06176861
0.27272892 0.04477589 0.06969609
0.38329798 0.03315411 0.08065262
0.52488472 0.02105101 0.09619440
0.65942877 0.02782764 0.11678463
0.77758311 0.05353291 0.14673656
0.88629631 0.11248211 0.18999906
0.95641967 0.22769072 0.24170041
0.98658700 0.42148572 0.33520195
1.00000000 0.64243452 0.51674169
1.00000000 0.77427471 0.68254129
1.00000000 0.86576003 0.80272864
1.00000000 0.93495291 0.89075340
0.03784232 0.11805039 0.02421724
0.03784232 0.11805039 0.02421724
0.04524909 0.12537270 0.00000000
0.11523712 0.12079084 0.03530623
0.18002954 0.11854028 0.02988326
0.26647691 0.11300488 0.02215439
0.37796520 0.10446316 0.03377160
0.52251235 0.09071571 0.05552926
0.65968930 0.07640000 0.08449291
0.77872470 0.07254531 0.12057716
0.88768261 0.11241729 0.16981825
0.95768400 0.22598971 0.22868530
0.98722654 0.42325460 0.32962386
1.00000000 0.64359839 0.51495899
1.00000000 0.77494548 0.68249692
1.00000000 0.86617173 0.80302197
1.00000000 0.93527465 0.89114215
0.06729140 0.16482033 0.04880222
0.06729140 0.16482033 0.04880222
0.07744785 0.16772089 0.04091094
0.11453555 0.17363626 0.02882473
0.17042546 0.17936055 0.03067332
0.24734315 0.18446438 0.03100202
0.35793344 0.18402650 0.00000000
0.50715564 0.17564698 0.00698898
0.65379286 0.15958809 0.04551286
0.77789433 0.13640481 0.08303856
0.88863043 0.14318162 0.13991319
0.95917862 0.23573547 0.20959967
0.98793750 0.43135175 0.32255717
1.00000000 0.64697322 0.51348518
1.00000000 0.77660185 0.68309026
1.00000000 0.86711777 0.80387888
1.00000000 0.93596800 0.89204002
0.09090677 0.22909879 0.04522329
0.09090677 0.22909879 0.04522329
0.09883706 0.23065462 0.03869650
0.12630982 0.23594492 0.02608629
0.17227665 0.24404116 0.01743363
0.24096182 0.25385189 0.02740933
0.33864029 0.26386978 0.03558743
0.48097965 0.26838986 0.01471209
0.63940607 0.26158594 0.00000000
0.77062634 0.24436606 0.04686508
0.88680361 0.22672696 0.10319813
0.96016829 0.27458203 0.18437685
0.98838932 0.45387238 0.31525923
1.00000000 0.65503937 0.51391571
1.00000000 0.78030207 0.68531399
1.00000000 0.86915154 0.80598011
1.00000000 0.93739597 0.89397671
0.12261853 0.31441125 0.04013207
0.12261853 0.31441125 0.04013207
0.12930150 0.31513507 0.03576102
0.15059204 0.31869222 0.02591319
0.18693957 0.32587002 0.01186671
0.24527677 0.33707441 0.00000000
0.33338938 0.35143973 0.02685020
0.46066432 0.36666414 0.04216045
0.61833050 0.37646308 0.03166796
0.75699167 0.37251856 0.02171358
0.87937518 0.36025908 0.07558136
0.95838062 0.37113046 0.16615567
0.98810677 0.50594986 0.31318753
1.00000000 0.67223999 0.52035819
1.00000000 0.78802071 0.69128282
1.00000000 0.87353487 0.81091969
1.00000000 0.94024807 0.89796286
0.16714676 0.42793256 0.03564778
0.16714676 0.42793256 0.03564778
0.17254569 0.42827861 0.03322292
0.18924663 0.43042668 0.02748132
0.21781653 0.43575699 0.01651880
0.26515369 0.44555517 0.00000000
0.34078828 0.46091046 0.00000000
0.45607939 0.48105110 0.02937230
0.60288130 0.50269194 0.05346710
0.73913997 0.51865407 0.05649219
0.86649338 0.52180441 0.07157519
0.95297976 0.51885125 0.16314119
0.98722095 0.58693967 0.32388008
1.00000000 0.70492658 0.54107425
1.00000000 0.80434823 0.70652612
1.00000000 0.88270099 0.82184126
1.00000000 0.94575136 0.90577848
0.22920529 0.57027978 0.03461423
0.22920529 0.57027978 0.03461423
0.23344053 0.57039505 0.03373801
0.24642769 0.57135316 0.03174277
0.26893889 0.57395617 0.02760841
0.30645362 0.57959731 0.01689028
