Luts Download/Canon Luts/3dlut/17grid-3dlut/full-to-full-range/CinemaGamut_CanonLog2-to-BT2020_PQ_17_FF_Ver.2.0.cube
# Gamut : Cinema Gamut to BT.2020
# Gamma : Canon Log 2 to PQ
# Range : Full in / Full out
# Version : 2.0 2019/10/24
# Copyright(c) 2019 Canon Inc. All Rights Reserved.
LUT_3D_SIZE 5
# LUT_3D_INPUT_RANGE 0.0 1.0
0.00000000 0.00000000 0.00000000
0.19533471 0.02014717 0.02992958
0.50682349 0.00000000 0.09889747
0.79573916 0.07713620 0.29753322
1.00000000 0.75960648 0.68275203
0.05831747 0.17936221 0.01726355
0.20389401 0.21406088 0.00386822
0.50360720 0.20862771 0.01958377
0.79652979 0.00000000 0.26217991
1.00000000 0.75918748 0.68129581
0.26867570 0.47097766 0.00600520
0.30357292 0.47655476 0.00198994
0.49400335 0.50678380 0.00000000
0.79451867 0.50686192 0.11296384
1.00000000 0.77175701 0.68055678
0.54865141 0.76247751 0.08906771
0.55303815 0.76306309 0.09650426
0.59696723 0.76968222 0.09913532
0.78663224 0.80011638 0.15006373
1.00000000 0.88099935 0.73326438
0.92181755 1.00000000 0.80629626
0.92206729 1.00000000 0.80668787
0.92502242 1.00000000 0.81113525
0.94967502 1.00000000 0.84734622
1.00000000 1.00000000 1.00000000
0.01879689 0.00151210 0.16946120
0.19519768 0.00000000 0.20609938
0.50688023 0.00020570 0.27273083
0.79711645 0.05367299 0.32253479
1.00000000 0.76041795 0.68457952
0.01126246 0.20813137 0.20386079
0.20768300 0.20768300 0.20768300
0.50712613 0.17015688 0.22098576
0.79761802 0.00000000 0.29404186
1.00000000 0.75989316 0.68302748
0.24614111 0.49053923 0.02741412
0.28929801 0.49441062 0.00429930
0.50020304 0.51299905 0.00000000
0.79621669 0.49901564 0.12812580
1.00000000 0.77169067 0.68155988
0.54669196 0.76427465 0.08747254
0.55113941 0.76483838 0.09360616
0.59617356 0.77128330 0.09631840
0.78722201 0.80070464 0.14926349
1.00000000 0.88087979 0.73371224
0.92201783 1.00000000 0.80688166
0.92225363 1.00000000 0.80724293
0.92520021 1.00000000 0.81166586
0.94981293 1.00000000 0.84776512
1.00000000 1.00000000 1.00000000
0.17296546 0.01019879 0.45863551
0.22512784 0.00000000 0.44901471
0.51303811 0.00000000 0.51523615
0.79344824 0.20563377 0.56509302
1.00000000 0.75723531 0.69849014
0.10095639 0.09476582 0.47405419
0.18023359 0.00119062 0.47104738
0.51411712 0.00000000 0.51868850
0.79445189 0.17368897 0.55796835
1.00000000 0.75705306 0.69699289
0.03931245 0.49797394 0.49247970
0.15330615 0.49863527 0.49356384
0.49554313 0.49554313 0.49554313
0.79769876 0.45437917 0.50310671
1.00000000 0.76553045 0.68850297
0.50940594 0.78646210 0.19732764
0.51472760 0.78681876 0.18648768
0.57683012 0.79115706 0.09163014
0.79424491 0.80767677 0.06447663
1.00000000 0.87888503 0.73808946
0.92468122 1.00000000 0.81459591
0.92489100 1.00000000 0.81488424
0.92755635 1.00000000 0.81865061
0.95164503 1.00000000 0.85341052
1.00000000 1.00000000 1.00000000
0.40634599 0.03338909 0.74334142
0.41297124 0.12329394 0.73945502
0.48303564 0.07004921 0.71758926
0.79417006 0.00000000 0.79156446
1.00000000 0.75368343 0.84941545
0.40029822 0.00000000 0.74744829
0.40727511 0.05843523 0.74390947
0.47928936 0.01472865 0.72097506
0.79439704 0.00000000 0.79195566
1.00000000 0.75359633 0.84907318
0.26676822 0.37851183 0.76122152
0.28317048 0.36723122 0.76160776
0.41845608 0.01942011 0.75688726
0.79269358 0.00000000 0.79509361
1.00000000 0.75821630 0.84691119
0.32977601 0.78789956 0.78216806
0.33988357 0.78805481 0.78236705
0.45097971 0.78963123 0.78448130
0.78767918 0.78767918 0.78767918
1.00000000 0.86316817 0.85381947
0.95316979 1.00000000 0.89016287
0.95326322 1.00000000 0.89019627
0.95465296 1.00000000 0.89117179
0.96656550 1.00000000 0.90513929
1.00000000 1.00000000 1.00000000
0.67136050 0.48847319 1.00000000
0.67186502 0.49270539 1.00000000
0.67857756 0.51684846 0.99873899
0.73831129 0.50179174 0.96113175
1.00000000 0.67077449 0.99595312
0.67092364 0.48677182 1.00000000
0.67140672 0.49064469 1.00000000
0.67816962 0.51489904 0.99934018
0.73814025 0.50015851 0.96171533
1.00000000 0.67063907 0.99599083
0.66407816 0.50629022 1.00000000
0.66467647 0.50736611 1.00000000
0.67199150 0.51610630 1.00000000
0.73575957 0.48164566 0.96857705
1.00000000 0.66821516 0.99656274
0.55832896 0.73089889 0.99785058
0.55911047 0.73025012 0.99800759
0.56891388 0.72141036 1.00000000
0.68125491 0.61737652 0.99775484
1.00000000 0.72123258 0.99784338
1.00000000 1.00000000 1.00000000
1.00000000 1.00000000 1.00000000
1.00000000 1.00000000 1.00000000
1.00000000 1.00000000 1.00000000
1.00000000 1.00000000 1.00000000
