Luts Download/Canon Luts/3dlut/17grid-3dlut/full-to-full-range/CinemaGamut_CanonLog2-to-BT2020_HLG-Vivid_17_FF_Ver.2.0.cube
# Gamut : Cinema Gamut to BT.2020
# Gamma : Canon Log 2 to HLG-Vivid
# Range : Full in / Full out
# Version : 2.0 2019/10/24
# Copyright(c) 2019 Canon Inc. All Rights Reserved.
LUT_3D_SIZE 5
# LUT_3D_INPUT_RANGE 0.0 1.0
0.00000004 0.00000000 0.00000003
0.17448818 0.03584898 0.04476786
0.65893144 0.00000000 0.06948187
1.00000000 0.59488191 0.45499182
1.00000000 1.00000000 1.00000000
0.06261657 0.15069104 0.03277956
0.16509037 0.17559586 0.01604928
0.65844523 0.14676190 0.03221133
1.00000000 0.60647640 0.44992932
1.00000000 1.00000000 1.00000000
0.19772112 0.56667775 0.02330813
0.23826834 0.57638834 0.02025069
0.59663744 0.62488271 0.02815792
1.00000000 0.76513532 0.52789673
1.00000000 1.00000000 1.00000000
0.82037478 0.99705358 0.61625618
0.82441317 0.99727385 0.62191021
0.86661588 1.00000000 0.67985342
1.00000000 1.00000000 1.00000000
1.00000000 1.00000000 1.00000000
1.00000000 1.00000000 1.00000000
1.00000000 1.00000000 1.00000000
1.00000000 1.00000000 1.00000000
1.00000000 1.00000000 1.00000000
1.00000000 1.00000000 1.00000000
0.03936113 0.00767043 0.16629221
0.16790321 0.00000000 0.17900830
0.65060438 0.01655252 0.20211105
1.00000000 0.58807208 0.46571333
1.00000000 1.00000000 1.00000000
0.01203603 0.17264594 0.16822576
0.16895397 0.16895397 0.16895397
0.66308268 0.11543823 0.15452945
1.00000000 0.60018942 0.46075249
1.00000000 1.00000000 1.00000000
0.17278516 0.60376106 0.03780648
0.21858360 0.61050956 0.02435225
0.60823278 0.63615878 0.02349247
1.00000000 0.76161768 0.53185875
1.00000000 1.00000000 1.00000000
0.82507641 0.99813171 0.63047347
0.82890507 0.99836577 0.63554093
0.86963914 1.00000000 0.68946079
1.00000000 1.00000000 1.00000000
1.00000000 1.00000000 1.00000000
1.00000000 1.00000000 1.00000000
1.00000000 1.00000000 1.00000000
1.00000000 1.00000000 1.00000000
1.00000000 1.00000000 1.00000000
1.00000000 1.00000000 1.00000000
0.12557921 0.02423525 0.60849190
0.16749242 0.00000000 0.56791701
0.61796697 0.00000000 0.62061177
0.99923531 0.57703133 0.71304649
1.00000000 1.00000000 1.00000000
0.07727853 0.07877325 0.64327153
0.13062429 0.01209280 0.63244115
0.62628694 0.00000000 0.63430419
1.00000000 0.58318912 0.70943628
1.00000000 1.00000000 1.00000000
0.07094390 0.61438914 0.60232565
0.11327027 0.61706798 0.60596950
0.60391133 0.60391133 0.60391133
1.00000000 0.73449867 0.71640565
1.00000000 1.00000000 1.00000000
0.86856201 1.00000000 0.74946352
0.87071931 1.00000000 0.75055662
0.89886486 1.00000000 0.77336572
1.00000000 1.00000000 1.00000000
1.00000000 1.00000000 1.00000000
1.00000000 1.00000000 1.00000000
1.00000000 1.00000000 1.00000000
1.00000000 1.00000000 1.00000000
1.00000000 1.00000000 1.00000000
1.00000000 1.00000000 1.00000000
0.37321884 0.31987067 0.97858910
0.38400843 0.31971833 0.97253281
0.51086745 0.23090503 0.93914707
0.97266485 0.50640957 0.95273438
1.00000000 1.00000000 1.00000000
0.36371191 0.32730051 0.98260515
0.37483425 0.32538429 0.97760064
0.50468908 0.23316188 0.94571946
0.97294158 0.50681561 0.95300625
1.00000000 1.00000000 1.00000000
0.26928013 0.52233433 0.97130106
0.27410427 0.51089792 0.97418269
0.39428696 0.37197790 0.97635223
0.97382213 0.55795933 0.95552166
1.00000000 1.00000000 1.00000000
0.93961819 1.00000000 1.00000000
0.94102785 1.00000000 1.00000000
1.00000000 1.00000000 1.00000000
1.00000000 1.00000000 1.00000000
1.00000000 1.00000000 1.00000000
1.00000000 1.00000000 1.00000000
1.00000000 1.00000000 1.00000000
1.00000000 1.00000000 1.00000000
1.00000000 1.00000000 1.00000000
1.00000000 1.00000000 1.00000000
0.85303921 0.90191063 1.00000000
0.85316725 0.90162072 1.00000000
0.85441462 0.89798425 1.00000000
0.86566944 0.84429855 1.00000000
1.00000000 0.97029379 1.00000000
0.85336757 0.90245703 1.00000000
0.85327182 0.90198502 1.00000000
0.85448761 0.89837611 1.00000000
0.86568136 0.84494077 1.00000000
1.00000000 0.97033104 1.00000000
0.85826079 0.90889794 1.00000000
0.85807150 0.90849359 1.00000000
0.85611327 0.90292264 1.00000000
0.86569323 0.85294946 1.00000000
1.00000000 0.97089986 1.00000000
0.92738214 0.96558690 1.00000000
0.92700482 0.96532002 1.00000000
0.92251407 0.96159825 1.00000000
0.88298311 0.90996240 0.98732078
1.00000000 1.00000000 1.00000000
1.00000000 1.00000000 1.00000000
1.00000000 1.00000000 1.00000000
1.00000000 1.00000000 1.00000000
1.00000000 1.00000000 1.00000000
1.00000000 1.00000000 1.00000000
