Luts Download/Canon Luts/3dlut/17grid-3dlut/full-to-full-range/CinemaGamut_CanonLog3-to-BT2020_709WideDR_17_FF_Ver.2.0.cube
# Gamut : Cinema Gamut to BT.2020
# Gamma : Canon Log 3 to Wide DR
# Range : Full in / Full out
# Version : 2.0 2019/10/24
# Copyright(c) 2019 Canon Inc. All Rights Reserved.
LUT_3D_SIZE 5
# LUT_3D_INPUT_RANGE 0.0 1.0
0.00000000 0.00000000 0.00000000
0.21843911 0.01651280 0.02539615
0.65443360 0.00000000 0.03136087
0.89142890 0.07864754 0.00000000
1.00000000 0.21621018 0.00000000
0.07044299 0.19236793 0.03693390
0.22893327 0.24412409 0.01913593
0.67219697 0.24518173 0.01795582
0.91772577 0.26183931 0.09140964
1.00000000 0.35864004 0.17119286
0.22668216 0.57002205 0.01453927
0.30024190 0.60310756 0.00917206
0.63385728 0.67240507 0.00000000
1.00000000 0.61594376 0.22530176
1.00000000 0.68874792 0.53474814
0.38740930 0.79280540 0.01143252
0.41728458 0.82172763 0.02234657
0.55517687 0.92930026 0.00000000
0.88348208 0.93994614 0.20445653
1.00000000 0.90440916 0.71590018
0.49583551 0.93658624 0.01929295
0.51762744 0.96105477 0.04679002
0.70722244 1.00000000 0.40672962
0.91223437 1.00000000 0.75837603
1.00000000 1.00000000 1.00000000
0.01768239 0.00235773 0.16136612
0.19851474 0.00000000 0.21460686
0.63278184 0.00000000 0.24829791
0.89564734 0.00904798 0.09545827
1.00000000 0.19513613 0.00000000
0.02095637 0.23194322 0.22576741
0.23600832 0.23600832 0.23600832
0.68877579 0.19242371 0.22019948
0.92723847 0.22081866 0.16350289
1.00000000 0.34633730 0.17239319
0.17280195 0.68483976 0.02665330
0.27930149 0.70581344 0.00511258
0.67430578 0.71479840 0.00000000
1.00000000 0.63297326 0.27938830
1.00000000 0.70117079 0.55382517
0.40000440 0.86579348 0.00902229
0.43299008 0.88983618 0.02813754
0.56938971 0.97917008 0.00000000
0.91041343 0.96671751 0.30682869
1.00000000 0.92910328 0.78262379
0.54541771 0.98478238 0.12647255
0.59140653 0.99709816 0.22240708
0.79403099 1.00000000 0.57581817
0.96137318 1.00000000 0.87415390
1.00000000 1.00000000 1.00000000
0.07547546 0.00956373 0.50991058
0.14214728 0.00000000 0.46314083
0.56268628 0.00000000 0.56559519
0.85709072 0.00000000 0.44559647
1.00000000 0.09089196 0.21240044
0.00814361 0.12576003 0.58187935
0.11218385 0.01625248 0.60716574
0.61486074 0.01497559 0.62952868
0.91248316 0.03721207 0.46454192
1.00000000 0.23871719 0.28015893
0.00000000 0.65132756 0.63520639
0.15237953 0.66130363 0.64720724
0.65092930 0.65092930 0.65092930
0.94251483 0.63543201 0.63238539
1.00000000 0.70433125 0.65109016
0.48002684 0.92585315 0.33792635
0.52946451 0.93107118 0.37667565
0.71334020 0.95965616 0.52023541
0.92669341 0.97227177 0.56337822
1.00000000 0.96661824 0.89277037
0.78213303 1.00000000 0.58158882
0.81675203 1.00000000 0.64077008
0.94784715 1.00000000 0.86750778
1.00000000 1.00000000 1.00000000
1.00000000 1.00000000 1.00000000
0.05935641 0.02839153 0.74725394
0.08812029 0.00230379 0.70272758
0.43610232 0.00000000 0.82046527
0.78065326 0.00000000 0.75286339
0.99157080 0.00388750 0.54678547
0.04403458 0.07046832 0.83116480
0.07381712 0.02621641 0.78978800
0.43188622 0.00000000 0.89154362
0.81238352 0.00000000 0.78802538
1.00000000 0.03221631 0.55746350
0.16429333 0.51202344 0.97053133
0.25960998 0.53362164 0.95323927
0.57265226 0.58707874 0.94377469
0.94078758 0.53381742 0.92531547
1.00000000 0.63121559 0.76289548
0.07602206 0.90601935 0.88327634
0.22341680 0.91188419 0.89010551
0.60527765 0.92491695 0.91077307
0.91241619 0.91241619 0.91241619
1.00000000 0.94457773 0.94175496
0.76064738 1.00000000 0.64785596
0.79725059 1.00000000 0.69556453
0.93979813 1.00000000 0.89142442
1.00000000 1.00000000 1.00000000
1.00000000 1.00000000 1.00000000
0.01301180 0.02769410 0.92646053
0.01398857 0.02637596 0.87908844
0.20471448 0.04310364 0.99728333
0.61447876 0.03481991 1.00000000
0.91665155 0.00000000 0.87074653
0.03450661 0.07081743 0.97650236
0.02959780 0.04705428 0.94153556
0.18049356 0.00000000 1.00000000
0.61692020 0.00000000 1.00000000
0.93521813 0.00000000 0.89113158
0.25358817 0.42149721 1.00000000
0.29963248 0.45117577 1.00000000
0.48227207 0.56410127 1.00000000
0.76352524 0.57891867 1.00000000
1.00000000 0.56774148 0.94811637
0.51288771 0.76711446 1.00000000
0.54775320 0.78214317 1.00000000
0.70344094 0.84586918 1.00000000
0.87133538 0.88711258 1.00000000
1.00000000 0.91315146 0.99599332
0.58693152 1.00000000 0.98599599
0.64807134 1.00000000 0.98824740
0.87741796 1.00000000 1.00000000
1.00000000 1.00000000 1.00000000
1.00000000 1.00000000 1.00000000
