Luts Download/Canon Luts/3dlut/17grid-3dlut/full-to-full-range/CinemaGamut_CanonLog3-to-BT2020_HLGKnee-Vivid_17_FF_Ver.2.0.cube
# Gamut : Cinema Gamut to BT.2020
# Gamma : Canon Log 3 to HLGKnee-Vivid
# Range : Full in / Full out
# Version : 2.0 2019/10/24
# Copyright(c) 2019 Canon Inc. All Rights Reserved.
LUT_3D_SIZE 9
# LUT_3D_INPUT_RANGE 0.0 1.0
0.00000003 0.00000000 0.00000000
0.00000003 0.00000000 0.00000000
0.25524233 0.06264416 0.07904364
0.47754617 0.05705186 0.10883005
0.68838341 0.03810266 0.14940860
0.85070026 0.03719671 0.20353207
0.96238164 0.15507379 0.25259868
0.99901707 0.48140136 0.39220238
1.00000000 0.72096937 0.61834176
0.00000000 0.08222429 0.00000000
0.16644245 0.18164926 0.00000000
0.25524233 0.06264416 0.07904364
0.47754617 0.05705186 0.10883005
0.68838341 0.03810266 0.14940860
0.85070026 0.03719671 0.20353207
0.96238164 0.15507379 0.25259868
0.99901707 0.48140136 0.39220238
1.00000000 0.72096937 0.61834176
0.08167685 0.22333564 0.00000000
0.08167685 0.22333564 0.00000000
0.23781302 0.24962211 0.06548705
0.44222742 0.26840338 0.01148228
0.67690149 0.25657698 0.00000000
0.85047935 0.21833420 0.08631672
0.96613572 0.22318047 0.17879361
0.99958635 0.51589940 0.37970287
1.00000000 0.73144938 0.62215950
0.16896468 0.39310457 0.07603904
0.16896468 0.39310457 0.07603904
0.25826531 0.41412420 0.03158392
0.42314041 0.44554379 0.04616914
0.64382381 0.47446449 0.04996912
0.83171414 0.47411435 0.00000000
0.96093106 0.45089631 0.13455537
0.99954611 0.60016815 0.38845608
1.00000000 0.75872544 0.64090100
0.24754347 0.60396984 0.05434121
0.24754347 0.60396984 0.05434121
0.31614546 0.61137319 0.02334838
0.44451171 0.62950258 0.00000000
0.63321485 0.65534246 0.04540931
0.80796485 0.68024114 0.08263509
0.95042580 0.67832076 0.14131460
0.99903793 0.71727213 0.44157787
1.00000000 0.81270010 0.69062070
0.37563557 0.77528869 0.04858767
0.37563557 0.77528869 0.04858767
0.42599903 0.77713685 0.04377469
0.52085338 0.78426651 0.02618212
0.65237292 0.79949590 0.00000000
0.80138599 0.82187136 0.08212789
0.94178356 0.83515244 0.19558127
1.00000000 0.84302919 0.56437015
1.00000000 0.89304767 0.78465317
0.55667565 0.90743442 0.10182160
0.55667565 0.90743442 0.10182160
0.58203255 0.90805010 0.10574263
0.62778096 0.91108752 0.11035848
0.70206799 0.91948237 0.12075256
0.80958035 0.93644842 0.16924319
0.93667238 0.95742766 0.32453142
1.00000000 0.95764116 0.72520477
1.00000000 0.97952854 0.91128561
0.71007574 0.97332470 0.30971774
0.71007574 0.97332470 0.30971774
0.71845167 0.97373128 0.31602903
0.73663632 0.97551224 0.33223974
0.77359537 0.98077577 0.37304663
0.84346166 0.99105557 0.51384544
0.94150612 1.00000000 0.76633622
1.00000000 1.00000000 1.00000000
1.00000000 1.00000000 1.00000000
0.90190414 1.00000000 0.76961467
0.90190414 1.00000000 0.76961467
0.90463853 1.00000000 0.77442321
0.91152120 1.00000000 0.78722918
0.92723593 1.00000000 0.81793991
0.95778142 1.00000000 0.88025698
1.00000000 1.00000000 1.00000000
1.00000000 1.00000000 1.00000000
1.00000000 1.00000000 1.00000000
0.00000003 0.00000000 0.00000000
0.00000003 0.00000000 0.00000000
0.25524233 0.06264416 0.07904364
0.47754617 0.05705186 0.10883005
0.68838341 0.03810266 0.14940860
0.85070026 0.03719671 0.20353207
0.96238164 0.15507379 0.25259868
0.99901707 0.48140136 0.39220238
1.00000000 0.72096937 0.61834176
0.00000003 0.00000000 0.00000000
0.00000003 0.00000000 0.00000000
0.25524233 0.06264416 0.07904364
0.47754617 0.05705186 0.10883005
0.68838341 0.03810266 0.14940860
0.85070026 0.03719671 0.20353207
0.96238164 0.15507379 0.25259868
0.99901707 0.48140136 0.39220238
1.00000000 0.72096937 0.61834176
0.08167685 0.22333564 0.00000000
0.08167685 0.22333564 0.00000000
0.23781302 0.24962211 0.06548705
0.44222742 0.26840338 0.01148228
0.67690149 0.25657698 0.00000000
0.85047935 0.21833420 0.08631672
0.96613572 0.22318047 0.17879361
0.99958635 0.51589940 0.37970287
1.00000000 0.73144938 0.62215950
0.16896468 0.39310457 0.07603904
0.16896468 0.39310457 0.07603904
0.25826531 0.41412420 0.03158392
0.42314041 0.44554379 0.04616914
0.64382381 0.47446449 0.04996912
0.83171414 0.47411435 0.00000000
0.96093106 0.45089631 0.13455537
0.99954611 0.60016815 0.38845608
1.00000000 0.75872544 0.64090100
0.24754347 0.60396984 0.05434121
0.24754347 0.60396984 0.05434121
0.31614546 0.61137319 0.02334838
0.44451171 0.62950258 0.00000000
0.63321485 0.65534246 0.04540931
0.80796485 0.68024114 0.08263509
0.95042580 0.67832076 0.14131460
0.99903793 0.71727213 0.44157787
1.00000000 0.81270010 0.69062070
0.37563557 0.77528869 0.04858767
0.37563557 0.77528869 0.04858767
0.42599903 0.77713685 0.04377469
0.52085338 0.78426651 0.02618212
0.65237292 0.79949590 0.00000000
0.80138599 0.82187136 0.08212789
0.94178356 0.83515244 0.19558127
1.00000000 0.84302919 0.56437015
1.00000000 0.89304767 0.78465317
0.55667565 0.90743442 0.10182160
0.55667565 0.90743442 0.10182160
0.58203255 0.90805010 0.10574263
0.62778096 0.91108752 0.11035848
0.70206799 0.91948237 0.12075256
0.80958035 0.93644842 0.16924319
0.93667238 0.95742766 0.32453142
1.00000000 0.95764116 0.72520477
1.00000000 0.97952854 0.91128561
0.71007574 0.97332470 0.30971774
0.71007574 0.97332470 0.30971774
0.71845167 0.97373128 0.31602903
0.73663632 0.97551224 0.33223974
0.77359537 0.98077577 0.37304663
0.84346166 0.99105557 0.51384544
0.94150612 1.00000000 0.76633622
1.00000000 1.00000000 1.00000000
1.00000000 1.00000000 1.00000000
0.90190414 1.00000000 0.76961467
0.90190414 1.00000000 0.76961467
0.90463853 1.00000000 0.77442321
0.91152120 1.00000000 0.78722918
0.92723593 1.00000000 0.81793991
0.95778142 1.00000000 0.88025698
1.00000000 1.00000000 1.00000000
1.00000000 1.00000000 1.00000000
1.00000000 1.00000000 1.00000000
0.07665629 0.03168965 0.23002437
0.07665629 0.03168965 0.23002437
0.23354654 0.00000000 0.25083983
0.45215531 0.00000000 0.29449158
0.67784813 0.00000000 0.32975585
0.84586585 0.00000000 0.36371349
0.95989547 0.13043855 0.37074435
0.99900477 0.45899382 0.43093304
1.00000000 0.71577986 0.62198160
0.07665629 0.03168965 0.23002437
0.07665629 0.03168965 0.23002437
0.23354654 0.00000000 0.25083983
0.45215531 0.00000000 0.29449158
0.67784813 0.00000000 0.32975585
0.84586585 0.00000000 0.36371349
0.95989547 0.13043855 0.37074435
0.99900477 0.45899382 0.43093304
1.00000000 0.71577986 0.62198160
0.07039979 0.24436443 0.23956951
0.07039979 0.24436443 0.23956951
0.24181371 0.24181371 0.24181371
0.48286719 0.21042671 0.22941723
0.69103561 0.18397367 0.24145578
0.85439587 0.14044591 0.26933745
0.96580760 0.17894477 0.29808660
0.99974600 0.49474161 0.40927174
1.00000000 0.72553111 0.62430242
0.03169194 0.49105486 0.19449506
0.03169194 0.49105486 0.19449506
0.22052538 0.48756573 0.13851144
0.45028510 0.47146240 0.12343524
0.67652228 0.44903037 0.10915568
0.85170331 0.40376196 0.09560778
0.96851144 0.38492431 0.18144049
0.99944217 0.58773773 0.40736379
1.00000000 0.75386247 0.64284590
0.14760604 0.64770293 0.01050679
0.14760604 0.64770293 0.01050679
0.28365189 0.64965033 0.05500694
0.44189980 0.65805639 0.00000000
0.64586178 0.66792812 0.02867341
0.81930508 0.67666879 0.07593763
0.95681513 0.66597124 0.15928916
0.99908427 0.71352297 0.46149132
1.00000000 0.81005801 0.69315581
0.34431333 0.78985943 0.07543315
0.34431333 0.78985943 0.07543315
0.40082009 0.79118346 0.05836725
0.50764558 0.79686000 0.02850311
0.65237153 0.80878406 0.00000000
0.80566237 0.82618822 0.08346344
0.94567306 0.83495892 0.20836481
1.00000000 0.84308048 0.58081260
1.00000000 0.89242721 0.78781398
0.54257531 0.91340318 0.11192927
0.54257531 0.91340318 0.11192927
0.57040323 0.91392384 0.11358164
0.62033707 0.91663783 0.11770750
0.69945405 0.92428801 0.12890585
0.81029398 0.93987197 0.18029532
0.93832958 0.95912508 0.33837918
1.00000000 0.95841290 0.73541809
1.00000000 0.97974308 0.91412845
0.71148793 0.97599671 0.32604961
0.71148793 0.97599671 0.32604961
0.71984744 0.97637626 0.33195833
0.73812851 0.97805281 0.34789926
0.77554789 0.98296371 0.39010637
0.84787953 0.99195124 0.54540330
0.94350082 1.00000000 0.77741437
1.00000000 1.00000000 1.00000000
1.00000000 1.00000000 1.00000000
0.90608467 1.00000000 0.78144932
0.90608467 1.00000000 0.78144932
0.90859768 1.00000000 0.78576046
0.91522703 1.00000000 0.79789264
0.93052312 1.00000000 0.82748400
0.96035745 1.00000000 0.88787520
1.00000000 1.00000000 1.00000000
1.00000000 1.00000000 1.00000000
1.00000000 1.00000000 1.00000000
0.13416595 0.04483266 0.42219234
0.13416595 0.04483266 0.42219234
0.22198380 0.00000000 0.39029924
0.42026744 0.00000000 0.44352465
0.65530294 0.00000000 0.50867402
0.83242222 0.04877474 0.55804907
0.95249559 0.14263066 0.55882765
0.99698967 0.44691522 0.55849222
1.00000000 0.70916302 0.65917801
0.13416595 0.04483266 0.42219234
0.13416595 0.04483266 0.42219234
0.22198380 0.00000000 0.39029924
0.42026744 0.00000000 0.44352465
0.65530294 0.00000000 0.50867402
0.83242222 0.04877474 0.55804907
0.95249559 0.14263066 0.55882765
0.99698967 0.44691522 0.55849222
1.00000000 0.70916302 0.65917801
0.00000000 0.19126733 0.42255444
0.00000000 0.19126733 0.42255444
0.19911734 0.11032184 0.51895997
0.43858532 0.13539529 0.47200536
0.67229233 0.12289938 0.48748178
0.84294159 0.11568113 0.51425200
0.95868402 0.18331817 0.51820194
0.99802558 0.48032325 0.54445098
1.00000000 0.71856448 0.65818908
0.10261146 0.43736730 0.42813839
0.10261146 0.43736730 0.42813839
0.16811707 0.44670749 0.43935237
0.42987279 0.42987279 0.42987279
0.68131181 0.39115612 0.41408091
0.86191444 0.30231025 0.39785062
0.96836051 0.33388528 0.43711672
0.99894474 0.56732969 0.53092850
1.00000000 0.74366956 0.66421635
0.00000000 0.69063144 0.37786352
0.00000000 0.69063144 0.37786352
0.15105455 0.69182938 0.33859228
0.37691763 0.68890199 0.28561223
0.65695784 0.67391940 0.26916590
0.84573673 0.64719688 0.24389328
0.97143038 0.62034129 0.31378025
1.00000000 0.69662524 0.53247639
1.00000000 0.79964811 0.69513638
0.02795720 0.83156202 0.05985289
0.02795720 0.83156202 0.05985289
0.31132895 0.82926644 0.14033427
0.45308794 0.83197442 0.06503122
0.65010711 0.83529753 0.00000000
0.81782620 0.83833074 0.06996950
0.95598054 0.83445980 0.23106050
1.00000000 0.84268904 0.61081753
1.00000000 0.89006637 0.79201301
0.50851326 0.92956542 0.15979261
0.50851326 0.92956542 0.15979261
0.54207198 0.93002686 0.15096708
0.60296300 0.93204083 0.14596629
0.69464021 0.93776874 0.15299523
0.81367750 0.94954414 0.20878663
0.94315112 0.96403249 0.38888612
1.00000000 0.96092092 0.76230455
1.00000000 0.98046242 0.92031793
0.72037620 0.98318531 0.37666004
0.72037620 0.98318531 0.37666004
0.72877196 0.98344987 0.38226691
0.74731920 0.98475177 0.39968464
0.78609815 0.98842429 0.45111834
0.86090286 0.99440808 0.61557297
0.94989490 1.00000000 0.80948613
1.00000000 1.00000000 1.00000000
1.00000000 1.00000000 1.00000000
0.91716779 1.00000000 0.81029501
0.91716779 1.00000000 0.81029501
0.91940825 1.00000000 0.81404171
0.92528943 1.00000000 0.82458778
0.93944713 1.00000000 0.85145174
0.96702967 1.00000000 0.90608738
1.00000000 1.00000000 1.00000000
1.00000000 1.00000000 1.00000000
1.00000000 1.00000000 1.00000000
0.20377783 0.05305126 0.63628958
0.20377783 0.05305126 0.63628958
0.25762560 0.00000000 0.58594941
0.39741546 0.00000000 0.58352282
0.63270254 0.00000000 0.64636422
0.81526704 0.04720125 0.69921344
0.94036255 0.15394141 0.70718585
0.99365382 0.41908699 0.67910906
1.00000000 0.69996181 0.72068774
0.20377783 0.05305126 0.63628958
0.20377783 0.05305126 0.63628958
0.25762560 0.00000000 0.58594941
0.39741546 0.00000000 0.58352282
0.63270254 0.00000000 0.64636422
0.81526704 0.04720125 0.69921344
0.94036255 0.15394141 0.70718585
0.99365382 0.41908699 0.67910906
1.00000000 0.69996181 0.72068774
0.09278169 0.15050838 0.65247784
0.09278169 0.15050838 0.65247784
0.19393861 0.00548268 0.63968497
0.36514986 0.00000000 0.62071535
0.63920211 0.00000000 0.66293387
0.82501338 0.00000000 0.69561211
0.94736407 0.13544880 0.69409764
0.99536279 0.44069891 0.66973073
1.00000000 0.70977535 0.72057291
0.00000000 0.36024742 0.61771154
0.00000000 0.36024742 0.61771154
0.06551048 0.33276255 0.66458000
0.38032098 0.29271429 0.70585319
0.66212045 0.25173608 0.69709833
0.83792575 0.25811045 0.68345731
0.95906200 0.28389073 0.67192867
0.99721525 0.53518849 0.66510947
1.00000000 0.73650510 0.72691245
0.15559535 0.64698979 0.63761717
0.15559535 0.64698979 0.63761717
0.18466819 0.65067343 0.64233642
0.33886000 0.65382270 0.64769130
0.63952564 0.63952564 0.63952564
0.84311433 0.60412950 0.62555243
0.96805094 0.58279974 0.62845043
0.99762382 0.68103682 0.67416938
1.00000000 0.79328551 0.75183080
0.03569953 0.85061074 0.59394346
0.03569953 0.85061074 0.59394346
0.11907966 0.85181463 0.57509493
0.29281798 0.85304393 0.54009275
0.58659660 0.85056756 0.48284923
0.82235130 0.83703076 0.45947056
0.98215194 0.80567858 0.44558866
1.00000000 0.83403864 0.71719970
1.00000000 0.88387536 0.81785708
0.41605881 0.96698108 0.33321524
0.41605881 0.96698108 0.33321524
0.04807997 0.97508398 0.04076385
0.53639467 0.96938779 0.26740076
0.66996748 0.97188069 0.23157207
0.81769946 0.97468665 0.27317644
0.95547115 0.97612747 0.48514274
1.00000000 0.96655296 0.80797134
1.00000000 0.98170832 0.92953000
0.77780669 0.99456129 0.58656696
0.77780669 0.99456129 0.58656696
0.78398923 0.99469979 0.58989455
0.79948779 0.99527017 0.60384081
0.83232912 0.99666795 0.64267332
0.89092900 1.00000000 0.73177351
0.96478933 1.00000000 0.87038040
1.00000000 1.00000000 1.00000000
1.00000000 1.00000000 1.00000000
0.94230594 1.00000000 0.87017561
0.94230594 1.00000000 0.87017561
0.94403846 1.00000000 0.87292263
0.94855732 1.00000000 0.88059654
0.95929145 1.00000000 0.90009910
0.97922627 1.00000000 0.93878035
1.00000000 1.00000000 1.00000000
1.00000000 1.00000000 1.00000000
1.00000000 1.00000000 1.00000000
0.29334902 0.05603932 0.80474685
0.29334902 0.05603932 0.80474685
0.33532236 0.06858263 0.77379266
0.40632764 0.00000000 0.72392959
0.60529120 0.00000000 0.74327980
0.79647907 0.00000000 0.80138583
0.92555193 0.12758378 0.81821343
0.98908588 0.36019923 0.78403448
1.00000000 0.68004520 0.78826228
0.29334902 0.05603932 0.80474685
0.29334902 0.05603932 0.80474685
0.33532236 0.06858263 0.77379266
0.40632764 0.00000000 0.72392959
0.60529120 0.00000000 0.74327980
0.79647907 0.00000000 0.80138583
0.92555193 0.12758378 0.81821343
0.98908588 0.36019923 0.78403448
1.00000000 0.68004520 0.78826228
0.22859917 0.10295683 0.82125904
0.22859917 0.10295683 0.82125904
0.28558296 0.06446695 0.80008484
0.37605380 0.00000000 0.75044301
0.59510551 0.00000000 0.75181267
0.79898008 0.00000000 0.80489000
0.92952735 0.08603342 0.81722373
0.99058142 0.36742664 0.78003023
1.00000000 0.68428711 0.78531222
0.00000000 0.31644415 0.79625385
0.00000000 0.31644415 0.79625385
0.11094955 0.23658356 0.82174168
0.29243318 0.00000000 0.81006587
0.57776541 0.00000000 0.80100212
0.80458789 0.00000000 0.82686816
0.94083122 0.13116432 0.81956172
0.99409077 0.43668815 0.77604854
1.00000000 0.70981731 0.78822681
0.00000000 0.56711105 0.77816144
0.00000000 0.56711105 0.77816144
0.00000000 0.55693457 0.80183940
0.22881285 0.53553475 0.84180784
0.59449803 0.49588805 0.86423682
0.82626844 0.44134237 0.85767843
0.95854563 0.46906582 0.82015999
0.99702163 0.63075102 0.78321580
1.00000000 0.77474598 0.80812385
0.23566744 0.81294262 0.80421742
0.23566744 0.81294262 0.80421742
0.24107174 0.81470578 0.80643814
0.31501028 0.81774781 0.81047094
0.54819525 0.81941763 0.81412964
0.80706646 0.80706646 0.80706646
0.97005908 0.78063084 0.79406269
0.99481761 0.82040951 0.82095767
1.00000000 0.87797262 0.86429364
0.45253431 0.97096764 0.76735006
0.45253431 0.97096764 0.76735006
0.46768401 0.97164020 0.76249333
0.51941495 0.97302907 0.75402436
0.63852997 0.97449178 0.74229060
0.77116022 0.98055631 0.69649219
0.95739873 0.97130147 0.68137680
1.00000000 0.96248457 0.89235439
1.00000000 0.98685573 0.96288942
0.86960526 1.00000000 0.80423146
0.86960526 1.00000000 0.80423146
0.87267273 1.00000000 0.80465900
0.88055918 1.00000000 0.80822393
0.89860727 1.00000000 0.82127249
0.93340654 1.00000000 0.85882346
1.00000000 1.00000000 1.00000000
1.00000000 1.00000000 1.00000000
1.00000000 1.00000000 1.00000000
1.00000000 1.00000000 1.00000000
1.00000000 1.00000000 1.00000000
1.00000000 1.00000000 1.00000000
1.00000000 1.00000000 1.00000000
1.00000000 1.00000000 1.00000000
1.00000000 1.00000000 1.00000000
1.00000000 1.00000000 1.00000000
1.00000000 1.00000000 1.00000000
1.00000000 1.00000000 1.00000000
0.34843256 0.07120013 0.90340050
0.34843256 0.07120013 0.90340050
0.37861651 0.09545912 0.88708453
0.43340519 0.08547245 0.85486335
0.54472890 0.00000000 0.81929785
0.76142579 0.00000000 0.87094794
0.90687545 0.09146563 0.90473906
0.98031662 0.28761746 0.87766109
1.00000000 0.64090960 0.85590302
0.34843256 0.07120013 0.90340050
0.34843256 0.07120013 0.90340050
0.37861651 0.09545912 0.88708453
0.43340519 0.08547245 0.85486335
0.54472890 0.00000000 0.81929785
0.76142579 0.00000000 0.87094794
0.90687545 0.09146563 0.90473906
0.98031662 0.28761746 0.87766109
1.00000000 0.64090960 0.85590302
0.31262752 0.07488922 0.91773104
0.31262752 0.07488922 0.91773104
0.34806127 0.08581987 0.90347731
0.41011200 0.06861551 0.87201125
0.52345927 0.00000000 0.82790936
0.75863948 0.00000000 0.87417407
0.90791553 0.06020433 0.90598648
0.98120833 0.28924326 0.87686970
1.00000000 0.64422057 0.85463460
0.21886446 0.21830433 0.93086263
0.21886446 0.21830433 0.93086263
0.26681903 0.17821889 0.92691125
0.34958515 0.10604279 0.90608062
0.48676439 0.00000000 0.86032542
0.75281674 0.00000000 0.88760563
0.91283925 0.00000000 0.91244159
0.98471441 0.28155080 0.87631288
1.00000000 0.65252295 0.85215793
0.00000000 0.51210398 0.89626538
0.00000000 0.51210398 0.89626538
0.00000000 0.47800914 0.91006724
0.10797700 0.37635717 0.93555393
0.44641379 0.17393766 0.93264120
0.75587287 0.21268292 0.94349512
0.92580667 0.24938510 0.94267074
0.99128738 0.48390677 0.88261139
1.00000000 0.72064475 0.86063990
0.00000000 0.75198106 0.91523547
0.00000000 0.75198106 0.91523547
0.00000000 0.74994875 0.92491577
0.16274387 0.74619702 0.94477308
0.51053287 0.73921696 0.96141701
0.77308462 0.73623081 0.96027315
0.93995772 0.72551425 0.95711009
0.99529543 0.76915717 0.90071301
1.00000000 0.84894766 0.89834125
0.43209717 0.94267506 0.93416859
0.43209717 0.94267506 0.93416859
0.44317599 0.94330176 0.93500898
0.48890149 0.94468615 0.93686715
0.60892160 0.94666066 0.93987227
0.73888930 0.95374648 0.94884432
0.94441540 0.94441540 0.94441540
0.99888204 0.95364287 0.95449597
1.00000000 0.98540390 0.98396855
0.87328317 1.00000000 0.91305752
0.87328317 1.00000000 0.91305752
0.87588349 1.00000000 0.91341984
0.88289397 1.00000000 0.91521935
0.90009397 1.00000000 0.92128879
0.93666655 1.00000000 0.93955251
1.00000000 1.00000000 1.00000000
1.00000000 1.00000000 1.00000000
1.00000000 1.00000000 1.00000000
1.00000000 1.00000000 1.00000000
1.00000000 1.00000000 1.00000000
1.00000000 1.00000000 1.00000000
1.00000000 1.00000000 1.00000000
1.00000000 1.00000000 1.00000000
1.00000000 1.00000000 1.00000000
1.00000000 1.00000000 1.00000000
1.00000000 1.00000000 1.00000000
1.00000000 1.00000000 1.00000000
0.39527441 0.16207288 0.97206345
0.39527441 0.16207288 0.97206345
0.41390463 0.16844874 0.96384210
0.44884309 0.16699571 0.94598501
0.51032985 0.08215832 0.91231644
0.69593677 0.00000000 0.92571009
0.86993229 0.04285764 0.96364130
0.96253457 0.26561030 0.95352472
1.00000000 0.60259780 0.92613715
0.39527441 0.16207288 0.97206345
0.39527441 0.16207288 0.97206345
0.41390463 0.16844874 0.96384210
0.44884309 0.16699571 0.94598501
0.51032985 0.08215832 0.91231644
0.69593677 0.00000000 0.92571009
0.86993229 0.04285764 0.96364130
0.96253457 0.26561030 0.95352472
1.00000000 0.60259780 0.92613715
0.37526495 0.16901592 0.97899290
0.37526495 0.16901592 0.97899290
0.39553043 0.17160060 0.97149268
0.43267956 0.16699596 0.95417230
0.49816102 0.08504769 0.92003669
0.68849887 0.00000000 0.92884537
0.86919487 0.00000000 0.96500547
0.96276567 0.26639214 0.95372817
1.00000000 0.60514223 0.92569044
0.33194506 0.24973851 0.98497977
0.33194506 0.24973851 0.98497977
0.35371279 0.22939402 0.98166058
0.39726727 0.19931971 0.96944916
0.47277360 0.11483232 0.93786549
0.66798956 0.00000000 0.93735144
0.86812538 0.00000000 0.96974394
0.96386894 0.26191733 0.95490496
1.00000000 0.61174377 0.92491016
0.24010164 0.45119820 0.97824686
0.24010164 0.45119820 0.97824686
0.26264373 0.42665283 0.98087204
0.31155410 0.37251753 0.98080517
0.40442336 0.24565071 0.96811243
0.62638272 0.00000000 0.96532505
0.87047072 0.00000000 0.98695132
0.96858161 0.31089789 0.96105045
1.00000000 0.64950082 0.92473186
0.10981439 0.68875371 0.97562003
0.10981439 0.68875371 0.97562003
0.11792073 0.68194888 0.97943666
0.14118852 0.66365196 0.98664567
0.34494798 0.65970764 0.98448453
0.69577304 0.67732696 0.98489555
0.88156719 0.69772676 0.99980314
0.97464160 0.71977523 0.97229376
1.00000000 0.81209471 0.94276385
0.58719848 0.89623847 0.99882900
0.58719848 0.89623847 0.99882900
0.60496187 0.89580940 0.99977137
0.64435335 0.89563675 1.00000000
0.71776177 0.89653710 1.00000000
0.82323274 0.90243569 0.99824783
0.92652675 0.92154046 0.99640587
0.98878561 0.93460100 0.98960044
1.00000000 0.97059695 0.99363895
0.83546340 0.98924507 0.98280386
0.83546340 0.98924507 0.98280386
0.83880455 0.98933416 0.98301077
0.84781902 0.98972383 0.98369021
0.86926511 0.99089132 0.98554142
0.91442988 0.99406039 0.99027006
0.98378568 1.00000000 1.00000000
1.00000000 1.00000000 1.00000000
1.00000000 1.00000000 1.00000000
1.00000000 1.00000000 1.00000000
1.00000000 1.00000000 1.00000000
1.00000000 1.00000000 1.00000000
1.00000000 1.00000000 1.00000000
1.00000000 1.00000000 1.00000000
1.00000000 1.00000000 1.00000000
1.00000000 1.00000000 1.00000000
1.00000000 1.00000000 1.00000000
1.00000000 1.00000000 1.00000000
0.48218615 0.39466157 1.00000000
0.48218615 0.39466157 1.00000000
0.49248801 0.38889447 1.00000000
0.51160748 0.37287660 1.00000000
0.54514324 0.33441466 0.99722468
0.59755702 0.04530175 0.98154869
0.80754307 0.00000000 1.00000000
0.92517015 0.26458790 1.00000000
1.00000000 0.55328116 0.99267965
0.48218615 0.39466157 1.00000000
0.48218615 0.39466157 1.00000000
0.49248801 0.38889447 1.00000000
0.51160748 0.37287660 1.00000000
0.54514324 0.33441466 0.99722468
0.59755702 0.04530175 0.98154869
0.80754307 0.00000000 1.00000000
0.92517015 0.26458790 1.00000000
1.00000000 0.55328116 0.99267965
0.47293971 0.40787067 1.00000000
0.47293971 0.40787067 1.00000000
0.48279406 0.40015825 1.00000000
0.50272375 0.38259667 1.00000000
0.53805394 0.34114851 1.00000000
0.59328642 0.08528465 0.98421786
0.80467956 0.00000000 1.00000000
0.92458978 0.26579122 1.00000000
1.00000000 0.55515618 0.99249925
0.45519488 0.44768475 1.00000000
0.45519488 0.44768475 1.00000000
0.46547656 0.43800797 1.00000000
0.48493526 0.41507442 1.00000000
0.52348677 0.36615003 1.00000000
0.58009463 0.12525068 0.98844101
0.79765212 0.00000000 1.00000000
0.92328898 0.26616631 1.00000000
1.00000000 0.56024164 0.99203720
0.42679393 0.54369431 1.00000000
0.42679393 0.54369431 1.00000000
0.43607268 0.53439443 1.00000000
0.45404430 0.51019527 1.00000000
0.49158289 0.44946838 1.00000000
0.55794132 0.26636036 0.99447449
0.77811615 0.00000000 1.00000000
0.91969102 0.27043806 1.00000000
1.00000000 0.57893976 0.98960571
0.41349107 0.68108180 1.00000000
0.41349107 0.68108180 1.00000000
0.41974551 0.67667444 1.00000000
0.43200831 0.66483753 1.00000000
0.45847815 0.63146816 1.00000000
0.51262500 0.52491039 0.98934532
0.77799406 0.60515103 1.00000000
0.92379270 0.64412120 0.99362353
1.00000000 0.74526259 0.98353493
0.56337052 0.83514600 1.00000000
0.56337052 0.83514600 1.00000000
0.56533470 0.83368176 1.00000000
0.57681121 0.83211618 1.00000000
0.64096134 0.84130563 1.00000000
0.74170791 0.86135797 1.00000000
0.87350551 0.88407611 1.00000000
0.95480226 0.90202835 0.99926818
1.00000000 0.94056623 1.00000000
0.83000934 0.94894115 1.00000000
0.83000934 0.94894115 1.00000000
0.83336917 0.94904842 1.00000000
0.84201614 0.94979009 1.00000000
0.86207913 0.95229432 0.99995381
0.90211852 0.95999049 0.99987352
0.96116080 0.98056062 1.00000000
1.00000000 1.00000000 1.00000000
1.00000000 1.00000000 1.00000000
1.00000000 1.00000000 1.00000000
1.00000000 1.00000000 1.00000000
1.00000000 1.00000000 1.00000000
1.00000000 1.00000000 1.00000000
1.00000000 1.00000000 1.00000000
1.00000000 1.00000000 1.00000000
1.00000000 1.00000000 1.00000000
1.00000000 1.00000000 1.00000000
1.00000000 1.00000000 1.00000000
