Luts Download/Canon Luts/3dlut/17grid-3dlut/full-to-full-range/CinemaGamut_CanonLog2-to-BT2020_HLG-Vivid_17_FF_Ver.2.0.cube
# Gamut : Cinema Gamut to BT.2020
# Gamma : Canon Log 2 to HLG-Vivid
# Range : Full in / Full out
# Version : 2.0 2019/10/24
# Copyright(c) 2019 Canon Inc. All Rights Reserved.
LUT_3D_SIZE 17
# LUT_3D_INPUT_RANGE 0.0 1.0
0.00000004 0.00000000 0.00000003
0.00000004 0.00000000 0.00000003
0.02636438 0.02636435 0.02636437
0.10016120 0.03337766 0.03725168
0.17448818 0.03584898 0.04476786
0.26524102 0.02984874 0.04789263
0.37821650 0.01953699 0.05202159
0.52240174 0.00000000 0.05822405
0.65893144 0.00000000 0.06948187
0.77623659 0.03651916 0.09227763
0.88157897 0.10799972 0.13269126
0.96969547 0.26541613 0.22012492
1.00000000 0.59488191 0.45499182
1.00000000 0.78363224 0.69483797
1.00000000 0.89785567 0.84701955
1.00000000 0.98029911 0.95650011
1.00000000 1.00000000 1.00000000
0.00000004 0.00000000 0.00000003
0.03758342 0.04767181 0.00000000
0.02636438 0.02636435 0.02636437
0.10016120 0.03337766 0.03725168
0.17448818 0.03584898 0.04476786
0.26524102 0.02984874 0.04789263
0.37821650 0.01953699 0.05202159
0.52240174 0.00000000 0.05822405
0.65893144 0.00000000 0.06948187
0.77623659 0.03651916 0.09227763
0.88157897 0.10799972 0.13269126
0.96969547 0.26541613 0.22012492
1.00000000 0.59488191 0.45499182
1.00000000 0.78363224 0.69483797
1.00000000 0.89785567 0.84701955
1.00000000 0.98029911 0.95650011
1.00000000 1.00000000 1.00000000
0.02636438 0.02636435 0.02636437
0.02636438 0.02636435 0.02636437
0.04102507 0.04159222 0.03480652
0.10651846 0.05372771 0.03910510
0.17506708 0.05967016 0.04156369
0.26489775 0.05565278 0.04213706
0.37861695 0.04601718 0.04471154
0.52395794 0.02908435 0.05014178
0.66045851 0.01186779 0.06196591
0.77770943 0.04038213 0.08569491
0.88289544 0.10725755 0.12748662
0.97074175 0.26463215 0.21659774
1.00000000 0.59546263 0.45369659
1.00000000 0.78409851 0.69487005
1.00000000 0.89816618 0.84727035
1.00000000 0.98049146 0.95672619
1.00000000 1.00000000 1.00000000
0.04410237 0.08639374 0.03245354
0.04410237 0.08639374 0.03245354
0.05797549 0.10190571 0.03484171
0.10558601 0.11161718 0.03054312
0.17238296 0.11556228 0.02658058
0.26113157 0.11309423 0.02447645
0.37643577 0.10395503 0.02468555
0.52371325 0.08942207 0.03141730
0.66241355 0.07133274 0.04448044
0.78067063 0.06624846 0.06934619
0.88589770 0.11375283 0.11434548
0.97309445 0.26723205 0.20821307
1.00000000 0.59841773 0.45109320
1.00000000 0.78574050 0.69533658
1.00000000 0.89916825 0.84815777
1.00000000 0.98109542 0.95746710
1.00000000 1.00000000 1.00000000
0.06261657 0.15069104 0.03277956
0.06261657 0.15069104 0.03277956
0.07156924 0.15810665 0.02943728
0.10758317 0.16792767 0.02118993
0.16509037 0.17559586 0.01604928
0.24792015 0.17895684 0.01432904
0.36154315 0.17602295 0.01615686
0.51231591 0.16530003 0.02166572
0.65844523 0.14676190 0.03221133
0.78128387 0.12678516 0.05320064
0.88846023 0.14523168 0.09878782
0.97468636 0.28650779 0.20085825
1.00000000 0.60647640 0.44992932
1.00000000 0.78915174 0.69704766
1.00000000 0.90105864 0.84999691
1.00000000 0.98219782 0.95886953
1.00000000 1.00000000 1.00000000
0.08136543 0.22031967 0.02824928
0.08136543 0.22031967 0.02824928
0.08889299 0.22471154 0.02474160
0.11652431 0.23330536 0.01717977
0.16359673 0.24305769 0.01105297
0.23664676 0.25198301 0.00799376
0.34327222 0.25668557 0.00949468
0.49223705 0.25393101 0.01491843
0.64767639 0.24159611 0.02561489
0.77636756 0.22250227 0.04542160
0.88774685 0.22105837 0.08877933
0.97479923 0.33272227 0.19594789
1.00000000 0.62324121 0.45201590
1.00000000 0.79573140 0.70120941
1.00000000 0.90454282 0.85362702
1.00000000 0.98403353 0.96131924
1.00000000 1.00000000 1.00000000
0.10715759 0.30817898 0.02282627
0.10715759 0.30817898 0.02282627
0.11360200 0.31100387 0.02040608
0.13522443 0.31794482 0.01460883
0.17289918 0.32757241 0.00858917
0.23428956 0.33932770 0.00239345
0.32925236 0.35082554 0.00255065
0.46886925 0.35752817 0.01018842
0.63073518 0.35548163 0.02163944
0.76596795 0.34392439 0.04307647
0.88253920 0.33844764 0.08692123
0.97390589 0.41607843 0.19575594
1.00000000 0.65420352 0.46210287
1.00000000 0.80817060 0.71046560
1.00000000 0.91095241 0.86066412
1.00000000 0.98535077 0.96380118
1.00000000 1.00000000 1.00000000
0.14429636 0.42297498 0.01968783
0.14429636 0.42297498 0.01968783
0.14961091 0.42491887 0.01841928
0.16655968 0.43030392 0.01506757
0.19629020 0.43873292 0.01119420
0.24617970 0.45088747 0.00625277
0.32674042 0.46613209 0.00158234
0.45165481 0.48158584 0.00842125
0.61106794 0.49137817 0.02139977
0.75082525 0.49219012 0.04386628
0.87297377 0.49110517 0.09023281
0.97102753 0.53927721 0.19842161
1.00000000 0.70203956 0.48573666
1.00000000 0.83097892 0.72999029
1.00000000 0.92378262 0.87523308
1.00000000 0.98743017 0.96783065
1.00000000 1.00000000 1.00000000
0.19772112 0.56667775 0.02330813
0.19772112 0.56667775 0.02330813
0.20194615 0.56779502 0.02296091
0.21512257 0.57098837 0.02205408
0.23826834 0.57638834 0.02025069
0.27783399 0.58456399 0.01867633
0.34368236 0.59629008 0.01651145
0.44991963 0.61055979 0.01771569
0.59663744 0.62488271 0.02815792
0.73405686 0.63471583 0.05198998
0.85949385 0.64156000 0.10052267
0.96399257 0.66527672 0.21325520
1.00000000 0.76513532 0.52789673
1.00000000 0.86526954 0.76241968
1.00000000 0.94415915 0.89892734
1.00000000 1.00000000 1.00000000
1.00000000 1.00000000 1.00000000
0.27636891 0.69555762 0.04250427
0.27636891 0.69555762 0.04250427
0.27961388 0.69608441 0.04262077
0.28965390 0.69764979 0.04297256
0.30738190 0.70038895 0.04334081
0.33804482 0.70505016 0.04292134
0.39014970 0.71219250 0.04373693
0.47677789 0.72261813 0.04522238
0.59790193 0.73566961 0.05300015
0.72342641 0.74966622 0.07624662
0.84527325 0.76130233 0.12915071
0.95275318 0.77928878 0.25315276
1.00000000 0.83900311 0.59332327
1.00000000 0.91112434 0.81096012
1.00000000 0.97411786 0.93512751
1.00000000 1.00000000 1.00000000
1.00000000 1.00000000 1.00000000
0.40071350 0.81149196 0.09528035
0.40071350 0.81149196 0.09528035
0.40311335 0.81175167 0.09556499
0.41054066 0.81253813 0.09644612
0.42371112 0.81394231 0.09781575
0.44677211 0.81641337 0.09971293
0.48647176 0.82064863 0.10174699
0.54952361 0.82735941 0.10714123
0.63158555 0.83726356 0.11703216
0.73024114 0.85014046 0.14120834
0.83961483 0.86543963 0.20018804
0.94258513 0.88125915 0.34193182
1.00000000 0.91648376 0.68668795
1.00000000 0.96497882 0.87844901
1.00000000 1.00000000 1.00000000
1.00000000 1.00000000 1.00000000
1.00000000 1.00000000 1.00000000
0.60260218 0.91648892 0.23367907
0.60260218 0.91648892 0.23367907
0.60380207 0.91660893 0.23412311
0.60747654 0.91697570 0.23550039
0.61388764 0.91764304 0.23780631
0.62487632 0.91884644 0.24162443
0.64315456 0.92098561 0.24778676
0.67245009 0.92485949 0.25764982
0.71675246 0.93110618 0.27718483
0.77870022 0.94059963 0.31300052
0.85770324 0.95370156 0.38749907
0.94646653 0.97147315 0.55646913
1.00000000 0.98924700 0.81962642
1.00000000 1.00000000 1.00000000
1.00000000 1.00000000 1.00000000
1.00000000 1.00000000 1.00000000
1.00000000 1.00000000 1.00000000
0.82037478 0.99705358 0.61625618
0.82037478 0.99705358 0.61625618
0.82080457 0.99707411 0.61687028
0.82211501 0.99713959 0.61872693
0.82441317 0.99727385 0.62191021
0.82843283 0.99753404 0.62740414
0.83535657 0.99802757 0.63678464
0.84699571 0.99896005 0.65254258
0.86661588 1.00000000 0.67985342
0.89604291 1.00000000 0.72334520
0.93662027 1.00000000 0.78843572
1.00000000 1.00000000 1.00000000
1.00000000 1.00000000 1.00000000
1.00000000 1.00000000 1.00000000
1.00000000 1.00000000 1.00000000
1.00000000 1.00000000 1.00000000
1.00000000 1.00000000 1.00000000
1.00000000 1.00000000 1.00000000
1.00000000 1.00000000 1.00000000
1.00000000 1.00000000 1.00000000
1.00000000 1.00000000 1.00000000
1.00000000 1.00000000 1.00000000
1.00000000 1.00000000 1.00000000
1.00000000 1.00000000 1.00000000
1.00000000 1.00000000 1.00000000
1.00000000 1.00000000 1.00000000
1.00000000 1.00000000 1.00000000
1.00000000 1.00000000 1.00000000
1.00000000 1.00000000 1.00000000
1.00000000 1.00000000 1.00000000
1.00000000 1.00000000 1.00000000
1.00000000 1.00000000 1.00000000
1.00000000 1.00000000 1.00000000
1.00000000 1.00000000 1.00000000
1.00000000 1.00000000 1.00000000
1.00000000 1.00000000 1.00000000
1.00000000 1.00000000 1.00000000
1.00000000 1.00000000 1.00000000
1.00000000 1.00000000 1.00000000
1.00000000 1.00000000 1.00000000
1.00000000 1.00000000 1.00000000
1.00000000 1.00000000 1.00000000
1.00000000 1.00000000 1.00000000
1.00000000 1.00000000 1.00000000
1.00000000 1.00000000 1.00000000
1.00000000 1.00000000 1.00000000
1.00000000 1.00000000 1.00000000
1.00000000 1.00000000 1.00000000
1.00000000 1.00000000 1.00000000
1.00000000 1.00000000 1.00000000
1.00000000 1.00000000 1.00000000
1.00000000 1.00000000 1.00000000
1.00000000 1.00000000 1.00000000
1.00000000 1.00000000 1.00000000
1.00000000 1.00000000 1.00000000
1.00000000 1.00000000 1.00000000
1.00000000 1.00000000 1.00000000
1.00000000 1.00000000 1.00000000
1.00000000 1.00000000 1.00000000
1.00000000 1.00000000 1.00000000
1.00000000 1.00000000 1.00000000
1.00000000 1.00000000 1.00000000
1.00000000 1.00000000 1.00000000
1.00000000 1.00000000 1.00000000
1.00000000 1.00000000 1.00000000
1.00000000 1.00000000 1.00000000
1.00000000 1.00000000 1.00000000
1.00000000 1.00000000 1.00000000
1.00000000 1.00000000 1.00000000
1.00000000 1.00000000 1.00000000
1.00000000 1.00000000 1.00000000
1.00000000 1.00000000 1.00000000
1.00000000 1.00000000 1.00000000
1.00000000 1.00000000 1.00000000
1.00000000 1.00000000 1.00000000
1.00000000 1.00000000 1.00000000
1.00000000 1.00000000 1.00000000
1.00000000 1.00000000 1.00000000
1.00000000 1.00000000 1.00000000
1.00000000 1.00000000 1.00000000
1.00000000 1.00000000 1.00000000
1.00000000 1.00000000 1.00000000
1.00000000 1.00000000 1.00000000
1.00000000 1.00000000 1.00000000
1.00000000 1.00000000 1.00000000
0.00000004 0.00000000 0.00000003
0.00000004 0.00000000 0.00000003
0.02636438 0.02636435 0.02636437
0.10016120 0.03337766 0.03725168
0.17448818 0.03584898 0.04476786
0.26524102 0.02984874 0.04789263
0.37821650 0.01953699 0.05202159
0.52240174 0.00000000 0.05822405
0.65893144 0.00000000 0.06948187
0.77623659 0.03651916 0.09227763
0.88157897 0.10799972 0.13269126
0.96969547 0.26541613 0.22012492
1.00000000 0.59488191 0.45499182
1.00000000 0.78363224 0.69483797
1.00000000 0.89785567 0.84701955
1.00000000 0.98029911 0.95650011
1.00000000 1.00000000 1.00000000
0.00000004 0.00000000 0.00000003
0.00000004 0.00000000 0.00000003
0.02636438 0.02636435 0.02636437
0.10016120 0.03337766 0.03725168
0.17448818 0.03584898 0.04476786
0.26524102 0.02984874 0.04789263
0.37821650 0.01953699 0.05202159
0.52240174 0.00000000 0.05822405
0.65893144 0.00000000 0.06948187
0.77623659 0.03651916 0.09227763
0.88157897 0.10799972 0.13269126
0.96969547 0.26541613 0.22012492
1.00000000 0.59488191 0.45499182
1.00000000 0.78363224 0.69483797
1.00000000 0.89785567 0.84701955
1.00000000 0.98029911 0.95650011
1.00000000 1.00000000 1.00000000
0.02636438 0.02636435 0.02636437
0.02636438 0.02636435 0.02636437
0.04102507 0.04159222 0.03480652
0.10651846 0.05372771 0.03910510
0.17506708 0.05967016 0.04156369
0.26489775 0.05565278 0.04213706
0.37861695 0.04601718 0.04471154
0.52395794 0.02908435 0.05014178
0.66045851 0.01186779 0.06196591
0.77770943 0.04038213 0.08569491
0.88289544 0.10725755 0.12748662
0.97074175 0.26463215 0.21659774
1.00000000 0.59546263 0.45369659
1.00000000 0.78409851 0.69487005
1.00000000 0.89816618 0.84727035
1.00000000 0.98049146 0.95672619
1.00000000 1.00000000 1.00000000
0.04410237 0.08639374 0.03245354
0.04410237 0.08639374 0.03245354
0.05797549 0.10190571 0.03484171
0.10558601 0.11161718 0.03054312
0.17238296 0.11556228 0.02658058
0.26113157 0.11309423 0.02447645
0.37643577 0.10395503 0.02468555
0.52371325 0.08942207 0.03141730
0.66241355 0.07133274 0.04448044
0.78067063 0.06624846 0.06934619
0.88589770 0.11375283 0.11434548
0.97309445 0.26723205 0.20821307
1.00000000 0.59841773 0.45109320
1.00000000 0.78574050 0.69533658
1.00000000 0.89916825 0.84815777
1.00000000 0.98109542 0.95746710
1.00000000 1.00000000 1.00000000
0.06261657 0.15069104 0.03277956
0.06261657 0.15069104 0.03277956
0.07156924 0.15810665 0.02943728
0.10758317 0.16792767 0.02118993
0.16509037 0.17559586 0.01604928
0.24792015 0.17895684 0.01432904
0.36154315 0.17602295 0.01615686
0.51231591 0.16530003 0.02166572
0.65844523 0.14676190 0.03221133
0.78128387 0.12678516 0.05320064
0.88846023 0.14523168 0.09878782
0.97468636 0.28650779 0.20085825
1.00000000 0.60647640 0.44992932
1.00000000 0.78915174 0.69704766
1.00000000 0.90105864 0.84999691
1.00000000 0.98219782 0.95886953
1.00000000 1.00000000 1.00000000
0.08136543 0.22031967 0.02824928
0.08136543 0.22031967 0.02824928
0.08889299 0.22471154 0.02474160
0.11652431 0.23330536 0.01717977
0.16359673 0.24305769 0.01105297
0.23664676 0.25198301 0.00799376
0.34327222 0.25668557 0.00949468
0.49223705 0.25393101 0.01491843
0.64767639 0.24159611 0.02561489
0.77636756 0.22250227 0.04542160
0.88774685 0.22105837 0.08877933
0.97479923 0.33272227 0.19594789
1.00000000 0.62324121 0.45201590
1.00000000 0.79573140 0.70120941
1.00000000 0.90454282 0.85362702
1.00000000 0.98403353 0.96131924
1.00000000 1.00000000 1.00000000
0.10715759 0.30817898 0.02282627
0.10715759 0.30817898 0.02282627
0.11360200 0.31100387 0.02040608
0.13522443 0.31794482 0.01460883
0.17289918 0.32757241 0.00858917
0.23428956 0.33932770 0.00239345
0.32925236 0.35082554 0.00255065
0.46886925 0.35752817 0.01018842
0.63073518 0.35548163 0.02163944
0.76596795 0.34392439 0.04307647
0.88253920 0.33844764 0.08692123
0.97390589 0.41607843 0.19575594
1.00000000 0.65420352 0.46210287
1.00000000 0.80817060 0.71046560
1.00000000 0.91095241 0.86066412
1.00000000 0.98535077 0.96380118
1.00000000 1.00000000 1.00000000
0.14429636 0.42297498 0.01968783
0.14429636 0.42297498 0.01968783
0.14961091 0.42491887 0.01841928
0.16655968 0.43030392 0.01506757
0.19629020 0.43873292 0.01119420
0.24617970 0.45088747 0.00625277
0.32674042 0.46613209 0.00158234
0.45165481 0.48158584 0.00842125
0.61106794 0.49137817 0.02139977
0.75082525 0.49219012 0.04386628
0.87297377 0.49110517 0.09023281
0.97102753 0.53927721 0.19842161
1.00000000 0.70203956 0.48573666
1.00000000 0.83097892 0.72999029
1.00000000 0.92378262 0.87523308
1.00000000 0.98743017 0.96783065
1.00000000 1.00000000 1.00000000
0.19772112 0.56667775 0.02330813
0.19772112 0.56667775 0.02330813
0.20194615 0.56779502 0.02296091
0.21512257 0.57098837 0.02205408
0.23826834 0.57638834 0.02025069
0.27783399 0.58456399 0.01867633
0.34368236 0.59629008 0.01651145
0.44991963 0.61055979 0.01771569
0.59663744 0.62488271 0.02815792
0.73405686 0.63471583 0.05198998
0.85949385 0.64156000 0.10052267
0.96399257 0.66527672 0.21325520
1.00000000 0.76513532 0.52789673
1.00000000 0.86526954 0.76241968
1.00000000 0.94415915 0.89892734
1.00000000 1.00000000 1.00000000
1.00000000 1.00000000 1.00000000
0.27636891 0.69555762 0.04250427
0.27636891 0.69555762 0.04250427
0.27961388 0.69608441 0.04262077
0.28965390 0.69764979 0.04297256
0.30738190 0.70038895 0.04334081
0.33804482 0.70505016 0.04292134
0.39014970 0.71219250 0.04373693
0.47677789 0.72261813 0.04522238
0.59790193 0.73566961 0.05300015
0.72342641 0.74966622 0.07624662
0.84527325 0.76130233 0.12915071
0.95275318 0.77928878 0.25315276
1.00000000 0.83900311 0.59332327
1.00000000 0.91112434 0.81096012
1.00000000 0.97411786 0.93512751
1.00000000 1.00000000 1.00000000
1.00000000 1.00000000 1.00000000
0.40071350 0.81149196 0.09528035
0.40071350 0.81149196 0.09528035
0.40311335 0.81175167 0.09556499
0.41054066 0.81253813 0.09644612
0.42371112 0.81394231 0.09781575
0.44677211 0.81641337 0.09971293
0.48647176 0.82064863 0.10174699
0.54952361 0.82735941 0.10714123
0.63158555 0.83726356 0.11703216
0.73024114 0.85014046 0.14120834
0.83961483 0.86543963 0.20018804
0.94258513 0.88125915 0.34193182
1.00000000 0.91648376 0.68668795
1.00000000 0.96497882 0.87844901
1.00000000 1.00000000 1.00000000
1.00000000 1.00000000 1.00000000
1.00000000 1.00000000 1.00000000
0.60260218 0.91648892 0.23367907
0.60260218 0.91648892 0.23367907
0.60380207 0.91660893 0.23412311
0.60747654 0.91697570 0.23550039
0.61388764 0.91764304 0.23780631
0.62487632 0.91884644 0.24162443
0.64315456 0.92098561 0.24778676
0.67245009 0.92485949 0.25764982
0.71675246 0.93110618 0.27718483
0.77870022 0.94059963 0.31300052
0.85770324 0.95370156 0.38749907
0.94646653 0.97147315 0.55646913
1.00000000 0.98924700 0.81962642
1.00000000 1.00000000 1.00000000
1.00000000 1.00000000 1.00000000
1.00000000 1.00000000 1.00000000
1.00000000 1.00000000 1.00000000
0.82037478 0.99705358 0.61625618
0.82037478 0.99705358 0.61625618
0.82080457 0.99707411 0.61687028
0.82211501 0.99713959 0.61872693
0.82441317 0.99727385 0.62191021
0.82843283 0.99753404 0.62740414
0.83535657 0.99802757 0.63678464
0.84699571 0.99896005 0.65254258
0.86661588 1.00000000 0.67985342
0.89604291 1.00000000 0.72334520
0.93662027 1.00000000 0.78843572
1.00000000 1.00000000 1.00000000
1.00000000 1.00000000 1.00000000
1.00000000 1.00000000 1.00000000
1.00000000 1.00000000 1.00000000
1.00000000 1.00000000 1.00000000
1.00000000 1.00000000 1.00000000
1.00000000 1.00000000 1.00000000
1.00000000 1.00000000 1.00000000
1.00000000 1.00000000 1.00000000
1.00000000 1.00000000 1.00000000
1.00000000 1.00000000 1.00000000
1.00000000 1.00000000 1.00000000
1.00000000 1.00000000 1.00000000
1.00000000 1.00000000 1.00000000
1.00000000 1.00000000 1.00000000
1.00000000 1.00000000 1.00000000
1.00000000 1.00000000 1.00000000
1.00000000 1.00000000 1.00000000
1.00000000 1.00000000 1.00000000
1.00000000 1.00000000 1.00000000
1.00000000 1.00000000 1.00000000
1.00000000 1.00000000 1.00000000
1.00000000 1.00000000 1.00000000
1.00000000 1.00000000 1.00000000
1.00000000 1.00000000 1.00000000
1.00000000 1.00000000 1.00000000
1.00000000 1.00000000 1.00000000
1.00000000 1.00000000 1.00000000
1.00000000 1.00000000 1.00000000
1.00000000 1.00000000 1.00000000
1.00000000 1.00000000 1.00000000
1.00000000 1.00000000 1.00000000
1.00000000 1.00000000 1.00000000
1.00000000 1.00000000 1.00000000
1.00000000 1.00000000 1.00000000
1.00000000 1.00000000 1.00000000
1.00000000 1.00000000 1.00000000
1.00000000 1.00000000 1.00000000
1.00000000 1.00000000 1.00000000
1.00000000 1.00000000 1.00000000
1.00000000 1.00000000 1.00000000
1.00000000 1.00000000 1.00000000
1.00000000 1.00000000 1.00000000
1.00000000 1.00000000 1.00000000
1.00000000 1.00000000 1.00000000
1.00000000 1.00000000 1.00000000
1.00000000 1.00000000 1.00000000
1.00000000 1.00000000 1.00000000
1.00000000 1.00000000 1.00000000
1.00000000 1.00000000 1.00000000
1.00000000 1.00000000 1.00000000
1.00000000 1.00000000 1.00000000
1.00000000 1.00000000 1.00000000
1.00000000 1.00000000 1.00000000
1.00000000 1.00000000 1.00000000
1.00000000 1.00000000 1.00000000
1.00000000 1.00000000 1.00000000
1.00000000 1.00000000 1.00000000
1.00000000 1.00000000 1.00000000
1.00000000 1.00000000 1.00000000
1.00000000 1.00000000 1.00000000
1.00000000 1.00000000 1.00000000
1.00000000 1.00000000 1.00000000
1.00000000 1.00000000 1.00000000
1.00000000 1.00000000 1.00000000
1.00000000 1.00000000 1.00000000
1.00000000 1.00000000 1.00000000
1.00000000 1.00000000 1.00000000
1.00000000 1.00000000 1.00000000
1.00000000 1.00000000 1.00000000
1.00000000 1.00000000 1.00000000
1.00000000 1.00000000 1.00000000
1.00000000 1.00000000 1.00000000
1.00000000 1.00000000 1.00000000
0.02636438 0.02636435 0.02636437
0.02636438 0.02636435 0.02636437
0.04636943 0.03032525 0.04807543
0.10928215 0.02859120 0.05712053
0.17660115 0.02906128 0.06653621
0.26512029 0.02191569 0.07075623
0.37774823 0.00731116 0.07379348
0.52249603 0.00000000 0.07655582
0.65961990 0.00000000 0.08143388
0.77681925 0.02673121 0.09795426
0.88134063 0.10723625 0.13740741
0.96914647 0.26618260 0.22368042
1.00000000 0.59479590 0.45680703
1.00000000 0.78338165 0.69510437
1.00000000 0.89763668 0.84692181
1.00000000 0.98014531 0.95635407
1.00000000 1.00000000 1.00000000
0.02636438 0.02636435 0.02636437
0.02636438 0.02636435 0.02636437
0.04636943 0.03032525 0.04807543
0.10928215 0.02859120 0.05712053
0.17660115 0.02906128 0.06653621
0.26512029 0.02191569 0.07075623
0.37774823 0.00731116 0.07379348
0.52249603 0.00000000 0.07655582
0.65961990 0.00000000 0.08143388
0.77681925 0.02673121 0.09795426
0.88134063 0.10723625 0.13740741
0.96914647 0.26618260 0.22368042
1.00000000 0.59479590 0.45680703
1.00000000 0.78338165 0.69510437
1.00000000 0.89763668 0.84692181
1.00000000 0.98014531 0.95635407
1.00000000 1.00000000 1.00000000
0.03194821 0.04751761 0.04704388
0.03194821 0.04751761 0.04704388
0.05426708 0.05426708 0.05426708
0.12554820 0.04541980 0.05008519
0.18831839 0.04713885 0.05571369
0.27506114 0.03981097 0.05657590
0.38592405 0.02863067 0.05829522
0.52870269 0.00822349 0.06118976
0.66250503 0.00000000 0.06909303
0.77811685 0.03406847 0.09193383
0.88257974 0.10711571 0.13251037
0.97017373 0.26555380 0.22025230
1.00000000 0.59540425 0.45554827
1.00000000 0.78385344 0.69514466
1.00000000 0.89794883 0.84717450
1.00000000 0.98033821 0.95658056
1.00000000 1.00000000 1.00000000
0.03973743 0.11703446 0.04590418
0.03973743 0.11703446 0.04590418
0.05862725 0.12218200 0.04032768
0.11417599 0.12060239 0.03480325
0.18482005 0.11521970 0.03114356
0.27407434 0.10583768 0.02875447
0.38809438 0.09188288 0.02751316
0.53151780 0.07557335 0.03547869
0.66524225 0.05905362 0.04991210
0.78132313 0.05972097 0.07510897
0.88569218 0.11279497 0.11916897
0.97261216 0.26772784 0.21166861
1.00000000 0.59828272 0.45285252
1.00000000 0.78548718 0.69559210
1.00000000 0.89895066 0.84805727
1.00000000 0.98094262 0.95732004
1.00000000 1.00000000 1.00000000
0.05613078 0.17077046 0.03655168
0.05613078 0.17077046 0.03655168
0.06818916 0.17546934 0.02999023
0.10946253 0.18070907 0.02021652
0.17151378 0.18245837 0.01524809
0.25681971 0.17996019 0.01445409
0.37085548 0.17223024 0.01734770
0.52015144 0.15825521 0.02359053
0.66203214 0.13821185 0.03490674
0.78276993 0.11887722 0.05633663
0.88860812 0.14223360 0.10264640
0.97444873 0.28575096 0.20361853
1.00000000 0.60614868 0.45143008
1.00000000 0.78887557 0.69724963
1.00000000 0.90083902 0.84988315
1.00000000 0.98204554 0.95871849
1.00000000 1.00000000 1.00000000
0.07629826 0.23391162 0.03032398
0.07629826 0.23391162 0.03032398
0.08515730 0.23733503 0.02534398
0.11532828 0.24428597 0.01674956
0.16544882 0.25135799 0.00998169
0.24113826 0.25677670 0.00714929
0.34939243 0.25773775 0.00952890
0.49877906 0.25169354 0.01571406
0.65124548 0.23700998 0.02682636
0.77817788 0.21682783 0.04694409
0.88846214 0.21618466 0.09048905
0.97480958 0.33099227 0.19796278
1.00000000 0.62272968 0.45319570
1.00000000 0.79543097 0.70133800
1.00000000 0.90432101 0.85349165
1.00000000 0.98400391 0.96128383
1.00000000 1.00000000 1.00000000
0.10331856 0.31781196 0.02431397
0.10331856 0.31781196 0.02431397
0.11037827 0.32027416 0.02116311
0.13315209 0.32662442 0.01460764
0.17251663 0.33513009 0.00778994
0.23581292 0.34511133 0.00000000
0.33248605 0.35427685 0.00075233
0.47322858 0.35840567 0.01006575
0.63374003 0.35403355 0.02204934
0.76773856 0.34083149 0.04375167
0.88342337 0.33488529 0.08786091
0.97401072 0.41424583 0.19728964
1.00000000 0.65352608 0.46286631
1.00000000 0.80776215 0.71040174
1.00000000 0.91066411 0.86042874
1.00000000 0.98531398 0.96374488
1.00000000 1.00000000 1.00000000
0.14141639 0.42999693 0.02059171
0.14141639 0.42999693 0.02059171
0.14701520 0.43175756 0.01905613
0.16447554 0.43685846 0.01549606
0.19505592 0.44488815 0.01099895
0.24608740 0.45625988 0.00539393
0.32792460 0.47028072 0.00000000
0.45401421 0.48410431 0.00776060
0.61321473 0.49207158 0.02136084
0.75229506 0.49124747 0.04416358
0.87382883 0.48917530 0.09082102
0.97123201 0.53808394 0.19972834
1.00000000 0.70151217 0.48637295
1.00000000 0.83062132 0.72990525
1.00000000 0.92351957 0.87500203
1.00000000 0.98739616 0.96777396
1.00000000 1.00000000 1.00000000
0.19563142 0.57074457 0.02390080
0.19563142 0.57074457 0.02390080
0.19997215 0.57177482 0.02341779
0.21335643 0.57483479 0.02237430
0.23689984 0.58000907 0.02051673
0.27706733 0.58787136 0.01857123
