Luts Download/Canon Luts/3dlut/17grid-3dlut/full-to-full-range/CinemaGamut_CanonLog2-to-BT2020_HLG_17_FF_Ver.2.0.cube
# Gamut : Cinema Gamut to BT.2020
# Gamma : Canon Log 2 to HLG
# Range : Full in / Full out
# Version : 2.0 2019/10/24
# Copyright(c) 2019 Canon Inc. All Rights Reserved.
LUT_3D_SIZE 5
# LUT_3D_INPUT_RANGE 0.0 1.0
0.00000004 0.00000000 0.00000003
0.15772910 0.04225396 0.05084393
0.61303994 0.00000000 0.09164271
0.99508610 0.61173970 0.49321063
1.00000000 1.00000000 1.00000000
0.07057997 0.14675341 0.04102672
0.16550383 0.17423490 0.02370984
0.61544541 0.17166404 0.04755169
0.99861710 0.62089479 0.48500950
1.00000000 1.00000000 1.00000000
0.22934241 0.55364728 0.03773379
0.26931863 0.56417121 0.03332091
0.59785013 0.62140066 0.04413397
0.99937476 0.77571820 0.56146910
1.00000000 1.00000000 1.00000000
0.83582131 0.99419378 0.65318808
0.83982637 0.99443601 0.65899835
0.88069145 0.99859839 0.71707985
1.00000000 1.00000000 1.00000000
1.00000000 1.00000000 1.00000000
1.00000000 1.00000000 1.00000000
1.00000000 1.00000000 1.00000000
1.00000000 1.00000000 1.00000000
1.00000000 1.00000000 1.00000000
1.00000000 1.00000000 1.00000000
0.04086242 0.01242126 0.13475965
0.15381709 0.00000000 0.16221600
0.60565667 0.02594705 0.22347419
0.99339402 0.60527730 0.50454400
1.00000000 1.00000000 1.00000000
0.01260242 0.16848535 0.16488125
0.16895397 0.16895397 0.16895397
0.61934736 0.14041174 0.17962717
0.99676671 0.61563492 0.49750674
1.00000000 1.00000000 1.00000000
0.20738922 0.59072405 0.05779665
0.25349216 0.59812943 0.03978522
0.60941235 0.63269231 0.03619946
1.00000000 0.77206387 0.56364752
1.00000000 1.00000000 1.00000000
0.84091672 0.99521371 0.66799910
0.84468929 0.99546829 0.67318184
0.88387997 0.99954435 0.72679976
1.00000000 1.00000000 1.00000000
1.00000000 1.00000000 1.00000000
1.00000000 1.00000000 1.00000000
1.00000000 1.00000000 1.00000000
1.00000000 1.00000000 1.00000000
1.00000000 1.00000000 1.00000000
1.00000000 1.00000000 1.00000000
0.13329751 0.03233967 0.51129105
0.16966896 0.00000000 0.47508468
0.58214237 0.00000000 0.58467223
0.98699483 0.58988697 0.72865798
1.00000000 1.00000000 1.00000000
0.09011443 0.09034298 0.54958084
0.13879134 0.01611947 0.53734170
0.59169290 0.00000000 0.59883996
0.98958011 0.59630406 0.72544207
1.00000000 1.00000000 1.00000000
0.09493585 0.60362272 0.59346363
0.14465553 0.60653154 0.59718844
0.60391133 0.60391133 0.60391133
1.00000000 0.74241430 0.72938141
1.00000000 1.00000000 1.00000000
0.88565186 1.00000000 0.78389101
0.88761139 1.00000000 0.78489970
0.91346775 1.00000000 0.80656177
1.00000000 1.00000000 1.00000000
1.00000000 1.00000000 1.00000000
1.00000000 1.00000000 1.00000000
1.00000000 1.00000000 1.00000000
1.00000000 1.00000000 1.00000000
1.00000000 1.00000000 1.00000000
1.00000000 1.00000000 1.00000000
0.39966688 0.26714203 0.94749787
0.40955974 0.27526373 0.94016468
0.52058068 0.22837566 0.89203042
0.96485886 0.50624116 0.95052684
1.00000000 1.00000000 1.00000000
0.39073331 0.26785072 0.95378702
0.40118257 0.27333518 0.94740856
0.51592322 0.22679467 0.89882383
0.96524619 0.50592263 0.95093225
1.00000000 1.00000000 1.00000000
0.27528957 0.50261078 0.94980156
0.28267355 0.48870929 0.95213388
0.42040781 0.33166565 0.95001959
0.96852425 0.55274181 0.95579636
1.00000000 1.00000000 1.00000000
0.94581722 1.00000000 1.00000000
0.94715476 1.00000000 1.00000000
1.00000000 1.00000000 1.00000000
1.00000000 1.00000000 1.00000000
1.00000000 1.00000000 1.00000000
1.00000000 1.00000000 1.00000000
1.00000000 1.00000000 1.00000000
1.00000000 1.00000000 1.00000000
1.00000000 1.00000000 1.00000000
1.00000000 1.00000000 1.00000000
0.87422307 0.91721778 1.00000000
0.87433903 0.91693903 1.00000000
0.87536609 0.91345136 1.00000000
0.88376447 0.86322375 1.00000000
1.00000000 0.98262678 1.00000000
0.87452281 0.91773418 1.00000000
0.87445105 0.91730247 1.00000000
0.87545120 0.91383694 1.00000000
0.88379966 0.86382914 1.00000000
1.00000000 0.98267545 1.00000000
0.87915144 0.92379866 1.00000000
0.87898140 0.92342824 1.00000000
0.87723845 0.91835087 1.00000000
0.88407584 0.87145172 1.00000000
1.00000000 0.98358104 1.00000000
0.94448305 0.97695065 1.00000000
0.94413159 0.97670405 1.00000000
0.93999924 0.97322403 1.00000000
0.90319603 0.92605271 0.99190974
1.00000000 1.00000000 1.00000000
1.00000000 1.00000000 1.00000000
1.00000000 1.00000000 1.00000000
1.00000000 1.00000000 1.00000000
1.00000000 1.00000000 1.00000000
1.00000000 1.00000000 1.00000000
