Luts Download/Canon Luts/3dlut/17grid-3dlut/full-to-full-range/CinemaGamut_CanonLog3-to-BT2020_HLGKnee-Vivid_17_FF_Ver.2.0.cube
# Gamut : Cinema Gamut to BT.2020
# Gamma : Canon Log 3 to HLGKnee-Vivid
# Range : Full in / Full out
# Version : 2.0 2019/10/24
# Copyright(c) 2019 Canon Inc. All Rights Reserved.
LUT_3D_SIZE 17
# LUT_3D_INPUT_RANGE 0.0 1.0
0.00000003 0.00000000 0.00000000
0.00000003 0.00000000 0.00000000
0.00000003 0.00000000 0.00000000
0.15276406 0.05483693 0.06150224
0.25524233 0.06264416 0.07904364
0.36129973 0.06163264 0.09298453
0.47754617 0.05705186 0.10883005
0.59301455 0.04993623 0.12776092
0.68838341 0.03810266 0.14940860
0.77284598 0.02669488 0.17446725
0.85070026 0.03719671 0.20353207
0.91975795 0.07697535 0.23368241
0.96238164 0.15507379 0.25259868
0.98736978 0.27892090 0.28738963
0.99901707 0.48140136 0.39220238
1.00000000 0.63348287 0.52135355
1.00000000 0.72096937 0.61834176
0.00000003 0.00000000 0.00000000
0.00000003 0.00000000 0.00000000
0.00000003 0.00000000 0.00000000
0.15276406 0.05483693 0.06150224
0.25524233 0.06264416 0.07904364
0.36129973 0.06163264 0.09298453
0.47754617 0.05705186 0.10883005
0.59301455 0.04993623 0.12776092
0.68838341 0.03810266 0.14940860
0.77284598 0.02669488 0.17446725
0.85070026 0.03719671 0.20353207
0.91975795 0.07697535 0.23368241
0.96238164 0.15507379 0.25259868
0.98736978 0.27892090 0.28738963
0.99901707 0.48140136 0.39220238
1.00000000 0.63348287 0.52135355
1.00000000 0.72096937 0.61834176
0.00000000 0.08222429 0.00000000
0.13379895 0.17228625 0.00000000
0.16644245 0.18164926 0.00000000
0.15276406 0.05483693 0.06150224
0.25524233 0.06264416 0.07904364
0.36129973 0.06163264 0.09298453
0.47754617 0.05705186 0.10883005
0.59301455 0.04993623 0.12776092
0.68838341 0.03810266 0.14940860
0.77284598 0.02669488 0.17446725
0.85070026 0.03719671 0.20353207
0.91975795 0.07697535 0.23368241
0.96238164 0.15507379 0.25259868
0.98736978 0.27892090 0.28738963
0.99901707 0.48140136 0.39220238
1.00000000 0.63348287 0.52135355
1.00000000 0.72096937 0.61834176
0.08515038 0.13340241 0.07283800
0.08515038 0.13340241 0.07283800
0.08515038 0.13340241 0.07283800
0.15224162 0.15861853 0.07217353
0.23909026 0.17274449 0.06173825
0.34621672 0.17456156 0.03219253
0.46651648 0.16957012 0.02621338
0.58804379 0.16047948 0.05070728
0.68720629 0.14567867 0.07856616
0.77384308 0.12574445 0.10989905
0.85253310 0.11022926 0.14798431
0.92209587 0.11139799 0.18704202
0.96453908 0.17038424 0.21797307
0.98835510 0.29503028 0.26895087
0.99941653 0.49282410 0.38450039
1.00000000 0.63895521 0.51919880
1.00000000 0.72472718 0.61903541
0.08167685 0.22333564 0.00000000
0.08167685 0.22333564 0.00000000
0.08167685 0.22333564 0.00000000
0.16537784 0.23322305 0.06733126
0.23781302 0.24962211 0.06548705
0.32764497 0.26264621 0.06050814
0.44222742 0.26840338 0.01148228
0.57106881 0.26576343 0.00000000
0.67690149 0.25657698 0.00000000
0.76793151 0.24092727 0.03957829
0.85047935 0.21833420 0.08631672
0.92294971 0.19553435 0.13071229
0.96613572 0.22318047 0.17879361
0.98887964 0.33331551 0.25237688
0.99958635 0.51589940 0.37970287
1.00000000 0.64934071 0.52024905
1.00000000 0.73144938 0.62215950
0.14153538 0.29953049 0.08461021
0.14153538 0.29953049 0.08461021
0.14153538 0.29953049 0.08461021
0.18218338 0.31212888 0.06007227
0.24443660 0.32735313 0.04700025
0.32547855 0.34242600 0.05364949
0.42573875 0.35639809 0.05970090
0.54909672 0.36577738 0.03240064
0.66035299 0.36665975 0.00000000
0.75651913 0.35931012 0.00000000
0.84276588 0.34467296 0.02003191
0.91847079 0.32538511 0.08847845
0.96462151 0.32549379 0.15026865
0.98847227 0.39934770 0.24104183
0.99957723 0.55232602 0.38019603
1.00000000 0.66698971 0.52707449
1.00000000 0.74232134 0.62884321
0.16896468 0.39310457 0.07603904
0.16896468 0.39310457 0.07603904
0.16896468 0.39310457 0.07603904
0.20499187 0.40145337 0.05217374
0.25826531 0.41412420 0.03158392
0.33057431 0.42929121 0.02650096
0.42314041 0.44554379 0.04616914
0.53634507 0.46164212 0.06161023
0.64382381 0.47446449 0.04996912
0.74179494 0.47905996 0.00000000
0.83171414 0.47411435 0.00000000
0.91131142 0.46126009 0.05045385
0.96093106 0.45089631 0.13455537
0.98766044 0.49036702 0.23699964
0.99954611 0.60016815 0.38845608
1.00000000 0.69242227 0.54089145
1.00000000 0.75872544 0.64090100
0.20322310 0.50013951 0.06471892
0.20322310 0.50013951 0.06471892
0.20322310 0.50013951 0.06471892
0.23580809 0.50532210 0.04546036
0.28174639 0.51487725 0.02407079
0.34478506 0.52770160 0.00000000
0.42843204 0.54260823 0.00412515
0.53394451 0.55830510 0.04367161
0.63491603 0.57345762 0.06580824
0.72878308 0.58597460 0.06503788
0.81873623 0.59230233 0.04064302
0.90180394 0.59021640 0.04382254
0.95611679 0.57809214 0.12928913
0.98647950 0.58896727 0.24013886
0.99929939 0.65623862 0.40778439
1.00000000 0.72642184 0.56479223
1.00000000 0.78197776 0.66069285
0.24754347 0.60396984 0.05434121
0.24754347 0.60396984 0.05434121
0.24754347 0.60396984 0.05434121
0.27648419 0.60621657 0.04112584
0.31614546 0.61137319 0.02334838
0.37075645 0.61905759 0.00000000
0.44451171 0.62950258 0.00000000
0.53945445 0.64188547 0.00000000
0.63321485 0.65534246 0.04540931
0.72181797 0.66860899 0.07298043
0.80796485 0.68024114 0.08263509
0.89122752 0.68676282 0.08241642
0.95042580 0.67832076 0.14131460
0.98514478 0.67656493 0.25471940
0.99903793 0.71727213 0.44157787
1.00000000 0.76827116 0.60044875
1.00000000 0.81270010 0.69062070
0.30409258 0.69346316 0.04725958
0.30409258 0.69346316 0.04725958
0.30409258 0.69346316 0.04725958
0.32919879 0.69446679 0.04027391
0.36349975 0.69717710 0.03101944
0.41040776 0.70188129 0.01279426
0.47463277 0.70883486 0.00000000
0.55560353 0.71811919 0.00000000
0.63814293 0.72927865 0.00000000
0.72061095 0.74163846 0.05358922
0.80211836 0.75398862 0.08925361
0.88262739 0.76506092 0.11632443
0.94511239 0.76177895 0.16606472
0.98423947 0.75595610 0.28076599
0.99912755 0.78036709 0.49568436
1.00000000 0.81634023 0.64867000
1.00000000 0.85035263 0.73204547
0.37563557 0.77528869 0.04858767
0.37563557 0.77528869 0.04858767
0.37563557 0.77528869 0.04858767
0.39686544 0.77571309 0.04665730
0.42599903 0.77713685 0.04377469
0.46628584 0.77987667 0.03680454
0.52085338 0.78426651 0.02618212
0.58381779 0.79084199 0.00000000
0.65237292 0.79949590 0.00000000
0.72542019 0.81001010 0.03649352
0.80138599 0.82187136 0.08212789
0.87792033 0.83391554 0.13492021
0.94178356 0.83515244 0.19558127
0.98461571 0.82914519 0.31750437
1.00000000 0.84302919 0.56437015
1.00000000 0.86758113 0.70772124
1.00000000 0.89304767 0.78465317
0.46587592 0.85231581 0.06506188
0.46587592 0.85231581 0.06506188
0.46587592 0.85231581 0.06506188
0.48343277 0.85245912 0.06582640
0.50766660 0.85318284 0.06630031
0.53914585 0.85468859 0.06514023
0.57760409 0.85740832 0.06088490
0.62397368 0.86164748 0.05757758
0.67786921 0.86797091 0.05203657
0.73916029 0.87630201 0.06149288
0.80657267 0.88650596 0.09689554
0.87800025 0.89833078 0.15805566
0.94142960 0.90270743 0.23621807
0.98671148 0.89793859 0.37386623
1.00000000 0.90426393 0.64115329
1.00000000 0.91941050 0.77507462
1.00000000 0.93774908 0.84632771
0.55667565 0.90743442 0.10182160
0.55667565 0.90743442 0.10182160
0.55667565 0.90743442 0.10182160
0.56745791 0.90753684 0.10358601
0.58203255 0.90805010 0.10574263
0.60176476 0.90912870 0.10806629
0.62778096 0.91108752 0.11035848
0.66069243 0.91448612 0.11251426
0.70206799 0.91948237 0.12075256
0.75169713 0.92680107 0.13536722
0.80958035 0.93644842 0.16924319
0.87408377 0.94844433 0.23258467
0.93667238 0.95742766 0.32453142
0.98387819 0.95598413 0.47427294
1.00000000 0.95764116 0.72520477
1.00000000 0.96625670 0.84774256
1.00000000 0.97952854 0.91128561
0.63048491 0.94318352 0.17283870
0.63048491 0.94318352 0.17283870
0.63048491 0.94318352 0.17283870
0.63656490 0.94329901 0.17483544
0.64514863 0.94373782 0.17776768
0.65734162 0.94462626 0.18204579
0.67428688 0.94622311 0.18822796
0.69730801 0.94898437 0.19712194
0.72750202 0.95329233 0.21297746
0.76644509 0.95961305 0.24095137
0.81457170 0.96826358 0.29401384
0.87053258 0.97950893 0.38395488
0.92711719 0.99053107 0.50491272
0.97342994 0.99417577 0.63524472
0.99995238 0.99269030 0.81271491
1.00000000 0.99693880 0.91535173
1.00000000 1.00000000 1.00000000
0.71007574 0.97332470 0.30971774
0.71007574 0.97332470 0.30971774
0.71007574 0.97332470 0.30971774
0.71346089 0.97341179 0.31213891
0.71845167 0.97373128 0.31602903
0.72585208 0.97437020 0.32227800
0.73663632 0.97551224 0.33223974
0.75208942 0.97753166 0.34801596
0.77359537 0.98077577 0.37304663
0.80301960 0.98532295 0.41948360
0.84346166 0.99105557 0.51384544
0.89366962 0.99721407 0.65020306
0.94150612 1.00000000 0.76633622
0.97632160 1.00000000 0.85228044
1.00000000 1.00000000 1.00000000
1.00000000 1.00000000 1.00000000
1.00000000 1.00000000 1.00000000
0.81460267 0.99879716 0.58286708
0.81460267 0.99879716 0.58286708
0.81460267 0.99879716 0.58286708
0.81645474 0.99876843 0.58570558
0.81938753 0.99882392 0.59053426
0.82399120 0.99896874 0.59854088
0.83115417 0.99930908 0.61157625
0.84181746 0.99992082 0.63156048
0.85706640 1.00000000 0.66069368
0.87800698 1.00000000 0.70172350
0.90522824 1.00000000 0.75736130
0.93791880 1.00000000 0.82622794
0.97134860 1.00000000 0.89599234
1.00000000 1.00000000 1.00000000
1.00000000 1.00000000 1.00000000
1.00000000 1.00000000 1.00000000
1.00000000 1.00000000 1.00000000
0.90190414 1.00000000 0.76961467
0.90190414 1.00000000 0.76961467
0.90190414 1.00000000 0.76961467
0.90295232 1.00000000 0.77142884
0.90463853 1.00000000 0.77442321
0.90732676 1.00000000 0.77933908
0.91152120 1.00000000 0.78722918
0.91788769 1.00000000 0.79950427
0.92723593 1.00000000 0.81793991
0.94038194 1.00000000 0.84442842
0.95778142 1.00000000 0.88025698
0.97639401 1.00000000 0.92100796
1.00000000 1.00000000 1.00000000
1.00000000 1.00000000 1.00000000
1.00000000 1.00000000 1.00000000
1.00000000 1.00000000 1.00000000
1.00000000 1.00000000 1.00000000
0.00000003 0.00000000 0.00000000
0.00000003 0.00000000 0.00000000
0.00000003 0.00000000 0.00000000
0.15276406 0.05483693 0.06150224
0.25524233 0.06264416 0.07904364
0.36129973 0.06163264 0.09298453
0.47754617 0.05705186 0.10883005
0.59301455 0.04993623 0.12776092
0.68838341 0.03810266 0.14940860
0.77284598 0.02669488 0.17446725
0.85070026 0.03719671 0.20353207
0.91975795 0.07697535 0.23368241
0.96238164 0.15507379 0.25259868
0.98736978 0.27892090 0.28738963
0.99901707 0.48140136 0.39220238
1.00000000 0.63348287 0.52135355
1.00000000 0.72096937 0.61834176
0.00000003 0.00000000 0.00000000
0.00000003 0.00000000 0.00000000
0.00000003 0.00000000 0.00000000
0.15276406 0.05483693 0.06150224
0.25524233 0.06264416 0.07904364
0.36129973 0.06163264 0.09298453
0.47754617 0.05705186 0.10883005
0.59301455 0.04993623 0.12776092
0.68838341 0.03810266 0.14940860
0.77284598 0.02669488 0.17446725
0.85070026 0.03719671 0.20353207
0.91975795 0.07697535 0.23368241
0.96238164 0.15507379 0.25259868
0.98736978 0.27892090 0.28738963
0.99901707 0.48140136 0.39220238
1.00000000 0.63348287 0.52135355
1.00000000 0.72096937 0.61834176
0.00000003 0.00000000 0.00000000
0.00000003 0.00000000 0.00000000
0.00000003 0.00000000 0.00000000
0.15276406 0.05483693 0.06150224
0.25524233 0.06264416 0.07904364
0.36129973 0.06163264 0.09298453
0.47754617 0.05705186 0.10883005
0.59301455 0.04993623 0.12776092
0.68838341 0.03810266 0.14940860
0.77284598 0.02669488 0.17446725
0.85070026 0.03719671 0.20353207
0.91975795 0.07697535 0.23368241
0.96238164 0.15507379 0.25259868
0.98736978 0.27892090 0.28738963
0.99901707 0.48140136 0.39220238
1.00000000 0.63348287 0.52135355
1.00000000 0.72096937 0.61834176
0.08515038 0.13340241 0.07283800
0.08515038 0.13340241 0.07283800
0.08515038 0.13340241 0.07283800
0.15224162 0.15861853 0.07217353
0.23909026 0.17274449 0.06173825
0.34621672 0.17456156 0.03219253
0.46651648 0.16957012 0.02621338
0.58804379 0.16047948 0.05070728
0.68720629 0.14567867 0.07856616
0.77384308 0.12574445 0.10989905
0.85253310 0.11022926 0.14798431
0.92209587 0.11139799 0.18704202
0.96453908 0.17038424 0.21797307
0.98835510 0.29503028 0.26895087
0.99941653 0.49282410 0.38450039
1.00000000 0.63895521 0.51919880
1.00000000 0.72472718 0.61903541
0.08167685 0.22333564 0.00000000
0.08167685 0.22333564 0.00000000
0.08167685 0.22333564 0.00000000
0.16537784 0.23322305 0.06733126
0.23781302 0.24962211 0.06548705
0.32764497 0.26264621 0.06050814
0.44222742 0.26840338 0.01148228
0.57106881 0.26576343 0.00000000
0.67690149 0.25657698 0.00000000
0.76793151 0.24092727 0.03957829
0.85047935 0.21833420 0.08631672
0.92294971 0.19553435 0.13071229
0.96613572 0.22318047 0.17879361
0.98887964 0.33331551 0.25237688
0.99958635 0.51589940 0.37970287
1.00000000 0.64934071 0.52024905
1.00000000 0.73144938 0.62215950
0.14153538 0.29953049 0.08461021
0.14153538 0.29953049 0.08461021
0.14153538 0.29953049 0.08461021
0.18218338 0.31212888 0.06007227
0.24443660 0.32735313 0.04700025
0.32547855 0.34242600 0.05364949
0.42573875 0.35639809 0.05970090
0.54909672 0.36577738 0.03240064
0.66035299 0.36665975 0.00000000
0.75651913 0.35931012 0.00000000
0.84276588 0.34467296 0.02003191
0.91847079 0.32538511 0.08847845
0.96462151 0.32549379 0.15026865
0.98847227 0.39934770 0.24104183
0.99957723 0.55232602 0.38019603
1.00000000 0.66698971 0.52707449
1.00000000 0.74232134 0.62884321
0.16896468 0.39310457 0.07603904
0.16896468 0.39310457 0.07603904
0.16896468 0.39310457 0.07603904
0.20499187 0.40145337 0.05217374
0.25826531 0.41412420 0.03158392
0.33057431 0.42929121 0.02650096
0.42314041 0.44554379 0.04616914
0.53634507 0.46164212 0.06161023
0.64382381 0.47446449 0.04996912
0.74179494 0.47905996 0.00000000
0.83171414 0.47411435 0.00000000
0.91131142 0.46126009 0.05045385
0.96093106 0.45089631 0.13455537
0.98766044 0.49036702 0.23699964
0.99954611 0.60016815 0.38845608
1.00000000 0.69242227 0.54089145
1.00000000 0.75872544 0.64090100
0.20322310 0.50013951 0.06471892
0.20322310 0.50013951 0.06471892
0.20322310 0.50013951 0.06471892
0.23580809 0.50532210 0.04546036
0.28174639 0.51487725 0.02407079
0.34478506 0.52770160 0.00000000
0.42843204 0.54260823 0.00412515
0.53394451 0.55830510 0.04367161
0.63491603 0.57345762 0.06580824
0.72878308 0.58597460 0.06503788
0.81873623 0.59230233 0.04064302
0.90180394 0.59021640 0.04382254
0.95611679 0.57809214 0.12928913
0.98647950 0.58896727 0.24013886
0.99929939 0.65623862 0.40778439
1.00000000 0.72642184 0.56479223
1.00000000 0.78197776 0.66069285
0.24754347 0.60396984 0.05434121
0.24754347 0.60396984 0.05434121
0.24754347 0.60396984 0.05434121
0.27648419 0.60621657 0.04112584
0.31614546 0.61137319 0.02334838
0.37075645 0.61905759 0.00000000
0.44451171 0.62950258 0.00000000
0.53945445 0.64188547 0.00000000
0.63321485 0.65534246 0.04540931
0.72181797 0.66860899 0.07298043
0.80796485 0.68024114 0.08263509
0.89122752 0.68676282 0.08241642
0.95042580 0.67832076 0.14131460
0.98514478 0.67656493 0.25471940
0.99903793 0.71727213 0.44157787
1.00000000 0.76827116 0.60044875
1.00000000 0.81270010 0.69062070
0.30409258 0.69346316 0.04725958
0.30409258 0.69346316 0.04725958
0.30409258 0.69346316 0.04725958
0.32919879 0.69446679 0.04027391
0.36349975 0.69717710 0.03101944
0.41040776 0.70188129 0.01279426
0.47463277 0.70883486 0.00000000
0.55560353 0.71811919 0.00000000
0.63814293 0.72927865 0.00000000
0.72061095 0.74163846 0.05358922
0.80211836 0.75398862 0.08925361
0.88262739 0.76506092 0.11632443
0.94511239 0.76177895 0.16606472
0.98423947 0.75595610 0.28076599
0.99912755 0.78036709 0.49568436
1.00000000 0.81634023 0.64867000
1.00000000 0.85035263 0.73204547
0.37563557 0.77528869 0.04858767
0.37563557 0.77528869 0.04858767
0.37563557 0.77528869 0.04858767
0.39686544 0.77571309 0.04665730
0.42599903 0.77713685 0.04377469
0.46628584 0.77987667 0.03680454
0.52085338 0.78426651 0.02618212
0.58381779 0.79084199 0.00000000
0.65237292 0.79949590 0.00000000
0.72542019 0.81001010 0.03649352
0.80138599 0.82187136 0.08212789
0.87792033 0.83391554 0.13492021
0.94178356 0.83515244 0.19558127
0.98461571 0.82914519 0.31750437
1.00000000 0.84302919 0.56437015
1.00000000 0.86758113 0.70772124
1.00000000 0.89304767 0.78465317
0.46587592 0.85231581 0.06506188
0.46587592 0.85231581 0.06506188
0.46587592 0.85231581 0.06506188
0.48343277 0.85245912 0.06582640
0.50766660 0.85318284 0.06630031
0.53914585 0.85468859 0.06514023
0.57760409 0.85740832 0.06088490
0.62397368 0.86164748 0.05757758
0.67786921 0.86797091 0.05203657
0.73916029 0.87630201 0.06149288
0.80657267 0.88650596 0.09689554
0.87800025 0.89833078 0.15805566
0.94142960 0.90270743 0.23621807
0.98671148 0.89793859 0.37386623
1.00000000 0.90426393 0.64115329
1.00000000 0.91941050 0.77507462
1.00000000 0.93774908 0.84632771
0.55667565 0.90743442 0.10182160
0.55667565 0.90743442 0.10182160
0.55667565 0.90743442 0.10182160
0.56745791 0.90753684 0.10358601
0.58203255 0.90805010 0.10574263
0.60176476 0.90912870 0.10806629
0.62778096 0.91108752 0.11035848
0.66069243 0.91448612 0.11251426
0.70206799 0.91948237 0.12075256
0.75169713 0.92680107 0.13536722
0.80958035 0.93644842 0.16924319
0.87408377 0.94844433 0.23258467
0.93667238 0.95742766 0.32453142
0.98387819 0.95598413 0.47427294
1.00000000 0.95764116 0.72520477
1.00000000 0.96625670 0.84774256
1.00000000 0.97952854 0.91128561
0.63048491 0.94318352 0.17283870
0.63048491 0.94318352 0.17283870
0.63048491 0.94318352 0.17283870
0.63656490 0.94329901 0.17483544
0.64514863 0.94373782 0.17776768
0.65734162 0.94462626 0.18204579
0.67428688 0.94622311 0.18822796
0.69730801 0.94898437 0.19712194
0.72750202 0.95329233 0.21297746
0.76644509 0.95961305 0.24095137
0.81457170 0.96826358 0.29401384
0.87053258 0.97950893 0.38395488
0.92711719 0.99053107 0.50491272
0.97342994 0.99417577 0.63524472
0.99995238 0.99269030 0.81271491
1.00000000 0.99693880 0.91535173
1.00000000 1.00000000 1.00000000
0.71007574 0.97332470 0.30971774
0.71007574 0.97332470 0.30971774
0.71007574 0.97332470 0.30971774
0.71346089 0.97341179 0.31213891
0.71845167 0.97373128 0.31602903
0.72585208 0.97437020 0.32227800
0.73663632 0.97551224 0.33223974
0.75208942 0.97753166 0.34801596
0.77359537 0.98077577 0.37304663
0.80301960 0.98532295 0.41948360
0.84346166 0.99105557 0.51384544
0.89366962 0.99721407 0.65020306
0.94150612 1.00000000 0.76633622
0.97632160 1.00000000 0.85228044
1.00000000 1.00000000 1.00000000
1.00000000 1.00000000 1.00000000
1.00000000 1.00000000 1.00000000
0.81460267 0.99879716 0.58286708
0.81460267 0.99879716 0.58286708
0.81460267 0.99879716 0.58286708
0.81645474 0.99876843 0.58570558
0.81938753 0.99882392 0.59053426
0.82399120 0.99896874 0.59854088
0.83115417 0.99930908 0.61157625
0.84181746 0.99992082 0.63156048
0.85706640 1.00000000 0.66069368
0.87800698 1.00000000 0.70172350
0.90522824 1.00000000 0.75736130
0.93791880 1.00000000 0.82622794
0.97134860 1.00000000 0.89599234
1.00000000 1.00000000 1.00000000
1.00000000 1.00000000 1.00000000
1.00000000 1.00000000 1.00000000
1.00000000 1.00000000 1.00000000
0.90190414 1.00000000 0.76961467
0.90190414 1.00000000 0.76961467
0.90190414 1.00000000 0.76961467
0.90295232 1.00000000 0.77142884
0.90463853 1.00000000 0.77442321
0.90732676 1.00000000 0.77933908
0.91152120 1.00000000 0.78722918
0.91788769 1.00000000 0.79950427
0.92723593 1.00000000 0.81793991
0.94038194 1.00000000 0.84442842
0.95778142 1.00000000 0.88025698
0.97639401 1.00000000 0.92100796
1.00000000 1.00000000 1.00000000
1.00000000 1.00000000 1.00000000
1.00000000 1.00000000 1.00000000
1.00000000 1.00000000 1.00000000
1.00000000 1.00000000 1.00000000
0.00000003 0.00000000 0.00000000
0.00000003 0.00000000 0.00000000
0.00000003 0.00000000 0.00000000
0.15276406 0.05483693 0.06150224
0.25524233 0.06264416 0.07904364
0.36129973 0.06163264 0.09298453
0.47754617 0.05705186 0.10883005
0.59301455 0.04993623 0.12776092
0.68838341 0.03810266 0.14940860
0.77284598 0.02669488 0.17446725
0.85070026 0.03719671 0.20353207
0.91975795 0.07697535 0.23368241
0.96238164 0.15507379 0.25259868
0.98736978 0.27892090 0.28738963
0.99901707 0.48140136 0.39220238
1.00000000 0.63348287 0.52135355
1.00000000 0.72096937 0.61834176
0.00000003 0.00000000 0.00000000
0.00000003 0.00000000 0.00000000
0.00000003 0.00000000 0.00000000
0.15276406 0.05483693 0.06150224
0.25524233 0.06264416 0.07904364
0.36129973 0.06163264 0.09298453
0.47754617 0.05705186 0.10883005
0.59301455 0.04993623 0.12776092
0.68838341 0.03810266 0.14940860
0.77284598 0.02669488 0.17446725
0.85070026 0.03719671 0.20353207
0.91975795 0.07697535 0.23368241
0.96238164 0.15507379 0.25259868
0.98736978 0.27892090 0.28738963
0.99901707 0.48140136 0.39220238
1.00000000 0.63348287 0.52135355
1.00000000 0.72096937 0.61834176
0.00000003 0.00000000 0.00000000
0.00000003 0.00000000 0.00000000
0.00000003 0.00000000 0.00000000
0.15276406 0.05483693 0.06150224
0.25524233 0.06264416 0.07904364
0.36129973 0.06163264 0.09298453
0.47754617 0.05705186 0.10883005
0.59301455 0.04993623 0.12776092
0.68838341 0.03810266 0.14940860
0.77284598 0.02669488 0.17446725
0.85070026 0.03719671 0.20353207
0.91975795 0.07697535 0.23368241
0.96238164 0.15507379 0.25259868
0.98736978 0.27892090 0.28738963
0.99901707 0.48140136 0.39220238
1.00000000 0.63348287 0.52135355
1.00000000 0.72096937 0.61834176
0.08515038 0.13340241 0.07283800
0.08515038 0.13340241 0.07283800
0.08515038 0.13340241 0.07283800
0.15224162 0.15861853 0.07217353
0.23909026 0.17274449 0.06173825
0.34621672 0.17456156 0.03219253
0.46651648 0.16957012 0.02621338
0.58804379 0.16047948 0.05070728
0.68720629 0.14567867 0.07856616
0.77384308 0.12574445 0.10989905
0.85253310 0.11022926 0.14798431
0.92209587 0.11139799 0.18704202
0.96453908 0.17038424 0.21797307
0.98835510 0.29503028 0.26895087
0.99941653 0.49282410 0.38450039
1.00000000 0.63895521 0.51919880
1.00000000 0.72472718 0.61903541
0.08167685 0.22333564 0.00000000
0.08167685 0.22333564 0.00000000
0.08167685 0.22333564 0.00000000
0.16537784 0.23322305 0.06733126
0.23781302 0.24962211 0.06548705
0.32764497 0.26264621 0.06050814
0.44222742 0.26840338 0.01148228
0.57106881 0.26576343 0.00000000
0.67690149 0.25657698 0.00000000
0.76793151 0.24092727 0.03957829
0.85047935 0.21833420 0.08631672
0.92294971 0.19553435 0.13071229
0.96613572 0.22318047 0.17879361
0.98887964 0.33331551 0.25237688
0.99958635 0.51589940 0.37970287
1.00000000 0.64934071 0.52024905
1.00000000 0.73144938 0.62215950
0.14153538 0.29953049 0.08461021
0.14153538 0.29953049 0.08461021
0.14153538 0.29953049 0.08461021
0.18218338 0.31212888 0.06007227
0.24443660 0.32735313 0.04700025
0.32547855 0.34242600 0.05364949
0.42573875 0.35639809 0.05970090
0.54909672 0.36577738 0.03240064
0.66035299 0.36665975 0.00000000
0.75651913 0.35931012 0.00000000
0.84276588 0.34467296 0.02003191
0.91847079 0.32538511 0.08847845
0.96462151 0.32549379 0.15026865
0.98847227 0.39934770 0.24104183
0.99957723 0.55232602 0.38019603
1.00000000 0.66698971 0.52707449
1.00000000 0.74232134 0.62884321
0.16896468 0.39310457 0.07603904
0.16896468 0.39310457 0.07603904
0.16896468 0.39310457 0.07603904
0.20499187 0.40145337 0.05217374
0.25826531 0.41412420 0.03158392
0.33057431 0.42929121 0.02650096
0.42314041 0.44554379 0.04616914
0.53634507 0.46164212 0.06161023
0.64382381 0.47446449 0.04996912
0.74179494 0.47905996 0.00000000
0.83171414 0.47411435 0.00000000
0.91131142 0.46126009 0.05045385
0.96093106 0.45089631 0.13455537
0.98766044 0.49036702 0.23699964
0.99954611 0.60016815 0.38845608
1.00000000 0.69242227 0.54089145
1.00000000 0.75872544 0.64090100
0.20322310 0.50013951 0.06471892
0.20322310 0.50013951 0.06471892
0.20322310 0.50013951 0.06471892
0.23580809 0.50532210 0.04546036
0.28174639 0.51487725 0.02407079
0.34478506 0.52770160 0.00000000
0.42843204 0.54260823 0.00412515
0.53394451 0.55830510 0.04367161
0.63491603 0.57345762 0.06580824
0.72878308 0.58597460 0.06503788
0.81873623 0.59230233 0.04064302
0.90180394 0.59021640 0.04382254
0.95611679 0.57809214 0.12928913
0.98647950 0.58896727 0.24013886
0.99929939 0.65623862 0.40778439
1.00000000 0.72642184 0.56479223
1.00000000 0.78197776 0.66069285
0.24754347 0.60396984 0.05434121
0.24754347 0.60396984 0.05434121
0.24754347 0.60396984 0.05434121
0.27648419 0.60621657 0.04112584
0.31614546 0.61137319 0.02334838
0.37075645 0.61905759 0.00000000
