Luts Download/Canon Luts/3dlut/17grid-3dlut/full-to-full-range/CinemaGamut_CanonLog3-to-BT2020_HLGKnee_17_FF_Ver.2.0.cube
# Gamut : Cinema Gamut to BT.2020
# Gamma : Canon Log 3 to HLGKnee
# Range : Full in / Full out
# Version : 2.0 2019/10/24
# Copyright(c) 2019 Canon Inc. All Rights Reserved.
LUT_3D_SIZE 5
# LUT_3D_INPUT_RANGE 0.0 1.0
0.00000010 0.00000000 0.00000000
0.22900820 0.05536315 0.06911653
0.64602843 0.00000000 0.11204113
0.94308739 0.07042427 0.20264346
1.00000000 0.65538327 0.52671954
0.11300418 0.20811141 0.08251502
0.23665711 0.24863750 0.05827057
0.64707351 0.25873303 0.05358380
0.95171035 0.19876192 0.14514878
1.00000000 0.68467982 0.55318767
0.24408754 0.58948738 0.04848296
0.31477075 0.60570363 0.02694438
0.63115544 0.65346357 0.00000000
0.94646230 0.67583115 0.13778031
1.00000000 0.80872461 0.68236239
0.54911511 0.89999061 0.08868099
0.57702165 0.90308465 0.09464130
0.70410689 0.92062977 0.12084458
0.93558610 0.95647230 0.31947650
1.00000000 0.97624312 0.90291541
0.88262442 1.00000000 0.72384511
0.88938739 1.00000000 0.73844148
0.92547827 1.00000000 0.81360699
1.00000000 1.00000000 1.00000000
1.00000000 1.00000000 1.00000000
0.05875864 0.02247149 0.18572522
0.21491777 0.00000000 0.22896540
0.63481278 0.00000000 0.29452919
0.93907291 0.06049360 0.33102538
1.00000000 0.64489735 0.52814395
0.06100737 0.23918973 0.23433408
0.24181371 0.24181371 0.24181371
0.66346678 0.19034505 0.23534648
0.94824944 0.18679323 0.28087463
1.00000000 0.67230907 0.54954484
0.18873789 0.64956792 0.09438479
0.28415644 0.65857571 0.03812670
0.65037431 0.67235312 0.00000000
0.95434749 0.66428431 0.15306729
1.00000000 0.80505732 0.68311365
0.53950431 0.91101298 0.10210459
0.57020478 0.91371491 0.10738569
0.70564900 0.92904161 0.13588626
0.93909410 0.96002353 0.34545432
1.00000000 0.97746803 0.90876364
0.89449683 1.00000000 0.75510204
0.90046606 1.00000000 0.76747734
0.93356872 1.00000000 0.83456742
1.00000000 1.00000000 1.00000000
1.00000000 1.00000000 1.00000000
0.15063660 0.04049506 0.54367819
0.20903979 0.00000000 0.50601831
0.59818275 0.00000000 0.60764026
0.92092963 0.09712295 0.68309685
1.00000000 0.62432931 0.66785265
0.06521933 0.15243936 0.58957598
0.15997945 0.00000000 0.59394714
0.61447600 0.00000000 0.63213934
0.93089673 0.12181740 0.67568951
1.00000000 0.65136170 0.67617799
0.11846553 0.63802106 0.62837952
0.19568311 0.64347434 0.63505715
0.63952564 0.63952564 0.63952564
0.96363270 0.58898214 0.63053984
1.00000000 0.79445552 0.75265923
0.38992986 0.97696146 0.31922084
0.42985086 0.97891697 0.29418613
0.70542189 0.97724247 0.32297581
0.95779566 0.97848945 0.55556567
1.00000000 0.98427673 0.93313144
0.95121530 1.00000000 0.88665165
0.95470180 1.00000000 0.89309574
0.97384707 1.00000000 0.92862838
1.00000000 1.00000000 1.00000000
1.00000000 1.00000000 1.00000000
0.29720909 0.04946312 0.86269609
0.32543617 0.08049418 0.84363885
0.52773758 0.00000000 0.79822415
0.89092075 0.05551717 0.88778154
1.00000000 0.54339411 0.83568746
0.26852381 0.04920670 0.88415439
0.30194688 0.06382675 0.86759534
0.50165145 0.00000000 0.80798302
0.89358586 0.00000000 0.89099005
1.00000000 0.55296713 0.83517189
0.00000000 0.50074817 0.88311129
0.00000000 0.46284755 0.89750166
0.49144153 0.31832573 0.93207919
0.92280188 0.34317632 0.93620398
1.00000000 0.71908686 0.85918115
0.36456145 0.93863906 0.93003767
0.39774307 0.93988531 0.93152454
0.63501986 0.94406825 0.93734409
0.94441540 0.94441540 0.94441540
1.00000000 0.99033649 0.98909266
1.00000000 1.00000000 1.00000000
1.00000000 1.00000000 1.00000000
1.00000000 1.00000000 1.00000000
1.00000000 1.00000000 1.00000000
1.00000000 1.00000000 1.00000000
0.40874399 0.19578954 1.00000000
0.41660212 0.19373879 1.00000000
0.46152691 0.18289934 0.96283637
0.80092775 0.00000000 1.00000000
1.00000000 0.41853787 0.99130846
0.40374244 0.22056121 1.00000000
0.41172702 0.21472029 1.00000000
0.45934402 0.18376607 0.97110434
0.79814407 0.00000000 1.00000000
1.00000000 0.42460391 0.99120247
0.37364389 0.45514775 1.00000000
0.38052977 0.43708817 1.00000000
0.43248180 0.33014734 0.99713247
0.78329458 0.00000000 1.00000000
1.00000000 0.53420325 0.98802943
0.60968459 0.84845977 1.00000000
0.62541560 0.85115330 1.00000000
0.71036260 0.86772462 1.00000000
0.89621281 0.90634069 1.00000000
1.00000000 0.95929781 1.00000000
1.00000000 1.00000000 1.00000000
1.00000000 1.00000000 1.00000000
1.00000000 1.00000000 1.00000000
1.00000000 1.00000000 1.00000000
1.00000000 1.00000000 1.00000000
