Luts Download/Canon Luts/3dlut/17grid-3dlut/full-to-full-range/CinemaGamut_CanonLog3-to-BT2020_709WideDR_17_FF_Ver.2.0.cube
# Gamut : Cinema Gamut to BT.2020
# Gamma : Canon Log 3 to Wide DR
# Range : Full in / Full out
# Version : 2.0 2019/10/24
# Copyright(c) 2019 Canon Inc. All Rights Reserved.
LUT_3D_SIZE 9
# LUT_3D_INPUT_RANGE 0.0 1.0
0.00000000 0.00000000 0.00000000
0.00000000 0.00000000 0.00000000
0.21843911 0.01651280 0.02539615
0.45375535 0.00800922 0.03566438
0.65443360 0.00000000 0.03136087
0.80066843 0.01373908 0.00498404
0.89142890 0.07864754 0.00000000
0.94110756 0.15822247 0.00000000
1.00000000 0.21621018 0.00000000
0.00000000 0.00000000 0.00000000
0.00000000 0.01004390 0.00000000
0.21843911 0.01651280 0.02539615
0.45375535 0.00800922 0.03566438
0.65443360 0.00000000 0.03136087
0.80066843 0.01373908 0.00498404
0.89142890 0.07864754 0.00000000
0.94110756 0.15822247 0.00000000
1.00000000 0.21621018 0.00000000
0.07044299 0.19236793 0.03693390
0.07044299 0.19236793 0.03693390
0.22893327 0.24412409 0.01913593
0.45195115 0.26291057 0.01080558
0.67219697 0.24518173 0.01795582
0.83401313 0.22767715 0.03618829
0.91772577 0.26183931 0.09140964
0.96576529 0.30235297 0.12376074
1.00000000 0.35864004 0.17119286
0.14274585 0.39568149 0.02854748
0.14274585 0.39568149 0.02854748
0.25587406 0.43517552 0.00842104
0.44451822 0.47155306 0.00009283
0.67570819 0.46876046 0.00105997
0.87139698 0.43681314 0.06782347
0.99462067 0.41973398 0.15169887
0.99087094 0.48497932 0.30453511
1.00000000 0.53711793 0.37672660
0.22668216 0.57002205 0.01453927
0.22668216 0.57002205 0.01453927
0.30024190 0.60310756 0.00917206
0.43554284 0.64872026 0.00738533
0.63385728 0.67240507 0.00000000
0.86269810 0.64447127 0.00393717
1.00000000 0.61594376 0.22530176
1.00000000 0.64481693 0.42582871
1.00000000 0.68874792 0.53474814
0.31398638 0.70008399 0.00981931
0.31398638 0.70008399 0.00981931
0.35936650 0.73047635 0.01594682
0.44428357 0.78074326 0.01533581
0.58591423 0.82323301 0.02093598
0.77904554 0.82800630 0.03005764
0.97918744 0.78906185 0.17539733
1.00000000 0.78064417 0.48364704
1.00000000 0.80708903 0.64323404
0.38740930 0.79280540 0.01143252
0.38740930 0.79280540 0.01143252
0.41728458 0.82172763 0.02234657
0.47488412 0.87211284 0.03842459
0.55517687 0.92930026 0.00000000
0.70808227 0.95049984 0.11958628
0.88348208 0.93994614 0.20445653
1.00000000 0.90389336 0.48603143
1.00000000 0.90440916 0.71590018
0.44239529 0.85759052 0.01638330
0.44239529 0.85759052 0.01638330
0.46616141 0.88479349 0.03451431
0.51486976 0.93281335 0.08245735
0.60056552 0.98101340 0.18874201
0.72885933 1.00000000 0.36904921
0.84575505 1.00000000 0.50249630
0.95370190 0.99789479 0.62975285
1.00000000 0.98595129 0.81510509
0.49583551 0.93658624 0.01929295
0.49583551 0.93658624 0.01929295
0.51762744 0.96105477 0.04679002
0.58361231 0.99725297 0.18347645
0.70722244 1.00000000 0.40672962
0.82324017 1.00000000 0.60387419
0.91223437 1.00000000 0.75837603
0.97865824 1.00000000 0.88338817
1.00000000 1.00000000 1.00000000
0.00000000 0.00000000 0.00000000
0.00000000 0.00000000 0.00000000
0.21843911 0.01651280 0.02539615
0.45375535 0.00800922 0.03566438
0.65443360 0.00000000 0.03136087
0.80066843 0.01373908 0.00498404
0.89142890 0.07864754 0.00000000
0.94110756 0.15822247 0.00000000
1.00000000 0.21621018 0.00000000
0.00000000 0.00000000 0.00000000
0.00000000 0.00000000 0.00000000
0.21843911 0.01651280 0.02539615
0.45375535 0.00800922 0.03566438
0.65443360 0.00000000 0.03136087
0.80066843 0.01373908 0.00498404
0.89142890 0.07864754 0.00000000
0.94110756 0.15822247 0.00000000
1.00000000 0.21621018 0.00000000
0.07044299 0.19236793 0.03693390
0.07044299 0.19236793 0.03693390
0.22893327 0.24412409 0.01913593
0.45195115 0.26291057 0.01080558
0.67219697 0.24518173 0.01795582
0.83401313 0.22767715 0.03618829
0.91772577 0.26183931 0.09140964
0.96576529 0.30235297 0.12376074
1.00000000 0.35864004 0.17119286
0.14274585 0.39568149 0.02854748
0.14274585 0.39568149 0.02854748
0.25587406 0.43517552 0.00842104
0.44451822 0.47155306 0.00009283
0.67570819 0.46876046 0.00105997
0.87139698 0.43681314 0.06782347
0.99462067 0.41973398 0.15169887
0.99087094 0.48497932 0.30453511
1.00000000 0.53711793 0.37672660
0.22668216 0.57002205 0.01453927
0.22668216 0.57002205 0.01453927
0.30024190 0.60310756 0.00917206
0.43554284 0.64872026 0.00738533
0.63385728 0.67240507 0.00000000
0.86269810 0.64447127 0.00393717
1.00000000 0.61594376 0.22530176
1.00000000 0.64481693 0.42582871
1.00000000 0.68874792 0.53474814
0.31398638 0.70008399 0.00981931
0.31398638 0.70008399 0.00981931
0.35936650 0.73047635 0.01594682
0.44428357 0.78074326 0.01533581
0.58591423 0.82323301 0.02093598
0.77904554 0.82800630 0.03005764
0.97918744 0.78906185 0.17539733
1.00000000 0.78064417 0.48364704
1.00000000 0.80708903 0.64323404
0.38740930 0.79280540 0.01143252
0.38740930 0.79280540 0.01143252
0.41728458 0.82172763 0.02234657
0.47488412 0.87211284 0.03842459
0.55517687 0.92930026 0.00000000
0.70808227 0.95049984 0.11958628
0.88348208 0.93994614 0.20445653
1.00000000 0.90389336 0.48603143
1.00000000 0.90440916 0.71590018
0.44239529 0.85759052 0.01638330
0.44239529 0.85759052 0.01638330
0.46616141 0.88479349 0.03451431
0.51486976 0.93281335 0.08245735
0.60056552 0.98101340 0.18874201
0.72885933 1.00000000 0.36904921
0.84575505 1.00000000 0.50249630
0.95370190 0.99789479 0.62975285
1.00000000 0.98595129 0.81510509
0.49583551 0.93658624 0.01929295
0.49583551 0.93658624 0.01929295
0.51762744 0.96105477 0.04679002
0.58361231 0.99725297 0.18347645
0.70722244 1.00000000 0.40672962
0.82324017 1.00000000 0.60387419
0.91223437 1.00000000 0.75837603
0.97865824 1.00000000 0.88338817
1.00000000 1.00000000 1.00000000
0.01768239 0.00235773 0.16136612
0.01768239 0.00235773 0.16136612
0.19851474 0.00000000 0.21460686
0.42736947 0.00000000 0.25657692
0.63278184 0.00000000 0.24829791
0.78895686 0.00000000 0.19357658
0.89564734 0.00904798 0.09545827
0.94919426 0.10171389 0.00000000
1.00000000 0.19513613 0.00000000
0.01768239 0.00235773 0.16136612
0.01768239 0.00235773 0.16136612
0.19851474 0.00000000 0.21460686
0.42736947 0.00000000 0.25657692
0.63278184 0.00000000 0.24829791
0.78895686 0.00000000 0.19357658
0.89564734 0.00904798 0.09545827
0.94919426 0.10171389 0.00000000
1.00000000 0.19513613 0.00000000
0.02095637 0.23194322 0.22576741
0.02095637 0.23194322 0.22576741
0.23600832 0.23600832 0.23600832
0.47902475 0.21827900 0.23290888
0.68877579 0.19242371 0.22019948
0.84931173 0.16807234 0.18251291
0.92723847 0.22081866 0.16350289
0.96430989 0.28347271 0.14768332
1.00000000 0.34633730 0.17239319
0.05890920 0.49721068 0.17584031
0.05890920 0.49721068 0.17584031
0.23156476 0.50579894 0.13550425
0.47416433 0.49836362 0.13524371
0.71733029 0.46408750 0.14962269
0.88803509 0.43421765 0.20628534
0.96520361 0.45088792 0.27477577
0.98520053 0.49324645 0.33829270
1.00000000 0.53852484 0.38842431
0.17280195 0.68483976 0.02665330
0.17280195 0.68483976 0.02665330
0.27930149 0.70581344 0.00511258
0.45042830 0.72298604 0.00000000
0.67430578 0.71479840 0.00000000
0.91601846 0.66054467 0.01191819
1.00000000 0.63297326 0.27938830
1.00000000 0.66119100 0.45831198
1.00000000 0.70117079 0.55382517
0.30603089 0.78838282 0.00312744
0.30603089 0.78838282 0.00312744
0.35911539 0.81193445 0.00927296
0.45596389 0.84751877 0.01796070
0.60791232 0.87282890 0.02537226
0.81156297 0.86201363 0.04724995
1.00000000 0.81590421 0.25734925
1.00000000 0.80642828 0.53995077
1.00000000 0.82903901 0.68118466
0.40000440 0.86579348 0.00902229
0.40000440 0.86579348 0.00902229
0.43299008 0.88983618 0.02813754
0.49858763 0.92935193 0.07449639
0.56938971 0.97917008 0.00000000
0.74293493 0.98177808 0.21800537
0.91041343 0.96671751 0.30682869
1.00000000 0.93008528 0.59650179
1.00000000 0.92910328 0.78262379
0.47223051 0.91940129 0.04949700
0.47223051 0.91940129 0.04949700
0.50264910 0.94107044 0.09763444
0.56948426 0.97489545 0.20037522
0.68350259 0.99842930 0.37038981
0.79892246 1.00000000 0.53392697
0.89582538 1.00000000 0.66255039
0.97824290 1.00000000 0.79538841
1.00000000 1.00000000 0.91217997
0.54541771 0.98478238 0.12647255
0.54541771 0.98478238 0.12647255
0.59140653 0.99709816 0.22240708
0.68302506 1.00000000 0.38626854
0.79403099 1.00000000 0.57581817
0.88953064 1.00000000 0.74299132
0.96137318 1.00000000 0.87415390
1.00000000 1.00000000 1.00000000
1.00000000 1.00000000 1.00000000
0.04815575 0.00605833 0.34196828
0.04815575 0.00605833 0.34196828
0.17778398 0.00000000 0.34774245
0.39442272 0.00000000 0.40980497
0.60138218 0.00000000 0.41802968
0.76448070 0.00000000 0.36840033
0.88226335 0.00000000 0.27714617
0.95650183 0.02025353 0.15380945
1.00000000 0.14592178 0.05228859
0.04815575 0.00605833 0.34196828
0.04815575 0.00605833 0.34196828
0.17778398 0.00000000 0.34774245
0.39442272 0.00000000 0.40980497
0.60138218 0.00000000 0.41802968
0.76448070 0.00000000 0.36840033
0.88226335 0.00000000 0.27714617
0.95650183 0.02025353 0.15380945
1.00000000 0.14592178 0.05228859
0.00000000 0.16782526 0.41086354
0.00000000 0.16782526 0.41086354
0.19696824 0.13807709 0.49935475
0.46184249 0.10820472 0.49567772
0.66280431 0.12492620 0.43996655
0.82227277 0.12365657 0.37918435
0.92815568 0.14983979 0.30321371
0.97272675 0.22556181 0.23704059
1.00000000 0.31004066 0.20497684
0.02075614 0.45390501 0.44271016
0.02075614 0.45390501 0.44271016
0.18863543 0.46543697 0.45729287
0.45620114 0.45620114 0.45620114
0.67338319 0.44318757 0.45218353
0.83792512 0.43104959 0.43706200
0.93145354 0.44495802 0.42253690
0.96390703 0.48522896 0.41898976
1.00000000 0.53248371 0.42254006
0.15683458 0.68638518 0.34858868
0.15683458 0.68638518 0.34858868
0.26277431 0.69598752 0.34604243
0.46162370 0.69778853 0.38225424
0.66701956 0.69320115 0.38894394
0.87802318 0.65709776 0.39845323
0.97289496 0.65307123 0.48772852
0.98971844 0.68196083 0.56207457
1.00000000 0.72046140 0.60947865
0.31379400 0.84938994 0.17507262
0.31379400 0.84938994 0.17507262
0.39289772 0.85414783 0.21141977
0.51138597 0.86601262 0.27036659
0.65243082 0.87903800 0.31233761
0.82301339 0.87165410 0.30625772
0.98760098 0.83536910 0.42596710
1.00000000 0.83001423 0.62171991
1.00000000 0.85480625 0.73592803
0.43288555 0.95940868 0.11550430
0.43288555 0.95940868 0.11550430
0.48132278 0.96618065 0.17003476
0.56754033 0.97951246 0.25859347
0.68095702 0.99302322 0.35815803
0.80256424 0.99870232 0.43364035
0.93661802 0.98891582 0.47114256
1.00000000 0.95743854 0.71343853
1.00000000 0.96070269 0.85633494
0.56837711 1.00000000 0.23340423
0.56837711 1.00000000 0.23340423
0.61579988 1.00000000 0.30969427
0.69742641 1.00000000 0.43435654
0.79422551 1.00000000 0.57821103
0.88320277 1.00000000 0.71036898
0.95718555 1.00000000 0.82404917
1.00000000 1.00000000 1.00000000
1.00000000 1.00000000 1.00000000
0.71351072 1.00000000 0.43713957
0.71351072 1.00000000 0.43713957
0.75769350 1.00000000 0.51138712
0.82879449 1.00000000 0.63187385
0.91059181 1.00000000 0.77816006
1.00000000 1.00000000 1.00000000
1.00000000 1.00000000 1.00000000
1.00000000 1.00000000 1.00000000
1.00000000 1.00000000 1.00000000
0.07547546 0.00956373 0.50991058
0.07547546 0.00956373 0.50991058
0.14214728 0.00000000 0.46314083
0.35402505 0.00000000 0.52913423
0.56268628 0.00000000 0.56559519
0.73128285 0.00000000 0.52996591
0.85709072 0.00000000 0.44559647
0.94408222 0.00000000 0.32685693
1.00000000 0.09089196 0.21240044
0.07547546 0.00956373 0.50991058
0.07547546 0.00956373 0.50991058
0.14214728 0.00000000 0.46314083
0.35402505 0.00000000 0.52913423
0.56268628 0.00000000 0.56559519
0.73128285 0.00000000 0.52996591
0.85709072 0.00000000 0.44559647
0.94408222 0.00000000 0.32685693
1.00000000 0.09089196 0.21240044
0.00814361 0.12576003 0.58187935
0.00814361 0.12576003 0.58187935
0.11218385 0.01625248 0.60716574
0.38500228 0.02499223 0.63827655
0.61486074 0.01497559 0.62952868
0.79055058 0.01383863 0.56296156
0.91248316 0.03721207 0.46454192
0.97817886 0.12296612 0.35577006
1.00000000 0.23871719 0.28015893
0.00000000 0.38504560 0.64159782
0.00000000 0.38504560 0.64159782
0.17300051 0.38660361 0.70363797
0.42421583 0.39143634 0.69479442
0.66006802 0.37224048 0.68399985
0.84724157 0.35250630 0.61666821
0.94610136 0.37687061 0.54354492
0.98162992 0.42881569 0.48962352
1.00000000 0.48779936 0.46064667
0.00000000 0.65132756 0.63520639
0.00000000 0.65132756 0.63520639
0.15237953 0.66130363 0.64720724
0.42202827 0.66003675 0.65139606
0.65092930 0.65092930 0.65092930
0.82040891 0.64187713 0.64669284
0.94251483 0.63543201 0.63238539
0.96903373 0.66758422 0.64203860
1.00000000 0.70433125 0.65109016
0.19811191 0.83471006 0.45653603
0.19811191 0.83471006 0.45653603
0.33109244 0.83407236 0.48402009
0.49981954 0.83489395 0.53873543
0.66112579 0.83913005 0.59455278
0.81376433 0.83751321 0.60526670
0.97374341 0.81073318 0.61082968
0.99936639 0.82420451 0.72504685
1.00000000 0.85694846 0.78790270
0.48002684 0.92585315 0.33792635
0.48002684 0.92585315 0.33792635
0.52946451 0.93107118 0.37667565
0.61434479 0.94273033 0.44644464
0.71334020 0.95965616 0.52023541
0.81102422 0.97432018 0.56238353
0.92669341 0.97227177 0.56337822
1.00000000 0.95173069 0.77284979
1.00000000 0.96661824 0.89277037
0.61936487 0.98389016 0.38915060
0.61936487 0.98389016 0.38915060
0.66210383 0.98573474 0.44767935
0.73527360 0.99164604 0.54856944
0.82151688 1.00000000 0.66815522
0.90037169 1.00000000 0.77850774
0.96410168 1.00000000 0.87064112
1.00000000 1.00000000 1.00000000
1.00000000 1.00000000 1.00000000
0.78213303 1.00000000 0.58158882
0.78213303 1.00000000 0.58158882
0.81675203 1.00000000 0.64077008
0.87648207 1.00000000 0.74303872
0.94784715 1.00000000 0.86750778
1.00000000 1.00000000 1.00000000
1.00000000 1.00000000 1.00000000
1.00000000 1.00000000 1.00000000
1.00000000 1.00000000 1.00000000
0.07891070 0.01773390 0.64382647
0.07891070 0.01773390 0.64382647
0.12626442 0.00000000 0.59282631
0.29657087 0.00000000 0.63772258
0.51180605 0.00000000 0.69181698
0.69029052 0.00000000 0.67675506
0.82291315 0.00000000 0.60549957
0.91942193 0.00000000 0.49555656
1.00000000 0.03864182 0.37664807
0.07891070 0.01773390 0.64382647
0.07891070 0.01773390 0.64382647
0.12626442 0.00000000 0.59282631
0.29657087 0.00000000 0.63772258
0.51180605 0.00000000 0.69181698
0.69029052 0.00000000 0.67675506
0.82291315 0.00000000 0.60549957
0.91942193 0.00000000 0.49555656
1.00000000 0.03864182 0.37664807
0.03685725 0.08972204 0.72941832
0.03685725 0.08972204 0.72941832
0.09241188 0.00648077 0.70380574
0.28455753 0.00000000 0.74243874
0.54253093 0.00000000 0.76595905
0.73400057 0.00000000 0.72344665
0.87002770 0.00000000 0.63353192
0.95764435 0.01418899 0.51257560
1.00000000 0.14925727 0.40212495
0.00000000 0.30220441 0.80699444
0.00000000 0.30220441 0.80699444
0.10281628 0.30176567 0.87523586
0.35353261 0.32628061 0.88283599
0.61350557 0.29579910 0.89703816
0.82491653 0.26027631 0.83119537
0.93806079 0.30251694 0.70784679
0.98753686 0.36473655 0.60443294
1.00000000 0.43486397 0.53701768
0.06566015 0.57875341 0.85760649
0.06566015 0.57875341 0.85760649
0.18407990 0.58727190 0.89929014
0.43250438 0.59829168 0.85304702
0.62544158 0.60759496 0.83922968
0.81309610 0.59233917 0.82442781
0.95546168 0.58057366 0.76596868
0.98624303 0.62288216 0.71260481
1.00000000 0.66751322 0.69167715
0.00000000 0.80316987 0.78301158
0.00000000 0.80316987 0.78301158
0.12796978 0.81161062 0.79272917
0.38376292 0.81665330 0.80132295
0.62700168 0.80935948 0.80155994
0.80176386 0.80176386 0.80176386
0.92669219 0.79552457 0.79809189
0.97601693 0.81051695 0.80561845
1.00000000 0.84149252 0.82362449
0.27251264 0.93640094 0.54100635
0.27251264 0.93640094 0.54100635
0.37916727 0.93597210 0.57108239
0.53299395 0.93578661 0.63108532
0.68809519 0.93672632 0.70497185
0.81185702 0.94034945 0.75964555
0.92090687 0.94012749 0.77059630
0.99755030 0.93188923 0.84437323
1.00000000 0.95712698 0.91927677
0.57194920 0.98115027 0.42322345
0.57194920 0.98115027 0.42322345
0.65148595 0.97017138 0.51821563
0.72903518 0.97583858 0.60795353
0.81940049 0.98500456 0.71695724
0.89684285 0.99598871 0.81195515
0.95831494 1.00000000 0.88652258
1.00000000 1.00000000 1.00000000
1.00000000 1.00000000 1.00000000
0.77911759 1.00000000 0.60935813
0.77911759 1.00000000 0.60935813
0.81391252 1.00000000 0.66437137
0.87506509 1.00000000 0.76203689
0.94811679 1.00000000 0.88112066
1.00000000 1.00000000 1.00000000
1.00000000 1.00000000 1.00000000
1.00000000 1.00000000 1.00000000
1.00000000 1.00000000 1.00000000
0.05935641 0.02839153 0.74725394
0.05935641 0.02839153 0.74725394
0.08812029 0.00230379 0.70272758
0.20478255 0.00000000 0.74041283
0.43610232 0.00000000 0.82046527
0.63266710 0.00000000 0.80951239
0.78065326 0.00000000 0.75286339
0.88558359 0.00000000 0.65585509
0.99157080 0.00388750 0.54678547
0.05935641 0.02839153 0.74725394
0.05935641 0.02839153 0.74725394
0.08812029 0.00230379 0.70272758
0.20478255 0.00000000 0.74041283
0.43610232 0.00000000 0.82046527
0.63266710 0.00000000 0.80951239
0.78065326 0.00000000 0.75286339
0.88558359 0.00000000 0.65585509
0.99157080 0.00388750 0.54678547
0.04403458 0.07046832 0.83116480
0.04403458 0.07046832 0.83116480
0.07381712 0.02621641 0.78978800
0.15740583 0.00000000 0.80270217
0.43188622 0.00000000 0.89154362
0.65480333 0.00000000 0.86250655
0.81238352 0.00000000 0.78802538
0.91708436 0.00000000 0.67470410
1.00000000 0.03221631 0.55746350
0.01567426 0.21571470 0.99800542
0.01567426 0.21571470 0.99800542
0.10725089 0.23009266 0.91752290
0.28799715 0.30267127 0.91320856
0.50571742 0.31368619 0.96083079
0.74328898 0.27230896 0.92799679
0.89961099 0.25189738 0.86203956
0.97320260 0.30701279 0.74615539
1.00000000 0.38356905 0.65135858
0.16429333 0.51202344 0.97053133
0.16429333 0.51202344 0.97053133
0.25960998 0.53362164 0.95323927
0.39524864 0.57070896 0.92872599
0.57265226 0.58707874 0.94377469
0.76510779 0.57126237 0.95171575
0.94078758 0.53381742 0.92531547
0.98674591 0.58237733 0.81579682
1.00000000 0.63121559 0.76289548
0.22317314 0.72368863 0.99091382
0.22317314 0.72368863 0.99091382
0.32008801 0.73230174 0.98907985
0.47680085 0.74786363 0.96946492
0.63651386 0.76536182 0.95262046
0.78238814 0.77252648 0.94158260
0.92337926 0.76058597 0.92744045
0.98542096 0.77885354 0.87434939
1.00000000 0.81565493 0.86117434
0.07602206 0.90601935 0.88327634
0.07602206 0.90601935 0.88327634
0.22341680 0.91188419 0.89010551
0.34688280 0.93118404 0.91092944
0.60527765 0.92491695 0.91077307
0.78513387 0.91825253 0.91192227
0.91241619 0.91241619 0.91241619
0.98140093 0.91701591 0.91784243
1.00000000 0.94457773 0.94175496
0.45507146 0.98025394 0.63830199
0.45507146 0.98025394 0.63830199
0.52591268 0.97962407 0.66941782
0.64076869 0.98029152 0.72903988
0.76744313 0.98269143 0.80500075
0.87182755 0.98731245 0.87379258
0.94592413 0.99480053 0.92423672
0.99708555 1.00000000 0.96366144
1.00000000 1.00000000 1.00000000
0.76064738 1.00000000 0.64785596
0.76064738 1.00000000 0.64785596
0.79725059 1.00000000 0.69556453
0.86221998 1.00000000 0.78291314
0.93979813 1.00000000 0.89142442
1.00000000 1.00000000 1.00000000
1.00000000 1.00000000 1.00000000
1.00000000 1.00000000 1.00000000
1.00000000 1.00000000 1.00000000
0.03071828 0.03558836 0.82682793
0.03071828 0.03558836 0.82682793
0.04052383 0.01694896 0.78733506
0.10731875 0.00000000 0.81338432
0.31015887 0.00371178 0.94329397
0.54188105 0.00000000 0.95167740
0.71783117 0.00000000 0.88828129
0.84318206 0.00000000 0.80479557
0.95726251 0.00164097 0.71245554
0.03071828 0.03558836 0.82682793
0.03071828 0.03558836 0.82682793
0.04052383 0.01694896 0.78733506
0.10731875 0.00000000 0.81338432
0.31015887 0.00371178 0.94329397
0.54188105 0.00000000 0.95167740
0.71783117 0.00000000 0.88828129
0.84318206 0.00000000 0.80479557
0.95726251 0.00164097 0.71245554
0.03763008 0.07046243 0.89766110
0.03763008 0.07046243 0.89766110
0.04589322 0.04274892 0.85619177
0.04463995 0.00000000 0.84396841
0.28817891 0.00000000 0.98102847
0.54213081 0.00000000 0.99496399
0.73399483 0.00000000 0.92447343
0.86559702 0.00000000 0.82979396
0.97908517 0.00000000 0.72563556
0.10425153 0.23537713 0.96443135
0.10425153 0.23537713 0.96443135
0.09897268 0.19573326 0.94637703
0.23607467 0.27811043 0.93602668
0.39608135 0.33743094 0.98757595
0.61693861 0.32426808 1.00000000
0.81107968 0.28194023 0.96757170
0.93820588 0.26617817 0.88978143
1.00000000 0.33439001 0.78506068
0.24054361 0.46331718 0.99543380
0.24054361 0.46331718 0.99543380
0.30499035 0.49214218 0.97461929
0.40433117 0.53946118 0.95763116
0.52020211 0.58324517 0.97232775
0.68262426 0.58651242 1.00000000
0.86420729 0.55853855 0.97214791
0.96647788 0.55795307 0.91620223
1.00000000 0.60178325 0.85185008
0.37446461 0.66907714 1.00000000
0.37446461 0.66907714 1.00000000
0.42345942 0.68589573 1.00000000
0.51362791 0.71743313 0.98307714
0.62055592 0.75381612 0.96841512
0.74686185 0.76671826 0.98399984
0.87688733 0.76052564 0.98795844
0.97204832 0.75980264 0.95164248
1.00000000 0.79441732 0.91521761
0.41738270 0.81711530 1.00000000
0.41738270 0.81711530 1.00000000
0.47157814 0.82701563 1.00000000
0.57358836 0.84549053 1.00000000
0.69967209 0.86688862 0.99866030
0.81230251 0.88470617 0.98297710
0.89986040 0.89623230 0.98365504
0.97616956 0.89979816 0.97582181
1.00000000 0.93012295 0.96753510
0.33632701 0.95933143 0.93634059
0.33632701 0.95933143 0.93634059
0.42005448 0.96225030 0.94044985
0.56384313 0.96592331 0.94720650
0.71583430 0.97134902 0.95774714
0.83966619 0.97758769 0.96978043
0.92980334 0.98427288 0.98136279
0.99115111 0.99115111 0.99115111
1.00000000 1.00000000 1.00000000
0.67578909 1.00000000 0.77441880
0.67578909 1.00000000 0.77441880
0.72371261 1.00000000 0.80318498
0.80866380 1.00000000 0.85870074
0.90889913 1.00000000 0.93059636
1.00000000 1.00000000 1.00000000
1.00000000 1.00000000 1.00000000
1.00000000 1.00000000 1.00000000
1.00000000 1.00000000 1.00000000
0.01301180 0.02769410 0.92646053
0.01301180 0.02769410 0.92646053
0.01398857 0.02637596 0.87908844
0.01411518 0.00000000 0.87136631
0.20471448 0.04310364 0.99728333
0.38256832 0.11118091 1.00000000
0.61447876 0.03481991 1.00000000
0.78104522 0.00000000 0.95044882
0.91665155 0.00000000 0.87074653
0.01301180 0.02769410 0.92646053
0.01301180 0.02769410 0.92646053
0.01398857 0.02637596 0.87908844
0.01411518 0.00000000 0.87136631
0.20471448 0.04310364 0.99728333
0.38256832 0.11118091 1.00000000
0.61447876 0.03481991 1.00000000
0.78104522 0.00000000 0.95044882
0.91665155 0.00000000 0.87074653
0.03450661 0.07081743 0.97650236
0.03450661 0.07081743 0.97650236
0.02959780 0.04705428 0.94153556
0.00803890 0.00000000 0.90398843
0.18049356 0.00000000 1.00000000
0.37311576 0.08333458 1.00000000
0.61692020 0.00000000 1.00000000
0.79430456 0.00000000 0.97706845
0.93521813 0.00000000 0.89113158
0.12874317 0.23933930 0.99668122
0.12874317 0.23933930 0.99668122
0.11211360 0.20402869 0.98541081
0.17057191 0.23035515 0.97459463
0.31265505 0.32592164 1.00000000
0.46314696 0.36718818 1.00000000
0.68165870 0.32866505 1.00000000
0.85777872 0.26893434 1.00000000
0.98837384 0.27130924 0.93226735
0.25358817 0.42149721 1.00000000
0.25358817 0.42149721 1.00000000
0.29963248 0.45117577 1.00000000
0.38411719 0.50763414 0.99510928
0.48227207 0.56410127 1.00000000
0.59210285 0.59676061 1.00000000
0.76352524 0.57891867 1.00000000
0.91303489 0.54999991 1.00000000
1.00000000 0.56774148 0.94811637
0.42121013 0.62662286 1.00000000
0.42121013 0.62662286 1.00000000
0.45765153 0.64687985 1.00000000
0.52724205 0.68483065 1.00000000
0.61331950 0.72894623 1.00000000
0.69898552 0.76105745 1.00000000
0.81701647 0.76262882 1.00000000
0.94203358 0.74814091 1.00000000
1.00000000 0.77045062 0.97039142
0.51288771 0.76711446 1.00000000
0.51288771 0.76711446 1.00000000
0.54775320 0.78214317 1.00000000
0.61639835 0.81070169 1.00000000
0.70344094 0.84586918 1.00000000
0.78337689 0.87636475 1.00000000
0.87133538 0.88711258 1.00000000
0.95127898 0.89037687 1.00000000
1.00000000 0.91315146 0.99599332
0.54717464 0.87267210 1.00000000
0.54717464 0.87267210 1.00000000
0.59149588 0.88211286 1.00000000
0.67411353 0.90058217 1.00000000
0.77541791 0.92410499 1.00000000
0.86553031 0.94611961 1.00000000
0.93266351 0.96473389 1.00000000
0.98010010 0.97916871 1.00000000
1.00000000 1.00000000 1.00000000
0.58693152 1.00000000 0.98599599
0.58693152 1.00000000 0.98599599
0.64807134 1.00000000 0.98824740
0.75438137 1.00000000 0.99426206
0.87741796 1.00000000 1.00000000
1.00000000 1.00000000 1.00000000
1.00000000 1.00000000 1.00000000
1.00000000 1.00000000 1.00000000
1.00000000 1.00000000 1.00000000
