Luts Download/Canon Luts/3dlut/17grid-3dlut/full-to-full-range/CinemaGamut_CanonLog3-to-BT2020_HLGKnee-Vivid_17_FF_Ver.2.0.cube
# Gamut : Cinema Gamut to BT.2020
# Gamma : Canon Log 3 to HLGKnee-Vivid
# Range : Full in / Full out
# Version : 2.0 2019/10/24
# Copyright(c) 2019 Canon Inc. All Rights Reserved.
LUT_3D_SIZE 5
# LUT_3D_INPUT_RANGE 0.0 1.0
0.00000003 0.00000000 0.00000000
0.25524233 0.06264416 0.07904364
0.68838341 0.03810266 0.14940860
0.96238164 0.15507379 0.25259868
1.00000000 0.72096937 0.61834176
0.08167685 0.22333564 0.00000000
0.23781302 0.24962211 0.06548705
0.67690149 0.25657698 0.00000000
0.96613572 0.22318047 0.17879361
1.00000000 0.73144938 0.62215950
0.24754347 0.60396984 0.05434121
0.31614546 0.61137319 0.02334838
0.63321485 0.65534246 0.04540931
0.95042580 0.67832076 0.14131460
1.00000000 0.81270010 0.69062070
0.55667565 0.90743442 0.10182160
0.58203255 0.90805010 0.10574263
0.70206799 0.91948237 0.12075256
0.93667238 0.95742766 0.32453142
1.00000000 0.97952854 0.91128561
0.90190414 1.00000000 0.76961467
0.90463853 1.00000000 0.77442321
0.92723593 1.00000000 0.81793991
1.00000000 1.00000000 1.00000000
1.00000000 1.00000000 1.00000000
0.07665629 0.03168965 0.23002437
0.23354654 0.00000000 0.25083983
0.67784813 0.00000000 0.32975585
0.95989547 0.13043855 0.37074435
1.00000000 0.71577986 0.62198160
0.07039979 0.24436443 0.23956951
0.24181371 0.24181371 0.24181371
0.69103561 0.18397367 0.24145578
0.96580760 0.17894477 0.29808660
1.00000000 0.72553111 0.62430242
0.14760604 0.64770293 0.01050679
0.28365189 0.64965033 0.05500694
0.64586178 0.66792812 0.02867341
0.95681513 0.66597124 0.15928916
1.00000000 0.81005801 0.69315581
0.54257531 0.91340318 0.11192927
0.57040323 0.91392384 0.11358164
0.69945405 0.92428801 0.12890585
0.93832958 0.95912508 0.33837918
1.00000000 0.97974308 0.91412845
0.90608467 1.00000000 0.78144932
0.90859768 1.00000000 0.78576046
0.93052312 1.00000000 0.82748400
1.00000000 1.00000000 1.00000000
1.00000000 1.00000000 1.00000000
0.20377783 0.05305126 0.63628958
0.25762560 0.00000000 0.58594941
0.63270254 0.00000000 0.64636422
0.94036255 0.15394141 0.70718585
1.00000000 0.69996181 0.72068774
0.09278169 0.15050838 0.65247784
0.19393861 0.00548268 0.63968497
0.63920211 0.00000000 0.66293387
0.94736407 0.13544880 0.69409764
1.00000000 0.70977535 0.72057291
0.15559535 0.64698979 0.63761717
0.18466819 0.65067343 0.64233642
0.63952564 0.63952564 0.63952564
0.96805094 0.58279974 0.62845043
1.00000000 0.79328551 0.75183080
0.41605881 0.96698108 0.33321524
0.04807997 0.97508398 0.04076385
0.66996748 0.97188069 0.23157207
0.95547115 0.97612747 0.48514274
1.00000000 0.98170832 0.92953000
0.94230594 1.00000000 0.87017561
0.94403846 1.00000000 0.87292263
0.95929145 1.00000000 0.90009910
1.00000000 1.00000000 1.00000000
1.00000000 1.00000000 1.00000000
0.34843256 0.07120013 0.90340050
0.37861651 0.09545912 0.88708453
0.54472890 0.00000000 0.81929785
0.90687545 0.09146563 0.90473906
1.00000000 0.64090960 0.85590302
0.31262752 0.07488922 0.91773104
0.34806127 0.08581987 0.90347731
0.52345927 0.00000000 0.82790936
0.90791553 0.06020433 0.90598648
1.00000000 0.64422057 0.85463460
0.00000000 0.51210398 0.89626538
0.00000000 0.47800914 0.91006724
0.44641379 0.17393766 0.93264120
0.92580667 0.24938510 0.94267074
1.00000000 0.72064475 0.86063990
0.43209717 0.94267506 0.93416859
0.44317599 0.94330176 0.93500898
0.60892160 0.94666066 0.93987227
0.94441540 0.94441540 0.94441540
1.00000000 0.98540390 0.98396855
1.00000000 1.00000000 1.00000000
1.00000000 1.00000000 1.00000000
1.00000000 1.00000000 1.00000000
1.00000000 1.00000000 1.00000000
1.00000000 1.00000000 1.00000000
0.48218615 0.39466157 1.00000000
0.49248801 0.38889447 1.00000000
0.54514324 0.33441466 0.99722468
0.80754307 0.00000000 1.00000000
1.00000000 0.55328116 0.99267965
0.47293971 0.40787067 1.00000000
0.48279406 0.40015825 1.00000000
0.53805394 0.34114851 1.00000000
0.80467956 0.00000000 1.00000000
1.00000000 0.55515618 0.99249925
0.42679393 0.54369431 1.00000000
0.43607268 0.53439443 1.00000000
0.49158289 0.44946838 1.00000000
0.77811615 0.00000000 1.00000000
1.00000000 0.57893976 0.98960571
0.56337052 0.83514600 1.00000000
0.56533470 0.83368176 1.00000000
0.64096134 0.84130563 1.00000000
0.87350551 0.88407611 1.00000000
1.00000000 0.94056623 1.00000000
1.00000000 1.00000000 1.00000000
1.00000000 1.00000000 1.00000000
1.00000000 1.00000000 1.00000000
1.00000000 1.00000000 1.00000000
1.00000000 1.00000000 1.00000000
