Luts Download/Canon Luts/3dlut/17grid-3dlut/full-to-full-range/CinemaGamut_CanonLog3-to-BT2020_HLG_17_FF_Ver.2.0.cube
# Gamut : Cinema Gamut to BT.2020
# Gamma : Canon Log 3 to HLG
# Range : Full in / Full out
# Version : 2.0 2019/10/24
# Copyright(c) 2019 Canon Inc. All Rights Reserved.
LUT_3D_SIZE 9
# LUT_3D_INPUT_RANGE 0.0 1.0
0.00000010 0.00000000 0.00000000
0.00000010 0.00000000 0.00000000
0.22900462 0.05536980 0.06912101
0.43086569 0.03865403 0.08677119
0.64582268 0.00000000 0.11270549
0.81082969 0.00000000 0.15646781
0.94632922 0.23217842 0.26330338
1.00000000 0.68896130 0.60351389
1.00000000 0.88299508 0.82910355
0.09216367 0.14617205 0.00000000
0.07524563 0.09056130 0.00000000
0.22900462 0.05536980 0.06912101
0.43086569 0.03865403 0.08677119
0.64582268 0.00000000 0.11270549
0.81082969 0.00000000 0.15646781
0.94632922 0.23217842 0.26330338
1.00000000 0.68896130 0.60351389
1.00000000 0.88299508 0.82910355
0.11300862 0.20811015 0.08252224
0.11300862 0.20811015 0.08252224
0.23665726 0.24863713 0.05829849
0.42671354 0.26405872 0.04581587
0.64686853 0.25913805 0.05528786
0.81673071 0.23485600 0.09275289
0.95384616 0.30514278 0.22047000
1.00000000 0.71113696 0.60934220
1.00000000 0.89266793 0.83837239
0.16569548 0.38060014 0.07148042
0.16569548 0.38060014 0.07148042
0.25851989 0.41227679 0.03892907
0.42101591 0.44353392 0.01811215
0.63532106 0.46542378 0.02695580
0.81044158 0.46977044 0.07040877
0.95343766 0.50704675 0.21075272
1.00000000 0.75775063 0.63333438
1.00000000 0.91199149 0.85852340
0.24472018 0.58944042 0.05088237
0.24472018 0.58944042 0.05088237
0.31526080 0.60566495 0.03148242
0.44496852 0.62829664 0.00909453
0.63122958 0.65354392 0.02283595
0.80077459 0.67391580 0.07589810
0.94734842 0.70026813 0.23533178
1.00000000 0.82883894 0.68345475
1.00000000 0.94624055 0.89803645
0.37632166 0.76221651 0.06767893
0.37632166 0.76221651 0.06767893
0.42690656 0.76882415 0.06637799
0.52337706 0.78053219 0.06591364
0.65456488 0.79850044 0.07509373
0.79996455 0.82070830 0.12630373
0.94114923 0.84590886 0.30694624
1.00000000 0.91574176 0.77185882
1.00000000 1.00000000 1.00000000
0.60412056 0.91153407 0.21947824
0.60412056 0.91153407 0.21947824
0.62607312 0.91427876 0.22410493
0.66651172 0.91981641 0.23297922
0.73511784 0.92994491 0.26280091
0.83416924 0.94579245 0.35684705
0.94875072 0.96942730 0.58544064
1.00000000 1.00000000 0.91976624
1.00000000 1.00000000 1.00000000
0.90365487 1.00000000 0.79283573
0.90365487 1.00000000 0.79283573
0.90802477 1.00000000 0.79831923
0.91705557 1.00000000 0.80995474
0.93621841 1.00000000 0.83738989
0.97049579 1.00000000 0.89583706
1.00000000 1.00000000 1.00000000
1.00000000 1.00000000 1.00000000
1.00000000 1.00000000 1.00000000
1.00000000 1.00000000 1.00000000
1.00000000 1.00000000 1.00000000
1.00000000 1.00000000 1.00000000
1.00000000 1.00000000 1.00000000
1.00000000 1.00000000 1.00000000
1.00000000 1.00000000 1.00000000
1.00000000 1.00000000 1.00000000
1.00000000 1.00000000 1.00000000
1.00000000 1.00000000 1.00000000
0.00000010 0.00000000 0.00000000
0.00000010 0.00000000 0.00000000
0.22900462 0.05536980 0.06912101
0.43086569 0.03865403 0.08677119
0.64582268 0.00000000 0.11270549
0.81082969 0.00000000 0.15646781
0.94632922 0.23217842 0.26330338
1.00000000 0.68896130 0.60351389
1.00000000 0.88299508 0.82910355
0.00000010 0.00000000 0.00000000
0.00000010 0.00000000 0.00000000
0.22900462 0.05536980 0.06912101
0.43086569 0.03865403 0.08677119
0.64582268 0.00000000 0.11270549
0.81082969 0.00000000 0.15646781
0.94632922 0.23217842 0.26330338
1.00000000 0.68896130 0.60351389
1.00000000 0.88299508 0.82910355
0.11300862 0.20811015 0.08252224
0.11300862 0.20811015 0.08252224
0.23665726 0.24863713 0.05829849
0.42671354 0.26405872 0.04581587
0.64686853 0.25913805 0.05528786
0.81673071 0.23485600 0.09275289
0.95384616 0.30514278 0.22047000
1.00000000 0.71113696 0.60934220
1.00000000 0.89266793 0.83837239
0.16569548 0.38060014 0.07148042
0.16569548 0.38060014 0.07148042
0.25851989 0.41227679 0.03892907
0.42101591 0.44353392 0.01811215
0.63532106 0.46542378 0.02695580
0.81044158 0.46977044 0.07040877
0.95343766 0.50704675 0.21075272
1.00000000 0.75775063 0.63333438
1.00000000 0.91199149 0.85852340
0.24472018 0.58944042 0.05088237
0.24472018 0.58944042 0.05088237
0.31526080 0.60566495 0.03148242
0.44496852 0.62829664 0.00909453
0.63122958 0.65354392 0.02283595
0.80077459 0.67391580 0.07589810
0.94734842 0.70026813 0.23533178
1.00000000 0.82883894 0.68345475
1.00000000 0.94624055 0.89803645
0.37632166 0.76221651 0.06767893
0.37632166 0.76221651 0.06767893
0.42690656 0.76882415 0.06637799
0.52337706 0.78053219 0.06591364
0.65456488 0.79850044 0.07509373
0.79996455 0.82070830 0.12630373
0.94114923 0.84590886 0.30694624
1.00000000 0.91574176 0.77185882
1.00000000 1.00000000 1.00000000
0.60412056 0.91153407 0.21947824
0.60412056 0.91153407 0.21947824
0.62607312 0.91427876 0.22410493
0.66651172 0.91981641 0.23297922
0.73511784 0.92994491 0.26280091
0.83416924 0.94579245 0.35684705
0.94875072 0.96942730 0.58544064
1.00000000 1.00000000 0.91976624
1.00000000 1.00000000 1.00000000
0.90365487 1.00000000 0.79283573
0.90365487 1.00000000 0.79283573
0.90802477 1.00000000 0.79831923
0.91705557 1.00000000 0.80995474
0.93621841 1.00000000 0.83738989
0.97049579 1.00000000 0.89583706
1.00000000 1.00000000 1.00000000
1.00000000 1.00000000 1.00000000
1.00000000 1.00000000 1.00000000
1.00000000 1.00000000 1.00000000
1.00000000 1.00000000 1.00000000
1.00000000 1.00000000 1.00000000
1.00000000 1.00000000 1.00000000
1.00000000 1.00000000 1.00000000
1.00000000 1.00000000 1.00000000
1.00000000 1.00000000 1.00000000
1.00000000 1.00000000 1.00000000
1.00000000 1.00000000 1.00000000
0.05875890 0.02247434 0.18572298
0.05875890 0.02247434 0.18572298
0.21491450 0.00000000 0.22896109
0.41114085 0.00000000 0.26615313
0.63462005 0.00000000 0.29469560
0.80500775 0.00000000 0.32060352
0.94281889 0.22272389 0.37735009
1.00000000 0.67884812 0.62355174
1.00000000 0.87723004 0.82585994
0.05875890 0.02247434 0.18572298
0.05875890 0.02247434 0.18572298
0.21491450 0.00000000 0.22896109
0.41114085 0.00000000 0.26615313
0.63462005 0.00000000 0.29469560
0.80500775 0.00000000 0.32060352
0.94281889 0.22272389 0.37735009
1.00000000 0.67884812 0.62355174
1.00000000 0.87723004 0.82585994
0.06102729 0.23918782 0.23433236
0.06102729 0.23918782 0.23433236
0.24181371 0.24181371 0.24181371
0.44979474 0.22693661 0.23980483
0.66346678 0.19034505 0.23534648
0.81788918 0.19058568 0.26387046
0.95113812 0.28986530 0.33136334
1.00000000 0.70041125 0.62149191
1.00000000 0.88594794 0.83355852
0.09634606 0.46907029 0.19851221
0.09634606 0.46907029 0.19851221
0.23471804 0.47397554 0.16100418
0.44602017 0.46656100 0.15797099
0.65956534 0.45303235 0.16499147
0.82485477 0.42745855 0.16728640
0.96020314 0.45279327 0.24534267
1.00000000 0.74658238 0.63401664
1.00000000 0.90614151 0.85373544
0.19005343 0.64951339 0.09607614
0.19005343 0.64951339 0.09607614
0.28500482 0.65853025 0.04237195
0.45039861 0.66687059 0.00000000
0.65044936 0.67243739 0.00000000
0.81568000 0.67376228 0.07046153
0.95510512 0.68924006 0.24072668
1.00000000 0.82389662 0.68603807
1.00000000 0.94223453 0.89442403
0.35023929 0.78616875 0.08630033
0.35023929 0.78616875 0.08630033
0.40777713 0.79142981 0.07492810
0.51777069 0.80022523 0.06726943
0.66001124 0.81311387 0.07448599
0.80770955 0.82841844 0.12922751
0.94639944 0.84729155 0.31692846
1.00000000 0.91525333 0.77723649
1.00000000 1.00000000 1.00000000
0.60058298 0.92149914 0.23340505
0.60058298 0.92149914 0.23340505
0.62435107 0.92386821 0.23903055
0.66788876 0.92859014 0.25179718
0.73999370 0.93724983 0.28989402
0.83871256 0.95123214 0.38046356
0.95187967 0.97249457 0.60076591
1.00000000 1.00000000 0.92462511
1.00000000 1.00000000 1.00000000
0.90962860 1.00000000 0.80661129
0.90962860 1.00000000 0.80661129
0.91395978 1.00000000 0.81218649
0.92284600 1.00000000 0.82402078
0.94216815 1.00000000 0.85323407
0.97365328 1.00000000 0.90671107
1.00000000 1.00000000 1.00000000
1.00000000 1.00000000 1.00000000
1.00000000 1.00000000 1.00000000
1.00000000 1.00000000 1.00000000
1.00000000 1.00000000 1.00000000
1.00000000 1.00000000 1.00000000
1.00000000 1.00000000 1.00000000
1.00000000 1.00000000 1.00000000
1.00000000 1.00000000 1.00000000
1.00000000 1.00000000 1.00000000
1.00000000 1.00000000 1.00000000
1.00000000 1.00000000 1.00000000
0.10052270 0.03331629 0.34173796
0.10052270 0.03331629 0.34173796
0.20407977 0.00000000 0.34959394
0.38825078 0.00000000 0.40525312
0.61635820 0.00000000 0.46211158
0.79352968 0.00000000 0.50925268
0.93661170 0.21968907 0.55578191
1.00000000 0.67335583 0.69222355
1.00000000 0.87687982 0.84390409
0.10052270 0.03331629 0.34173796
0.10052270 0.03331629 0.34173796
0.20407977 0.00000000 0.34959394
0.38825078 0.00000000 0.40525312
0.61635820 0.00000000 0.46211158
0.79352968 0.00000000 0.50925268
0.93661170 0.21968907 0.55578191
1.00000000 0.67335583 0.69222355
1.00000000 0.87687982 0.84390409
0.00000000 0.18802784 0.39322249
0.00000000 0.18802784 0.39322249
0.21054807 0.15995413 0.46723619
0.43378789 0.13642463 0.46619968
0.64160664 0.15636860 0.46044581
0.80850169 0.15735071 0.48204491
0.94480451 0.28117741 0.53160131
1.00000000 0.69635109 0.69341950
1.00000000 0.88468524 0.84876897
0.07904897 0.42830162 0.41899064
0.07904897 0.42830162 0.41899064
0.20235903 0.43790896 0.43099667
0.42987279 0.42987279 0.42987279
0.65629964 0.41173004 0.42740171
0.82779665 0.36890345 0.42194068
0.95630124 0.42974158 0.48305860
1.00000000 0.73898799 0.69698307
1.00000000 0.90041097 0.85969094
0.13531530 0.67168406 0.37608256
0.13531530 0.67168406 0.37608256
0.22884055 0.67533866 0.35450932
0.42117352 0.67562531 0.33692454
0.65318332 0.66981307 0.33376601
0.82660862 0.65638629 0.32674373
0.96054715 0.66684149 0.41293383
1.00000000 0.81282343 0.71486340
1.00000000 0.93387914 0.88935114
0.23200699 0.83351190 0.17561140
0.23200699 0.83351190 0.17561140
0.30661723 0.83757614 0.13114079
0.46537156 0.84180550 0.07657859
0.66194578 0.84416366 0.03804603
0.82321792 0.84380749 0.11269538
0.95859757 0.84801603 0.32402319
1.00000000 0.91270789 0.78345664
1.00000000 0.98848211 0.95688312
0.59981386 0.94096319 0.29587717
0.59981386 0.94096319 0.29587717
0.62512246 0.94295894 0.29740602
0.67263297 0.94648910 0.30846903
0.74749968 0.95272577 0.33982293
0.84665381 0.96294071 0.41724886
0.95841819 0.97893682 0.62369691
1.00000000 1.00000000 1.00000000
1.00000000 1.00000000 1.00000000
0.92457607 1.00000000 0.84088154
0.92457607 1.00000000 0.84088154
0.92869381 1.00000000 0.84635158
0.93699669 1.00000000 0.85782990
0.95366623 1.00000000 0.88227631
1.00000000 1.00000000 1.00000000
1.00000000 1.00000000 1.00000000
1.00000000 1.00000000 1.00000000
1.00000000 1.00000000 1.00000000
1.00000000 1.00000000 1.00000000
1.00000000 1.00000000 1.00000000
1.00000000 1.00000000 1.00000000
1.00000000 1.00000000 1.00000000
1.00000000 1.00000000 1.00000000
1.00000000 1.00000000 1.00000000
1.00000000 1.00000000 1.00000000
1.00000000 1.00000000 1.00000000
1.00000000 1.00000000 1.00000000
0.15064632 0.04077509 0.54356966
0.15064632 0.04077509 0.54356966
0.20903423 0.00000000 0.50593497
0.36930881 0.00000000 0.53929595
0.59806173 0.00000000 0.60745576
0.77969129 0.02386559 0.66042243
0.92698513 0.21253933 0.69894651
1.00000000 0.66146626 0.76656782
1.00000000 0.87672722 0.87406782
0.15064632 0.04077509 0.54356966
0.15064632 0.04077509 0.54356966
0.20903423 0.00000000 0.50593497
0.36930881 0.00000000 0.53929595
0.59806173 0.00000000 0.60745576
0.77969129 0.02386559 0.66042243
0.92698513 0.21253933 0.69894651
1.00000000 0.66146626 0.76656782
1.00000000 0.87672722 0.87406782
0.06535341 0.15254500 0.58942293
0.06535341 0.15254500 0.58942293
0.15998931 0.00000000 0.59381564
0.36928375 0.00000000 0.59829676
0.61432462 0.00000000 0.63190625
0.79343993 0.04213313 0.66333520
0.93558211 0.23792130 0.69241772
1.00000000 0.68164589 0.76656003
1.00000000 0.88531383 0.87911705
0.00000000 0.35914469 0.59928241
0.00000000 0.35914469 0.59928241
0.14815417 0.35295673 0.64237680
0.39220313 0.33582767 0.67034640
0.64288697 0.31226789 0.66952734
0.82277396 0.25313901 0.66772078
0.94908045 0.38013140 0.68210939
1.00000000 0.72709372 0.77229689
1.00000000 0.90262092 0.89012789
0.12342597 0.63781805 0.62818280
0.12342597 0.63781805 0.62818280
0.19835070 0.64329623 0.63488379
0.38264842 0.64639017 0.64049390
0.63952564 0.63952564 0.63952564
0.82155198 0.62350687 0.63738711
0.97798793 0.58244050 0.63261350
1.00000000 0.80274913 0.78807086
1.00000000 0.93475035 0.91400609
0.22684969 0.83302373 0.59134450
0.22684969 0.83302373 0.59134450
0.27583613 0.83545498 0.58081296
0.36084578 0.84074836 0.54980375
0.63193758 0.83846235 0.54819306
0.81884691 0.83335264 0.54461491
0.97686498 0.82162729 0.53652113
1.00000000 0.90545526 0.83462668
1.00000000 0.98692862 0.96485314
0.58769661 0.97877681 0.46528184
0.58769661 0.97877681 0.46528184
0.60274922 0.98112264 0.44301247
0.65385476 0.98416590 0.42219741
0.74421641 0.98618268 0.42292729
0.85550222 0.98660303 0.48685712
0.97104286 0.99119877 0.65619290
1.00000000 1.00000000 1.00000000
1.00000000 1.00000000 1.00000000
0.95279505 1.00000000 0.90070976
0.95279505 1.00000000 0.90070976
0.95553747 1.00000000 0.90365366
0.96133343 1.00000000 0.91024763
0.97032116 1.00000000 0.92202221
1.00000000 1.00000000 1.00000000
1.00000000 1.00000000 1.00000000
1.00000000 1.00000000 1.00000000
1.00000000 1.00000000 1.00000000
1.00000000 1.00000000 1.00000000
1.00000000 1.00000000 1.00000000
1.00000000 1.00000000 1.00000000
1.00000000 1.00000000 1.00000000
1.00000000 1.00000000 1.00000000
1.00000000 1.00000000 1.00000000
1.00000000 1.00000000 1.00000000
1.00000000 1.00000000 1.00000000
1.00000000 1.00000000 1.00000000
0.21730312 0.04828441 0.72245671
0.21730312 0.04828441 0.72245671
0.25998709 0.02859995 0.69285128
0.34373520 0.00000000 0.66521021
0.57520790 0.00000000 0.70891507
0.76523456 0.00000000 0.76684320
0.91427402 0.19722811 0.80785210
1.00000000 0.64135976 0.83854320
1.00000000 0.87090521 0.90587547
0.21730312 0.04828441 0.72245671
0.21730312 0.04828441 0.72245671
0.25998709 0.02859995 0.69285128
0.34373520 0.00000000 0.66521021
0.57520790 0.00000000 0.70891507
0.76523456 0.00000000 0.76684320
0.91427402 0.19722811 0.80785210
1.00000000 0.64135976 0.83854320
1.00000000 0.87090521 0.90587547
0.16798464 0.10589509 0.75605850
0.16798464 0.10589509 0.75605850
0.22409866 0.04921927 0.73613969
0.31938110 0.00000000 0.70114118
0.57030767 0.00000000 0.72603623
0.77236234 0.00000000 0.77601256
0.92104406 0.16297054 0.80959193
1.00000000 0.64799677 0.83708858
1.00000000 0.87568087 0.90681739
0.00000000 0.30668793 0.75119936
0.00000000 0.30668793 0.75119936
0.06908022 0.23474070 0.77689792
0.28680955 0.10726561 0.78407933
0.58588324 0.13269525 0.78630966
0.78570501 0.15598112 0.80203585
0.93343895 0.28814588 0.81688531
1.00000000 0.69747793 0.84264384
1.00000000 0.89492177 0.91681481
0.00000000 0.57107289 0.76369983
0.00000000 0.57107289 0.76369983
0.00438491 0.57008269 0.78592965
0.28038543 0.55832834 0.83414795
0.60539010 0.54695475 0.83382066
0.80995425 0.51919590 0.83310196
0.97324320 0.44391890 0.83151819
1.00000000 0.78211192 0.85680793
1.00000000 0.93161827 0.93878603
0.23104642 0.80330964 0.79448373
0.23104642 0.80330964 0.79448373
0.26477418 0.80621347 0.79789611
0.37178164 0.81027775 0.80302662
0.59616436 0.81297201 0.80789753
0.80706646 0.80706646 0.80706646
0.97208997 0.79341194 0.80523320
1.00000000 0.89403858 0.89208504
1.00000000 0.98499886 0.97937658
0.63312825 0.96810024 0.79602525
0.63312825 0.96810024 0.79602525
0.64269822 0.96959400 0.79376601
0.66997642 0.97200018 0.79021842
0.73871844 0.97436385 0.78847734
0.80057585 0.98808733 0.73190690
0.96953866 0.98324493 0.72910846
1.00000000 1.00000000 1.00000000
1.00000000 1.00000000 1.00000000
1.00000000 1.00000000 1.00000000
1.00000000 1.00000000 1.00000000
1.00000000 1.00000000 1.00000000
1.00000000 1.00000000 1.00000000
1.00000000 1.00000000 1.00000000
1.00000000 1.00000000 1.00000000
1.00000000 1.00000000 1.00000000
1.00000000 1.00000000 1.00000000
1.00000000 1.00000000 1.00000000
1.00000000 1.00000000 1.00000000
1.00000000 1.00000000 1.00000000
1.00000000 1.00000000 1.00000000
1.00000000 1.00000000 1.00000000
1.00000000 1.00000000 1.00000000
1.00000000 1.00000000 1.00000000
1.00000000 1.00000000 1.00000000
1.00000000 1.00000000 1.00000000
1.00000000 1.00000000 1.00000000
0.31114582 0.09062112 0.87107912
0.31114582 0.09062112 0.87107912
0.33976233 0.10522856 0.85347327
0.39507111 0.07720002 0.82412125
0.53162934 0.00000000 0.80398840
0.74036877 0.00000000 0.84699662
0.89874652 0.18396941 0.89415562
0.99588227 0.61222527 0.90638723
1.00000000 0.85575091 0.93588294
0.31114582 0.09062112 0.87107912
0.31114582 0.09062112 0.87107912
0.33976233 0.10522856 0.85347327
0.39507111 0.07720002 0.82412125
0.53162934 0.00000000 0.80398840
0.74036877 0.00000000 0.84699662
0.89874652 0.18396941 0.89415562
0.99588227 0.61222527 0.90638723
1.00000000 0.85575091 0.93588294
0.28189846 0.10154441 0.89031169
0.28189846 0.10154441 0.89031169
0.31555451 0.10153447 0.87535074
0.37741958 0.06954191 0.84570047
0.50493620 0.00000000 0.81260535
0.73834453 0.00000000 0.85164670
0.90091515 0.16659319 0.89665877
0.99678280 0.61694392 0.90629172
1.00000000 0.85821710 0.93577592
0.19904850 0.23233999 0.90867838
0.19904850 0.23233999 0.90867838
0.24407812 0.18750263 0.90583339
0.32496101 0.10509207 0.88712731
0.46824468 0.00000000 0.85148325
0.73598338 0.00000000 0.87199855
0.90871509 0.00000000 0.90660032
0.99944642 0.62936653 0.90692928
1.00000000 0.86829069 0.93770671
0.00000000 0.51260206 0.88188945
0.00000000 0.51260206 0.88188945
0.00000000 0.47672160 0.89571371
0.08551576 0.37136421 0.92406274
0.47985711 0.29322551 0.93043658
0.75697290 0.31625654 0.93175008
0.92377471 0.41289580 0.93449828
1.00000000 0.73546053 0.91877338
1.00000000 0.91030309 0.95500582
0.00000000 0.74637527 0.90220367
0.00000000 0.74637527 0.90220367
0.06938484 0.74721003 0.91223325
0.25448581 0.74777573 0.93266945
0.54452862 0.74617669 0.95008527
0.77704821 0.74548533 0.95295058
0.93693468 0.75961180 0.94960614
1.00000000 0.86913767 0.94186485
1.00000000 0.97843962 0.99237449
0.63048308 0.94196983 0.93392913
0.63048308 0.94196983 0.93392913
0.64073685 0.94331933 0.93549445
0.66574915 0.94580027 0.93845030
0.72718308 0.94920122 0.94292980
0.77054163 0.96400536 0.95923456
0.95845399 0.95845399 0.95845399
1.00000000 1.00000000 1.00000000
1.00000000 1.00000000 1.00000000
1.00000000 1.00000000 1.00000000
1.00000000 1.00000000 1.00000000
1.00000000 1.00000000 1.00000000
1.00000000 1.00000000 1.00000000
1.00000000 1.00000000 1.00000000
1.00000000 1.00000000 1.00000000
1.00000000 1.00000000 1.00000000
1.00000000 1.00000000 1.00000000
1.00000000 1.00000000 1.00000000
1.00000000 1.00000000 1.00000000
1.00000000 1.00000000 1.00000000
1.00000000 1.00000000 1.00000000
1.00000000 1.00000000 1.00000000
1.00000000 1.00000000 1.00000000
1.00000000 1.00000000 1.00000000
1.00000000 1.00000000 1.00000000
1.00000000 1.00000000 1.00000000
1.00000000 1.00000000 1.00000000
0.44240509 0.29609129 0.98159494
0.44240509 0.29609129 0.98159494
0.46051186 0.28643113 0.97620937
0.49791516 0.26596565 0.96420112
0.56273198 0.21292698 0.93678767
0.69246952 0.00000000 0.92155942
0.86847420 0.16621921 0.95800291
0.98638922 0.57939497 0.97136678
1.00000000 0.83308779 0.96750232
0.44240509 0.29609129 0.98159494
0.44240509 0.29609129 0.98159494
0.46051186 0.28643113 0.97620937
0.49791516 0.26596565 0.96420112
0.56273198 0.21292698 0.93678767
0.69246952 0.00000000 0.92155942
0.86847420 0.16621921 0.95800291
0.98638922 0.57939497 0.97136678
1.00000000 0.83308779 0.96750232
0.42585596 0.31890271 0.98602572
0.42585596 0.31890271 0.98602572
0.44517250 0.30707491 0.98145798
0.48417786 0.27960382 0.97135098
0.55484180 0.22315296 0.94515084
0.68310945 0.00000000 0.92310856
0.86730483 0.15818601 0.95887281
0.98650714 0.58189595 0.97140691
1.00000000 0.83456271 0.96731032
0.39002304 0.38763520 0.99013574
0.39002304 0.38763520 0.99013574
0.40883540 0.36716126 0.98784650
0.45115246 0.32986678 0.98099526
0.53391016 0.25041496 0.96210031
0.65950304 0.00000000 0.92899328
0.86519346 0.11521624 0.96225158
0.98683173 0.58679464 0.97158003
1.00000000 0.83826647 0.96656333
0.31560430 0.54304147 0.98395888
0.31560430 0.54304147 0.98395888
0.33145906 0.52223447 0.98648948
0.37317866 0.47565293 0.98806263
0.46420965 0.36983768 0.98162295
0.62518885 0.00000000 0.95768592
0.86163960 0.08817479 0.97479573
0.98628383 0.62788165 0.97166969
1.00000000 0.85904419 0.96736073
0.21926418 0.71210753 0.97732142
0.21926418 0.71210753 0.97732142
0.22012257 0.70505610 0.98009704
0.22916302 0.68772371 0.98542270
0.30343211 0.64295285 0.98762684
0.66998309 0.63586132 0.98813163
0.87339674 0.69350463 0.98965145
0.98697425 0.81553841 0.98044021
1.00000000 0.94158517 0.99248289
0.59609501 0.88737440 0.98612180
0.59609501 0.88737440 0.98612180
0.61710504 0.88823371 0.98759496
0.65724738 0.88997795 0.99016734
0.72724282 0.89339056 0.99293764
0.82343934 0.90097560 0.99446365
0.92739015 0.92254624 0.99635921
1.00000000 0.97621187 1.00000000
1.00000000 1.00000000 1.00000000
1.00000000 1.00000000 1.00000000
1.00000000 1.00000000 1.00000000
1.00000000 1.00000000 1.00000000
1.00000000 1.00000000 1.00000000
1.00000000 1.00000000 1.00000000
1.00000000 1.00000000 1.00000000
1.00000000 1.00000000 1.00000000
1.00000000 1.00000000 1.00000000
1.00000000 1.00000000 1.00000000
1.00000000 1.00000000 1.00000000
1.00000000 1.00000000 1.00000000
1.00000000 1.00000000 1.00000000
1.00000000 1.00000000 1.00000000
1.00000000 1.00000000 1.00000000
1.00000000 1.00000000 1.00000000
1.00000000 1.00000000 1.00000000
1.00000000 1.00000000 1.00000000
1.00000000 1.00000000 1.00000000
0.60928909 0.62525377 1.00000000
0.60928909 0.62525377 1.00000000
0.61534305 0.62045630 1.00000000
0.62773084 0.60967219 1.00000000
0.65339435 0.58309665 1.00000000
0.70044818 0.49024785 1.00000000
0.81072466 0.27204350 1.00000000
0.94671786 0.59893465 1.00000000
1.00000000 0.81439689 1.00000000
0.60928909 0.62525377 1.00000000
0.60928909 0.62525377 1.00000000
0.61534305 0.62045630 1.00000000
0.62773084 0.60967219 1.00000000
0.65339435 0.58309665 1.00000000
0.70044818 0.49024785 1.00000000
0.81072466 0.27204350 1.00000000
0.94671786 0.59893465 1.00000000
1.00000000 0.81439689 1.00000000
0.60562618 0.63483366 1.00000000
0.60562618 0.63483366 1.00000000
0.61088157 0.62884774 1.00000000
0.62353016 0.61782166 1.00000000
0.64954599 0.59150969 1.00000000
0.69762799 0.50344217 1.00000000
0.80680186 0.26892642 1.00000000
0.94600593 0.59912768 1.00000000
1.00000000 0.81502726 1.00000000
0.59796735 0.65564777 1.00000000
0.59796735 0.65564777 1.00000000
0.60326482 0.64958139 1.00000000
0.61431991 0.63633010 1.00000000
0.64075932 0.60997474 1.00000000
0.69116523 0.53091359 1.00000000
0.79764725 0.26187114 1.00000000
0.94428100 0.60008407 1.00000000
1.00000000 0.81675749 1.00000000
0.58550181 0.69708317 1.00000000
0.58550181 0.69708317 1.00000000
0.58952128 0.69144316 1.00000000
0.59888730 0.67909739 1.00000000
0.62175317 0.65111333 1.00000000
0.67513525 0.58530789 1.00000000
0.77283272 0.25729971 0.99987983
0.93880136 0.60795882 1.00000000
1.00000000 0.82283635 0.99874797
0.57898092 0.76549535 1.00000000
0.57898092 0.76549535 1.00000000
0.58012176 0.76158808 1.00000000
0.58479203 0.75311070 1.00000000
0.60108206 0.73386016 1.00000000
0.63895240 0.68175126 1.00000000
0.73347628 0.51796906 0.98385277
0.92288858 0.69077521 0.98333972
1.00000000 0.86294421 0.98949270
0.67264034 0.86285418 1.00000000
0.67264034 0.86285418 1.00000000
0.67146435 0.86098242 1.00000000
0.66951552 0.85672148 1.00000000
0.66766416 0.84633516 0.99861807
0.67282533 0.81998183 0.98391970
0.82853186 0.83962895 0.98175012
0.95362627 0.90854224 0.99205345
1.00000000 1.00000000 1.00000000
0.94401800 0.99352718 1.00000000
0.94401800 0.99352718 1.00000000
0.94661792 0.99450539 1.00000000
0.95215361 0.99658056 1.00000000
0.96392377 1.00000000 1.00000000
1.00000000 1.00000000 1.00000000
1.00000000 1.00000000 1.00000000
1.00000000 1.00000000 1.00000000
1.00000000 1.00000000 1.00000000
1.00000000 1.00000000 1.00000000
1.00000000 1.00000000 1.00000000
1.00000000 1.00000000 1.00000000
1.00000000 1.00000000 1.00000000
1.00000000 1.00000000 1.00000000
1.00000000 1.00000000 1.00000000
1.00000000 1.00000000 1.00000000
1.00000000 1.00000000 1.00000000
1.00000000 1.00000000 1.00000000
