Luts Download/Canon Luts/3dlut/17grid-3dlut/full-to-full-range/CinemaGamut_CanonLog3-to-BT2020_HLG-Vivid_17_FF_Ver.2.0.cube
# Gamut : Cinema Gamut to BT.2020
# Gamma : Canon Log 3 to HLG-Vivid
# Range : Full in / Full out
# Version : 2.0 2019/10/24
# Copyright(c) 2019 Canon Inc. All Rights Reserved.
LUT_3D_SIZE 9
# LUT_3D_INPUT_RANGE 0.0 1.0
0.00000011 0.00000000 0.00000000
0.00000011 0.00000000 0.00000000
0.25380498 0.04608910 0.06019197
0.48054869 0.02649841 0.07012237
0.69089556 0.00000000 0.08749544
0.85124336 0.00798503 0.12209853
0.97782899 0.22403806 0.22766901
1.00000000 0.68247962 0.58644235
1.00000000 0.86688748 0.80710886
0.08277528 0.14663074 0.00000000
0.07272977 0.09089671 0.00000000
0.25380498 0.04608910 0.06019197
0.48054869 0.02649841 0.07012237
0.69089556 0.00000000 0.08749544
0.85124336 0.00798503 0.12209853
0.97782899 0.22403806 0.22766901
1.00000000 0.68247962 0.58644235
1.00000000 0.86688748 0.80710886
0.10248818 0.21323911 0.07028058
0.10248818 0.21323911 0.07028058
0.23610893 0.25052167 0.04401757
0.45377017 0.25513677 0.03132433
0.68514255 0.23396146 0.03736277
0.85547469 0.19789321 0.06882284
0.98144017 0.30607298 0.20540604
1.00000000 0.70450510 0.59357756
1.00000000 0.87738260 0.81723707
0.14427895 0.39134107 0.05260964
0.14427895 0.39134107 0.05260964
0.24080878 0.42159550 0.02483797
0.41994190 0.44703569 0.01009271
0.65658450 0.45503909 0.01677338
0.84150664 0.43814225 0.05269262
0.97957708 0.48370020 0.19656419
1.00000000 0.75100764 0.61940822
1.00000000 0.89820044 0.83883544
0.21019375 0.60205545 0.03204864
0.21019375 0.60205545 0.03204864
0.28206910 0.61705862 0.01803916
0.41970311 0.63707286 0.00582773
0.63010335 0.65685953 0.01471881
0.81779824 0.66678496 0.05457592
0.97001942 0.68467428 0.20273283
1.00000000 0.82279671 0.67038250
1.00000000 0.93523456 0.88133800
0.32436905 0.77324947 0.04264986
0.32436905 0.77324947 0.04264986
0.37565674 0.77939056 0.04196430
0.47670114 0.79010133 0.04238331
0.63285600 0.80596484 0.05033528
0.79889247 0.82380539 0.09050901
0.95283064 0.84231159 0.25756848
1.00000000 0.91175838 0.75844530
1.00000000 0.98825490 0.95127566
0.54826639 0.92123615 0.16044186
0.54826639 0.92123615 0.16044186
0.57602774 0.92368785 0.16608853
0.62687907 0.92850321 0.17987238
0.70870086 0.93735677 0.21451917
0.81985528 0.95146292 0.29204611
0.94723093 0.97194052 0.51627077
1.00000000 0.99994163 0.90870121
1.00000000 1.00000000 1.00000000
0.88832851 1.00000000 0.75829686
0.88832851 1.00000000 0.75829686
0.89339926 1.00000000 0.76512062
0.90440451 1.00000000 0.78122460
0.92681243 1.00000000 0.81634171
0.96371827 1.00000000 0.87947098
1.00000000 1.00000000 1.00000000
1.00000000 1.00000000 1.00000000
1.00000000 1.00000000 1.00000000
1.00000000 1.00000000 1.00000000
1.00000000 1.00000000 1.00000000
1.00000000 1.00000000 1.00000000
1.00000000 1.00000000 1.00000000
1.00000000 1.00000000 1.00000000
1.00000000 1.00000000 1.00000000
1.00000000 1.00000000 1.00000000
1.00000000 1.00000000 1.00000000
1.00000000 1.00000000 1.00000000
0.00000011 0.00000000 0.00000000
0.00000011 0.00000000 0.00000000
0.25380498 0.04608910 0.06019197
0.48054869 0.02649841 0.07012237
0.69089556 0.00000000 0.08749544
0.85124336 0.00798503 0.12209853
0.97782899 0.22403806 0.22766901
1.00000000 0.68247962 0.58644235
1.00000000 0.86688748 0.80710886
0.00000011 0.00000000 0.00000000
0.00000011 0.00000000 0.00000000
0.25380498 0.04608910 0.06019197
0.48054869 0.02649841 0.07012237
0.69089556 0.00000000 0.08749544
0.85124336 0.00798503 0.12209853
0.97782899 0.22403806 0.22766901
1.00000000 0.68247962 0.58644235
1.00000000 0.86688748 0.80710886
0.10248818 0.21323911 0.07028058
0.10248818 0.21323911 0.07028058
0.23610893 0.25052167 0.04401757
0.45377017 0.25513677 0.03132433
0.68514255 0.23396146 0.03736277
0.85547469 0.19789321 0.06882284
0.98144017 0.30607298 0.20540604
1.00000000 0.70450510 0.59357756
1.00000000 0.87738260 0.81723707
0.14427895 0.39134107 0.05260964
0.14427895 0.39134107 0.05260964
0.24080878 0.42159550 0.02483797
0.41994190 0.44703569 0.01009271
0.65658450 0.45503909 0.01677338
0.84150664 0.43814225 0.05269262
0.97957708 0.48370020 0.19656419
1.00000000 0.75100764 0.61940822
1.00000000 0.89820044 0.83883544
0.21019375 0.60205545 0.03204864
0.21019375 0.60205545 0.03204864
0.28206910 0.61705862 0.01803916
0.41970311 0.63707286 0.00582773
0.63010335 0.65685953 0.01471881
0.81779824 0.66678496 0.05457592
0.97001942 0.68467428 0.20273283
1.00000000 0.82279671 0.67038250
1.00000000 0.93523456 0.88133800
0.32436905 0.77324947 0.04264986
0.32436905 0.77324947 0.04264986
0.37565674 0.77939056 0.04196430
0.47670114 0.79010133 0.04238331
0.63285600 0.80596484 0.05033528
0.79889247 0.82380539 0.09050901
0.95283064 0.84231159 0.25756848
1.00000000 0.91175838 0.75844530
1.00000000 0.98825490 0.95127566
0.54826639 0.92123615 0.16044186
0.54826639 0.92123615 0.16044186
0.57602774 0.92368785 0.16608853
0.62687907 0.92850321 0.17987238
0.70870086 0.93735677 0.21451917
0.81985528 0.95146292 0.29204611
0.94723093 0.97194052 0.51627077
1.00000000 0.99994163 0.90870121
1.00000000 1.00000000 1.00000000
0.88832851 1.00000000 0.75829686
0.88832851 1.00000000 0.75829686
0.89339926 1.00000000 0.76512062
0.90440451 1.00000000 0.78122460
0.92681243 1.00000000 0.81634171
0.96371827 1.00000000 0.87947098
1.00000000 1.00000000 1.00000000
1.00000000 1.00000000 1.00000000
1.00000000 1.00000000 1.00000000
1.00000000 1.00000000 1.00000000
1.00000000 1.00000000 1.00000000
1.00000000 1.00000000 1.00000000
1.00000000 1.00000000 1.00000000
1.00000000 1.00000000 1.00000000
1.00000000 1.00000000 1.00000000
1.00000000 1.00000000 1.00000000
1.00000000 1.00000000 1.00000000
1.00000000 1.00000000 1.00000000
0.05706372 0.01746748 0.22828106
0.05706372 0.01746748 0.22828106
0.23399366 0.00000000 0.25244042
0.45501222 0.00000000 0.26996632
0.67837249 0.00000000 0.27770308
0.84459555 0.00000000 0.28404194
0.97396511 0.21531546 0.33453305
1.00000000 0.67248497 0.60623259
1.00000000 0.86049590 0.80338336
0.05706372 0.01746748 0.22828106
0.05706372 0.01746748 0.22828106
0.23399366 0.00000000 0.25244042
0.45501222 0.00000000 0.26996632
0.67837249 0.00000000 0.27770308
0.84459555 0.00000000 0.28404194
0.97396511 0.21531546 0.33453305
1.00000000 0.67248497 0.60623259
1.00000000 0.86049590 0.80338336
0.04789384 0.24508658 0.23913130
0.04789384 0.24508658 0.23913130
0.24181371 0.24181371 0.24181371
0.48477629 0.21330921 0.22790489
0.70506739 0.16154795 0.20840147
0.85698924 0.15592441 0.22451235
0.97949179 0.28697960 0.29866353
1.00000000 0.69356055 0.60492830
1.00000000 0.86987000 0.81172471
0.07243805 0.48359570 0.17233496
0.07243805 0.48359570 0.17233496
0.20933454 0.48651054 0.13316489
0.44517651 0.46989081 0.12811490
0.68367923 0.43904843 0.13116967
0.85784008 0.39213301 0.13145902
0.98282162 0.44942786 0.24017045
1.00000000 0.73965688 0.61982800
1.00000000 0.89171220 0.83352654
0.15144649 0.66229706 0.06692256
0.15144649 0.66229706 0.06692256
0.24450531 0.67040515 0.02536564
0.41894151 0.67615031 0.00000000
0.64934480 0.67571385 0.00000000
0.83401431 0.66534578 0.05327294
0.97698538 0.67462019 0.21707204
1.00000000 0.81759395 0.67311757
1.00000000 0.93075745 0.87728443
0.29516428 0.79742405 0.05721301
0.29516428 0.79742405 0.05721301
0.35265215 0.80225048 0.04933390
0.46638030 0.81004529 0.04465784
0.63669733 0.82077529 0.05065969
0.80663641 0.83151008 0.09293685
0.95838715 0.84341268 0.26651703
1.00000000 0.91105999 0.76368692
1.00000000 0.98722887 0.95044870
0.54923983 0.93075947 0.18328275
0.54923983 0.93075947 0.18328275
0.57896517 0.93278123 0.19076964
0.63131047 0.93683956 0.20565264
0.71336675 0.94457167 0.23759721
0.82395789 0.95693101 0.31014357
0.95034975 0.97498755 0.53273257
1.00000000 1.00000000 0.91470913
1.00000000 1.00000000 1.00000000
0.89685635 1.00000000 0.77945162
0.89685635 1.00000000 0.77945162
0.90207693 1.00000000 0.78700700
0.91244853 1.00000000 0.80219917
0.93326233 1.00000000 0.83397113
0.96800733 1.00000000 0.89165596
1.00000000 1.00000000 1.00000000
1.00000000 1.00000000 1.00000000
1.00000000 1.00000000 1.00000000
1.00000000 1.00000000 1.00000000
1.00000000 1.00000000 1.00000000
1.00000000 1.00000000 1.00000000
1.00000000 1.00000000 1.00000000
1.00000000 1.00000000 1.00000000
1.00000000 1.00000000 1.00000000
1.00000000 1.00000000 1.00000000
1.00000000 1.00000000 1.00000000
1.00000000 1.00000000 1.00000000
0.09635944 0.02478559 0.42100550
0.09635944 0.02478559 0.42100550
0.21248859 0.00000000 0.40547123
0.42266124 0.00000000 0.44475675
0.65766080 0.00000000 0.47678965
0.83184547 0.02177563 0.49389210
0.96704448 0.21335877 0.52321641
1.00000000 0.66847502 0.67752872
1.00000000 0.86056597 0.82363522
0.09635944 0.02478559 0.42100550
0.09635944 0.02478559 0.42100550
0.21248859 0.00000000 0.40547123
0.42266124 0.00000000 0.44475675
0.65766080 0.00000000 0.47678965
0.83184547 0.02177563 0.49389210
0.96704448 0.21335877 0.52321641
1.00000000 0.66847502 0.67752872
1.00000000 0.86056597 0.82363522
0.00000000 0.18680280 0.45229729
0.00000000 0.18680280 0.45229729
0.21028755 0.15121211 0.54373870
0.47068986 0.11745548 0.51289962
0.68198173 0.12886108 0.46916078
0.84696065 0.12609678 0.45985840
0.97459236 0.26853837 0.49520259
1.00000000 0.69053261 0.67918753
1.00000000 0.86885769 0.82879363
0.05857152 0.43911259 0.42768581
0.05857152 0.43911259 0.42768581
0.17710705 0.44724895 0.43879071
0.42987279 0.42987279 0.42987279
0.68259423 0.39383933 0.41189594
0.86380826 0.32667023 0.38380973
0.97814985 0.43103533 0.45904219
1.00000000 0.73287163 0.68435194
1.00000000 0.88550838 0.84021486
0.10020617 0.68399167 0.33926139
0.10020617 0.68399167 0.33926139
0.18682473 0.68723299 0.31524526
0.38513120 0.68522994 0.29464196
0.65252576 0.67246636 0.28722476
0.84804720 0.64401696 0.27185650
0.97765059 0.65938512 0.39379816
1.00000000 0.80638378 0.70320544
1.00000000 0.92146895 0.87170563
0.17965477 0.84516248 0.12823110
0.17965477 0.84516248 0.12823110
0.24777815 0.84900356 0.09185162
0.40336812 0.85236858 0.05203158
0.63321783 0.85242451 0.03063269
0.82216645 0.84691060 0.08299571
0.97084546 0.84382920 0.28041157
1.00000000 0.90814547 0.77030013
1.00000000 0.98233548 0.94583080
0.55089961 0.94979497 0.24247850
0.55089961 0.94979497 0.24247850
0.58042007 0.95156095 0.24431778
0.63450929 0.95465090 0.25317305
0.71889181 0.96008642 0.27699830
0.83099574 0.96869563 0.34001346
0.95686859 0.98138946 0.55840087
1.00000000 1.00000000 0.92259741
1.00000000 1.00000000 1.00000000
0.91426060 1.00000000 0.82079042
0.91426060 1.00000000 0.82079042
0.91863253 1.00000000 0.82661782
0.92734262 1.00000000 0.83852260
0.94491306 1.00000000 0.86384988
0.97297909 1.00000000 0.90919057
1.00000000 1.00000000 1.00000000
1.00000000 1.00000000 1.00000000
1.00000000 1.00000000 1.00000000
1.00000000 1.00000000 1.00000000
1.00000000 1.00000000 1.00000000
1.00000000 1.00000000 1.00000000
1.00000000 1.00000000 1.00000000
1.00000000 1.00000000 1.00000000
1.00000000 1.00000000 1.00000000
1.00000000 1.00000000 1.00000000
1.00000000 1.00000000 1.00000000
1.00000000 1.00000000 1.00000000
0.14297884 0.03016167 0.63680655
0.14297884 0.03016167 0.63680655
0.20844721 0.00000000 0.58844696
0.39125039 0.00000000 0.59981296
0.63434634 0.00000000 0.64490905
0.81538411 0.02682952 0.67435414
0.95596548 0.20954550 0.69094080
1.00000000 0.65820585 0.75457530
1.00000000 0.86088213 0.85695410
0.14297884 0.03016167 0.63680655
0.14297884 0.03016167 0.63680655
0.20844721 0.00000000 0.58844696
0.39125039 0.00000000 0.59981296
0.63434634 0.00000000 0.64490905
0.81538411 0.02682952 0.67435414
0.95596548 0.20954550 0.69094080
1.00000000 0.65820585 0.75457530
1.00000000 0.86088213 0.85695410
0.05005861 0.14175393 0.67440383
0.05005861 0.14175393 0.67440383
0.15074612 0.00000000 0.68410362
0.38958594 0.00000000 0.66456056
0.65124536 0.00000000 0.67140861
0.82999554 0.03891306 0.67619715
0.96497644 0.23024007 0.68260794
1.00000000 0.67706196 0.75481365
1.00000000 0.87004557 0.86241084
0.00000000 0.36092425 0.64731701
0.00000000 0.36092425 0.64731701
0.12489156 0.35273068 0.69613901
0.39238765 0.32571805 0.72105470
0.67180847 0.28607207 0.70304803
0.86006898 0.20912521 0.67591859
0.97397164 0.37392512 0.67133459
1.00000000 0.72190288 0.76198066
1.00000000 0.88855393 0.87427129
0.09241561 0.64825467 0.63679262
0.09241561 0.64825467 0.63679262
0.16000795 0.65331149 0.64329886
0.34646485 0.65422364 0.64719076
0.63952564 0.63952564 0.63952564
0.84418866 0.60649349 0.62339288
0.97502608 0.62905232 0.64906721
1.00000000 0.79732167 0.77958186
1.00000000 0.92284920 0.89965082
0.17691568 0.84396962 0.55171359
0.17691568 0.84396962 0.55171359
0.22193764 0.84626757 0.53819303
0.29573494 0.85172950 0.49518151
0.59666152 0.84694065 0.49045824
0.81828954 0.83569131 0.47943883
0.97078699 0.83031064 0.59739874
1.00000000 0.90106518 0.82584471
1.00000000 0.97946775 0.95410894
0.54417053 0.98666079 0.40105895
0.54417053 0.98666079 0.40105895
0.57367160 0.98800366 0.39389286
0.63103062 0.99022737 0.38357647
0.72296752 0.99158961 0.38353377
0.84099492 0.99139078 0.42860359
0.96948531 0.99354234 0.59788937
1.00000000 1.00000000 1.00000000
1.00000000 1.00000000 1.00000000
0.94323087 1.00000000 0.88348810
0.94323087 1.00000000 0.88348810
0.94632369 1.00000000 0.88699077
0.95263137 1.00000000 0.89427362
0.96495987 1.00000000 0.90941079
1.00000000 1.00000000 1.00000000
1.00000000 1.00000000 1.00000000
1.00000000 1.00000000 1.00000000
1.00000000 1.00000000 1.00000000
1.00000000 1.00000000 1.00000000
1.00000000 1.00000000 1.00000000
1.00000000 1.00000000 1.00000000
1.00000000 1.00000000 1.00000000
1.00000000 1.00000000 1.00000000
1.00000000 1.00000000 1.00000000
1.00000000 1.00000000 1.00000000
1.00000000 1.00000000 1.00000000
1.00000000 1.00000000 1.00000000
0.20470990 0.03930068 0.80412821
0.20470990 0.03930068 0.80412821
0.25438526 0.02481712 0.77046942
0.34677252 0.00000000 0.72853190
0.60223473 0.00000000 0.75718370
0.79630776 0.01517833 0.79765016
0.94164316 0.19473359 0.81640390
1.00000000 0.63715883 0.82911434
1.00000000 0.85448059 0.89156835
0.20470990 0.03930068 0.80412821
0.20470990 0.03930068 0.80412821
0.25438526 0.02481712 0.77046942
0.34677252 0.00000000 0.72853190
0.60223473 0.00000000 0.75718370
0.79630776 0.01517833 0.79765016
0.94164316 0.19473359 0.81640390
1.00000000 0.63715883 0.82911434
1.00000000 0.85448059 0.89156835
0.14871448 0.09080919 0.83819967
0.14871448 0.09080919 0.83819967
0.21101351 0.04153626 0.81700724
0.31702512 0.00000000 0.76946851
0.59441902 0.00000000 0.77529899
0.80303418 0.00000000 0.80675428
0.94854713 0.17528623 0.81755466
1.00000000 0.64381729 0.82739234
1.00000000 0.85950660 0.89253541
0.00000000 0.29827964 0.81658194
0.00000000 0.29827964 0.81658194
0.05197965 0.22105020 0.85131229
0.27641463 0.09126085 0.86158060
0.61089042 0.10928864 0.84429041
0.81768881 0.12909697 0.83634408
0.96073606 0.27743413 0.82450289
1.00000000 0.69236661 0.83419671
1.00000000 0.88034565 0.90357834
0.00000000 0.57523577 0.80130859
0.00000000 0.57523577 0.80130859
0.02932050 0.57407960 0.82720733
0.24321452 0.55732833 0.88418147
0.60569386 0.53507782 0.87699515
0.83465629 0.48278109 0.86219394
0.96958126 0.55705995 0.82617443
1.00000000 0.77703441 0.85053780
1.00000000 0.91982957 0.92742077
0.18474675 0.81239357 0.80184877
0.18474675 0.81239357 0.80184877
0.21600127 0.81513882 0.80520156
0.31904383 0.81855978 0.80990023
0.55591840 0.81975071 0.81367509
0.80706646 0.80706646 0.80706646
0.96703100 0.80330369 0.81122588
1.00000000 0.89005471 0.88744824
1.00000000 0.98149364 0.97506998
0.58219284 0.97633747 0.77294371
0.58219284 0.97633747 0.77294371
0.59612815 0.97757235 0.77059949
0.63635009 0.97893316 0.76843348
0.71818435 0.97973550 0.76889561
0.83469185 0.97975028 0.77522663
0.96901810 0.98546357 0.67737708
1.00000000 1.00000000 1.00000000
1.00000000 1.00000000 1.00000000
1.00000000 1.00000000 1.00000000
1.00000000 1.00000000 1.00000000
1.00000000 1.00000000 1.00000000
1.00000000 1.00000000 1.00000000
1.00000000 1.00000000 1.00000000
1.00000000 1.00000000 1.00000000
1.00000000 1.00000000 1.00000000
1.00000000 1.00000000 1.00000000
1.00000000 1.00000000 1.00000000
1.00000000 1.00000000 1.00000000
1.00000000 1.00000000 1.00000000
1.00000000 1.00000000 1.00000000
1.00000000 1.00000000 1.00000000
1.00000000 1.00000000 1.00000000
1.00000000 1.00000000 1.00000000
1.00000000 1.00000000 1.00000000
1.00000000 1.00000000 1.00000000
1.00000000 1.00000000 1.00000000
0.29150231 0.11147476 0.93909487
0.29150231 0.11147476 0.93909487
0.32438741 0.11252597 0.92102222
0.38929526 0.08305526 0.88936358
0.54080776 0.00000000 0.85786537
0.76339743 0.00000000 0.88801604
0.92393931 0.17206465 0.91704805
1.00000000 0.60314300 0.90194283
1.00000000 0.83701499 0.92418681
0.29150231 0.11147476 0.93909487
0.29150231 0.11147476 0.93909487
0.32438741 0.11252597 0.92102222
0.38929526 0.08305526 0.88936358
0.54080776 0.00000000 0.85786537
0.76339743 0.00000000 0.88801604
0.92393931 0.17206465 0.91704805
1.00000000 0.60314300 0.90194283
1.00000000 0.83701499 0.92418681
0.25817438 0.13061076 0.95689217
0.25817438 0.13061076 0.95689217
0.29559569 0.12222572 0.94201447
0.36712169 0.08759336 0.91170306
0.50847699 0.00000000 0.86692755
0.76063863 0.00000000 0.89291869
0.92593571 0.16407719 0.91928897
1.00000000 0.60832796 0.90148174
1.00000000 0.83959377 0.92398554
0.17780745 0.25748398 0.96251715
0.17780745 0.25748398 0.96251715
0.21909949 0.21371864 0.96383039
0.30420100 0.13435558 0.95106155
0.46340556 0.00000000 0.90933480
0.75513110 0.00000000 0.91334705
0.93361197 0.09288099 0.92890913
1.00000000 0.62250333 0.90135846
1.00000000 0.85049292 0.92601335
0.00000000 0.51260692 0.92698326
0.00000000 0.51260692 0.92698326
0.01340670 0.47850729 0.94181952
0.09631829 0.38207633 0.97365666
0.46498338 0.31764174 0.97370529
0.77168755 0.31885752 0.96948569
0.94389049 0.41022013 0.95307210
1.00000000 0.73001311 0.91426097
1.00000000 0.89622941 0.94519284
0.00000000 0.75075117 0.93208063
0.00000000 0.75075117 0.93208063
0.10110475 0.75138911 0.94282383
0.24075943 0.75129902 0.96241633
0.53114021 0.74865718 0.97043127
0.77609743 0.74471879 0.97048944
0.94607830 0.75567201 0.95852603
1.00000000 0.86507919 0.93957858
1.00000000 0.96983689 0.98545861
0.59425534 0.94797160 0.93846834
0.59425534 0.94797160 0.93846834
0.60643305 0.94919170 0.93994900
0.63600346 0.95130985 0.94264513
0.70589151 0.95378794 0.94643962
0.73706870 0.97039065 0.96467112
0.95845399 0.95845399 0.95845399
1.00000000 1.00000000 1.00000000
1.00000000 1.00000000 1.00000000
1.00000000 1.00000000 1.00000000
1.00000000 1.00000000 1.00000000
1.00000000 1.00000000 1.00000000
1.00000000 1.00000000 1.00000000
1.00000000 1.00000000 1.00000000
1.00000000 1.00000000 1.00000000
1.00000000 1.00000000 1.00000000
1.00000000 1.00000000 1.00000000
1.00000000 1.00000000 1.00000000
1.00000000 1.00000000 1.00000000
1.00000000 1.00000000 1.00000000
1.00000000 1.00000000 1.00000000
1.00000000 1.00000000 1.00000000
1.00000000 1.00000000 1.00000000
1.00000000 1.00000000 1.00000000
1.00000000 1.00000000 1.00000000
1.00000000 1.00000000 1.00000000
1.00000000 1.00000000 1.00000000
0.41547830 0.37505735 0.99986063
0.41547830 0.37505735 0.99986063
0.43379742 0.36303210 0.99595335
0.47306956 0.33567060 0.98779961
0.55098067 0.25617453 0.97371314
0.70052892 0.00000000 0.96341314
0.88336294 0.20385745 0.98341466
0.99137656 0.57883914 0.97078232
1.00000000 0.81123889 0.95888717
0.41547830 0.37505735 0.99986063
0.41547830 0.37505735 0.99986063
0.43379742 0.36303210 0.99595335
0.47306956 0.33567060 0.98779961
0.55098067 0.25617453 0.97371314
0.70052892 0.00000000 0.96341314
0.88336294 0.20385745 0.98341466
0.99137656 0.57883914 0.97078232
1.00000000 0.81123889 0.95888717
0.39969270 0.39668493 1.00000000
0.39969270 0.39668493 1.00000000
0.41850048 0.38345779 0.99872261
0.45809034 0.35345377 0.99211703
0.54010273 0.27576677 0.97845501
0.68971275 0.00000000 0.96460870
0.88190210 0.20203853 0.98407005
0.99132852 0.58126585 0.97065537
1.00000000 0.81274270 0.95863138
0.37055130 0.45474383 1.00000000
0.37055130 0.45474383 1.00000000
0.38614966 0.43591433 1.00000000
0.42494493 0.39995279 0.99690349
0.51267659 0.31911349 0.98754600
0.66165199 0.00000000 0.96874181
0.87902716 0.19078457 0.98670020
0.99114319 0.58666253 0.97029349
1.00000000 0.81658482 0.95768767
0.31811845 0.56988299 0.99572774
0.31811845 0.56988299 0.99572774
0.32952731 0.55499286 0.99759012
0.36088187 0.52021279 0.99936153
0.43846880 0.42920620 0.99605172
0.61903817 0.13873655 0.99125802
0.87089524 0.23589262 0.99209632
0.98872899 0.62713757 0.96878558
1.00000000 0.83899633 0.95849735
0.27356495 0.71546319 0.99029686
0.27356495 0.71546319 0.99029686
0.27419555 0.70908005 0.99262983
0.28012196 0.69369874 0.99646559
0.32541614 0.65390008 0.99637352
0.65933502 0.64544232 0.99613024
0.87271769 0.69738716 0.99377200
0.98753282 0.80943892 0.97875448
1.00000000 0.92912840 0.98614163
0.60573698 0.88691735 0.99039821
0.60573698 0.88691735 0.99039821
0.62455771 0.88770665 0.99157637
0.66107939 0.88932751 0.99361771
0.72619009 0.89258123 0.99582208
0.82000508 0.89988724 0.99679523
0.92572329 0.92111513 0.99775381
1.00000000 0.97386036 1.00000000
1.00000000 1.00000000 1.00000000
1.00000000 1.00000000 1.00000000
1.00000000 1.00000000 1.00000000
1.00000000 1.00000000 1.00000000
1.00000000 1.00000000 1.00000000
1.00000000 1.00000000 1.00000000
1.00000000 1.00000000 1.00000000
1.00000000 1.00000000 1.00000000
1.00000000 1.00000000 1.00000000
1.00000000 1.00000000 1.00000000
1.00000000 1.00000000 1.00000000
1.00000000 1.00000000 1.00000000
1.00000000 1.00000000 1.00000000
1.00000000 1.00000000 1.00000000
1.00000000 1.00000000 1.00000000
1.00000000 1.00000000 1.00000000
1.00000000 1.00000000 1.00000000
1.00000000 1.00000000 1.00000000
1.00000000 1.00000000 1.00000000
0.58811270 0.64112098 1.00000000
0.58811270 0.64112098 1.00000000
0.59411209 0.63666730 1.00000000
0.60656186 0.62651569 1.00000000
0.63318569 0.60169362 1.00000000
0.68451871 0.52181609 1.00000000
0.80524335 0.35269641 1.00000000
0.94518271 0.59051979 1.00000000
1.00000000 0.78973094 0.99926742
0.58811270 0.64112098 1.00000000
0.58811270 0.64112098 1.00000000
0.59411209 0.63666730 1.00000000
0.60656186 0.62651569 1.00000000
0.63318569 0.60169362 1.00000000
0.68451871 0.52181609 1.00000000
0.80524335 0.35269641 1.00000000
0.94518271 0.59051979 1.00000000
1.00000000 0.78973094 0.99926742
0.58519224 0.64946882 1.00000000
0.58519224 0.64946882 1.00000000
0.58990089 0.64372807 1.00000000
0.60243007 0.63359126 1.00000000
0.62911844 0.60923496 1.00000000
0.68114615 0.53337085 1.00000000
0.80091388 0.35152719 1.00000000
0.94435009 0.59082832 1.00000000
1.00000000 0.79037236 0.99901090
0.57938017 0.66711704 1.00000000
0.57938017 0.66711704 1.00000000
0.58393620 0.66152417 1.00000000
0.59367477 0.64904722 1.00000000
0.62007691 0.62527120 1.00000000
0.67367625 0.55652890 1.00000000
0.79078217 0.34906859 1.00000000
0.94229488 0.59208039 1.00000000
1.00000000 0.79215220 0.99807970
0.57108897 0.70234575 1.00000000
0.57108897 0.70234575 1.00000000
0.57427383 0.69727277 1.00000000
0.58186775 0.68596469 1.00000000
0.60168914 0.65976579 1.00000000
0.65609304 0.60194540 1.00000000
0.76305768 0.35073184 1.00000000
0.93583017 0.59961141 0.99944979
1.00000000 0.79838065 0.99370001
0.57265115 0.76418780 1.00000000
0.57265115 0.76418780 1.00000000
0.57326748 0.76048584 1.00000000
0.57651547 0.75241456 1.00000000
0.58900807 0.73384276 1.00000000
0.62025234 0.68284256 1.00000000
0.71875416 0.53624595 0.98586638
0.91784135 0.67668588 0.98124981
1.00000000 0.84141761 0.98393092
0.66837004 0.85828594 1.00000000
0.66837004 0.85828594 1.00000000
0.66726293 0.85636262 1.00000000
0.66524643 0.85198537 1.00000000
0.66240080 0.84129498 0.99824213
0.66384663 0.81397043 0.98299959
0.81915082 0.83261809 0.98038757
0.94916088 0.90085084 0.99063651
1.00000000 0.98429304 1.00000000
0.93798004 0.99068828 1.00000000
0.93798004 0.99068828 1.00000000
0.94070579 0.99168686 1.00000000
0.94649075 0.99380908 1.00000000
0.95875844 0.99826526 1.00000000
1.00000000 1.00000000 1.00000000
1.00000000 1.00000000 1.00000000
1.00000000 1.00000000 1.00000000
1.00000000 1.00000000 1.00000000
1.00000000 1.00000000 1.00000000
1.00000000 1.00000000 1.00000000
1.00000000 1.00000000 1.00000000
1.00000000 1.00000000 1.00000000
1.00000000 1.00000000 1.00000000
1.00000000 1.00000000 1.00000000
1.00000000 1.00000000 1.00000000
1.00000000 1.00000000 1.00000000
1.00000000 1.00000000 1.00000000
