Luts Download/Canon Luts/3dlut/17grid-3dlut/full-to-full-range/CinemaGamut_CanonLog2-to-BT2020_HLG_17_FF_Ver.2.0.cube
# Gamut : Cinema Gamut to BT.2020
# Gamma : Canon Log 2 to HLG
# Range : Full in / Full out
# Version : 2.0 2019/10/24
# Copyright(c) 2019 Canon Inc. All Rights Reserved.
LUT_3D_SIZE 17
# LUT_3D_INPUT_RANGE 0.0 1.0
0.00000004 0.00000000 0.00000003
0.00000004 0.00000000 0.00000003
0.02636438 0.02636435 0.02636437
0.09169872 0.03672372 0.04024013
0.15772910 0.04225396 0.05084393
0.23830867 0.03869111 0.05734520
0.33914791 0.02883163 0.06508548
0.46929889 0.00000000 0.07538394
0.61303994 0.00000000 0.09164271
0.73458719 0.04949369 0.12124972
0.84333163 0.13511857 0.17032435
0.93734309 0.30186273 0.26642638
0.99508610 0.61173970 0.49321063
1.00000000 0.80225200 0.72387335
1.00000000 0.91612475 0.87248476
1.00000000 1.00000000 1.00000000
1.00000000 1.00000000 1.00000000
0.00000004 0.00000000 0.00000003
0.03896861 0.04746538 0.00000000
0.02636438 0.02636435 0.02636437
0.09169872 0.03672372 0.04024013
0.15772910 0.04225396 0.05084393
0.23830867 0.03869111 0.05734520
0.33914791 0.02883163 0.06508548
0.46929889 0.00000000 0.07538394
0.61303994 0.00000000 0.09164271
0.73458719 0.04949369 0.12124972
0.84333163 0.13511857 0.17032435
0.93734309 0.30186273 0.26642638
0.99508610 0.61173970 0.49321063
1.00000000 0.80225200 0.72387335
1.00000000 0.91612475 0.87248476
1.00000000 1.00000000 1.00000000
1.00000000 1.00000000 1.00000000
0.02636438 0.02636435 0.02636437
0.02636438 0.02636435 0.02636437
0.04104191 0.04151348 0.03563211
0.09963734 0.05623878 0.04313522
0.16039857 0.06525193 0.04812926
0.23953251 0.06496015 0.05147057
0.34032033 0.05831420 0.05717359
0.47097036 0.04047449 0.06637009
0.61454527 0.01331918 0.08314192
0.73594697 0.05458585 0.11378101
0.84453973 0.13381585 0.16439822
0.93831885 0.30062527 0.26244720
0.99562982 0.61221050 0.49178143
1.00000000 0.80265500 0.72386053
1.00000000 0.91639704 0.87268866
1.00000000 1.00000000 1.00000000
1.00000000 1.00000000 1.00000000
0.04818158 0.08440639 0.03726283
0.04818158 0.08440639 0.03726283
0.06223121 0.09974341 0.04079329
0.10580809 0.11082090 0.03763684
0.16448057 0.11786884 0.03460728
0.24153077 0.12022722 0.03356391
0.34208329 0.11692517 0.03529407
0.47285638 0.10782698 0.04504313
0.61693520 0.09271932 0.06272957
0.73885073 0.08785920 0.09469274
0.84744588 0.13991779 0.14888382
0.94081728 0.30072272 0.25192666
0.99701455 0.61447817 0.48832617
1.00000000 0.80404253 0.72406450
1.00000000 0.91726805 0.87339670
1.00000000 1.00000000 1.00000000
1.00000000 1.00000000 1.00000000
0.07057997 0.14675341 0.04102672
0.07057997 0.14675341 0.04102672
0.07951934 0.15412041 0.03798756
0.11357834 0.16462191 0.02935167
0.16550383 0.17423490 0.02370984
0.23813497 0.18148555 0.02208244
0.33665145 0.18474732 0.02506560
0.46810395 0.18207383 0.03308273
0.61544541 0.17166404 0.04755169
0.74027453 0.15638741 0.07464325
0.85040403 0.17392501 0.12901839
0.94387899 0.31173128 0.23796122
0.99861710 0.62089479 0.48500950
1.00000000 0.80695864 0.72517489
1.00000000 0.91891681 0.87489333
1.00000000 1.00000000 1.00000000
1.00000000 1.00000000 1.00000000
0.09342472 0.21427506 0.03863370
0.09342472 0.21427506 0.03863370
0.10091860 0.21867707 0.03481381
0.12763665 0.22765133 0.02595721
0.17149336 0.23852623 0.01815278
0.23726109 0.25000705 0.01390153
0.33085738 0.25966139 0.01629657
0.46012198 0.26492807 0.02423032
0.61025365 0.26316349 0.03880567
0.73806653 0.25424028 0.06398961
0.85113127 0.25502567 0.11433451
0.94659816 0.34973360 0.22314224
0.99989750 0.63589375 0.48441403
1.00000000 0.81283243 0.72847446
1.00000000 0.92199494 0.87796267
1.00000000 1.00000000 1.00000000
1.00000000 1.00000000 1.00000000
0.12419478 0.29956018 0.03418213
0.12419478 0.29956018 0.03418213
0.13061499 0.30242112 0.03122815
0.15181554 0.30960846 0.02373766
0.18780190 0.31990296 0.01522441
0.24470539 0.33321710 0.00314134
0.33012787 0.34805648 0.00178849
0.45282518 0.36116785 0.01704507
0.60280531 0.36944544 0.03327939
0.73296967 0.37098026 0.06074309
0.84860175 0.37477670 0.11128072
0.94682151 0.43981059 0.22103290
1.00000000 0.66651417 0.49402544
1.00000000 0.82440681 0.73686173
1.00000000 0.92773582 0.88413652
1.00000000 1.00000000 1.00000000
1.00000000 1.00000000 1.00000000
0.16770089 0.41109292 0.03169370
0.16770089 0.41109292 0.03169370
0.17300603 0.41307915 0.03002414
0.18975502 0.41864472 0.02540830
0.21862835 0.42749677 0.01966049
0.26602173 0.44059910 0.01130727
0.34052279 0.45792947 0.00000000
0.45287674 0.47774660 0.01358828
0.59651146 0.49585391 0.03334031
0.72641846 0.50950924 0.06285566
0.84366888 0.52225797 0.11794806
0.94417617 0.56815964 0.23266405
1.00000000 0.71435620 0.51973759
1.00000000 0.84568744 0.75501555
1.00000000 0.93924731 0.89708707
1.00000000 1.00000000 1.00000000
1.00000000 1.00000000 1.00000000
0.22934241 0.55364728 0.03773379
0.22934241 0.55364728 0.03773379
0.23354848 0.55484977 0.03724858
0.24659633 0.55830385 0.03593336
0.26931863 0.56417121 0.03332091
0.30758665 0.57316630 0.03104405
0.36999605 0.58628841 0.02779750
0.46813549 0.60296553 0.02933018
0.59785013 0.62140066 0.04413397
0.72152862 0.63809387 0.07576775
0.83792637 0.65426794 0.13470430
0.93995783 0.68435198 0.25946230
0.99937476 0.77571820 0.56146910
1.00000000 0.87762446 0.78530892
1.00000000 0.95772371 0.91863092
1.00000000 1.00000000 1.00000000
1.00000000 1.00000000 1.00000000
0.31834248 0.68419775 0.06460380
0.31834248 0.68419775 0.06460380
0.32156313 0.68476379 0.06475998
0.33151097 0.68645047 0.06525283
0.34900163 0.68940735 0.06582908
0.37901420 0.69445414 0.06543135
0.42928899 0.70226423 0.06685998
0.51105107 0.71384861 0.06927764
0.61442648 0.72894195 0.07992007
0.72458547 0.74644235 0.10981069
0.83455778 0.76381675 0.17355327
0.93565706 0.78796087 0.31022610
0.99810775 0.84625402 0.62477627
1.00000000 0.92042786 0.83113101
1.00000000 0.98506686 0.95179360
1.00000000 1.00000000 1.00000000
1.00000000 1.00000000 1.00000000
0.45451005 0.80127313 0.13260067
0.45451005 0.80127313 0.13260067
0.45689454 0.80155361 0.13298663
0.46425996 0.80240458 0.13417439
0.47728390 0.80392376 0.13603733
0.49998298 0.80659815 0.13867759
0.53632190 0.81118894 0.14171277
0.58867534 0.81848603 0.14925481
0.65836157 0.82942449 0.16256457
0.74403479 0.84411849 0.19287189
0.84090867 0.86241485 0.26188643
0.93494462 0.88278121 0.41519230
0.99807655 0.92024705 0.71565445
1.00000000 0.97093400 0.89479998
1.00000000 1.00000000 1.00000000
1.00000000 1.00000000 1.00000000
1.00000000 1.00000000 1.00000000
0.64313501 0.90807532 0.29231788
0.64313501 0.90807532 0.29231788
0.64419000 0.90820634 0.29288688
0.64742192 0.90860707 0.29465324
0.65306407 0.90933451 0.29762481
0.66274479 0.91064390 0.30257438
0.67886100 0.91297020 0.31059235
0.70470600 0.91714639 0.32339510
0.74375716 0.92389617 0.34766589
0.79845067 0.93428243 0.39041530
0.86848203 0.94891800 0.47427839
0.94808747 0.96897736 0.62527449
1.00000000 0.99017615 0.84320054
1.00000000 1.00000000 1.00000000
1.00000000 1.00000000 1.00000000
1.00000000 1.00000000 1.00000000
1.00000000 1.00000000 1.00000000
0.83582131 0.99419378 0.65318808
0.83582131 0.99419378 0.65318808
0.83624683 0.99421715 0.65381447
0.83754546 0.99429036 0.65571578
0.83982637 0.99443601 0.65899835
0.84380875 0.99471547 0.66466896
0.85062620 0.99524775 0.67428982
0.86196741 0.99626048 0.69024580
0.88069145 0.99859839 0.71707985
0.90830332 1.00000000 0.75878119
0.94573465 1.00000000 0.81942511
1.00000000 1.00000000 1.00000000
1.00000000 1.00000000 1.00000000
1.00000000 1.00000000 1.00000000
1.00000000 1.00000000 1.00000000
1.00000000 1.00000000 1.00000000
1.00000000 1.00000000 1.00000000
1.00000000 1.00000000 1.00000000
1.00000000 1.00000000 1.00000000
1.00000000 1.00000000 1.00000000
1.00000000 1.00000000 1.00000000
1.00000000 1.00000000 1.00000000
1.00000000 1.00000000 1.00000000
1.00000000 1.00000000 1.00000000
1.00000000 1.00000000 1.00000000
1.00000000 1.00000000 1.00000000
1.00000000 1.00000000 1.00000000
1.00000000 1.00000000 1.00000000
1.00000000 1.00000000 1.00000000
1.00000000 1.00000000 1.00000000
1.00000000 1.00000000 1.00000000
1.00000000 1.00000000 1.00000000
1.00000000 1.00000000 1.00000000
1.00000000 1.00000000 1.00000000
1.00000000 1.00000000 1.00000000
1.00000000 1.00000000 1.00000000
1.00000000 1.00000000 1.00000000
1.00000000 1.00000000 1.00000000
1.00000000 1.00000000 1.00000000
1.00000000 1.00000000 1.00000000
1.00000000 1.00000000 1.00000000
1.00000000 1.00000000 1.00000000
1.00000000 1.00000000 1.00000000
1.00000000 1.00000000 1.00000000
1.00000000 1.00000000 1.00000000
1.00000000 1.00000000 1.00000000
1.00000000 1.00000000 1.00000000
1.00000000 1.00000000 1.00000000
1.00000000 1.00000000 1.00000000
1.00000000 1.00000000 1.00000000
1.00000000 1.00000000 1.00000000
1.00000000 1.00000000 1.00000000
1.00000000 1.00000000 1.00000000
1.00000000 1.00000000 1.00000000
1.00000000 1.00000000 1.00000000
1.00000000 1.00000000 1.00000000
1.00000000 1.00000000 1.00000000
1.00000000 1.00000000 1.00000000
1.00000000 1.00000000 1.00000000
1.00000000 1.00000000 1.00000000
1.00000000 1.00000000 1.00000000
1.00000000 1.00000000 1.00000000
1.00000000 1.00000000 1.00000000
1.00000000 1.00000000 1.00000000
1.00000000 1.00000000 1.00000000
1.00000000 1.00000000 1.00000000
1.00000000 1.00000000 1.00000000
1.00000000 1.00000000 1.00000000
1.00000000 1.00000000 1.00000000
1.00000000 1.00000000 1.00000000
1.00000000 1.00000000 1.00000000
1.00000000 1.00000000 1.00000000
1.00000000 1.00000000 1.00000000
1.00000000 1.00000000 1.00000000
1.00000000 1.00000000 1.00000000
1.00000000 1.00000000 1.00000000
1.00000000 1.00000000 1.00000000
1.00000000 1.00000000 1.00000000
1.00000000 1.00000000 1.00000000
1.00000000 1.00000000 1.00000000
1.00000000 1.00000000 1.00000000
1.00000000 1.00000000 1.00000000
1.00000000 1.00000000 1.00000000
1.00000000 1.00000000 1.00000000
1.00000000 1.00000000 1.00000000
0.00000004 0.00000000 0.00000003
0.00000004 0.00000000 0.00000003
0.02636438 0.02636435 0.02636437
0.09169872 0.03672372 0.04024013
0.15772910 0.04225396 0.05084393
0.23830867 0.03869111 0.05734520
0.33914791 0.02883163 0.06508548
0.46929889 0.00000000 0.07538394
0.61303994 0.00000000 0.09164271
0.73458719 0.04949369 0.12124972
0.84333163 0.13511857 0.17032435
0.93734309 0.30186273 0.26642638
0.99508610 0.61173970 0.49321063
1.00000000 0.80225200 0.72387335
1.00000000 0.91612475 0.87248476
1.00000000 1.00000000 1.00000000
1.00000000 1.00000000 1.00000000
0.00000004 0.00000000 0.00000003
0.00000004 0.00000000 0.00000003
0.02636438 0.02636435 0.02636437
0.09169872 0.03672372 0.04024013
0.15772910 0.04225396 0.05084393
0.23830867 0.03869111 0.05734520
0.33914791 0.02883163 0.06508548
0.46929889 0.00000000 0.07538394
0.61303994 0.00000000 0.09164271
0.73458719 0.04949369 0.12124972
0.84333163 0.13511857 0.17032435
0.93734309 0.30186273 0.26642638
0.99508610 0.61173970 0.49321063
1.00000000 0.80225200 0.72387335
1.00000000 0.91612475 0.87248476
1.00000000 1.00000000 1.00000000
1.00000000 1.00000000 1.00000000
0.02636438 0.02636435 0.02636437
0.02636438 0.02636435 0.02636437
0.04104191 0.04151348 0.03563211
0.09963734 0.05623878 0.04313522
0.16039857 0.06525193 0.04812926
0.23953251 0.06496015 0.05147057
0.34032033 0.05831420 0.05717359
0.47097036 0.04047449 0.06637009
0.61454527 0.01331918 0.08314192
0.73594697 0.05458585 0.11378101
0.84453973 0.13381585 0.16439822
0.93831885 0.30062527 0.26244720
0.99562982 0.61221050 0.49178143
1.00000000 0.80265500 0.72386053
1.00000000 0.91639704 0.87268866
1.00000000 1.00000000 1.00000000
1.00000000 1.00000000 1.00000000
0.04818158 0.08440639 0.03726283
0.04818158 0.08440639 0.03726283
0.06223121 0.09974341 0.04079329
0.10580809 0.11082090 0.03763684
0.16448057 0.11786884 0.03460728
0.24153077 0.12022722 0.03356391
0.34208329 0.11692517 0.03529407
0.47285638 0.10782698 0.04504313
0.61693520 0.09271932 0.06272957
0.73885073 0.08785920 0.09469274
0.84744588 0.13991779 0.14888382
0.94081728 0.30072272 0.25192666
0.99701455 0.61447817 0.48832617
1.00000000 0.80404253 0.72406450
1.00000000 0.91726805 0.87339670
1.00000000 1.00000000 1.00000000
1.00000000 1.00000000 1.00000000
0.07057997 0.14675341 0.04102672
0.07057997 0.14675341 0.04102672
0.07951934 0.15412041 0.03798756
0.11357834 0.16462191 0.02935167
0.16550383 0.17423490 0.02370984
0.23813497 0.18148555 0.02208244
0.33665145 0.18474732 0.02506560
0.46810395 0.18207383 0.03308273
0.61544541 0.17166404 0.04755169
0.74027453 0.15638741 0.07464325
0.85040403 0.17392501 0.12901839
0.94387899 0.31173128 0.23796122
0.99861710 0.62089479 0.48500950
1.00000000 0.80695864 0.72517489
1.00000000 0.91891681 0.87489333
1.00000000 1.00000000 1.00000000
1.00000000 1.00000000 1.00000000
0.09342472 0.21427506 0.03863370
0.09342472 0.21427506 0.03863370
0.10091860 0.21867707 0.03481381
0.12763665 0.22765133 0.02595721
0.17149336 0.23852623 0.01815278
0.23726109 0.25000705 0.01390153
0.33085738 0.25966139 0.01629657
0.46012198 0.26492807 0.02423032
0.61025365 0.26316349 0.03880567
0.73806653 0.25424028 0.06398961
0.85113127 0.25502567 0.11433451
0.94659816 0.34973360 0.22314224
0.99989750 0.63589375 0.48441403
1.00000000 0.81283243 0.72847446
1.00000000 0.92199494 0.87796267
1.00000000 1.00000000 1.00000000
1.00000000 1.00000000 1.00000000
0.12419478 0.29956018 0.03418213
0.12419478 0.29956018 0.03418213
0.13061499 0.30242112 0.03122815
0.15181554 0.30960846 0.02373766
0.18780190 0.31990296 0.01522441
0.24470539 0.33321710 0.00314134
0.33012787 0.34805648 0.00178849
0.45282518 0.36116785 0.01704507
0.60280531 0.36944544 0.03327939
0.73296967 0.37098026 0.06074309
0.84860175 0.37477670 0.11128072
0.94682151 0.43981059 0.22103290
1.00000000 0.66651417 0.49402544
1.00000000 0.82440681 0.73686173
1.00000000 0.92773582 0.88413652
1.00000000 1.00000000 1.00000000
1.00000000 1.00000000 1.00000000
0.16770089 0.41109292 0.03169370
0.16770089 0.41109292 0.03169370
0.17300603 0.41307915 0.03002414
0.18975502 0.41864472 0.02540830
0.21862835 0.42749677 0.01966049
0.26602173 0.44059910 0.01130727
0.34052279 0.45792947 0.00000000
0.45287674 0.47774660 0.01358828
0.59651146 0.49585391 0.03334031
0.72641846 0.50950924 0.06285566
0.84366888 0.52225797 0.11794806
0.94417617 0.56815964 0.23266405
1.00000000 0.71435620 0.51973759
1.00000000 0.84568744 0.75501555
1.00000000 0.93924731 0.89708707
1.00000000 1.00000000 1.00000000
1.00000000 1.00000000 1.00000000
0.22934241 0.55364728 0.03773379
0.22934241 0.55364728 0.03773379
0.23354848 0.55484977 0.03724858
0.24659633 0.55830385 0.03593336
0.26931863 0.56417121 0.03332091
0.30758665 0.57316630 0.03104405
0.36999605 0.58628841 0.02779750
0.46813549 0.60296553 0.02933018
0.59785013 0.62140066 0.04413397
0.72152862 0.63809387 0.07576775
0.83792637 0.65426794 0.13470430
0.93995783 0.68435198 0.25946230
0.99937476 0.77571820 0.56146910
1.00000000 0.87762446 0.78530892
1.00000000 0.95772371 0.91863092
1.00000000 1.00000000 1.00000000
1.00000000 1.00000000 1.00000000
0.31834248 0.68419775 0.06460380
0.31834248 0.68419775 0.06460380
0.32156313 0.68476379 0.06475998
0.33151097 0.68645047 0.06525283
0.34900163 0.68940735 0.06582908
0.37901420 0.69445414 0.06543135
0.42928899 0.70226423 0.06685998
0.51105107 0.71384861 0.06927764
0.61442648 0.72894195 0.07992007
0.72458547 0.74644235 0.10981069
0.83455778 0.76381675 0.17355327
0.93565706 0.78796087 0.31022610
0.99810775 0.84625402 0.62477627
1.00000000 0.92042786 0.83113101
1.00000000 0.98506686 0.95179360
1.00000000 1.00000000 1.00000000
1.00000000 1.00000000 1.00000000
0.45451005 0.80127313 0.13260067
0.45451005 0.80127313 0.13260067
0.45689454 0.80155361 0.13298663
0.46425996 0.80240458 0.13417439
0.47728390 0.80392376 0.13603733
0.49998298 0.80659815 0.13867759
0.53632190 0.81118894 0.14171277
0.58867534 0.81848603 0.14925481
0.65836157 0.82942449 0.16256457
0.74403479 0.84411849 0.19287189
0.84090867 0.86241485 0.26188643
0.93494462 0.88278121 0.41519230
0.99807655 0.92024705 0.71565445
1.00000000 0.97093400 0.89479998
1.00000000 1.00000000 1.00000000
1.00000000 1.00000000 1.00000000
1.00000000 1.00000000 1.00000000
0.64313501 0.90807532 0.29231788
0.64313501 0.90807532 0.29231788
0.64419000 0.90820634 0.29288688
0.64742192 0.90860707 0.29465324
0.65306407 0.90933451 0.29762481
0.66274479 0.91064390 0.30257438
0.67886100 0.91297020 0.31059235
0.70470600 0.91714639 0.32339510
0.74375716 0.92389617 0.34766589
0.79845067 0.93428243 0.39041530
0.86848203 0.94891800 0.47427839
0.94808747 0.96897736 0.62527449
1.00000000 0.99017615 0.84320054
1.00000000 1.00000000 1.00000000
1.00000000 1.00000000 1.00000000
1.00000000 1.00000000 1.00000000
1.00000000 1.00000000 1.00000000
0.83582131 0.99419378 0.65318808
0.83582131 0.99419378 0.65318808
0.83624683 0.99421715 0.65381447
0.83754546 0.99429036 0.65571578
0.83982637 0.99443601 0.65899835
0.84380875 0.99471547 0.66466896
0.85062620 0.99524775 0.67428982
0.86196741 0.99626048 0.69024580
0.88069145 0.99859839 0.71707985
0.90830332 1.00000000 0.75878119
0.94573465 1.00000000 0.81942511
1.00000000 1.00000000 1.00000000
1.00000000 1.00000000 1.00000000
1.00000000 1.00000000 1.00000000
1.00000000 1.00000000 1.00000000
1.00000000 1.00000000 1.00000000
1.00000000 1.00000000 1.00000000
1.00000000 1.00000000 1.00000000
1.00000000 1.00000000 1.00000000
1.00000000 1.00000000 1.00000000
1.00000000 1.00000000 1.00000000
1.00000000 1.00000000 1.00000000
1.00000000 1.00000000 1.00000000
1.00000000 1.00000000 1.00000000
1.00000000 1.00000000 1.00000000
1.00000000 1.00000000 1.00000000
1.00000000 1.00000000 1.00000000
1.00000000 1.00000000 1.00000000
1.00000000 1.00000000 1.00000000
1.00000000 1.00000000 1.00000000
1.00000000 1.00000000 1.00000000
1.00000000 1.00000000 1.00000000
1.00000000 1.00000000 1.00000000
1.00000000 1.00000000 1.00000000
1.00000000 1.00000000 1.00000000
1.00000000 1.00000000 1.00000000
1.00000000 1.00000000 1.00000000
1.00000000 1.00000000 1.00000000
1.00000000 1.00000000 1.00000000
1.00000000 1.00000000 1.00000000
1.00000000 1.00000000 1.00000000
1.00000000 1.00000000 1.00000000
1.00000000 1.00000000 1.00000000
1.00000000 1.00000000 1.00000000
1.00000000 1.00000000 1.00000000
1.00000000 1.00000000 1.00000000
1.00000000 1.00000000 1.00000000
1.00000000 1.00000000 1.00000000
1.00000000 1.00000000 1.00000000
1.00000000 1.00000000 1.00000000
1.00000000 1.00000000 1.00000000
1.00000000 1.00000000 1.00000000
1.00000000 1.00000000 1.00000000
1.00000000 1.00000000 1.00000000
1.00000000 1.00000000 1.00000000
1.00000000 1.00000000 1.00000000
1.00000000 1.00000000 1.00000000
1.00000000 1.00000000 1.00000000
1.00000000 1.00000000 1.00000000
1.00000000 1.00000000 1.00000000
1.00000000 1.00000000 1.00000000
1.00000000 1.00000000 1.00000000
1.00000000 1.00000000 1.00000000
1.00000000 1.00000000 1.00000000
1.00000000 1.00000000 1.00000000
1.00000000 1.00000000 1.00000000
1.00000000 1.00000000 1.00000000
1.00000000 1.00000000 1.00000000
1.00000000 1.00000000 1.00000000
1.00000000 1.00000000 1.00000000
1.00000000 1.00000000 1.00000000
1.00000000 1.00000000 1.00000000
1.00000000 1.00000000 1.00000000
1.00000000 1.00000000 1.00000000
1.00000000 1.00000000 1.00000000
1.00000000 1.00000000 1.00000000
1.00000000 1.00000000 1.00000000
1.00000000 1.00000000 1.00000000
1.00000000 1.00000000 1.00000000
1.00000000 1.00000000 1.00000000
1.00000000 1.00000000 1.00000000
1.00000000 1.00000000 1.00000000
1.00000000 1.00000000 1.00000000
1.00000000 1.00000000 1.00000000
1.00000000 1.00000000 1.00000000
0.02636438 0.02636435 0.02636437
0.02636438 0.02636435 0.02636437
0.04472641 0.03119897 0.04601921
0.09973223 0.03241083 0.05772419
0.15956237 0.03522860 0.07052469
0.23824063 0.02986673 0.07907910
0.33895017 0.00964545 0.08680534
0.46973303 0.00000000 0.09447590
0.61406597 0.00000000 0.10458218
0.73531574 0.03296518 0.12758476
0.84322338 0.13420002 0.17556076
0.93691888 0.30269430 0.27025168
0.99470747 0.61168655 0.49509265
1.00000000 0.80203778 0.72412687
1.00000000 0.91593027 0.87239822
1.00000000 0.99299196 0.98341817
1.00000000 1.00000000 1.00000000
0.02636438 0.02636435 0.02636437
0.02636438 0.02636435 0.02636437
0.04472641 0.03119897 0.04601921
0.09973223 0.03241083 0.05772419
0.15956237 0.03522860 0.07052469
0.23824063 0.02986673 0.07907910
0.33895017 0.00964545 0.08680534
0.46973303 0.00000000 0.09447590
0.61406597 0.00000000 0.10458218
0.73531574 0.03296518 0.12758476
0.84322338 0.13420002 0.17556076
0.93691888 0.30269430 0.27025168
0.99470747 0.61168655 0.49509265
1.00000000 0.80203778 0.72412687
1.00000000 0.91593027 0.87239822
1.00000000 0.99299196 0.98341817
1.00000000 1.00000000 1.00000000
0.03314261 0.04702874 0.04664194
0.03314261 0.04702874 0.04664194
0.05426708 0.05426708 0.05426708
0.11532497 0.04942564 0.05362151
0.17089239 0.05392941 0.06197532
0.24753122 0.04952518 0.06633470
0.34621648 0.03986035 0.07180920
0.47538431 0.01475367 0.07873797
0.61677318 0.00000000 0.09131739
0.73649206 0.04554134 0.12089115
0.84435327 0.13369677 0.17006837
0.93786872 0.30168677 0.26643332
0.99523955 0.61220134 0.49372303
1.00000000 0.80244928 0.72412770
1.00000000 0.91620581 0.87260869
1.00000000 1.00000000 1.00000000
1.00000000 1.00000000 1.00000000
0.04579473 0.11392669 0.05213239
0.04579473 0.11392669 0.05213239
0.06466622 0.11923356 0.04734912
0.11440981 0.11975118 0.04252030
0.17525418 0.11821082 0.03974926
0.25203053 0.11405716 0.03854171
0.35133747 0.10572998 0.03872831
0.47965207 0.09391580 0.04999877
0.61967685 0.07904569 0.06929499
0.73956236 0.07984988 0.10155942
0.84733628 0.13885659 0.15449137
0.94040457 0.30155492 0.25586858
0.99664236 0.61443747 0.49023677
1.00000000 0.80383532 0.72432691
1.00000000 0.91707844 0.87331778
1.00000000 1.00000000 1.00000000
1.00000000 1.00000000 1.00000000
0.06557871 0.16599330 0.04585201
0.06557871 0.16599330 0.04585201
0.07769073 0.17074185 0.03921385
0.11652064 0.17692854 0.02857105
0.17194555 0.18104154 0.02287562
0.24599480 0.18289497 0.02232248
0.34432360 0.18167150 0.02666552
0.47464438 0.17570908 0.03562136
0.61873613 0.16331190 0.05104570
0.74165781 0.14790903 0.07862149
0.85057039 0.17061928 0.13377472
0.94359955 0.31165164 0.24151601
0.99831215 0.62070503 0.48673178
1.00000000 0.80673329 0.72539833
1.00000000 0.91872639 0.87480585
1.00000000 1.00000000 1.00000000
1.00000000 1.00000000 1.00000000
0.08931414 0.22729351 0.04136189
0.08931414 0.22729351 0.04136189
0.09823449 0.23075682 0.03581967
0.12743912 0.23817377 0.02560444
0.17398934 0.24653662 0.01677075
0.24176499 0.25476209 0.01266464
0.33631045 0.26096937 0.01637375
0.46555396 0.26317060 0.02538262
0.61348567 0.25906457 0.04048196
0.73969406 0.24874743 0.06601523
0.85178657 0.24988256 0.11654446
0.94657707 0.34812533 0.22575921
0.99972355 0.63544081 0.48572688
1.00000000 0.81257016 0.72861046
1.00000000 0.92180130 0.87785338
1.00000000 1.00000000 1.00000000
1.00000000 1.00000000 1.00000000
0.12100355 0.30878499 0.03616127
0.12100355 0.30878499 0.03616127
0.12808996 0.31129359 0.03227062
0.15047970 0.31791764 0.02375260
0.18810141 0.32715344 0.01408517
0.24666000 0.33880616 0.00000000
0.33337068 0.35148011 0.00000000
0.45672816 0.36221723 0.01680201
0.60555587 0.36832523 0.03384945
0.73455955 0.36819451 0.06156975
0.84943632 0.37114157 0.11221724
0.94713902 0.43683664 0.22192755
1.00000000 0.66573426 0.49460481
1.00000000 0.82402565 0.73677944
1.00000000 0.92748194 0.88393230
1.00000000 1.00000000 1.00000000
1.00000000 1.00000000 1.00000000
0.16530109 0.41781451 0.03298647
0.16530109 0.41781451 0.03298647
0.17091355 0.41962267 0.03094506
0.18819969 0.42491583 0.02604113
0.21792830 0.43339041 0.01932232
0.26640831 0.44575693 0.00972427
0.34200896 0.46194182 0.00000000
0.45524218 0.48024406 0.01224987
0.59853648 0.49666345 0.03320698
0.72775973 0.50879234 0.06310313
0.84447974 0.52052440 0.11829872
0.94458336 0.56644095 0.23303022
1.00000000 0.71373331 0.52004718
1.00000000 0.84534650 0.75489428
1.00000000 0.93901355 0.89688061
1.00000000 1.00000000 1.00000000
1.00000000 1.00000000 1.00000000
0.22758369 0.55771717 0.03852593
0.22758369 0.55771717 0.03852593
0.23191494 0.55882891 0.03783481
0.24519033 0.56214509 0.03633599
0.26834034 0.56778185 0.03371620
0.30721818 0.57645872 0.03093309
