Luts Download/Canon Luts/3dlut/17grid-3dlut/full-to-full-range/CinemaGamut_CanonLog3-to-BT2020_709WideDR_17_FF_Ver.2.0.cube
# Gamut : Cinema Gamut to BT.2020
# Gamma : Canon Log 3 to Wide DR
# Range : Full in / Full out
# Version : 2.0 2019/10/24
# Copyright(c) 2019 Canon Inc. All Rights Reserved.
LUT_3D_SIZE 17
# LUT_3D_INPUT_RANGE 0.0 1.0
0.00000000 0.00000000 0.00000000
0.00000000 0.00000000 0.00000000
0.00000000 0.00000000 0.00000000
0.10173908 0.01394540 0.01713645
0.21843911 0.01651280 0.02539615
0.33461136 0.01371765 0.03092031
0.45375535 0.00800922 0.03566438
0.56247145 0.00189540 0.03673330
0.65443360 0.00000000 0.03136087
0.73400695 0.00165221 0.01987473
0.80066843 0.01373908 0.00498404
0.85272071 0.04026093 0.00000000
0.89142890 0.07864754 0.00000000
0.91893149 0.12145501 0.00000000
0.94110756 0.15822247 0.00000000
0.96636306 0.18935440 0.00000000
1.00000000 0.21621018 0.00000000
0.00000000 0.00000000 0.00000000
0.00000000 0.00000000 0.00000000
0.00000000 0.00000000 0.00000000
0.10173908 0.01394540 0.01713645
0.21843911 0.01651280 0.02539615
0.33461136 0.01371765 0.03092031
0.45375535 0.00800922 0.03566438
0.56247145 0.00189540 0.03673330
0.65443360 0.00000000 0.03136087
0.73400695 0.00165221 0.01987473
0.80066843 0.01373908 0.00498404
0.85272071 0.04026093 0.00000000
0.89142890 0.07864754 0.00000000
0.91893149 0.12145501 0.00000000
0.94110756 0.15822247 0.00000000
0.96636306 0.18935440 0.00000000
1.00000000 0.21621018 0.00000000
0.00000000 0.00000000 0.00000000
0.00000000 0.01884837 0.00000000
0.00000000 0.01004390 0.00000000
0.10173908 0.01394540 0.01713645
0.21843911 0.01651280 0.02539615
0.33461136 0.01371765 0.03092031
0.45375535 0.00800922 0.03566438
0.56247145 0.00189540 0.03673330
0.65443360 0.00000000 0.03136087
0.73400695 0.00165221 0.01987473
0.80066843 0.01373908 0.00498404
0.85272071 0.04026093 0.00000000
0.89142890 0.07864754 0.00000000
0.91893149 0.12145501 0.00000000
0.94110756 0.15822247 0.00000000
0.96636306 0.18935440 0.00000000
1.00000000 0.21621018 0.00000000
0.03812531 0.09270474 0.02755006
0.03812531 0.09270474 0.02755006
0.03812531 0.09270474 0.02755006
0.12279514 0.13135728 0.02802550
0.22495897 0.14650750 0.02521202
0.33718149 0.15194411 0.02257867
0.45708099 0.14998989 0.02197849
0.56821724 0.14304168 0.02639357
0.66172760 0.13723800 0.03292169
0.74169780 0.13665161 0.03666226
0.80880923 0.14272553 0.03618505
0.86219376 0.15673649 0.03381929
0.90270160 0.17635972 0.03093816
0.93199552 0.20000618 0.03078715
0.95469949 0.22535687 0.03480148
0.97854708 0.25126028 0.04351504
1.00000000 0.28161738 0.06315019
0.07044299 0.19236793 0.03693390
0.07044299 0.19236793 0.03693390
0.07044299 0.19236793 0.03693390
0.14034882 0.22413034 0.02731875
0.22893327 0.24412409 0.01913593
0.33386281 0.25717634 0.01365154
0.45195115 0.26291057 0.01080558
0.57305044 0.25409911 0.00076035
0.67219697 0.24518173 0.01795582
0.75884547 0.23604045 0.03136052
0.83401313 0.22767715 0.03618829
0.87555033 0.25120005 0.08128952
0.91772577 0.26183931 0.09140964
0.94710592 0.27846360 0.10365440
0.96576529 0.30235297 0.12376074
0.98316823 0.32986794 0.14773814
1.00000000 0.35864004 0.17119286
0.10501192 0.29228252 0.03527049
0.10501192 0.29228252 0.03527049
0.10501192 0.29228252 0.03527049
0.16239041 0.31762226 0.02211766
0.23881980 0.33804535 0.01286487
0.33438036 0.35551355 0.00764527
0.44678774 0.36763835 0.00412916
0.56439268 0.36797977 0.00657550
0.67502050 0.35657128 0.01378142
0.76622903 0.34696474 0.04896570
0.84341748 0.33895561 0.08080963
0.90780919 0.33274945 0.10155235
0.96034640 0.32844050 0.11102466
0.96243604 0.36872972 0.18519556
0.97494651 0.39280139 0.21836406
0.98706269 0.41920509 0.24913345
1.00000000 0.44631543 0.27534378
0.14274585 0.39568149 0.02854748
0.14274585 0.39568149 0.02854748
0.14274585 0.39568149 0.02854748
0.19103750 0.41578421 0.01748873
0.25587406 0.43517552 0.00842104
0.34064042 0.45462446 0.00357176
0.44451822 0.47155306 0.00009283
0.56011338 0.47715985 0.00000000
0.67570819 0.46876046 0.00105997
0.78498802 0.45087935 0.01368312
0.87139698 0.43681314 0.06782347
0.94030055 0.42651162 0.11842460
0.99462067 0.41973398 0.15169887
0.98503003 0.46097773 0.25669228
0.99087094 0.48497932 0.30453511
0.99690420 0.51071788 0.34467483
1.00000000 0.53711793 0.37672660
0.18356164 0.49011238 0.02073227
0.18356164 0.49011238 0.02073227
0.18356164 0.49011238 0.02073227
0.22357272 0.50708409 0.01462625
0.27634141 0.52558063 0.00731169
0.34822502 0.54624221 0.00386613
0.43984136 0.56700583 0.00240870
0.54636520 0.57925801 0.00000000
0.66152721 0.57676228 0.00000000
0.77769567 0.56157598 0.00000000
0.88155942 0.54038761 0.03356810
0.97656702 0.51257329 0.05600327
0.99592816 0.52983535 0.22400313
1.00000000 0.54781408 0.30981357
1.00000000 0.56967352 0.37455614
1.00000000 0.59331085 0.42458098
1.00000000 0.61870661 0.46360882
0.22668216 0.57002205 0.01453927
0.22668216 0.57002205 0.01453927
0.22668216 0.57002205 0.01453927
0.25843447 0.58525299 0.01288044
0.30024190 0.60310756 0.00917206
0.35820358 0.62492434 0.00630781
0.43554284 0.64872026 0.00738533
0.52860113 0.66665712 0.00483891
0.63385728 0.67240507 0.00000000
0.74834607 0.66454060 0.00000000
0.86269810 0.64447127 0.00393717
0.95907276 0.62108882 0.07859795
1.00000000 0.61594376 0.22530176
1.00000000 0.62721880 0.34156979
1.00000000 0.64481693 0.42582871
1.00000000 0.66529127 0.48812243
1.00000000 0.68874792 0.53474814
0.27108646 0.63975933 0.01110967
0.27108646 0.63975933 0.01110967
0.27108646 0.63975933 0.01110967
0.29586700 0.65389509 0.01257479
0.32890090 0.67122887 0.01270949
0.37392167 0.69382488 0.00985261
0.43677590 0.71979648 0.01113520
0.51532081 0.74187383 0.01266072
0.60695128 0.75426297 0.00898758
0.71131412 0.75527682 0.00362488
0.82341917 0.74290470 0.00870376
0.93057490 0.72024804 0.06173819
1.00000000 0.70314630 0.20943237
1.00000000 0.70387828 0.35524295
1.00000000 0.71453790 0.46230429
1.00000000 0.73061512 0.53915831
1.00000000 0.75109922 0.59437223
0.31398638 0.70008399 0.00981931
0.31398638 0.70008399 0.00981931
0.31398638 0.70008399 0.00981931
0.33336728 0.71349695 0.01314154
0.35936650 0.73047635 0.01594682
0.39561017 0.75300224 0.01791159
0.44428357 0.78074326 0.01533581
0.50863465 0.80590003 0.01870374
0.58591423 0.82323301 0.02093598
0.67662791 0.83133432 0.02258487
0.77904554 0.82800630 0.03005764
0.88593198 0.81181797 0.06695108
0.97918744 0.78906185 0.17539733
1.00000000 0.77896051 0.35075391
1.00000000 0.78064417 0.48364704
1.00000000 0.79058514 0.57843261
1.00000000 0.80708903 0.64323404
0.35314558 0.75098202 0.01001714
0.35314558 0.75098202 0.01001714
0.35314558 0.75098202 0.01001714
0.36860779 0.76387804 0.01443630
0.38934335 0.78058715 0.01877567
0.41870234 0.80285847 0.02405818
0.45711137 0.83148865 0.02218651
0.50878489 0.85892555 0.02638395
0.57252699 0.87992203 0.03395938
0.64919961 0.89331666 0.04539470
0.73807039 0.89715373 0.06233830
0.83649724 0.88979448 0.09724937
0.93412143 0.87089376 0.17244055
1.00000000 0.85173347 0.33031753
1.00000000 0.84389209 0.49032244
1.00000000 0.84641805 0.60651929
1.00000000 0.85770265 0.68242292
0.38740930 0.79280540 0.01143252
0.38740930 0.79280540 0.01143252
0.38740930 0.79280540 0.01143252
0.40018558 0.80529468 0.01669135
0.41728458 0.82172763 0.02234657
0.44190198 0.84365251 0.03133626
0.47488412 0.87211284 0.03842459
0.51553988 0.90130939 0.04130379
0.55517687 0.92930026 0.00000000
0.61922448 0.94708453 0.00000000
0.70808227 0.95049984 0.11958628
0.79261928 0.95016259 0.15590035
0.88348208 0.93994614 0.20445653
0.96759431 0.91995428 0.29764659
1.00000000 0.90389336 0.48603143
1.00000000 0.89877426 0.62754491
1.00000000 0.90440916 0.71590018
0.41670709 0.82714542 0.01363421
0.41670709 0.82714542 0.01363421
0.41670709 0.82714542 0.01363421
0.42777844 0.83926407 0.01991005
0.44266823 0.85526521 0.02764337
0.46426567 0.87682894 0.04046606
0.49348369 0.90496458 0.05569877
0.52922252 0.93413397 0.07099229
0.55113830 0.96669776 0.00000000
0.60434035 0.98732142 0.00043470
0.69991462 0.98613049 0.21688719
0.77108707 0.98981477 0.27116442
0.84399032 0.98773429 0.30689377
0.92114390 0.97778651 0.36013317
0.98243068 0.95910530 0.49602528
1.00000000 0.94706055 0.65447467
1.00000000 0.94776821 0.75429835
0.44239529 0.85759052 0.01638330
0.44239529 0.85759052 0.01638330
0.44239529 0.85759052 0.01638330
0.45242341 0.86932452 0.02386497
0.46616141 0.88479349 0.03451431
0.48648329 0.90569677 0.05342302
0.51486976 0.93281335 0.08245735
0.55170223 0.95998344 0.12455314
0.60056552 0.98101340 0.18874201
0.66415521 0.99327602 0.28208194
0.72885933 1.00000000 0.36904921
0.78947026 1.00000000 0.44270582
0.84575505 1.00000000 0.50249630
0.90033431 1.00000000 0.55840311
0.95370190 0.99789479 0.62975285
0.99240256 0.98785153 0.71712388
1.00000000 0.98595129 0.81510509
0.46730276 0.89062108 0.01895479
0.46730276 0.89062108 0.01895479
0.46730276 0.89062108 0.01895479
0.47668876 0.90188317 0.02778195
0.49001343 0.91662499 0.04230233
0.51050720 0.93643297 0.07038789
0.54240013 0.96094708 0.12301127
0.58758729 0.98329483 0.19790477
0.64947047 0.99625936 0.30346228
0.71384412 1.00000000 0.40711847
0.77359609 1.00000000 0.50062134
0.82676902 1.00000000 0.58166969
0.87328903 1.00000000 0.65111601
0.91503022 1.00000000 0.71424697
0.95387561 1.00000000 0.78016290
0.99007180 1.00000000 0.85509335
1.00000000 1.00000000 1.00000000
0.49583551 0.93658624 0.01929295
0.49583551 0.93658624 0.01929295
0.49583551 0.93658624 0.01929295
0.50446851 0.94728861 0.02835007
0.51762744 0.96105477 0.04679002
0.54053010 0.97878683 0.09197021
0.58361231 0.99725297 0.18347645
0.64373071 1.00000000 0.29631543
0.70722244 1.00000000 0.40672962
0.76813324 1.00000000 0.51024941
0.82324017 1.00000000 0.60387419
0.87112987 1.00000000 0.68640294
0.91223437 1.00000000 0.75837603
0.94759461 1.00000000 0.82281816
0.97865824 1.00000000 0.88338817
1.00000000 1.00000000 1.00000000
1.00000000 1.00000000 1.00000000
0.00000000 0.00000000 0.00000000
0.00000000 0.00000000 0.00000000
0.00000000 0.00000000 0.00000000
0.10173908 0.01394540 0.01713645
0.21843911 0.01651280 0.02539615
0.33461136 0.01371765 0.03092031
0.45375535 0.00800922 0.03566438
0.56247145 0.00189540 0.03673330
0.65443360 0.00000000 0.03136087
0.73400695 0.00165221 0.01987473
0.80066843 0.01373908 0.00498404
0.85272071 0.04026093 0.00000000
0.89142890 0.07864754 0.00000000
0.91893149 0.12145501 0.00000000
0.94110756 0.15822247 0.00000000
0.96636306 0.18935440 0.00000000
1.00000000 0.21621018 0.00000000
0.00000000 0.00000000 0.00000000
0.00000000 0.00000000 0.00000000
0.00000000 0.00000000 0.00000000
0.10173908 0.01394540 0.01713645
0.21843911 0.01651280 0.02539615
0.33461136 0.01371765 0.03092031
0.45375535 0.00800922 0.03566438
0.56247145 0.00189540 0.03673330
0.65443360 0.00000000 0.03136087
0.73400695 0.00165221 0.01987473
0.80066843 0.01373908 0.00498404
0.85272071 0.04026093 0.00000000
0.89142890 0.07864754 0.00000000
0.91893149 0.12145501 0.00000000
0.94110756 0.15822247 0.00000000
0.96636306 0.18935440 0.00000000
1.00000000 0.21621018 0.00000000
0.00000000 0.00000000 0.00000000
0.00000000 0.00000000 0.00000000
0.00000000 0.00000000 0.00000000
0.10173908 0.01394540 0.01713645
0.21843911 0.01651280 0.02539615
0.33461136 0.01371765 0.03092031
0.45375535 0.00800922 0.03566438
0.56247145 0.00189540 0.03673330
0.65443360 0.00000000 0.03136087
0.73400695 0.00165221 0.01987473
0.80066843 0.01373908 0.00498404
0.85272071 0.04026093 0.00000000
0.89142890 0.07864754 0.00000000
0.91893149 0.12145501 0.00000000
0.94110756 0.15822247 0.00000000
0.96636306 0.18935440 0.00000000
1.00000000 0.21621018 0.00000000
0.03812531 0.09270474 0.02755006
0.03812531 0.09270474 0.02755006
0.03812531 0.09270474 0.02755006
0.12279514 0.13135728 0.02802550
0.22495897 0.14650750 0.02521202
0.33718149 0.15194411 0.02257867
0.45708099 0.14998989 0.02197849
0.56821724 0.14304168 0.02639357
0.66172760 0.13723800 0.03292169
0.74169780 0.13665161 0.03666226
0.80880923 0.14272553 0.03618505
0.86219376 0.15673649 0.03381929
0.90270160 0.17635972 0.03093816
0.93199552 0.20000618 0.03078715
0.95469949 0.22535687 0.03480148
0.97854708 0.25126028 0.04351504
1.00000000 0.28161738 0.06315019
0.07044299 0.19236793 0.03693390
0.07044299 0.19236793 0.03693390
0.07044299 0.19236793 0.03693390
0.14034882 0.22413034 0.02731875
0.22893327 0.24412409 0.01913593
0.33386281 0.25717634 0.01365154
0.45195115 0.26291057 0.01080558
0.57305044 0.25409911 0.00076035
0.67219697 0.24518173 0.01795582
0.75884547 0.23604045 0.03136052
0.83401313 0.22767715 0.03618829
0.87555033 0.25120005 0.08128952
0.91772577 0.26183931 0.09140964
0.94710592 0.27846360 0.10365440
0.96576529 0.30235297 0.12376074
0.98316823 0.32986794 0.14773814
1.00000000 0.35864004 0.17119286
0.10501192 0.29228252 0.03527049
0.10501192 0.29228252 0.03527049
0.10501192 0.29228252 0.03527049
0.16239041 0.31762226 0.02211766
0.23881980 0.33804535 0.01286487
0.33438036 0.35551355 0.00764527
0.44678774 0.36763835 0.00412916
0.56439268 0.36797977 0.00657550
0.67502050 0.35657128 0.01378142
0.76622903 0.34696474 0.04896570
0.84341748 0.33895561 0.08080963
0.90780919 0.33274945 0.10155235
0.96034640 0.32844050 0.11102466
0.96243604 0.36872972 0.18519556
0.97494651 0.39280139 0.21836406
0.98706269 0.41920509 0.24913345
1.00000000 0.44631543 0.27534378
0.14274585 0.39568149 0.02854748
0.14274585 0.39568149 0.02854748
0.14274585 0.39568149 0.02854748
0.19103750 0.41578421 0.01748873
0.25587406 0.43517552 0.00842104
0.34064042 0.45462446 0.00357176
0.44451822 0.47155306 0.00009283
0.56011338 0.47715985 0.00000000
0.67570819 0.46876046 0.00105997
0.78498802 0.45087935 0.01368312
0.87139698 0.43681314 0.06782347
0.94030055 0.42651162 0.11842460
0.99462067 0.41973398 0.15169887
0.98503003 0.46097773 0.25669228
0.99087094 0.48497932 0.30453511
0.99690420 0.51071788 0.34467483
1.00000000 0.53711793 0.37672660
0.18356164 0.49011238 0.02073227
0.18356164 0.49011238 0.02073227
0.18356164 0.49011238 0.02073227
0.22357272 0.50708409 0.01462625
0.27634141 0.52558063 0.00731169
0.34822502 0.54624221 0.00386613
0.43984136 0.56700583 0.00240870
0.54636520 0.57925801 0.00000000
0.66152721 0.57676228 0.00000000
0.77769567 0.56157598 0.00000000
0.88155942 0.54038761 0.03356810
0.97656702 0.51257329 0.05600327
0.99592816 0.52983535 0.22400313
1.00000000 0.54781408 0.30981357
1.00000000 0.56967352 0.37455614
1.00000000 0.59331085 0.42458098
1.00000000 0.61870661 0.46360882
0.22668216 0.57002205 0.01453927
0.22668216 0.57002205 0.01453927
0.22668216 0.57002205 0.01453927
0.25843447 0.58525299 0.01288044
0.30024190 0.60310756 0.00917206
0.35820358 0.62492434 0.00630781
0.43554284 0.64872026 0.00738533
0.52860113 0.66665712 0.00483891
0.63385728 0.67240507 0.00000000
0.74834607 0.66454060 0.00000000
0.86269810 0.64447127 0.00393717
0.95907276 0.62108882 0.07859795
1.00000000 0.61594376 0.22530176
1.00000000 0.62721880 0.34156979
1.00000000 0.64481693 0.42582871
1.00000000 0.66529127 0.48812243
1.00000000 0.68874792 0.53474814
0.27108646 0.63975933 0.01110967
0.27108646 0.63975933 0.01110967
0.27108646 0.63975933 0.01110967
0.29586700 0.65389509 0.01257479
0.32890090 0.67122887 0.01270949
0.37392167 0.69382488 0.00985261
0.43677590 0.71979648 0.01113520
0.51532081 0.74187383 0.01266072
0.60695128 0.75426297 0.00898758
0.71131412 0.75527682 0.00362488
0.82341917 0.74290470 0.00870376
0.93057490 0.72024804 0.06173819
1.00000000 0.70314630 0.20943237
1.00000000 0.70387828 0.35524295
1.00000000 0.71453790 0.46230429
1.00000000 0.73061512 0.53915831
1.00000000 0.75109922 0.59437223
0.31398638 0.70008399 0.00981931
0.31398638 0.70008399 0.00981931
0.31398638 0.70008399 0.00981931
0.33336728 0.71349695 0.01314154
0.35936650 0.73047635 0.01594682
0.39561017 0.75300224 0.01791159
0.44428357 0.78074326 0.01533581
0.50863465 0.80590003 0.01870374
0.58591423 0.82323301 0.02093598
0.67662791 0.83133432 0.02258487
0.77904554 0.82800630 0.03005764
0.88593198 0.81181797 0.06695108
0.97918744 0.78906185 0.17539733
1.00000000 0.77896051 0.35075391
1.00000000 0.78064417 0.48364704
1.00000000 0.79058514 0.57843261
1.00000000 0.80708903 0.64323404
0.35314558 0.75098202 0.01001714
0.35314558 0.75098202 0.01001714
0.35314558 0.75098202 0.01001714
0.36860779 0.76387804 0.01443630
0.38934335 0.78058715 0.01877567
0.41870234 0.80285847 0.02405818
0.45711137 0.83148865 0.02218651
0.50878489 0.85892555 0.02638395
0.57252699 0.87992203 0.03395938
0.64919961 0.89331666 0.04539470
0.73807039 0.89715373 0.06233830
0.83649724 0.88979448 0.09724937
0.93412143 0.87089376 0.17244055
1.00000000 0.85173347 0.33031753
1.00000000 0.84389209 0.49032244
1.00000000 0.84641805 0.60651929
1.00000000 0.85770265 0.68242292
0.38740930 0.79280540 0.01143252
0.38740930 0.79280540 0.01143252
0.38740930 0.79280540 0.01143252
0.40018558 0.80529468 0.01669135
0.41728458 0.82172763 0.02234657
0.44190198 0.84365251 0.03133626
0.47488412 0.87211284 0.03842459
0.51553988 0.90130939 0.04130379
0.55517687 0.92930026 0.00000000
0.61922448 0.94708453 0.00000000
0.70808227 0.95049984 0.11958628
0.79261928 0.95016259 0.15590035
0.88348208 0.93994614 0.20445653
0.96759431 0.91995428 0.29764659
1.00000000 0.90389336 0.48603143
1.00000000 0.89877426 0.62754491
1.00000000 0.90440916 0.71590018
0.41670709 0.82714542 0.01363421
0.41670709 0.82714542 0.01363421
0.41670709 0.82714542 0.01363421
0.42777844 0.83926407 0.01991005
0.44266823 0.85526521 0.02764337
0.46426567 0.87682894 0.04046606
0.49348369 0.90496458 0.05569877
0.52922252 0.93413397 0.07099229
0.55113830 0.96669776 0.00000000
0.60434035 0.98732142 0.00043470
0.69991462 0.98613049 0.21688719
0.77108707 0.98981477 0.27116442
0.84399032 0.98773429 0.30689377
0.92114390 0.97778651 0.36013317
0.98243068 0.95910530 0.49602528
1.00000000 0.94706055 0.65447467
1.00000000 0.94776821 0.75429835
0.44239529 0.85759052 0.01638330
0.44239529 0.85759052 0.01638330
0.44239529 0.85759052 0.01638330
0.45242341 0.86932452 0.02386497
0.46616141 0.88479349 0.03451431
0.48648329 0.90569677 0.05342302
0.51486976 0.93281335 0.08245735
0.55170223 0.95998344 0.12455314
0.60056552 0.98101340 0.18874201
0.66415521 0.99327602 0.28208194
0.72885933 1.00000000 0.36904921
0.78947026 1.00000000 0.44270582
0.84575505 1.00000000 0.50249630
0.90033431 1.00000000 0.55840311
0.95370190 0.99789479 0.62975285
0.99240256 0.98785153 0.71712388
1.00000000 0.98595129 0.81510509
0.46730276 0.89062108 0.01895479
0.46730276 0.89062108 0.01895479
0.46730276 0.89062108 0.01895479
0.47668876 0.90188317 0.02778195
0.49001343 0.91662499 0.04230233
0.51050720 0.93643297 0.07038789
0.54240013 0.96094708 0.12301127
0.58758729 0.98329483 0.19790477
0.64947047 0.99625936 0.30346228
0.71384412 1.00000000 0.40711847
0.77359609 1.00000000 0.50062134
0.82676902 1.00000000 0.58166969
0.87328903 1.00000000 0.65111601
0.91503022 1.00000000 0.71424697
0.95387561 1.00000000 0.78016290
0.99007180 1.00000000 0.85509335
1.00000000 1.00000000 1.00000000
0.49583551 0.93658624 0.01929295
0.49583551 0.93658624 0.01929295
0.49583551 0.93658624 0.01929295
0.50446851 0.94728861 0.02835007
0.51762744 0.96105477 0.04679002
0.54053010 0.97878683 0.09197021
0.58361231 0.99725297 0.18347645
0.64373071 1.00000000 0.29631543
0.70722244 1.00000000 0.40672962
0.76813324 1.00000000 0.51024941
0.82324017 1.00000000 0.60387419
0.87112987 1.00000000 0.68640294
0.91223437 1.00000000 0.75837603
0.94759461 1.00000000 0.82281816
0.97865824 1.00000000 0.88338817
1.00000000 1.00000000 1.00000000
1.00000000 1.00000000 1.00000000
0.00000000 0.00000000 0.00000000
0.00000000 0.00000000 0.00000000
0.00000000 0.00000000 0.00000000
0.10173908 0.01394540 0.01713645
0.21843911 0.01651280 0.02539615
0.33461136 0.01371765 0.03092031
0.45375535 0.00800922 0.03566438
0.56247145 0.00189540 0.03673330
0.65443360 0.00000000 0.03136087
0.73400695 0.00165221 0.01987473
0.80066843 0.01373908 0.00498404
0.85272071 0.04026093 0.00000000
0.89142890 0.07864754 0.00000000
0.91893149 0.12145501 0.00000000
0.94110756 0.15822247 0.00000000
0.96636306 0.18935440 0.00000000
1.00000000 0.21621018 0.00000000
0.00000000 0.00000000 0.00000000
0.00000000 0.00000000 0.00000000
0.00000000 0.00000000 0.00000000
0.10173908 0.01394540 0.01713645
0.21843911 0.01651280 0.02539615
0.33461136 0.01371765 0.03092031
0.45375535 0.00800922 0.03566438
0.56247145 0.00189540 0.03673330
0.65443360 0.00000000 0.03136087
0.73400695 0.00165221 0.01987473
0.80066843 0.01373908 0.00498404
0.85272071 0.04026093 0.00000000
0.89142890 0.07864754 0.00000000
0.91893149 0.12145501 0.00000000
0.94110756 0.15822247 0.00000000
0.96636306 0.18935440 0.00000000
1.00000000 0.21621018 0.00000000
0.00000000 0.00000000 0.00000000
0.00000000 0.00000000 0.00000000
0.00000000 0.00000000 0.00000000
0.10173908 0.01394540 0.01713645
0.21843911 0.01651280 0.02539615
0.33461136 0.01371765 0.03092031
0.45375535 0.00800922 0.03566438
0.56247145 0.00189540 0.03673330
0.65443360 0.00000000 0.03136087
0.73400695 0.00165221 0.01987473
0.80066843 0.01373908 0.00498404
0.85272071 0.04026093 0.00000000
0.89142890 0.07864754 0.00000000
0.91893149 0.12145501 0.00000000
0.94110756 0.15822247 0.00000000
0.96636306 0.18935440 0.00000000
1.00000000 0.21621018 0.00000000
0.03812531 0.09270474 0.02755006
0.03812531 0.09270474 0.02755006
0.03812531 0.09270474 0.02755006
0.12279514 0.13135728 0.02802550
0.22495897 0.14650750 0.02521202
0.33718149 0.15194411 0.02257867
0.45708099 0.14998989 0.02197849
0.56821724 0.14304168 0.02639357
0.66172760 0.13723800 0.03292169
0.74169780 0.13665161 0.03666226
0.80880923 0.14272553 0.03618505
0.86219376 0.15673649 0.03381929
0.90270160 0.17635972 0.03093816
0.93199552 0.20000618 0.03078715
0.95469949 0.22535687 0.03480148
0.97854708 0.25126028 0.04351504
1.00000000 0.28161738 0.06315019
0.07044299 0.19236793 0.03693390
0.07044299 0.19236793 0.03693390
0.07044299 0.19236793 0.03693390
0.14034882 0.22413034 0.02731875
0.22893327 0.24412409 0.01913593
0.33386281 0.25717634 0.01365154
0.45195115 0.26291057 0.01080558
0.57305044 0.25409911 0.00076035
0.67219697 0.24518173 0.01795582
0.75884547 0.23604045 0.03136052
0.83401313 0.22767715 0.03618829
0.87555033 0.25120005 0.08128952
0.91772577 0.26183931 0.09140964
0.94710592 0.27846360 0.10365440
0.96576529 0.30235297 0.12376074
0.98316823 0.32986794 0.14773814
1.00000000 0.35864004 0.17119286
0.10501192 0.29228252 0.03527049
0.10501192 0.29228252 0.03527049
0.10501192 0.29228252 0.03527049
0.16239041 0.31762226 0.02211766
0.23881980 0.33804535 0.01286487
0.33438036 0.35551355 0.00764527
0.44678774 0.36763835 0.00412916
0.56439268 0.36797977 0.00657550
0.67502050 0.35657128 0.01378142
0.76622903 0.34696474 0.04896570
0.84341748 0.33895561 0.08080963
0.90780919 0.33274945 0.10155235
0.96034640 0.32844050 0.11102466
0.96243604 0.36872972 0.18519556
0.97494651 0.39280139 0.21836406
0.98706269 0.41920509 0.24913345
1.00000000 0.44631543 0.27534378
0.14274585 0.39568149 0.02854748
0.14274585 0.39568149 0.02854748
0.14274585 0.39568149 0.02854748
0.19103750 0.41578421 0.01748873
0.25587406 0.43517552 0.00842104
0.34064042 0.45462446 0.00357176
0.44451822 0.47155306 0.00009283
0.56011338 0.47715985 0.00000000
0.67570819 0.46876046 0.00105997
0.78498802 0.45087935 0.01368312
0.87139698 0.43681314 0.06782347
0.94030055 0.42651162 0.11842460
0.99462067 0.41973398 0.15169887
0.98503003 0.46097773 0.25669228
0.99087094 0.48497932 0.30453511
0.99690420 0.51071788 0.34467483
1.00000000 0.53711793 0.37672660
0.18356164 0.49011238 0.02073227
0.18356164 0.49011238 0.02073227
0.18356164 0.49011238 0.02073227
0.22357272 0.50708409 0.01462625
0.27634141 0.52558063 0.00731169
0.34822502 0.54624221 0.00386613
0.43984136 0.56700583 0.00240870
0.54636520 0.57925801 0.00000000
0.66152721 0.57676228 0.00000000
0.77769567 0.56157598 0.00000000
0.88155942 0.54038761 0.03356810
0.97656702 0.51257329 0.05600327
0.99592816 0.52983535 0.22400313
1.00000000 0.54781408 0.30981357
1.00000000 0.56967352 0.37455614
1.00000000 0.59331085 0.42458098
1.00000000 0.61870661 0.46360882
0.22668216 0.57002205 0.01453927
0.22668216 0.57002205 0.01453927
0.22668216 0.57002205 0.01453927
0.25843447 0.58525299 0.01288044
0.30024190 0.60310756 0.00917206
0.35820358 0.62492434 0.00630781
