Luts Download/Canon Luts/3dlut/17grid-3dlut/full-to-full-range/CinemaGamut_CanonLog2-to-BT2020_HLGKnee_17_FF_Ver.2.0.cube
# Gamut : Cinema Gamut to BT.2020
# Gamma : Canon Log 2 to HLGKnee
# Range : Full in / Full out
# Version : 2.0 2019/10/24
# Copyright(c) 2019 Canon Inc. All Rights Reserved.
LUT_3D_SIZE 9
# LUT_3D_INPUT_RANGE 0.0 1.0
0.00000004 0.00000000 0.00000003
0.02636438 0.02636435 0.02636437
0.15773582 0.04224140 0.05083558
0.33921958 0.02826822 0.06493949
0.61361115 0.00000000 0.08985833
0.84772530 0.06466219 0.15258440
0.98062422 0.31291418 0.26769079
1.00000000 0.72894844 0.62019909
1.00000000 0.90699206 0.85040553
0.02636438 0.02636435 0.02636437
0.04104192 0.04151351 0.03563170
0.16040484 0.06524436 0.04811754
0.34039200 0.05805153 0.05699831
0.61511722 0.00543586 0.08120828
0.84893257 0.06180468 0.14617656
0.98129376 0.31320497 0.26576563
1.00000000 0.72978860 0.62093802
1.00000000 0.90737624 0.85093921
0.07056677 0.14675584 0.04100208
0.07950688 0.15412274 0.03795861
0.16550250 0.17423424 0.02360872
0.33671541 0.18468363 0.02451859
0.61604066 0.16988013 0.04410840
0.85476332 0.12757122 0.10660977
0.98395266 0.34118878 0.26159153
1.00000000 0.73777283 0.62861625
1.00000000 0.91075267 0.85572585
0.12400168 0.29956932 0.03364036
0.13042985 0.30242951 0.03062746
0.18767134 0.31990451 0.01364121
0.33008247 0.34800567 0.00000000
0.60328739 0.36864269 0.02498389
0.85272078 0.35643543 0.08073387
0.98503881 0.46719423 0.27986139
1.00000000 0.76341090 0.65545817
1.00000000 0.92126591 0.87077114
0.22693021 0.55362358 0.02828337
0.23117431 0.55482442 0.02755593
0.26722354 0.56413093 0.02099343
0.36841732 0.58617866 0.00000000
0.59737257 0.62085676 0.01635407
0.84100110 0.64910096 0.09304973
0.98472630 0.68092908 0.35320675
1.00000000 0.82787075 0.72901713
1.00000000 0.94977692 0.91139297
0.42757457 0.80190152 0.07250612
0.43008764 0.80218174 0.07292633
0.45153646 0.80454885 0.07600609
0.51532369 0.81179391 0.07865274
0.64808075 0.82970884 0.09166432
0.83974617 0.86091876 0.17675470
0.99017691 0.87318786 0.51559209
1.00000000 0.92926465 0.85455664
1.00000000 1.00000000 1.00000000
0.68146156 0.95054910 0.28333899
0.68224196 0.95065334 0.28415449
0.68882964 0.95155608 0.29099914
0.70812788 0.95452949 0.31005090
0.75848181 0.96365462 0.36101164
0.86414534 0.98550790 0.52544232
0.98585747 1.00000000 0.83347161
1.00000000 1.00000000 1.00000000
1.00000000 1.00000000 1.00000000
0.93625793 1.00000000 0.84646110
0.93646403 1.00000000 0.84689263
0.93821180 1.00000000 0.85053108
0.94345876 1.00000000 0.86120282
0.95785160 1.00000000 0.88931055
1.00000000 1.00000000 1.00000000
1.00000000 1.00000000 1.00000000
1.00000000 1.00000000 1.00000000
1.00000000 1.00000000 1.00000000
1.00000000 1.00000000 1.00000000
1.00000000 1.00000000 1.00000000
1.00000000 1.00000000 1.00000000
1.00000000 1.00000000 1.00000000
1.00000000 1.00000000 1.00000000
1.00000000 1.00000000 1.00000000
1.00000000 1.00000000 1.00000000
1.00000000 1.00000000 1.00000000
1.00000000 1.00000000 1.00000000
0.02636438 0.02636435 0.02636437
0.04472668 0.03119828 0.04601953
0.15956919 0.03520786 0.07052016
0.33902193 0.00909109 0.08669344
0.61463478 0.00000000 0.10293852
0.84761215 0.06254105 0.15816597
0.98024318 0.31343543 0.27009839
1.00000000 0.72853823 0.62006331
1.00000000 0.90674280 0.85010686
0.03314149 0.04702889 0.04664207
0.05426708 0.05426708 0.05426708
0.17089947 0.05391871 0.06196781
0.34628957 0.03949673 0.07167376
0.61734151 0.00000000 0.08951364
0.84874406 0.06131248 0.15228782
0.98092110 0.31369584 0.26818096
1.00000000 0.72938387 0.62080562
1.00000000 0.90710909 0.85061939
0.06555806 0.16599607 0.04582502
0.07767407 0.17074442 0.03918083
0.17194407 0.18104068 0.02276436
0.34439086 0.18160258 0.02614958
0.61933141 0.16141112 0.04786584
0.85492720 0.12293811 0.11214018
0.98374184 0.34052734 0.26344907
1.00000000 0.73737117 0.62846155
1.00000000 0.91049127 0.85540821
0.12078732 0.30879417 0.03562094
0.12788602 0.31130194 0.03166299
0.18796214 0.32715488 0.01231347
0.33332450 0.35142827 0.00000000
0.60604082 0.36751105 0.02575195
0.85355278 0.35259008 0.08214728
0.98503076 0.46570994 0.28086999
1.00000000 0.76301538 0.65524108
1.00000000 0.92102768 0.87047500
0.22508971 0.55769501 0.02915039
0.22946478 0.55880511 0.02816884
0.26618917 0.56774325 0.02139466
0.36876144 0.58894535 0.00000000
0.59861343 0.62206953 0.01549496
0.84167854 0.64881432 0.09343150
0.98478748 0.68068009 0.35430641
1.00000000 0.82768913 0.72897960
1.00000000 0.94960708 0.91118240
0.42669338 0.80289250 0.07295290
0.42922338 0.80316687 0.07332494
0.45079071 0.80550727 0.07634468
0.51497937 0.81267290 0.07903748
0.64827399 0.83039157 0.09198187
0.84006578 0.86123883 0.17734826
0.99022553 0.87332127 0.51724269
1.00000000 0.92928357 0.85474434
1.00000000 1.00000000 1.00000000
0.68192769 0.95088321 0.28495448
0.68270198 0.95098679 0.28575456
0.68926816 0.95188607 0.29254638
0.70852416 0.95484655 0.31150631
0.75880437 0.96393344 0.36229679
0.86440266 0.98568130 0.52686093
0.98596791 1.00000000 0.83464301
1.00000000 1.00000000 1.00000000
1.00000000 1.00000000 1.00000000
0.93664701 1.00000000 0.84740779
0.93685097 1.00000000 0.84783384
0.93858921 1.00000000 0.85144778
0.94380878 1.00000000 0.86204986
0.95813018 1.00000000 0.88998291
1.00000000 1.00000000 1.00000000
1.00000000 1.00000000 1.00000000
1.00000000 1.00000000 1.00000000
1.00000000 1.00000000 1.00000000
1.00000000 1.00000000 1.00000000
1.00000000 1.00000000 1.00000000
1.00000000 1.00000000 1.00000000
1.00000000 1.00000000 1.00000000
1.00000000 1.00000000 1.00000000
1.00000000 1.00000000 1.00000000
1.00000000 1.00000000 1.00000000
1.00000000 1.00000000 1.00000000
1.00000000 1.00000000 1.00000000
0.04086163 0.01240462 0.13476516
0.05005010 0.00000000 0.13702277
0.15382403 0.00000000 0.16222603
0.32849854 0.00000000 0.19477153
0.60622069 0.00171846 0.22262785
0.84475703 0.07319543 0.24672046
0.97828557 0.31016570 0.28749461
1.00000000 0.72383620 0.61721327
1.00000000 0.90455806 0.84752543
0.03139399 0.02783894 0.14320338
0.04293354 0.00607102 0.14825589
0.15819657 0.00000000 0.16747156
0.33549533 0.00000000 0.19205274
0.60963612 0.00000000 0.21546221
0.84566508 0.07696781 0.24191248
0.97888042 0.31086823 0.28582751
1.00000000 0.72475337 0.61803712
1.00000000 0.90493034 0.84804227
0.01253805 0.16848978 0.16488529
0.05303690 0.16949735 0.16621397
0.16895397 0.16895397 0.16895397
0.35300322 0.15455754 0.16703079
0.61994610 0.13821740 0.17859968
0.85268870 0.12144750 0.20213475
0.98283356 0.32690716 0.27563898
1.00000000 0.73306565 0.62592898
1.00000000 0.90819723 0.85267157
0.06068092 0.37335479 0.11353596
0.07295496 0.37357655 0.10906918
0.17134385 0.37293823 0.09536144
0.35057640 0.36810167 0.09240439
0.62491606 0.35252910 0.08773552
0.86077285 0.31339390 0.09443006
0.98528390 0.44933442 0.28752886
1.00000000 0.75944805 0.65307956
1.00000000 0.91893412 0.86791781
0.20399102 0.59072274 0.05099688
0.20860988 0.59157789 0.04790603
0.25071575 0.59810822 0.02857881
0.36820804 0.61243808 0.00000000
0.60895052 0.63216151 0.00000000
0.84772084 0.64558151 0.09496646
0.98557568 0.67770634 0.36217529
1.00000000 0.82589502 0.72824716
1.00000000 0.94810327 0.90933299
0.41856242 0.81142650 0.07889493
0.42112125 0.81167662 0.07891828
0.44342579 0.81379849 0.08034803
0.51102203 0.82027078 0.08267190
0.64961864 0.83631977 0.09380600
0.84282167 0.86399644 0.18194441
0.99079157 0.87435445 0.52980574
1.00000000 0.92938785 0.85614172
1.00000000 1.00000000 1.00000000
0.68581358 0.95378429 0.29854647
0.68656049 0.95388508 0.29927788
0.69294304 0.95475536 0.30562047
0.71184735 0.95760521 0.32381208
0.76159281 0.96634655 0.37364837
0.86684215 0.98710432 0.54068874
0.98693213 1.00000000 0.84344063
1.00000000 1.00000000 1.00000000
1.00000000 1.00000000 1.00000000
0.93987448 1.00000000 0.85515568
0.94006902 1.00000000 0.85555748
0.94172905 1.00000000 0.85897123
0.94672318 1.00000000 0.86900199
0.96048170 1.00000000 0.89559125
1.00000000 1.00000000 1.00000000
1.00000000 1.00000000 1.00000000
1.00000000 1.00000000 1.00000000
1.00000000 1.00000000 1.00000000
1.00000000 1.00000000 1.00000000
1.00000000 1.00000000 1.00000000
1.00000000 1.00000000 1.00000000
1.00000000 1.00000000 1.00000000
1.00000000 1.00000000 1.00000000
1.00000000 1.00000000 1.00000000
1.00000000 1.00000000 1.00000000
1.00000000 1.00000000 1.00000000
1.00000000 1.00000000 1.00000000
0.07666671 0.02393175 0.27421395
0.08314722 0.00733563 0.27014064
0.14696272 0.00000000 0.27080094
0.31652060 0.00000000 0.32509050
0.59445158 0.00000000 0.38639117
0.83718488 0.09043381 0.43114103
0.97458380 0.31241312 0.42507821
1.00000000 0.72513767 0.63297485
1.00000000 0.89924052 0.84214387
0.06998748 0.03206655 0.28282727
0.07774930 0.02258700 0.27976420
0.14307542 0.00000000 0.27678190
0.31883367 0.00000000 0.32811724
0.59744356 0.00000000 0.38521950
0.83856570 0.08202730 0.42687221
0.97498634 0.31443198 0.42396035
1.00000000 0.72602580 0.63359453
1.00000000 0.89955668 0.84257672
0.00000000 0.12735528 0.30470947
0.00000000 0.12134430 0.31129481
0.13820152 0.08112044 0.36782230
0.32839979 0.09860255 0.34776154
0.60737107 0.09574929 0.37124257
0.84485911 0.12354541 0.40460976
0.97805348 0.33737050 0.41636856
1.00000000 0.73374569 0.63917472
1.00000000 0.90232204 0.84644174
0.04279750 0.33664204 0.32909499
0.05593877 0.33738617 0.33001542
0.12977449 0.34287703 0.33697687
0.33601674 0.33601674 0.33601674
0.62427797 0.31234534 0.33283320
0.85647404 0.28969469 0.35117322
0.98084826 0.45031448 0.41248544
1.00000000 0.75787724 0.66076122
1.00000000 0.91196551 0.86007231
0.09301520 0.64674120 0.24208803
0.09998276 0.64688241 0.23999847
0.16594849 0.64746864 0.22764193
0.32475472 0.64727067 0.20314439
0.62052471 0.64040464 0.19783412
0.85999084 0.62865077 0.22787025
0.98577994 0.66914961 0.41021081
1.00000000 0.81803437 0.72255114
1.00000000 0.94298034 0.90338584
0.37958637 0.83808727 0.11678902
0.38217715 0.83829719 0.11556835
0.40653248 0.84002885 0.10811505
0.48578835 0.84484494 0.09638139
0.65030369 0.85560365 0.09407600
0.85152315 0.87267635 0.19007706
0.99369413 0.87666455 0.55818348
1.00000000 0.92920399 0.85885887
1.00000000 1.00000000 1.00000000
0.69716658 0.96310596 0.33979744
0.69783508 0.96320707 0.34032324
0.70364633 0.96406402 0.34514682
0.72181695 0.96653403 0.36194928
0.77051665 0.97406711 0.41148062
0.87763082 0.99042666 0.60301720
0.99006982 1.00000000 0.86623679
1.00000000 1.00000000 1.00000000
1.00000000 1.00000000 1.00000000
0.94906401 1.00000000 0.87626794
0.94923313 1.00000000 0.87660537
0.95068183 1.00000000 0.87948604
0.95509110 1.00000000 0.88807130
0.96743554 1.00000000 0.91147216
1.00000000 1.00000000 1.00000000
1.00000000 1.00000000 1.00000000
1.00000000 1.00000000 1.00000000
1.00000000 1.00000000 1.00000000
1.00000000 1.00000000 1.00000000
1.00000000 1.00000000 1.00000000
1.00000000 1.00000000 1.00000000
1.00000000 1.00000000 1.00000000
1.00000000 1.00000000 1.00000000
1.00000000 1.00000000 1.00000000
1.00000000 1.00000000 1.00000000
1.00000000 1.00000000 1.00000000
1.00000000 1.00000000 1.00000000
0.13326902 0.03047680 0.51192638
0.13726994 0.03314283 0.50617860
0.16967271 0.00000000 0.47567481
0.30007153 0.00000000 0.49253054
0.58247646 0.00000000 0.58534985
0.82448313 0.09095503 0.65089659
0.96780580 0.30027400 0.63254229
1.00000000 0.71719650 0.69848310
1.00000000 0.90618880 0.85788849
0.12953231 0.03005413 0.51917529
0.13387819 0.03145745 0.51403505
0.16716004 0.00000000 0.48274960
0.29815326 0.00000000 0.49550871
0.58331324 0.00000000 0.58646746
0.82525727 0.08625449 0.65065291
0.96823721 0.29961120 0.63166901
1.00000000 0.71756716 0.69849203
1.00000000 0.90655073 0.85833753
0.08996196 0.08953050 0.55029816
0.09575397 0.08391733 0.55014468
0.13876433 0.01048303 0.53804867
0.27670819 0.00000000 0.53087345
0.59201903 0.00000000 0.59956575
0.83314013 0.00000000 0.64799173
0.97210695 0.29955480 0.62545715
1.00000000 0.72482964 0.70237349
1.00000000 0.90973130 0.86237209
0.00000000 0.26570566 0.55134363
0.00000000 0.26274718 0.55519286
0.00000000 0.23975575 0.58712078
0.28597274 0.20131051 0.64103635
0.59554995 0.21481015 0.62014812
0.84370224 0.21931784 0.63957861
0.97755487 0.39958769 0.62546902
1.00000000 0.75196144 0.71990001
1.00000000 0.91976041 0.87535842
0.07829750 0.60418016 0.59401192
0.08409934 0.60453035 0.59444828
0.13526809 0.60704769 0.59769747
0.27265141 0.61229575 0.60509832
0.60391133 0.60391133 0.60391133
0.86319843 0.57311892 0.59994310
0.97911853 0.65333054 0.64783650
1.00000000 0.82109178 0.77291267
1.00000000 0.94736039 0.91227117
0.23635075 0.87906052 0.47099662
0.23893306 0.87914729 0.47001385
0.26623444 0.87974568 0.46292076
0.37069042 0.88065399 0.44971071
0.58964118 0.88328341 0.39348558
0.85995148 0.87725171 0.38446608
0.99609325 0.87543223 0.68695721
1.00000000 0.93403781 0.88031912
1.00000000 1.00000000 1.00000000
0.74078183 0.98911229 0.50583418
0.74139966 0.98917637 0.50635953
0.74677949 0.98971473 0.51112312
0.76411183 0.99096415 0.52864138
0.81060539 0.99428720 0.58060440
0.90442442 1.00000000 0.71625028
1.00000000 1.00000000 1.00000000
1.00000000 1.00000000 1.00000000
1.00000000 1.00000000 1.00000000
0.97105331 1.00000000 0.92280257
0.97113283 1.00000000 0.92298790
0.97181668 1.00000000 0.92458515
0.97385067 1.00000000 0.92933768
1.00000000 1.00000000 1.00000000
1.00000000 1.00000000 1.00000000
1.00000000 1.00000000 1.00000000
1.00000000 1.00000000 1.00000000
1.00000000 1.00000000 1.00000000
1.00000000 1.00000000 1.00000000
1.00000000 1.00000000 1.00000000
1.00000000 1.00000000 1.00000000
1.00000000 1.00000000 1.00000000
1.00000000 1.00000000 1.00000000
1.00000000 1.00000000 1.00000000
1.00000000 1.00000000 1.00000000
1.00000000 1.00000000 1.00000000
1.00000000 1.00000000 1.00000000
0.23148710 0.04506548 0.76438247
0.23358634 0.05163581 0.76215537
0.25139575 0.07526548 0.74620608
0.30582181 0.02546596 0.71508849
0.54445945 0.00000000 0.73354502
0.80947970 0.00000000 0.80668603
0.95524701 0.27054883 0.79920432
1.00000000 0.69025998 0.78404624
1.00000000 0.89854965 0.87982136
0.22963727 0.03891132 0.76687177
0.23179848 0.04679741 0.76472823
0.24975831 0.07171354 0.74886757
0.30463227 0.01947363 0.71733722
0.54361483 0.00000000 0.73421742
0.80970018 0.00000000 0.80696714
0.95545371 0.27027313 0.79917917
1.00000000 0.69059021 0.78402550
1.00000000 0.89867926 0.87992502
0.21163049 0.04652018 0.78218146
0.21412724 0.04849634 0.78068393
0.23450676 0.05720389 0.76810232
0.29348900 0.00000000 0.73689845
0.53597575 0.00000000 0.74221876
0.81214359 0.00000000 0.81030063
0.95766822 0.26331263 0.79905031
1.00000000 0.69333277 0.78381134
1.00000000 0.89991368 0.88097465
0.13308507 0.19325536 0.79747107
0.13629267 0.19000504 0.79754389
0.16468680 0.15948326 0.79826952
0.24344092 0.03293977 0.78618226
0.50283299 0.00000000 0.77468753
0.82012389 0.00000000 0.82378135
0.96576212 0.25394480 0.79960019
1.00000000 0.71022083 0.78768040
1.00000000 0.90949155 0.89058888
0.00000000 0.49822354 0.78946778
0.00000000 0.49679007 0.79045522
0.00000000 0.48290290 0.79975618
0.02524078 0.45278373 0.83039579
0.53473127 0.39036737 0.87780548
0.83369489 0.42474887 0.85319451
0.97651102 0.55750636 0.81295890
1.00000000 0.79371617 0.82609000
1.00000000 0.94416626 0.92753732
0.24263465 0.84211552 0.83329377
0.24435647 0.84223530 0.83343586
0.26074147 0.84322573 0.83462007
0.33005233 0.84571014 0.83773287
0.51330342 0.85286522 0.84670493
0.84569243 0.84569243 0.84569243
0.97898874 0.86219901 0.86382991
1.00000000 0.93589491 0.92696635
1.00000000 1.00000000 1.00000000
0.81936753 0.99268049 0.81705959
0.81968704 0.99271080 0.81717106
0.82251707 0.99295860 0.81819898
0.83219753 0.99359752 0.82217002
0.86227083 0.99514103 0.83713399
0.93160653 1.00000000 0.88568781
1.00000000 1.00000000 1.00000000
1.00000000 1.00000000 1.00000000
1.00000000 1.00000000 1.00000000
1.00000000 1.00000000 1.00000000
1.00000000 1.00000000 1.00000000
1.00000000 1.00000000 1.00000000
1.00000000 1.00000000 1.00000000
1.00000000 1.00000000 1.00000000
1.00000000 1.00000000 1.00000000
1.00000000 1.00000000 1.00000000
1.00000000 1.00000000 1.00000000
1.00000000 1.00000000 1.00000000
1.00000000 1.00000000 1.00000000
1.00000000 1.00000000 1.00000000
1.00000000 1.00000000 1.00000000
1.00000000 1.00000000 1.00000000
1.00000000 1.00000000 1.00000000
1.00000000 1.00000000 1.00000000
1.00000000 1.00000000 1.00000000
1.00000000 1.00000000 1.00000000
1.00000000 1.00000000 1.00000000
0.33326886 0.11393164 0.91314439
0.33412880 0.11673555 0.91220794
0.34156078 0.13446074 0.90471159
0.36546424 0.15283417 0.88597680
0.43947148 0.00000000 0.85960940
0.75750496 0.00000000 0.91198902
0.93373606 0.25091708 0.92446172
1.00000000 0.66075338 0.88071788
1.00000000 0.87952076 0.91195182
0.33259444 0.11196052 0.91417098
0.33346588 0.11479185 0.91325111
0.34094301 0.13274750 0.90578549
0.36491213 0.15167136 0.88699111
0.43899069 0.00000000 0.86014338
0.75737152 0.00000000 0.91220398
0.93379280 0.25080473 0.92452174
1.00000000 0.66097964 0.88071447
1.00000000 0.87962102 0.91198419
0.32626653 0.10562402 0.92148058
0.32719907 0.10792815 0.92067613
0.33514700 0.12387235 0.91387441
0.35982162 0.14304276 0.89535722
0.43496630 0.00000000 0.86556779
0.75638067 0.00000000 0.91470650
0.93442083 0.24766659 0.92522845
1.00000000 0.66291822 0.88068995
1.00000000 0.88056745 0.91228397
0.30165268 0.15576864 0.93564059
0.30270005 0.15546122 0.93512561
0.31171938 0.15208639 0.93060878
0.34067547 0.14821195 0.91622288
0.42123117 0.00000000 0.88361135
0.75330696 0.00000000 0.92532419
0.93712512 0.22566197 0.92843823
1.00000000 0.66960153 0.88055978
1.00000000 0.88412364 0.91340256
0.20225661 0.39396858 0.94532941
0.20345631 0.39240498 0.94547122
0.21363657 0.37791219 0.94686785
0.24993634 0.32532618 0.94980264
0.35885482 0.18216423 0.93016195
0.75746394 0.13118087 0.95188902
0.94765583 0.38750992 0.93850580
1.00000000 0.73855492 0.89150240
1.00000000 0.91612520 0.93463024
0.15290137 0.76700414 0.96002990
0.15595464 0.76718642 0.96019561
0.18107515 0.76876246 0.96156641
0.25587057 0.77378854 0.96483936
0.53964371 0.77813087 0.96858713
0.80542566 0.79343936 0.97161611
0.96459701 0.81838177 0.96433934
1.00000000 0.91085706 0.95127484
1.00000000 1.00000000 1.00000000
0.73611935 0.97794098 0.97025549
0.73657632 0.97798145 0.97030418
0.74110526 0.97826535 0.97066572
0.75925589 0.97869055 0.97139094
0.80883189 0.98005812 0.97373685
0.90788294 0.98609666 0.98259861
1.00000000 1.00000000 1.00000000
1.00000000 1.00000000 1.00000000
1.00000000 1.00000000 1.00000000
1.00000000 1.00000000 1.00000000
1.00000000 1.00000000 1.00000000
1.00000000 1.00000000 1.00000000
1.00000000 1.00000000 1.00000000
1.00000000 1.00000000 1.00000000
1.00000000 1.00000000 1.00000000
1.00000000 1.00000000 1.00000000
1.00000000 1.00000000 1.00000000
1.00000000 1.00000000 1.00000000
1.00000000 1.00000000 1.00000000
1.00000000 1.00000000 1.00000000
1.00000000 1.00000000 1.00000000
1.00000000 1.00000000 1.00000000
1.00000000 1.00000000 1.00000000
1.00000000 1.00000000 1.00000000
1.00000000 1.00000000 1.00000000
1.00000000 1.00000000 1.00000000
1.00000000 1.00000000 1.00000000
0.44410828 0.36564922 0.98748622
0.44439452 0.36565927 0.98720726
0.44685175 0.36559666 0.98480159
0.45443123 0.36130822 0.97814797
0.47725466 0.32948533 0.96239162
0.60219483 0.00000000 0.98801222
0.86869869 0.32125840 0.99492162
0.98678012 0.64973972 0.96679106
1.00000000 0.86090018 0.95637365
0.44396492 0.36617405 0.98772156
0.44425286 0.36617155 0.98744742
0.44671785 0.36607480 0.98505551
0.45429786 0.36171913 0.97840783
0.47716979 0.33001625 0.96262109
0.60174243 0.00000000 0.98800678
0.86865063 0.32118130 0.99494512
0.98677537 0.64984442 0.96678343
1.00000000 0.86096260 0.95637613
0.44270206 0.37211877 0.98927542
0.44299689 0.37203793 0.98903064
0.44552447 0.37142572 0.98683563
0.45329117 0.36645892 0.98043906
0.47640581 0.33462408 0.96463537
0.59780010 0.00000000 0.98813599
0.86825975 0.32005002 0.99522397
0.98671323 0.65082219 0.96669380
1.00000000 0.86156478 0.95636359
0.43852086 0.40056045 0.99084562
0.43881448 0.40023553 0.99068184
0.44148400 0.39779895 0.98921951
0.44978558 0.38952716 0.98424811
0.47355056 0.35422878 0.96967758
0.58404819 0.00000000 0.98819432
0.86696467 0.31542592 0.99625596
0.98630036 0.65465685 0.96616861
1.00000000 0.86388501 0.95612002
0.43376976 0.51394338 0.98779464
0.43397380 0.51335436 0.98777834
0.43586060 0.50820404 0.98753665
0.44245638 0.49139851 0.98575568
0.46438470 0.44212804 0.97576446
0.52934517 0.00000000 0.97882849
0.86148333 0.30466269 0.99850810
0.98274623 0.67283069 0.96205978
1.00000000 0.87363314 0.95395416
0.49595725 0.71778555 0.98882600
0.49588635 0.71755006 0.98886038
0.49535882 0.71548126 0.98909414
0.49467177 0.70854255 0.98904198
0.49863381 0.68239565 0.98366749
0.68030428 0.73451712 0.97896510
0.90028784 0.77901699 0.98577215
0.99223094 0.86904223 0.97496382
1.00000000 0.97564636 1.00000000
0.77718481 0.91760457 0.99712042
0.77752293 0.91769553 0.99713327
0.78051087 0.91847678 0.99720203
0.79039168 0.92095346 0.99716937
0.82025189 0.92855724 0.99649660
0.89456942 0.94700035 0.99904676
0.97375677 0.97466249 1.00000000
1.00000000 1.00000000 1.00000000
1.00000000 1.00000000 1.00000000
1.00000000 1.00000000 1.00000000
1.00000000 1.00000000 1.00000000
1.00000000 1.00000000 1.00000000
1.00000000 1.00000000 1.00000000
1.00000000 1.00000000 1.00000000
1.00000000 1.00000000 1.00000000
1.00000000 1.00000000 1.00000000
1.00000000 1.00000000 1.00000000
1.00000000 1.00000000 1.00000000
1.00000000 1.00000000 1.00000000
1.00000000 1.00000000 1.00000000
1.00000000 1.00000000 1.00000000
1.00000000 1.00000000 1.00000000
1.00000000 1.00000000 1.00000000
1.00000000 1.00000000 1.00000000
1.00000000 1.00000000 1.00000000
1.00000000 1.00000000 1.00000000
1.00000000 1.00000000 1.00000000
0.62869101 0.67971324 1.00000000
0.62871422 0.67962313 1.00000000
0.62892500 0.67887607 1.00000000
0.62947866 0.67615227 1.00000000
0.63074390 0.66615995 1.00000000
0.62644941 0.61332405 1.00000000
0.70606017 0.50778317 1.00000000
0.91968523 0.66207221 1.00000000
1.00000000 0.84366442 1.00000000
0.62876303 0.67995558 1.00000000
0.62877276 0.67985036 1.00000000
0.62898182 0.67909709 1.00000000
0.62953490 0.67636732 1.00000000
0.63079334 0.66636165 1.00000000
0.62652421 0.61361837 1.00000000
0.70592367 0.50768609 1.00000000
0.91965788 0.66207251 1.00000000
1.00000000 0.84368955 1.00000000
0.62944301 0.68221072 1.00000000
0.62945022 0.68209736 1.00000000
0.62952745 0.68116636 1.00000000
0.63005865 0.67834529 1.00000000
0.63123764 0.66817421 1.00000000
0.62717661 0.61619292 1.00000000
0.70471606 0.50691647 1.00000000
0.91938676 0.66216024 1.00000000
1.00000000 0.84395964 1.00000000
0.63197315 0.69014697 1.00000000
0.63197371 0.69001840 1.00000000
0.63199810 0.68895360 1.00000000
0.63205402 0.68548939 1.00000000
0.63287308 0.67472549 1.00000000
0.62934272 0.62503534 1.00000000
0.70054811 0.50533021 1.00000000
0.91827936 0.66298921 1.00000000
1.00000000 0.84511442 1.00000000
0.64159077 0.71492891 1.00000000
0.64155734 0.71477710 1.00000000
0.64128873 0.71348342 1.00000000
0.64107962 0.70993851 1.00000000
0.64023393 0.69811507 1.00000000
0.63665514 0.65405435 1.00000000
0.68510709 0.50677470 1.00000000
0.91314068 0.66906003 0.99731014
1.00000000 0.85036449 0.99613930
0.68330992 0.78007090 1.00000000
0.68323902 0.77995371 1.00000000
0.68264464 0.77893508 1.00000000
0.68086541 0.77555930 1.00000000
0.67722921 0.76541629 1.00000000
0.66587383 0.72907332 0.99954427
0.67126899 0.62066962 0.96690816
0.90531000 0.74315677 0.97214264
1.00000000 0.89514364 0.98690712
0.77494832 0.87425465 1.00000000
0.77488449 0.87419270 1.00000000
0.77435595 0.87364522 1.00000000
0.77273743 0.87178743 1.00000000
0.76779618 0.86516746 0.99695638
0.75595157 0.84208425 0.97542306
0.86074455 0.89129606 0.98134453
0.97517160 0.94798385 0.99701854
1.00000000 1.00000000 1.00000000
0.96141395 0.99582567 1.00000000
0.96154049 0.99589215 1.00000000
0.96264486 0.99646901 1.00000000
0.96623687 0.99834586 1.00000000
0.97731236 1.00000000 1.00000000
1.00000000 1.00000000 1.00000000
1.00000000 1.00000000 1.00000000
1.00000000 1.00000000 1.00000000
1.00000000 1.00000000 1.00000000
1.00000000 1.00000000 1.00000000
1.00000000 1.00000000 1.00000000
1.00000000 1.00000000 1.00000000
1.00000000 1.00000000 1.00000000
1.00000000 1.00000000 1.00000000
1.00000000 1.00000000 1.00000000
1.00000000 1.00000000 1.00000000
1.00000000 1.00000000 1.00000000
1.00000000 1.00000000 1.00000000
