Luts Download/Canon Luts/3dlut/17grid-3dlut/full-to-full-range/CinemaGamut_CanonLog2-to-DCIP3_DCI_17_FF_Ver.2.0.cube
# Gamut : Cinema Gamut to DCI-P3
# Gamma : Canon Log 2 to DCI
# Range : Full in / Full out
# Version : 2.0 2019/10/24
# Copyright(c) 2019 Canon Inc. All Rights Reserved.
LUT_3D_SIZE 17
# LUT_3D_INPUT_RANGE 0.0 1.0
0.00000276 0.00000000 0.00000177
0.00000276 0.00000000 0.00000177
0.00939330 0.00939091 0.00939279
0.07836596 0.03055861 0.03728963
0.18002101 0.05199472 0.07179999
0.29877819 0.07016075 0.10723197
0.44185461 0.07984872 0.14552614
0.60929596 0.07618273 0.18624683
0.75079506 0.06782118 0.21164781
0.85896403 0.08488952 0.22593597
0.93801158 0.13340734 0.23591682
0.98684058 0.20655468 0.25223976
1.00000000 0.29043996 0.28257440
1.00000000 0.34580454 0.30856213
1.00000000 0.38063363 0.32623666
1.00000000 0.40140413 0.33590543
1.00000000 0.41237755 0.33887213
0.00000276 0.00000000 0.00000177
0.00000276 0.00000000 0.00000177
0.00939330 0.00939091 0.00939279
0.07836596 0.03055861 0.03728963
0.18002101 0.05199472 0.07179999
0.29877819 0.07016075 0.10723197
0.44185461 0.07984872 0.14552614
0.60929596 0.07618273 0.18624683
0.75079506 0.06782118 0.21164781
0.85896403 0.08488952 0.22593597
0.93801158 0.13340734 0.23591682
0.98684058 0.20655468 0.25223976
1.00000000 0.29043996 0.28257440
1.00000000 0.34580454 0.30856213
1.00000000 0.38063363 0.32623666
1.00000000 0.40140413 0.33590543
1.00000000 0.41237755 0.33887213
0.00939330 0.00939091 0.00939279
0.00939330 0.00939091 0.00939279
0.01608552 0.01609200 0.01446757
0.07595139 0.03709680 0.00306551
0.17745498 0.06161273 0.00524293
0.29670724 0.08140597 0.03378763
0.44120369 0.08922569 0.11754675
0.60958892 0.08155899 0.16700828
0.75184945 0.06076224 0.19776163
0.86031210 0.07014232 0.21621361
0.93918958 0.12693657 0.22960930
0.98744486 0.20508198 0.24884535
1.00000000 0.29033792 0.28103632
1.00000000 0.34607860 0.30797596
1.00000000 0.38103397 0.32613296
1.00000000 0.40185116 0.33605338
1.00000000 0.41284608 0.33915858
0.04076673 0.06894979 0.04300041
0.04076673 0.06894979 0.04300041
0.04402072 0.06945250 0.03790417
0.07755697 0.08025698 0.04700331
0.15963734 0.11147138 0.00000000
0.28463792 0.13115352 0.00000000
0.43332252 0.13947446 0.00000000
0.60777952 0.12453215 0.09166840
0.75431765 0.08434123 0.15318043
0.86478810 0.04734269 0.18659917
0.94338033 0.11679775 0.21167546
0.98905674 0.20831444 0.24131132
1.00000000 0.29500614 0.27927725
1.00000000 0.35077262 0.30897955
1.00000000 0.38556455 0.32848854
1.00000000 0.40625246 0.33912040
1.00000000 0.41718321 0.34263658
0.07391988 0.15386756 0.07607169
0.07391988 0.15386756 0.07607169
0.07941324 0.15379452 0.06641666
0.10959660 0.15709427 0.04531841
0.16923107 0.17662136 0.08099142
0.26075140 0.20777840 0.06780306
0.41044851 0.22770350 0.00000000
0.59381106 0.22579795 0.00000000
0.75158053 0.19479258 0.08641503
0.87032731 0.15725829 0.15052924
0.95029608 0.17102403 0.19628111
0.99022928 0.24939401 0.24502536
1.00000000 0.32431954 0.29045799
1.00000000 0.37480867 0.32321357
1.00000000 0.40690714 0.34412020
1.00000000 0.42617548 0.35550796
0.99937895 0.43645116 0.35957469
0.09739659 0.25353144 0.10180469
0.09739659 0.25353144 0.10180469
0.10447982 0.25326906 0.09047104
0.13569173 0.25394554 0.06383339
0.19270040 0.26538198 0.05778792
0.27556770 0.28823264 0.09894498
0.39253078 0.31879855 0.10958326
0.56767364 0.33744051 0.00000000
0.73866815 0.32114417 0.06655026
0.87117274 0.28855001 0.14163943
0.95793576 0.27919004 0.20338690
0.98963397 0.33448278 0.27452079
0.99833503 0.38959215 0.32720600
0.99859799 0.42963882 0.36263432
0.99655991 0.45608132 0.38464686
0.99457566 0.47224349 0.39662670
0.99393738 0.48102192 0.40128410
0.10752662 0.37347763 0.12724690
0.10752662 0.37347763 0.12724690
0.11399227 0.37323062 0.11513482
0.14802971 0.37303354 0.08884838
0.20663219 0.37941364 0.06271138
0.28971405 0.39592508 0.06230952
0.40323822 0.42147228 0.10227213
0.55529446 0.44960377 0.12253683
0.72491412 0.44944342 0.12477970
0.87057276 0.42529964 0.17426125
0.96163239 0.41637100 0.25282176
0.99085852 0.44930469 0.33763116
0.99633563 0.48656094 0.39650173
0.99468471 0.51557811 0.43462623
0.99194330 0.53549604 0.45776486
0.98989012 0.54806057 0.47052391
0.98931835 0.55493050 0.47584324
0.09364244 0.51522758 0.15248658
0.09364244 0.51522758 0.15248658
0.09841925 0.51504589 0.14111977
0.13344152 0.51487064 0.11208342
0.20260668 0.51844604 0.08283093
0.28998736 0.52988476 0.04535396
0.40402725 0.55107316 0.04093654
0.55401550 0.57859380 0.09467818
0.72293947 0.58527529 0.12162624
0.88324464 0.56511132 0.18377173
0.98494379 0.55082423 0.29739256
1.00000000 0.56995080 0.40904029
1.00000000 0.59627050 0.48293083
1.00000000 0.61809032 0.52804572
1.00000000 0.63325707 0.55436996
0.99987901 0.64283843 0.56864066
0.99884873 0.64806098 0.57495763
0.07239409 0.63634167 0.16203791
0.07239409 0.63634167 0.16203791
0.06984531 0.63627977 0.15206700
0.10258455 0.63642746 0.12526462
0.17559649 0.63947374 0.09337036
0.26552242 0.64897065 0.06013672
0.37531434 0.66841990 0.01337460
0.51708568 0.69763552 0.08096029
0.68306817 0.71406332 0.11403340
0.85615276 0.70255908 0.17084730
0.99228213 0.67712492 0.29602261
1.00000000 0.67594661 0.44488859
1.00000000 0.68979942 0.54382478
1.00000000 0.70482743 0.60268859
1.00000000 0.71628634 0.63556387
1.00000000 0.72358628 0.65300329
1.00000000 0.72748971 0.66097307
0.07462426 0.73092056 0.15623952
0.07462426 0.73092056 0.15623952
0.06485856 0.73093807 0.14776780
0.08295805 0.73132980 0.12454966
0.14612301 0.73442150 0.09400292
0.23276956 0.74321327 0.06926283
0.33310069 0.76196105 0.06277736
0.46147951 0.79277793 0.10079678
0.61386984 0.81674388 0.14031134
0.78370453 0.82080824 0.18807879
0.94727262 0.79902665 0.27916888
1.00000000 0.77889399 0.45296650
1.00000000 0.77417651 0.57978822
1.00000000 0.77847381 0.65656668
1.00000000 0.78403938 0.69845036
1.00000000 0.78815084 0.71980385
1.00000000 0.79017890 0.72957977
0.09288346 0.80408344 0.13760747
0.09288346 0.80408344 0.13760747
0.08833145 0.80412237 0.13040636
0.09424713 0.80458127 0.11094661
0.13719611 0.80758806 0.08721768
0.20768713 0.81603453 0.07430981
0.29461980 0.83421778 0.08293017
0.40652110 0.86568015 0.12521264
0.54216025 0.89422212 0.17333139
0.69597298 0.90827996 0.22602937
0.86025904 0.90286444 0.30180553
0.99267246 0.87752365 0.44350224
1.00000000 0.85663011 0.59924036
1.00000000 0.84606488 0.69543384
1.00000000 0.84236388 0.74723670
1.00000000 0.84099455 0.77267578
1.00000000 0.83998496 0.78385456
0.12267376 0.85951212 0.10846572
0.12267376 0.85951212 0.10846572
0.12248778 0.85952801 0.10252938
0.13012717 0.85990180 0.08899007
0.15821526 0.86266554 0.07971449
0.20562365 0.87075577 0.08322541
0.27331163 0.88847122 0.10689680
0.37039185 0.91939394 0.15751394
0.49058785 0.94956621 0.21976737
0.62790482 0.96841423 0.28943439
0.77223187 0.97279355 0.36025665
0.91578587 0.96170206 0.45436082
1.00000000 0.93411765 0.61759408
1.00000000 0.91155208 0.73001651
1.00000000 0.89641160 0.78880385
1.00000000 0.88703570 0.81612129
1.00000000 0.88087310 0.82722720
0.16954674 0.89988116 0.08310834
0.16954674 0.89988116 0.08310834
0.17113054 0.89985730 0.08022683
0.17813161 0.90014044 0.07614265
0.19527522 0.90273313 0.08114331
0.22750394 0.91038661 0.10111580
0.28142741 0.92726155 0.13915031
0.36996779 0.95653018 0.20481125
0.48997488 0.98425233 0.29359695
0.63286299 0.99818261 0.41390953
0.75416343 1.00000000 0.51242424
0.85993189 1.00000000 0.59562073
0.95401139 0.99354072 0.67737687
1.00000000 0.96892306 0.77684574
1.00000000 0.94744463 0.83409686
1.00000000 0.93011549 0.85758199
1.00000000 0.91724842 0.86482371
0.21366148 0.92795184 0.06962532
0.21366148 0.92795184 0.06962532
0.21497177 0.92791925 0.06954339
0.22043210 0.92815881 0.07406119
0.23349195 0.93057771 0.09067552
0.26107035 0.93768427 0.12354320
0.31384171 0.95320817 0.17690919
0.41002555 0.97904945 0.26486544
0.55233358 0.99846339 0.39653502
0.68147164 1.00000000 0.52339842
0.78169965 1.00000000 0.62736119
0.86163554 1.00000000 0.71211444
0.92796969 1.00000000 0.78573151
0.98203106 1.00000000 0.85723627
1.00000000 0.98812259 0.89121041
1.00000000 0.96966681 0.90469271
1.00000000 0.95178476 0.90341558
0.24981116 0.94632739 0.06577621
0.24981116 0.94632739 0.06577621
0.25084707 0.94629244 0.06799198
0.25554498 0.94649403 0.07846546
0.26740994 0.94873688 0.10224493
0.29476272 0.95528117 0.14376782
0.35189336 0.96926719 0.20998668
0.46397210 0.99043817 0.32220165
0.60869435 1.00000000 0.46850020
0.72471405 1.00000000 0.59574552
0.81236156 1.00000000 0.69929473
0.87896493 1.00000000 0.78230298
0.93095648 1.00000000 0.85024224
0.97159605 1.00000000 0.90837959
1.00000000 1.00000000 1.00000000
1.00000000 0.99924104 0.95712257
1.00000000 0.98307225 0.94698168
0.27863584 0.95730814 0.06525068
0.27863584 0.95730814 0.06525068
0.27949609 0.95727223 0.06890793
0.28375071 0.95744468 0.08268078
0.29509040 0.95954961 0.11057010
0.32282523 0.96563991 0.15785435
0.38431238 0.97824543 0.23408008
0.50982729 0.99498407 0.36649532
0.64637478 1.00000000 0.51303296
0.75352526 1.00000000 0.63885943
0.83366800 1.00000000 0.74070930
0.89352873 1.00000000 0.82114275
0.93842807 1.00000000 0.88452238
0.97209421 1.00000000 0.93497395
1.00000000 1.00000000 1.00000000
1.00000000 1.00000000 1.00000000
1.00000000 1.00000000 1.00000000
0.30097886 0.96296654 0.05970980
0.30097886 0.96296654 0.05970980
0.30170485 0.96293202 0.06502942
0.30550269 0.96309654 0.08152462
0.31595658 0.96514740 0.11211818
0.34259282 0.97103294 0.16264026
0.40440396 0.98293662 0.24431415
0.53486165 0.99724799 0.38790161
0.66639100 1.00000000 0.53489638
0.76863974 1.00000000 0.65982126
0.84487849 1.00000000 0.76054910
0.90130155 1.00000000 0.83939240
0.94292757 1.00000000 0.90009213
0.97322847 1.00000000 0.94637870
1.00000000 1.00000000 1.00000000
1.00000000 1.00000000 1.00000000
1.00000000 1.00000000 1.00000000
0.00000276 0.00000000 0.00000177
0.00000276 0.00000000 0.00000177
0.00939330 0.00939091 0.00939279
0.07836596 0.03055861 0.03728963
0.18002101 0.05199472 0.07179999
0.29877819 0.07016075 0.10723197
0.44185461 0.07984872 0.14552614
0.60929596 0.07618273 0.18624683
0.75079506 0.06782118 0.21164781
0.85896403 0.08488952 0.22593597
0.93801158 0.13340734 0.23591682
0.98684058 0.20655468 0.25223976
1.00000000 0.29043996 0.28257440
1.00000000 0.34580454 0.30856213
1.00000000 0.38063363 0.32623666
1.00000000 0.40140413 0.33590543
1.00000000 0.41237755 0.33887213
0.00000276 0.00000000 0.00000177
0.00000276 0.00000000 0.00000177
0.00939330 0.00939091 0.00939279
0.07836596 0.03055861 0.03728963
0.18002101 0.05199472 0.07179999
0.29877819 0.07016075 0.10723197
0.44185461 0.07984872 0.14552614
0.60929596 0.07618273 0.18624683
0.75079506 0.06782118 0.21164781
0.85896403 0.08488952 0.22593597
0.93801158 0.13340734 0.23591682
0.98684058 0.20655468 0.25223976
1.00000000 0.29043996 0.28257440
1.00000000 0.34580454 0.30856213
1.00000000 0.38063363 0.32623666
1.00000000 0.40140413 0.33590543
1.00000000 0.41237755 0.33887213
0.00939330 0.00939091 0.00939279
0.00939330 0.00939091 0.00939279
0.01608552 0.01609200 0.01446757
0.07595139 0.03709680 0.00306551
0.17745498 0.06161273 0.00524293
0.29670724 0.08140597 0.03378763
0.44120369 0.08922569 0.11754675
0.60958892 0.08155899 0.16700828
0.75184945 0.06076224 0.19776163
0.86031210 0.07014232 0.21621361
0.93918958 0.12693657 0.22960930
0.98744486 0.20508198 0.24884535
1.00000000 0.29033792 0.28103632
1.00000000 0.34607860 0.30797596
1.00000000 0.38103397 0.32613296
1.00000000 0.40185116 0.33605338
1.00000000 0.41284608 0.33915858
0.04076673 0.06894979 0.04300041
0.04076673 0.06894979 0.04300041
0.04402072 0.06945250 0.03790417
0.07755697 0.08025698 0.04700331
0.15963734 0.11147138 0.00000000
0.28463792 0.13115352 0.00000000
0.43332252 0.13947446 0.00000000
0.60777952 0.12453215 0.09166840
0.75431765 0.08434123 0.15318043
0.86478810 0.04734269 0.18659917
0.94338033 0.11679775 0.21167546
0.98905674 0.20831444 0.24131132
1.00000000 0.29500614 0.27927725
1.00000000 0.35077262 0.30897955
1.00000000 0.38556455 0.32848854
1.00000000 0.40625246 0.33912040
1.00000000 0.41718321 0.34263658
0.07391988 0.15386756 0.07607169
0.07391988 0.15386756 0.07607169
0.07941324 0.15379452 0.06641666
0.10959660 0.15709427 0.04531841
0.16923107 0.17662136 0.08099142
0.26075140 0.20777840 0.06780306
0.41044851 0.22770350 0.00000000
0.59381106 0.22579795 0.00000000
0.75158053 0.19479258 0.08641503
0.87032731 0.15725829 0.15052924
0.95029608 0.17102403 0.19628111
0.99022928 0.24939401 0.24502536
1.00000000 0.32431954 0.29045799
1.00000000 0.37480867 0.32321357
1.00000000 0.40690714 0.34412020
1.00000000 0.42617548 0.35550796
0.99937895 0.43645116 0.35957469
0.09739659 0.25353144 0.10180469
0.09739659 0.25353144 0.10180469
0.10447982 0.25326906 0.09047104
0.13569173 0.25394554 0.06383339
0.19270040 0.26538198 0.05778792
0.27556770 0.28823264 0.09894498
0.39253078 0.31879855 0.10958326
0.56767364 0.33744051 0.00000000
0.73866815 0.32114417 0.06655026
0.87117274 0.28855001 0.14163943
0.95793576 0.27919004 0.20338690
0.98963397 0.33448278 0.27452079
0.99833503 0.38959215 0.32720600
0.99859799 0.42963882 0.36263432
0.99655991 0.45608132 0.38464686
0.99457566 0.47224349 0.39662670
0.99393738 0.48102192 0.40128410
0.10752662 0.37347763 0.12724690
0.10752662 0.37347763 0.12724690
0.11399227 0.37323062 0.11513482
0.14802971 0.37303354 0.08884838
0.20663219 0.37941364 0.06271138
0.28971405 0.39592508 0.06230952
0.40323822 0.42147228 0.10227213
0.55529446 0.44960377 0.12253683
0.72491412 0.44944342 0.12477970
0.87057276 0.42529964 0.17426125
0.96163239 0.41637100 0.25282176
0.99085852 0.44930469 0.33763116
0.99633563 0.48656094 0.39650173
0.99468471 0.51557811 0.43462623
0.99194330 0.53549604 0.45776486
0.98989012 0.54806057 0.47052391
0.98931835 0.55493050 0.47584324
0.09364244 0.51522758 0.15248658
0.09364244 0.51522758 0.15248658
0.09841925 0.51504589 0.14111977
0.13344152 0.51487064 0.11208342
0.20260668 0.51844604 0.08283093
0.28998736 0.52988476 0.04535396
0.40402725 0.55107316 0.04093654
0.55401550 0.57859380 0.09467818
0.72293947 0.58527529 0.12162624
0.88324464 0.56511132 0.18377173
0.98494379 0.55082423 0.29739256
1.00000000 0.56995080 0.40904029
1.00000000 0.59627050 0.48293083
1.00000000 0.61809032 0.52804572
1.00000000 0.63325707 0.55436996
0.99987901 0.64283843 0.56864066
0.99884873 0.64806098 0.57495763
0.07239409 0.63634167 0.16203791
0.07239409 0.63634167 0.16203791
0.06984531 0.63627977 0.15206700
0.10258455 0.63642746 0.12526462
0.17559649 0.63947374 0.09337036
0.26552242 0.64897065 0.06013672
0.37531434 0.66841990 0.01337460
0.51708568 0.69763552 0.08096029
0.68306817 0.71406332 0.11403340
0.85615276 0.70255908 0.17084730
0.99228213 0.67712492 0.29602261
1.00000000 0.67594661 0.44488859
1.00000000 0.68979942 0.54382478
1.00000000 0.70482743 0.60268859
1.00000000 0.71628634 0.63556387
1.00000000 0.72358628 0.65300329
1.00000000 0.72748971 0.66097307
0.07462426 0.73092056 0.15623952
0.07462426 0.73092056 0.15623952
0.06485856 0.73093807 0.14776780
0.08295805 0.73132980 0.12454966
0.14612301 0.73442150 0.09400292
0.23276956 0.74321327 0.06926283
0.33310069 0.76196105 0.06277736
0.46147951 0.79277793 0.10079678
0.61386984 0.81674388 0.14031134
0.78370453 0.82080824 0.18807879
0.94727262 0.79902665 0.27916888
1.00000000 0.77889399 0.45296650
1.00000000 0.77417651 0.57978822
1.00000000 0.77847381 0.65656668
1.00000000 0.78403938 0.69845036
1.00000000 0.78815084 0.71980385
1.00000000 0.79017890 0.72957977
0.09288346 0.80408344 0.13760747
0.09288346 0.80408344 0.13760747
0.08833145 0.80412237 0.13040636
0.09424713 0.80458127 0.11094661
0.13719611 0.80758806 0.08721768
0.20768713 0.81603453 0.07430981
0.29461980 0.83421778 0.08293017
0.40652110 0.86568015 0.12521264
0.54216025 0.89422212 0.17333139
0.69597298 0.90827996 0.22602937
0.86025904 0.90286444 0.30180553
0.99267246 0.87752365 0.44350224
1.00000000 0.85663011 0.59924036
1.00000000 0.84606488 0.69543384
1.00000000 0.84236388 0.74723670
1.00000000 0.84099455 0.77267578
1.00000000 0.83998496 0.78385456
0.12267376 0.85951212 0.10846572
0.12267376 0.85951212 0.10846572
0.12248778 0.85952801 0.10252938
0.13012717 0.85990180 0.08899007
0.15821526 0.86266554 0.07971449
0.20562365 0.87075577 0.08322541
0.27331163 0.88847122 0.10689680
0.37039185 0.91939394 0.15751394
0.49058785 0.94956621 0.21976737
0.62790482 0.96841423 0.28943439
0.77223187 0.97279355 0.36025665
0.91578587 0.96170206 0.45436082
1.00000000 0.93411765 0.61759408
1.00000000 0.91155208 0.73001651
1.00000000 0.89641160 0.78880385
1.00000000 0.88703570 0.81612129
1.00000000 0.88087310 0.82722720
0.16954674 0.89988116 0.08310834
0.16954674 0.89988116 0.08310834
0.17113054 0.89985730 0.08022683
0.17813161 0.90014044 0.07614265
0.19527522 0.90273313 0.08114331
0.22750394 0.91038661 0.10111580
0.28142741 0.92726155 0.13915031
0.36996779 0.95653018 0.20481125
0.48997488 0.98425233 0.29359695
0.63286299 0.99818261 0.41390953
0.75416343 1.00000000 0.51242424
0.85993189 1.00000000 0.59562073
0.95401139 0.99354072 0.67737687
1.00000000 0.96892306 0.77684574
1.00000000 0.94744463 0.83409686
1.00000000 0.93011549 0.85758199
1.00000000 0.91724842 0.86482371
0.21366148 0.92795184 0.06962532
0.21366148 0.92795184 0.06962532
0.21497177 0.92791925 0.06954339
0.22043210 0.92815881 0.07406119
0.23349195 0.93057771 0.09067552
0.26107035 0.93768427 0.12354320
0.31384171 0.95320817 0.17690919
0.41002555 0.97904945 0.26486544
0.55233358 0.99846339 0.39653502
0.68147164 1.00000000 0.52339842
0.78169965 1.00000000 0.62736119
0.86163554 1.00000000 0.71211444
0.92796969 1.00000000 0.78573151
0.98203106 1.00000000 0.85723627
1.00000000 0.98812259 0.89121041
1.00000000 0.96966681 0.90469271
1.00000000 0.95178476 0.90341558
0.24981116 0.94632739 0.06577621
0.24981116 0.94632739 0.06577621
0.25084707 0.94629244 0.06799198
0.25554498 0.94649403 0.07846546
0.26740994 0.94873688 0.10224493
0.29476272 0.95528117 0.14376782
0.35189336 0.96926719 0.20998668
0.46397210 0.99043817 0.32220165
0.60869435 1.00000000 0.46850020
0.72471405 1.00000000 0.59574552
0.81236156 1.00000000 0.69929473
0.87896493 1.00000000 0.78230298
0.93095648 1.00000000 0.85024224
0.97159605 1.00000000 0.90837959
1.00000000 1.00000000 1.00000000
1.00000000 0.99924104 0.95712257
1.00000000 0.98307225 0.94698168
0.27863584 0.95730814 0.06525068
0.27863584 0.95730814 0.06525068
0.27949609 0.95727223 0.06890793
0.28375071 0.95744468 0.08268078
0.29509040 0.95954961 0.11057010
0.32282523 0.96563991 0.15785435
0.38431238 0.97824543 0.23408008
0.50982729 0.99498407 0.36649532
0.64637478 1.00000000 0.51303296
0.75352526 1.00000000 0.63885943
0.83366800 1.00000000 0.74070930
0.89352873 1.00000000 0.82114275
0.93842807 1.00000000 0.88452238
0.97209421 1.00000000 0.93497395
1.00000000 1.00000000 1.00000000
1.00000000 1.00000000 1.00000000
1.00000000 1.00000000 1.00000000
0.30097886 0.96296654 0.05970980
0.30097886 0.96296654 0.05970980
0.30170485 0.96293202 0.06502942
0.30550269 0.96309654 0.08152462
0.31595658 0.96514740 0.11211818
0.34259282 0.97103294 0.16264026
0.40440396 0.98293662 0.24431415
0.53486165 0.99724799 0.38790161
0.66639100 1.00000000 0.53489638
0.76863974 1.00000000 0.65982126
0.84487849 1.00000000 0.76054910
0.90130155 1.00000000 0.83939240
0.94292757 1.00000000 0.90009213
0.97322847 1.00000000 0.94637870
1.00000000 1.00000000 1.00000000
1.00000000 1.00000000 1.00000000
1.00000000 1.00000000 1.00000000
0.00939330 0.00939091 0.00939279
0.00939330 0.00939091 0.00939279
0.01712404 0.01214311 0.01670213
0.07805903 0.02791873 0.04577360
0.17963203 0.04611993 0.08791946
0.29803785 0.06364595 0.12762914
0.44082399 0.07452065 0.16713840
0.60815381 0.07408906 0.20594427
0.74966966 0.07213385 0.22614952
0.85767159 0.09412078 0.23454354
0.93684929 0.13911966 0.24176518
0.98599427 0.20891923 0.25578349
1.00000000 0.29144388 0.28453753
1.00000000 0.34634577 0.30967043
1.00000000 0.38097506 0.32689529
1.00000000 0.40164912 0.33632509
1.00000000 0.41258490 0.33917309
0.00939330 0.00939091 0.00939279
0.00939330 0.00939091 0.00939279
0.01712404 0.01214311 0.01670213
0.07805903 0.02791873 0.04577360
0.17963203 0.04611993 0.08791946
0.29803785 0.06364595 0.12762914
0.44082399 0.07452065 0.16713840
0.60815381 0.07408906 0.20594427
0.74966966 0.07213385 0.22614952
0.85767159 0.09412078 0.23454354
0.93684929 0.13911966 0.24176518
0.98599427 0.20891923 0.25578349
1.00000000 0.29144388 0.28453753
1.00000000 0.34634577 0.30967043
1.00000000 0.38097506 0.32689529
1.00000000 0.40164912 0.33632509
1.00000000 0.41258490 0.33917309
0.01239464 0.01730897 0.01714257
0.01239464 0.01730897 0.01714257
0.01933178 0.01933178 0.01933178
0.08188598 0.02856108 0.03658690
0.18227202 0.04803577 0.07021836
0.29993408 0.06698885 0.10667007
0.44241773 0.07728454 0.14585778
0.60971073 0.07281745 0.18630588
0.75112124 0.06425110 0.21066522
0.85923874 0.08222406 0.22530341
0.93811173 0.13302885 0.23567118
0.98662583 0.20741603 0.25244920
1.00000000 0.29133397 0.28301259
1.00000000 0.34661803 0.30908718
1.00000000 0.38137250 0.32679057
1.00000000 0.40209152 0.33646974
1.00000000 0.41303644 0.33944460
0.03532850 0.07086355 0.04633971
0.03532850 0.07086355 0.04633971
0.03892753 0.07160103 0.04034466
0.07808285 0.08088483 0.04656428
0.16541140 0.10793695 0.00000000
0.29078722 0.12260215 0.00000000
0.43808661 0.12787037 0.00000000
0.61051723 0.11075798 0.12003660
0.75476331 0.07522073 0.16820593
0.86414288 0.05786445 0.19663754
0.94240937 0.12299390 0.21814726
0.98824523 0.21057428 0.24501556
1.00000000 0.29598179 0.28126511
1.00000000 0.35129480 0.31008310
1.00000000 0.38588714 0.32913486
1.00000000 0.40647897 0.33952590
1.00000000 0.41735982 0.34291152
0.06964677 0.15439550 0.08169534
0.06964677 0.15439550 0.08169534
0.07322245 0.15474999 0.07149950
0.10630891 0.15801242 0.04992210
0.16931011 0.17682077 0.08082491
0.26386966 0.20631422 0.06697864
0.41526111 0.22319285 0.00000000
0.59794102 0.21845766 0.00000000
0.75393859 0.18678764 0.10709333
0.87042772 0.15551143 0.16173316
0.94942804 0.17395066 0.20314479
0.98936388 0.25120722 0.24871313
1.00000000 0.32517388 0.29238086
1.00000000 0.37525617 0.32425830
1.00000000 0.40717921 0.34472334
0.99990780 0.42636507 0.35588184
0.99917332 0.43659669 0.35982396
0.09591888 0.25362902 0.11008013
0.09591888 0.25362902 0.11008013
0.09944752 0.25372949 0.09845116
0.13101896 0.25462180 0.07170770
0.19036029 0.26596310 0.06278127
0.27556866 0.28833182 0.09901928
0.39476152 0.31778512 0.10893510
0.57124512 0.33457338 0.03633956
0.74156727 0.31722038 0.08307468
0.87247828 0.28555453 0.14936527
0.95729450 0.27976053 0.20925364
0.98886683 0.33541978 0.27765558
0.99777206 0.39013923 0.32886128
0.99823330 0.42993436 0.36352785
0.99630783 0.45626368 0.38515850
0.99438603 0.47237197 0.39694023
0.99376643 0.48111843 0.40148803
0.11006299 0.37347152 0.13707690
0.11006299 0.37347152 0.13707690
0.11248726 0.37341496 0.12566436
0.14309298 0.37350430 0.09768136
0.20296263 0.37995717 0.07168574
0.28785592 0.39637062 0.06682850
0.40322477 0.42153145 0.10232638
0.55698199 0.44882766 0.12193989
0.72732316 0.44768203 0.12649467
0.87219167 0.42348926 0.17779087
0.96146862 0.41618676 0.25665040
0.99029886 0.44954518 0.33983525
0.99586985 0.48674721 0.39770804
0.99436746 0.51568876 0.43528303
0.99172613 0.53556952 0.45813904
0.98972837 0.54812023 0.47075455
0.98918900 0.55498397 0.47599784
0.10326091 0.51520050 0.16250366
0.10326091 0.51520050 0.16250366
0.10262644 0.51512555 0.15197387
0.12998825 0.51514674 0.12282021
0.19802230 0.51888057 0.09193078
0.28695162 0.53032901 0.05823438
0.40256206 0.55141465 0.04808135
0.55400601 0.57863017 0.09474111
0.72411362 0.58473759 0.12147465
0.88468101 0.56411130 0.18507733
0.98518992 0.55042430 0.29980402
1.00000000 0.56991622 0.41061755
1.00000000 0.59631763 0.48384304
1.00000000 0.61813416 0.52855789
1.00000000 0.63329275 0.55466310
0.99975097 0.64287149 0.56882082
0.99874476 0.64809518 0.57508084
0.09108856 0.63627581 0.17135874
0.09108856 0.63627581 0.17135874
0.08583693 0.63627067 0.16220978
0.10416267 0.63653072 0.13611996
0.17084457 0.63976021 0.10251172
0.26198951 0.64930982 0.07036211
