Luts Download/Canon Luts/3dlut/17grid-3dlut/full-to-full-range/CinemaGamut_CanonLog2-to-BT2020_709WideDR_17_FF_Ver.2.0.cube
# Gamut : Cinema Gamut to BT.2020
# Gamma : Canon Log 2 to Wide DR
# Range : Full in / Full out
# Version : 2.0 2019/10/24
# Copyright(c) 2019 Canon Inc. All Rights Reserved.
LUT_3D_SIZE 17
# LUT_3D_INPUT_RANGE 0.0 1.0
0.00000000 0.00000000 0.00000000
0.00000000 0.00000000 0.00000000
0.00924798 0.00924798 0.00924798
0.05198400 0.00956032 0.01116802
0.13283113 0.00809811 0.01271894
0.22824736 0.00978339 0.01803678
0.34908448 0.00598134 0.02106782
0.49173228 0.00000000 0.02418949
0.62415022 0.00000000 0.02233326
0.73897737 0.00000000 0.01816638
0.83344732 0.00245704 0.01381614
0.90309608 0.02568360 0.01251902
0.94601013 0.07879754 0.02214941
0.96754286 0.16800946 0.06044140
0.97944361 0.29125057 0.15890131
1.00000000 0.44715313 0.30355289
1.00000000 0.64424367 0.49546755
0.00000000 0.00000000 0.00000000
0.00000000 0.00000000 0.00000000
0.00924798 0.00924798 0.00924798
0.05198400 0.00956032 0.01116802
0.13283113 0.00809811 0.01271894
0.22824736 0.00978339 0.01803678
0.34908448 0.00598134 0.02106782
0.49173228 0.00000000 0.02418949
0.62415022 0.00000000 0.02233326
0.73897737 0.00000000 0.01816638
0.83344732 0.00245704 0.01381614
0.90309608 0.02568360 0.01251902
0.94601013 0.07879754 0.02214941
0.96754286 0.16800946 0.06044140
0.97944361 0.29125057 0.15890131
1.00000000 0.44715313 0.30355289
1.00000000 0.64424367 0.49546755
0.00924798 0.00924798 0.00924798
0.00924798 0.00924798 0.00924798
0.01194480 0.01211997 0.01033132
0.06048951 0.01994847 0.01257933
0.13807094 0.02303503 0.01307460
0.23096364 0.02755079 0.01731507
0.35169556 0.02409271 0.01900163
0.49526762 0.01582690 0.02077416
0.62830479 0.00788374 0.01963576
0.74347325 0.00512029 0.01703288
0.83786520 0.01318971 0.01449336
0.90678522 0.03802279 0.01538002
0.94857279 0.09337930 0.02746659
0.96791441 0.18131270 0.07006389
0.97926743 0.30038259 0.16715527
1.00000000 0.45335987 0.30996672
1.00000000 0.64873997 0.50072994
0.01539933 0.04752976 0.00903520
0.01539933 0.04752976 0.00903520
0.02357001 0.06080749 0.01073247
0.06654475 0.07295508 0.00920955
0.14051761 0.08023686 0.00825525
0.23858409 0.08144311 0.00512135
0.35609329 0.08115257 0.00809802
0.50450629 0.06340788 0.00532400
0.63605768 0.05534742 0.01277993
0.75303512 0.04580186 0.01477143
0.84824150 0.04935788 0.01695953
0.91557797 0.07732822 0.02420640
0.95467737 0.13211603 0.04330520
0.96825120 0.21628915 0.09757678
0.97830591 0.32514090 0.18968144
1.00000000 0.47066338 0.32806250
1.00000000 0.66145909 0.51585845
0.02812179 0.11411854 0.00878995
0.02812179 0.11411854 0.00878995
0.03601071 0.12612338 0.00796680
0.07365504 0.14051437 0.00517567
0.14012481 0.15172212 0.00299105
0.23086978 0.16092510 0.00238711
0.34959994 0.16526402 0.00241523
0.49609607 0.16083752 0.00404839
0.64337637 0.13472637 0.00144161
0.76780135 0.11048727 0.00633992
0.87284234 0.08477426 0.00679623
0.93993694 0.10586582 0.02276278
0.96097318 0.18813178 0.07365637
0.96881694 0.26441256 0.13624933
0.97679334 0.36173850 0.22356185
1.00000000 0.49753347 0.35667321
1.00000000 0.68175104 0.54038822
0.04953770 0.19959544 0.00761224
0.04953770 0.19959544 0.00761224
0.05796765 0.20659677 0.00635165
0.09185181 0.21878139 0.00369846
0.14761986 0.23150014 0.00153555
0.22940704 0.24567944 0.00079520
0.34211065 0.25782554 0.00075252
0.48791935 0.26215383 0.00144200
0.64060794 0.24470972 0.00193146
0.77028400 0.22563719 0.01961326
0.87848284 0.20647151 0.03492608
0.96256307 0.19036273 0.04350196
0.96575741 0.27227294 0.13284123
0.96947542 0.33526227 0.19565858
0.97462326 0.41907102 0.27885097
1.00000000 0.54154123 0.40488243
1.00000000 0.71595368 0.58237326
0.08759776 0.30346508 0.00565400
0.08759776 0.30346508 0.00565400
0.09624768 0.30794320 0.00472159
0.12379962 0.31748728 0.00261083
0.16865575 0.32930416 0.00055356
0.23867018 0.34524755 0.00000000
0.34107254 0.36307156 0.00000000
0.48056615 0.37605860 0.00000000
0.63599464 0.36790674 0.00463326
0.78581362 0.33976181 0.01559698
0.90154853 0.31780873 0.05417055
0.98894423 0.30082394 0.08867303
0.97394988 0.37715562 0.21062817
0.97304460 0.42825360 0.27799122
0.97518291 0.49832557 0.35896848
1.00000000 0.60673100 0.47871408
1.00000000 0.76941057 0.64932825
0.14246049 0.42774249 0.00398701
0.14246049 0.42774249 0.00398701
0.14915754 0.43082661 0.00347011
0.16980870 0.43820575 0.00204142
0.20450790 0.44831336 0.00039250
0.26131358 0.46385135 0.00000000
0.34919275 0.48440455 0.00000000
0.47611546 0.50514162 0.00000000
0.63145524 0.50511491 0.00000000
0.79299096 0.48105403 0.01244332
0.94762222 0.43339600 0.02194014
0.98649849 0.45873408 0.19315232
0.99811363 0.49043439 0.29143856
0.99097157 0.53310838 0.37206567
0.98732576 0.59337425 0.45761577
1.00000000 0.69063647 0.57602573
1.00000000 0.84239841 0.74225992
0.20082807 0.54401152 0.00246360
0.20082807 0.54401152 0.00246360
0.20566581 0.54646838 0.00233492
0.22026477 0.55268601 0.00180695
0.24521628 0.56197669 0.00068841
0.28792555 0.57699595 0.00017779
0.35764539 0.59931638 0.00045145
0.46392917 0.62632935 0.00281688
0.60347989 0.63975686 0.00109282
0.76754475 0.62654183 0.00448208
0.92535159 0.59215933 0.05781140
1.00000000 0.57819722 0.21275788
1.00000000 0.59600870 0.34803196
1.00000000 0.62920312 0.45127150
1.00000000 0.68161473 0.54783578
1.00000000 0.77110959 0.67071823
1.00000000 0.91624543 0.83874418
0.25767163 0.64623262 0.00209260
0.25767163 0.64623262 0.00209260
0.26105297 0.64837355 0.00219753
0.27108707 0.65397836 0.00228330
0.28821208 0.66271281 0.00187692
0.31891989 0.67739609 0.00218010
0.37095353 0.70059834 0.00410267
0.45491481 0.73159920 0.01053781
0.57004726 0.75500704 0.01686343
0.71615942 0.75946671 0.02533400
0.87871700 0.73639833 0.06581881
1.00000000 0.70487945 0.20984162
1.00000000 0.69994626 0.38054221
1.00000000 0.71828560 0.51222774
1.00000000 0.76042395 0.62469844
1.00000000 0.84182661 0.75392802
1.00000000 1.00000000 1.00000000
0.30981482 0.73258710 0.00410882
0.30981482 0.73258710 0.00410882
0.31221037 0.73454069 0.00435406
0.31924524 0.73975397 0.00492940
0.33113187 0.74804790 0.00530214
0.35263111 0.76257590 0.00629896
0.39104508 0.78583269 0.01016019
0.45503625 0.81906168 0.02099411
0.54605266 0.84861921 0.03798101
0.66542233 0.86512672 0.06213404
0.81139067 0.86124114 0.10698562
0.95740604 0.83124494 0.19875242
1.00000000 0.80688310 0.39724468
1.00000000 0.80469082 0.55828305
1.00000000 0.83216891 0.68909920
1.00000000 0.90270186 0.82446897
1.00000000 1.00000000 1.00000000
0.35575446 0.79980645 0.01130783
0.35575446 0.79980645 0.01130783
0.35756303 0.80163361 0.01171950
0.36288735 0.80654847 0.01300022
0.37184100 0.81444206 0.01479320
0.38779066 0.82863465 0.01757928
0.41702623 0.85151749 0.02584727
0.46727468 0.88523766 0.04473361
0.53918412 0.91787064 0.07981797
0.63461674 0.94108797 0.12931733
0.75195952 0.94940349 0.18642962
0.88454506 0.93924843 0.26277690
0.98898969 0.90895974 0.41868880
1.00000000 0.88947303 0.60261379
1.00000000 0.89901661 0.74828750
1.00000000 0.95573901 0.88649468
1.00000000 1.00000000 1.00000000
0.39905010 0.84957491 0.03190520
0.39905010 0.84957491 0.03190520
0.40056761 0.85129323 0.03261793
0.40515140 0.85590325 0.03520483
0.41300273 0.86329430 0.03983808
0.42716230 0.87661548 0.04839557
0.45273479 0.89842196 0.06689668
0.49666120 0.93083878 0.10444643
0.56149903 0.96201164 0.16452581
0.64736748 0.98364471 0.25009041
0.74467417 0.99362464 0.34725544
0.84051449 0.99507762 0.42873637
0.93759459 0.98944333 0.49835816
0.99652751 0.96400071 0.67480704
1.00000000 0.96107684 0.82126038
1.00000000 1.00000000 1.00000000
1.00000000 1.00000000 1.00000000
0.45372691 0.89325607 0.09242711
0.45372691 0.89325607 0.09242711
0.45516967 0.89482473 0.09373486
0.45975915 0.89895679 0.09865788
0.46801366 0.90545132 0.10817436
0.48379989 0.91689314 0.12690462
0.51221786 0.93552691 0.16058945
0.55966583 0.96283090 0.21592821
0.63451325 0.98367699 0.31619401
0.71711756 0.99699443 0.42932081
0.79479209 1.00000000 0.53662503
0.86386710 1.00000000 0.63077131
0.92695449 1.00000000 0.72038560
0.98771733 1.00000000 0.84122718
1.00000000 1.00000000 1.00000000
1.00000000 1.00000000 1.00000000
1.00000000 1.00000000 1.00000000
0.55565298 0.95274799 0.23050547
0.55565298 0.95274799 0.23050547
0.55718427 0.95400786 0.23212987
0.56225243 0.95714961 0.23827219
0.57205415 0.96166397 0.25130635
0.59425968 0.96792541 0.28390947
0.63472156 0.97669218 0.34476508
0.69283451 0.99009760 0.43123934
0.75895206 1.00000000 0.53316441
0.82371289 1.00000000 0.63636347
0.88209739 1.00000000 0.73166735
0.93190200 1.00000000 0.81543854
0.97383569 1.00000000 0.88957164
1.00000000 1.00000000 1.00000000
1.00000000 1.00000000 1.00000000
1.00000000 1.00000000 1.00000000
1.00000000 1.00000000 1.00000000
0.78507119 1.00000000 0.56250540
0.78507119 1.00000000 0.56250540
0.78682668 1.00000000 0.56521782
0.79209071 1.00000000 0.57372055
0.80116928 1.00000000 0.58881817
0.81782474 1.00000000 0.61703163
0.84550747 1.00000000 0.66414760
0.88569005 1.00000000 0.73217527
0.92980651 1.00000000 0.80863074
1.00000000 1.00000000 1.00000000
1.00000000 1.00000000 1.00000000
1.00000000 1.00000000 1.00000000
1.00000000 1.00000000 1.00000000
1.00000000 1.00000000 1.00000000
1.00000000 1.00000000 1.00000000
1.00000000 1.00000000 1.00000000
1.00000000 1.00000000 1.00000000
1.00000000 1.00000000 1.00000000
1.00000000 1.00000000 1.00000000
1.00000000 1.00000000 1.00000000
1.00000000 1.00000000 1.00000000
1.00000000 1.00000000 1.00000000
1.00000000 1.00000000 1.00000000
1.00000000 1.00000000 1.00000000
1.00000000 1.00000000 1.00000000
1.00000000 1.00000000 1.00000000
1.00000000 1.00000000 1.00000000
1.00000000 1.00000000 1.00000000
1.00000000 1.00000000 1.00000000
1.00000000 1.00000000 1.00000000
1.00000000 1.00000000 1.00000000
1.00000000 1.00000000 1.00000000
1.00000000 1.00000000 1.00000000
1.00000000 1.00000000 1.00000000
0.00000000 0.00000000 0.00000000
0.00000000 0.00000000 0.00000000
0.00924798 0.00924798 0.00924798
0.05198400 0.00956032 0.01116802
0.13283113 0.00809811 0.01271894
0.22824736 0.00978339 0.01803678
0.34908448 0.00598134 0.02106782
0.49173228 0.00000000 0.02418949
0.62415022 0.00000000 0.02233326
0.73897737 0.00000000 0.01816638
0.83344732 0.00245704 0.01381614
0.90309608 0.02568360 0.01251902
0.94601013 0.07879754 0.02214941
0.96754286 0.16800946 0.06044140
0.97944361 0.29125057 0.15890131
1.00000000 0.44715313 0.30355289
1.00000000 0.64424367 0.49546755
0.00000000 0.00000000 0.00000000
0.00000000 0.00000000 0.00000000
0.00924798 0.00924798 0.00924798
0.05198400 0.00956032 0.01116802
0.13283113 0.00809811 0.01271894
0.22824736 0.00978339 0.01803678
0.34908448 0.00598134 0.02106782
0.49173228 0.00000000 0.02418949
0.62415022 0.00000000 0.02233326
0.73897737 0.00000000 0.01816638
0.83344732 0.00245704 0.01381614
0.90309608 0.02568360 0.01251902
0.94601013 0.07879754 0.02214941
0.96754286 0.16800946 0.06044140
0.97944361 0.29125057 0.15890131
1.00000000 0.44715313 0.30355289
1.00000000 0.64424367 0.49546755
0.00924798 0.00924798 0.00924798
0.00924798 0.00924798 0.00924798
0.01194480 0.01211997 0.01033132
0.06048951 0.01994847 0.01257933
0.13807094 0.02303503 0.01307460
0.23096364 0.02755079 0.01731507
0.35169556 0.02409271 0.01900163
0.49526762 0.01582690 0.02077416
0.62830479 0.00788374 0.01963576
0.74347325 0.00512029 0.01703288
0.83786520 0.01318971 0.01449336
0.90678522 0.03802279 0.01538002
0.94857279 0.09337930 0.02746659
0.96791441 0.18131270 0.07006389
0.97926743 0.30038259 0.16715527
1.00000000 0.45335987 0.30996672
1.00000000 0.64873997 0.50072994
0.01539933 0.04752976 0.00903520
0.01539933 0.04752976 0.00903520
0.02357001 0.06080749 0.01073247
0.06654475 0.07295508 0.00920955
0.14051761 0.08023686 0.00825525
0.23858409 0.08144311 0.00512135
0.35609329 0.08115257 0.00809802
0.50450629 0.06340788 0.00532400
0.63605768 0.05534742 0.01277993
0.75303512 0.04580186 0.01477143
0.84824150 0.04935788 0.01695953
0.91557797 0.07732822 0.02420640
0.95467737 0.13211603 0.04330520
0.96825120 0.21628915 0.09757678
0.97830591 0.32514090 0.18968144
1.00000000 0.47066338 0.32806250
1.00000000 0.66145909 0.51585845
0.02812179 0.11411854 0.00878995
0.02812179 0.11411854 0.00878995
0.03601071 0.12612338 0.00796680
0.07365504 0.14051437 0.00517567
0.14012481 0.15172212 0.00299105
0.23086978 0.16092510 0.00238711
0.34959994 0.16526402 0.00241523
0.49609607 0.16083752 0.00404839
0.64337637 0.13472637 0.00144161
0.76780135 0.11048727 0.00633992
0.87284234 0.08477426 0.00679623
0.93993694 0.10586582 0.02276278
0.96097318 0.18813178 0.07365637
0.96881694 0.26441256 0.13624933
0.97679334 0.36173850 0.22356185
1.00000000 0.49753347 0.35667321
1.00000000 0.68175104 0.54038822
0.04953770 0.19959544 0.00761224
0.04953770 0.19959544 0.00761224
0.05796765 0.20659677 0.00635165
0.09185181 0.21878139 0.00369846
0.14761986 0.23150014 0.00153555
0.22940704 0.24567944 0.00079520
0.34211065 0.25782554 0.00075252
0.48791935 0.26215383 0.00144200
0.64060794 0.24470972 0.00193146
0.77028400 0.22563719 0.01961326
0.87848284 0.20647151 0.03492608
0.96256307 0.19036273 0.04350196
0.96575741 0.27227294 0.13284123
0.96947542 0.33526227 0.19565858
0.97462326 0.41907102 0.27885097
1.00000000 0.54154123 0.40488243
1.00000000 0.71595368 0.58237326
0.08759776 0.30346508 0.00565400
0.08759776 0.30346508 0.00565400
0.09624768 0.30794320 0.00472159
0.12379962 0.31748728 0.00261083
0.16865575 0.32930416 0.00055356
0.23867018 0.34524755 0.00000000
0.34107254 0.36307156 0.00000000
0.48056615 0.37605860 0.00000000
0.63599464 0.36790674 0.00463326
0.78581362 0.33976181 0.01559698
0.90154853 0.31780873 0.05417055
0.98894423 0.30082394 0.08867303
0.97394988 0.37715562 0.21062817
0.97304460 0.42825360 0.27799122
0.97518291 0.49832557 0.35896848
1.00000000 0.60673100 0.47871408
1.00000000 0.76941057 0.64932825
0.14246049 0.42774249 0.00398701
0.14246049 0.42774249 0.00398701
0.14915754 0.43082661 0.00347011
0.16980870 0.43820575 0.00204142
0.20450790 0.44831336 0.00039250
0.26131358 0.46385135 0.00000000
0.34919275 0.48440455 0.00000000
0.47611546 0.50514162 0.00000000
0.63145524 0.50511491 0.00000000
0.79299096 0.48105403 0.01244332
0.94762222 0.43339600 0.02194014
0.98649849 0.45873408 0.19315232
0.99811363 0.49043439 0.29143856
0.99097157 0.53310838 0.37206567
0.98732576 0.59337425 0.45761577
1.00000000 0.69063647 0.57602573
1.00000000 0.84239841 0.74225992
0.20082807 0.54401152 0.00246360
0.20082807 0.54401152 0.00246360
0.20566581 0.54646838 0.00233492
0.22026477 0.55268601 0.00180695
0.24521628 0.56197669 0.00068841
0.28792555 0.57699595 0.00017779
0.35764539 0.59931638 0.00045145
0.46392917 0.62632935 0.00281688
0.60347989 0.63975686 0.00109282
0.76754475 0.62654183 0.00448208
0.92535159 0.59215933 0.05781140
1.00000000 0.57819722 0.21275788
1.00000000 0.59600870 0.34803196
1.00000000 0.62920312 0.45127150
1.00000000 0.68161473 0.54783578
1.00000000 0.77110959 0.67071823
1.00000000 0.91624543 0.83874418
0.25767163 0.64623262 0.00209260
0.25767163 0.64623262 0.00209260
0.26105297 0.64837355 0.00219753
0.27108707 0.65397836 0.00228330
0.28821208 0.66271281 0.00187692
0.31891989 0.67739609 0.00218010
0.37095353 0.70059834 0.00410267
0.45491481 0.73159920 0.01053781
0.57004726 0.75500704 0.01686343
0.71615942 0.75946671 0.02533400
0.87871700 0.73639833 0.06581881
1.00000000 0.70487945 0.20984162
1.00000000 0.69994626 0.38054221
1.00000000 0.71828560 0.51222774
1.00000000 0.76042395 0.62469844
1.00000000 0.84182661 0.75392802
1.00000000 1.00000000 1.00000000
0.30981482 0.73258710 0.00410882
0.30981482 0.73258710 0.00410882
0.31221037 0.73454069 0.00435406
0.31924524 0.73975397 0.00492940
0.33113187 0.74804790 0.00530214
0.35263111 0.76257590 0.00629896
0.39104508 0.78583269 0.01016019
0.45503625 0.81906168 0.02099411
0.54605266 0.84861921 0.03798101
0.66542233 0.86512672 0.06213404
0.81139067 0.86124114 0.10698562
0.95740604 0.83124494 0.19875242
1.00000000 0.80688310 0.39724468
1.00000000 0.80469082 0.55828305
1.00000000 0.83216891 0.68909920
1.00000000 0.90270186 0.82446897
1.00000000 1.00000000 1.00000000
0.35575446 0.79980645 0.01130783
0.35575446 0.79980645 0.01130783
0.35756303 0.80163361 0.01171950
0.36288735 0.80654847 0.01300022
0.37184100 0.81444206 0.01479320
0.38779066 0.82863465 0.01757928
0.41702623 0.85151749 0.02584727
0.46727468 0.88523766 0.04473361
0.53918412 0.91787064 0.07981797
0.63461674 0.94108797 0.12931733
0.75195952 0.94940349 0.18642962
0.88454506 0.93924843 0.26277690
0.98898969 0.90895974 0.41868880
1.00000000 0.88947303 0.60261379
1.00000000 0.89901661 0.74828750
1.00000000 0.95573901 0.88649468
1.00000000 1.00000000 1.00000000
0.39905010 0.84957491 0.03190520
0.39905010 0.84957491 0.03190520
0.40056761 0.85129323 0.03261793
0.40515140 0.85590325 0.03520483
0.41300273 0.86329430 0.03983808
0.42716230 0.87661548 0.04839557
0.45273479 0.89842196 0.06689668
0.49666120 0.93083878 0.10444643
0.56149903 0.96201164 0.16452581
0.64736748 0.98364471 0.25009041
0.74467417 0.99362464 0.34725544
0.84051449 0.99507762 0.42873637
0.93759459 0.98944333 0.49835816
0.99652751 0.96400071 0.67480704
1.00000000 0.96107684 0.82126038
1.00000000 1.00000000 1.00000000
1.00000000 1.00000000 1.00000000
0.45372691 0.89325607 0.09242711
0.45372691 0.89325607 0.09242711
0.45516967 0.89482473 0.09373486
0.45975915 0.89895679 0.09865788
0.46801366 0.90545132 0.10817436
0.48379989 0.91689314 0.12690462
0.51221786 0.93552691 0.16058945
0.55966583 0.96283090 0.21592821
0.63451325 0.98367699 0.31619401
0.71711756 0.99699443 0.42932081
0.79479209 1.00000000 0.53662503
0.86386710 1.00000000 0.63077131
0.92695449 1.00000000 0.72038560
0.98771733 1.00000000 0.84122718
1.00000000 1.00000000 1.00000000
1.00000000 1.00000000 1.00000000
1.00000000 1.00000000 1.00000000
0.55565298 0.95274799 0.23050547
0.55565298 0.95274799 0.23050547
0.55718427 0.95400786 0.23212987
0.56225243 0.95714961 0.23827219
0.57205415 0.96166397 0.25130635
0.59425968 0.96792541 0.28390947
0.63472156 0.97669218 0.34476508
0.69283451 0.99009760 0.43123934
0.75895206 1.00000000 0.53316441
0.82371289 1.00000000 0.63636347
0.88209739 1.00000000 0.73166735
0.93190200 1.00000000 0.81543854
0.97383569 1.00000000 0.88957164
1.00000000 1.00000000 1.00000000
1.00000000 1.00000000 1.00000000
1.00000000 1.00000000 1.00000000
1.00000000 1.00000000 1.00000000
0.78507119 1.00000000 0.56250540
0.78507119 1.00000000 0.56250540
0.78682668 1.00000000 0.56521782
0.79209071 1.00000000 0.57372055
0.80116928 1.00000000 0.58881817
0.81782474 1.00000000 0.61703163
0.84550747 1.00000000 0.66414760
0.88569005 1.00000000 0.73217527
0.92980651 1.00000000 0.80863074
1.00000000 1.00000000 1.00000000
1.00000000 1.00000000 1.00000000
1.00000000 1.00000000 1.00000000
1.00000000 1.00000000 1.00000000
1.00000000 1.00000000 1.00000000
1.00000000 1.00000000 1.00000000
1.00000000 1.00000000 1.00000000
1.00000000 1.00000000 1.00000000
1.00000000 1.00000000 1.00000000
1.00000000 1.00000000 1.00000000
1.00000000 1.00000000 1.00000000
1.00000000 1.00000000 1.00000000
1.00000000 1.00000000 1.00000000
1.00000000 1.00000000 1.00000000
1.00000000 1.00000000 1.00000000
1.00000000 1.00000000 1.00000000
1.00000000 1.00000000 1.00000000
1.00000000 1.00000000 1.00000000
1.00000000 1.00000000 1.00000000
1.00000000 1.00000000 1.00000000
1.00000000 1.00000000 1.00000000
1.00000000 1.00000000 1.00000000
1.00000000 1.00000000 1.00000000
1.00000000 1.00000000 1.00000000
1.00000000 1.00000000 1.00000000
0.00924798 0.00924798 0.00924798
0.00924798 0.00924798 0.00924798
0.01337907 0.00957603 0.01397414
0.06014843 0.00860855 0.02036537
0.13621917 0.00614491 0.02550869
0.22820568 0.00766550 0.03448171
0.34819904 0.00373573 0.03967707
0.49089292 0.00000000 0.04211785
0.62355912 0.00000000 0.03459069
0.73855806 0.00000000 0.02322383
0.83364300 0.00000000 0.01483015
0.90424172 0.01261110 0.00989551
0.94766573 0.06351775 0.01745878
0.96938146 0.15711550 0.05404141
0.98049458 0.28538545 0.15383801
1.00000000 0.44356894 0.29998344
1.00000000 0.64163403 0.49264981
0.00924798 0.00924798 0.00924798
0.00924798 0.00924798 0.00924798
0.01337907 0.00957603 0.01397414
0.06014843 0.00860855 0.02036537
0.13621917 0.00614491 0.02550869
0.22820568 0.00766550 0.03448171
0.34819904 0.00373573 0.03967707
0.49089292 0.00000000 0.04211785
0.62355912 0.00000000 0.03459069
0.73855806 0.00000000 0.02322383
0.83364300 0.00000000 0.01483015
0.90424172 0.01261110 0.00989551
0.94766573 0.06351775 0.01745878
0.96938146 0.15711550 0.05404141
0.98049458 0.28538545 0.15383801
1.00000000 0.44356894 0.29998344
1.00000000 0.64163403 0.49264981
0.00988891 0.01456860 0.01437414
0.00988891 0.01456860 0.01437414
0.01903558 0.01903558 0.01903558
0.07932548 0.01611871 0.01858234
0.15823518 0.01134376 0.01752269
0.24178049 0.01576973 0.02509290
0.35914510 0.01073534 0.02707784
0.49992772 0.00268849 0.02808102
0.63146461 0.00000000 0.02338443
0.74552367 0.00000000 0.01840947
0.83885106 0.00223628 0.01438410
0.90749389 0.02700330 0.01360762
0.94971047 0.08140249 0.02365022
0.96912352 0.17333204 0.06464850
0.97987756 0.29560574 0.16305056
1.00000000 0.45014588 0.30676950
1.00000000 0.64624051 0.49804017
0.01506825 0.07633969 0.01664899
0.01506825 0.07633969 0.01664899
0.02614251 0.08414022 0.01458285
0.07784361 0.08514856 0.01231541
0.15494708 0.08191093 0.01155801
0.25497060 0.07139859 0.00398181
0.36750595 0.06703658 0.00915843
0.50943935 0.05197004 0.01062551
0.64160349 0.03829938 0.01369260
0.75612010 0.03180568 0.01534087
0.84960592 0.03842274 0.01691045
0.91619017 0.06770975 0.02303287
0.95510416 0.12494568 0.04081122
0.96878211 0.21094648 0.09383701
0.97856806 0.32138738 0.18647505
1.00000000 0.46783969 0.32524734
1.00000000 0.65910970 0.51332367
0.02516554 0.14333451 0.01117239
0.02516554 0.14333451 0.01117239
0.03508658 0.15070686 0.00830527
0.07870823 0.15843713 0.00489461
0.14985469 0.16193496 0.00280523
0.24168669 0.16356413 0.00246637
0.35964164 0.16154573 0.00241775
0.50437168 0.15246871 0.00414211
0.65076145 0.12133768 0.00010639
0.77385007 0.09405622 0.00375499
0.87800269 0.06535289 0.00286369
0.92831237 0.13119908 0.03851598
0.95994875 0.18610734 0.07398600
0.96820283 0.26206952 0.13504564
0.97669731 0.35913170 0.22138764
1.00000000 0.49519387 0.35432871
1.00000000 0.67960163 0.53804720
0.04615052 0.21869617 0.00867221
0.04615052 0.21869617 0.00867221
0.05570462 0.22407077 0.00654494
0.09259569 0.23383963 0.00342479
0.15193433 0.24300680 0.00111454
0.23602180 0.25261243 0.00059253
0.34940158 0.26005571 0.00079294
0.49479270 0.26033833 0.00157817
0.64669847 0.23995551 0.00182656
0.77530990 0.21928294 0.01875485
0.88270552 0.19904088 0.03279143
0.96624252 0.18217156 0.04012488
0.96592056 0.27043149 0.13277010
0.96930176 0.33381861 0.19506825
0.97456355 0.41743779 0.27752746
1.00000000 0.53978319 0.40309122
1.00000000 0.71411820 0.58034307
0.08405551 0.31652783 0.00627869
0.08405551 0.31652783 0.00627869
0.09362901 0.32042614 0.00493515
0.12279016 0.32911741 0.00245583
0.16981424 0.33943718 0.00019170
0.24189635 0.35305299 0.00000000
0.34570095 0.36792098 0.00000000
0.48572324 0.37784067 0.00000000
0.64102006 0.36736334 0.00510465
0.79008356 0.33781101 0.01638536
0.90497146 0.31523387 0.05449680
0.99181057 0.29789039 0.08797104
0.97425353 0.37689165 0.21169008
0.97298480 0.42803136 0.27846486
0.97512218 0.49775524 0.35868306
1.00000000 0.60573970 0.47772699
1.00000000 0.76801990 0.64776182
0.13997109 0.43708717 0.00426648
0.13997109 0.43708717 0.00426648
0.14711222 0.43990234 0.00362307
0.16850597 0.44686123 0.00212778
0.20430185 0.45641966 0.00021953
0.26243999 0.47090296 0.00000000
0.35159690 0.48986668 0.00000000
0.47944872 0.50863379 0.00000000
0.63541402 0.50675431 0.00000000
0.79689933 0.48133085 0.01322667
0.95101025 0.43287974 0.02319729
0.98748963 0.45955925 0.19619021
0.99826726 0.49148353 0.29383759
0.99092167 0.53394575 0.37368598
0.98726772 0.59378311 0.45843323
1.00000000 0.69045538 0.57597151
1.00000000 0.84158938 0.74137014
0.19956704 0.55118242 0.00250263
0.19956704 0.55118242 0.00250263
0.20461344 0.55349080 0.00237568
0.21953469 0.55949770 0.00186566
0.24489472 0.56853963 0.00058558
0.28834031 0.58299182 0.00005556
