Luts Download/Canon Luts/3dlut/17grid-3dlut/full-to-full-range/CinemaGamut_CanonLog2-to-BT2020_PQ_17_FF_Ver.2.0.cube
# Gamut : Cinema Gamut to BT.2020
# Gamma : Canon Log 2 to PQ
# Range : Full in / Full out
# Version : 2.0 2019/10/24
# Copyright(c) 2019 Canon Inc. All Rights Reserved.
LUT_3D_SIZE 9
# LUT_3D_INPUT_RANGE 0.0 1.0
0.00000000 0.00000000 0.00000000
0.01568134 0.01568134 0.01568134
0.19533471 0.02014717 0.02992958
0.35769045 0.00947866 0.05168379
0.50682349 0.00000000 0.09889747
0.65299715 0.00000000 0.18968179
0.79573916 0.07713620 0.29753322
0.92974610 0.40060754 0.43942451
1.00000000 0.75960648 0.68275203
0.01568134 0.01568134 0.01568134
0.01902628 0.01932448 0.01660056
0.19808629 0.04989317 0.02706779
0.35749741 0.04229799 0.04032745
0.50649929 0.00349154 0.08149025
0.65290857 0.00000000 0.17986494
0.79584843 0.05042740 0.29345703
0.92987277 0.39821109 0.43813012
1.00000000 0.75953280 0.68257332
0.05831747 0.17936221 0.01726355
0.07342546 0.18973427 0.01420917
0.20389401 0.21406088 0.00386822
0.35341603 0.22576111 0.00423770
0.50360720 0.20862771 0.01958377
0.65220757 0.11172125 0.10765476
0.79652979 0.00000000 0.26217991
0.93080955 0.38259765 0.42803849
1.00000000 0.75918748 0.68129581
0.14976262 0.32816386 0.01123342
0.15907937 0.33024744 0.00885917
0.22959436 0.34252341 0.00120164
0.34936515 0.36112109 0.00000000
0.49639878 0.37369128 0.00182891
0.64920778 0.35885943 0.03363346
0.79731349 0.26249825 0.18367780
0.93271601 0.37934782 0.40346067
1.00000000 0.76063320 0.67955518
0.26867570 0.47097766 0.00600520
0.27257990 0.47160255 0.00551193
0.30357292 0.47655476 0.00198994
0.37467444 0.48833355 0.00000000
0.49400335 0.50678380 0.00000000
0.64208680 0.51966098 0.00364925
0.79451867 0.50686192 0.11296384
0.93508006 0.48964890 0.35751945
1.00000000 0.77175701 0.68055678
0.40336439 0.61662576 0.00572265
0.40477132 0.61682971 0.00600463
0.41646636 0.61854453 0.00760241
0.44861996 0.62363977 0.00177340
0.52065900 0.63549490 0.00000000
0.64067138 0.65400334 0.00000000
0.78747904 0.66734030 0.08244325
0.93217886 0.67230056 0.35495233
1.00000000 0.80844841 0.69277710
0.54865141 0.76247751 0.08906771
0.54911188 0.76253851 0.08994766
0.55303815 0.76306309 0.09650426
0.56487680 0.76471847 0.10719078
0.59696723 0.76968222 0.09913532
0.66824055 0.78128493 0.06465073
0.78663224 0.80011638 0.15006373
0.92587178 0.81795034 0.40187778
1.00000000 0.88099935 0.73326438
0.71152712 0.90375205 0.39785631
0.71165464 0.90376741 0.39798403
0.71276106 0.90390110 0.39908133
0.71623427 0.90434032 0.40197063
0.72669693 0.90577842 0.40847485
0.75537538 0.91030614 0.41886898
0.82026007 0.92140808 0.45198554
0.92817043 0.94193122 0.57816974
1.00000000 0.97450462 0.84556287
0.92181755 1.00000000 0.80629626
0.92184301 1.00000000 0.80633583
0.92206729 1.00000000 0.80668787
0.92278269 1.00000000 0.80778564
0.92502242 1.00000000 0.81113525
0.93172647 1.00000000 0.82094305
0.94967502 1.00000000 0.84734622
1.00000000 1.00000000 1.00000000
1.00000000 1.00000000 1.00000000
0.01568134 0.01568134 0.01568134
0.02185453 0.01583477 0.02302086
0.19813631 0.01653456 0.05889769
0.35828638 0.00721469 0.09007782
0.50844719 0.00000000 0.12207358
0.65375222 0.00000000 0.19772052
0.79582542 0.09215781 0.30116000
0.92967841 0.40259764 0.44065415
1.00000000 0.75971635 0.68296580
0.01604706 0.02385506 0.02347693
0.03227769 0.03227769 0.03227769
0.21107469 0.03220425 0.04392483
0.36205096 0.01641275 0.06195243
0.50879711 0.00000000 0.09831148
0.65359774 0.00000000 0.18915011
0.79592735 0.07005160 0.29730285
0.92980429 0.40030372 0.43938396
1.00000000 0.75963335 0.68277782
0.05116132 0.20539377 0.02325036
0.07027510 0.21074600 0.01548884
0.21155718 0.22183422 0.00346870
0.35852147 0.22241133 0.00500771
0.50558284 0.19881622 0.02398586
0.65278699 0.10158369 0.11902445
0.79660417 0.00000000 0.26651001
0.93074449 0.38482047 0.42933358
1.00000000 0.75927929 0.68149297
0.14496216 0.33499651 0.01326146
0.15557036 0.33670171 0.00977425
0.22991425 0.34754461 0.00094328
0.35154517 0.36331954 0.00000000
0.49790090 0.37299850 0.00214028
0.64980540 0.35629159 0.03665409
0.79742161 0.26049761 0.18840262
0.93266759 0.38061941 0.40470267
1.00000000 0.76068478 0.67971613
0.26694291 0.47304756 0.00658669
0.27100559 0.47362699 0.00586752
0.30268626 0.47840943 0.00202139
0.37485957 0.48980426 0.00000000
0.49467160 0.50745486 0.00000000
0.64253941 0.51947013 0.00393399
0.79469234 0.50610456 0.11466099
0.93508412 0.48934440 0.35847712
1.00000000 0.77175208 0.68066222
0.40273230 0.61724423 0.00561967
0.40415409 0.61744325 0.00581865
0.41593826 0.61914012 0.00727194
0.44835263 0.62419319 0.00158702
0.52073047 0.63593731 0.00000000
0.64087504 0.65420708 0.00000000
0.78761307 0.66728544 0.08280160
0.93222273 0.67212004 0.35518731
1.00000000 0.80841806 0.69283665
0.54845036 0.76266218 0.08874490
0.54891175 0.76272270 0.08959057
0.55284669 0.76324552 0.09611311
0.56472222 0.76489637 0.10693780
0.59689560 0.76984912 0.09884545
0.66826439 0.78141581 0.06439205
0.78669335 0.80017738 0.15005235
0.92590653 0.81794145 0.40200578
1.00000000 0.88098717 0.73331065
0.71148747 0.90380654 0.39788473
0.71161487 0.90382188 0.39801058
0.71272154 0.90395542 0.39910446
0.71619776 0.90439417 0.40199665
0.72666955 0.90583019 0.40851683
0.75536728 0.91035421 0.41891731
0.82027244 0.92144516 0.45204022
0.92818800 0.94194883 0.57822314
1.00000000 0.97450609 0.84559304
0.92183787 1.00000000 0.80635574
0.92186232 1.00000000 0.80639336
0.92208612 1.00000000 0.80674398
0.92280127 1.00000000 0.80784104
0.92504080 1.00000000 0.81119014
0.93174412 1.00000000 0.82099625
0.94968911 1.00000000 0.84738897
1.00000000 1.00000000 1.00000000
1.00000000 1.00000000 1.00000000
0.01879689 0.00151210 0.16946120
0.03137594 0.00000000 0.17447535
0.19519768 0.00000000 0.20609938
0.35459450 0.00000000 0.24299517
0.50688023 0.00020570 0.27273083
0.65476620 0.00324501 0.29402731
0.79711645 0.05367299 0.32253479
0.92930223 0.41198911 0.44931245
1.00000000 0.76041795 0.68457952
0.01186287 0.01360366 0.18025875
0.02093586 0.00028295 0.18813283
0.19978085 0.00000000 0.21143084
0.35842148 0.00000000 0.23932616
0.50789851 0.00000000 0.26528200
0.65466948 0.00779663 0.28914152
0.79716872 0.03986715 0.31958386
0.92941938 0.41013817 0.44817224
1.00000000 0.76034155 0.68439894
0.01126246 0.20813137 0.20386079
0.02954688 0.20892359 0.20505461
0.20768300 0.20768300 0.20768300
0.36344330 0.19024491 0.20542303
0.50712613 0.17015688 0.22098576
0.65441264 0.10467702 0.24505451
0.79761802 0.00000000 0.29404186
0.93033888 0.39657414 0.43878482
1.00000000 0.75989316 0.68302748
0.04521179 0.37844930 0.13549631
0.06322963 0.37814150 0.12788622
0.21100238 0.37654838 0.10245382
0.36238809 0.37332305 0.09612227
0.50811202 0.36346741 0.08492209
0.65506904 0.32831198 0.06518733
0.79842112 0.23573942 0.22164453
0.93235387 0.38838263 0.41445898
1.00000000 0.76104865 0.68103099
0.24614111 0.49053923 0.02741412
0.25073217 0.49094844 0.02317408
0.28929801 0.49441062 0.00429930
0.37429261 0.50244236 0.00000000
0.50020304 0.51299905 0.00000000
0.64652511 0.51736250 0.00428249
0.79621669 0.49901564 0.12812580
0.93513248 0.48631696 0.36631834
1.00000000 0.77169067 0.68155988
0.39684767 0.62263642 0.00789644
0.39831652 0.62281087 0.00752182
0.41077778 0.62433209 0.00634771
0.44551631 0.62896860 0.00072577
0.52108465 0.63974999 0.00000000
0.64260708 0.65593700 0.00000000
0.78878875 0.66675993 0.08463016
0.93260753 0.67050826 0.35718165
1.00000000 0.80814908 0.69335073
0.54669196 0.76427465 0.08747254
0.54715432 0.76433282 0.08808008
0.55113941 0.76483838 0.09360616
0.56329327 0.76644546 0.10443005
0.59617356 0.77128330 0.09631840
0.66843498 0.78255173 0.06021335
0.78722201 0.80070464 0.14926349
0.92621078 0.81786016 0.40308623
1.00000000 0.88087979 0.73371224
0.71115160 0.90428157 0.39822370
0.71127821 0.90429679 0.39833982
0.71238347 0.90442921 0.39938199
0.71587801 0.90486389 0.40225052
0.72642140 0.90628197 0.40885355
0.75528880 0.91077374 0.41929749
0.82037935 0.92176866 0.45251472
0.92834147 0.94210277 0.57871285
1.00000000 0.97451949 0.84586602
0.92201783 1.00000000 0.80688166
0.92204155 1.00000000 0.80691728
0.92225363 1.00000000 0.80724293
0.92296404 1.00000000 0.80832594
0.92520021 1.00000000 0.81166586
0.93189692 1.00000000 0.82145648
0.94981293 1.00000000 0.84776512
1.00000000 1.00000000 1.00000000
1.00000000 1.00000000 1.00000000
0.07588487 0.00498390 0.31679117
0.08937395 0.00208520 0.31505144
0.19548560 0.00000000 0.32188372
0.35423258 0.00000000 0.36082596
0.50706499 0.00000000 0.39979701
0.65365563 0.04837493 0.42338964
0.79559128 0.16991516 0.43758193
0.92919698 0.40303264 0.47119074
1.00000000 0.76067606 0.68787655
0.06363506 0.01162264 0.32216702
0.07789341 0.00426474 0.32109418
0.18992312 0.00000000 0.32583079
0.35534513 0.00000000 0.36235682
0.50819860 0.00000000 0.39867283
0.65421045 0.02784716 0.42079394
0.79562871 0.17086877 0.43615709
0.92929717 0.40163947 0.47007540
1.00000000 0.76062724 0.68772540
0.00000000 0.15685120 0.33609743
0.00000000 0.14780708 0.34059870
0.17228454 0.11346693 0.35630583
0.35060273 0.10984182 0.36352687
0.50431164 0.10743600 0.38123185
0.65278166 0.12073812 0.40292672
0.79611797 0.16929119 0.42277816
0.93014573 0.38983866 0.46019084
1.00000000 0.76030592 0.68650029
0.01650283 0.35445667 0.34941996
0.03040397 0.35469130 0.34978329
0.15700796 0.35694430 0.35308051
0.35244623 0.35244623 0.35244623
0.50673123 0.33629226 0.35033188
0.65286104 0.31184123 0.36116362
0.79763584 0.26437505 0.38195143
0.93208950 0.38321758 0.43677545
1.00000000 0.76103611 0.68412900
0.08972788 0.52253463 0.28342677
0.10363173 0.52241005 0.28140964
0.20203405 0.52157359 0.26898844
0.34488719 0.51966415 0.24478654
0.50464999 0.51576988 0.23937154
0.65396595 0.50665322 0.24711694
0.80044878 0.47241107 0.22331982
0.93539115 0.47255895 0.38789782
1.00000000 0.77091441 0.68386877
0.36831581 0.63992877 0.07316381
0.36999554 0.64004443 0.06951691
0.38527479 0.64113505 0.04548230
0.42965108 0.64454860 0.00228564
0.51970890 0.65207000 0.00000000
0.64796096 0.66126594 0.00000000
0.79272415 0.66450400 0.07878045
0.93392386 0.66463483 0.36261155
1.00000000 0.80706768 0.69475174
0.54037247 0.76958520 0.09421915
0.54084067 0.76963598 0.09405880
0.54497780 0.77008381 0.09501861
0.55795870 0.77153442 0.10063813
0.59318808 0.77592699 0.09064782
0.66873247 0.78625745 0.03703114
0.78892484 0.80239973 0.14167126
0.92722899 0.81754043 0.40606381
1.00000000 0.88048155 0.73490343
0.71008523 0.90584139 0.39996023
0.71020968 0.90585622 0.40004762
0.71130732 0.90598508 0.40090356
0.71483721 0.90640695 0.40353724
0.72557025 0.90776921 0.41007306
0.75497033 0.91214116 0.42069764
0.82071492 0.92283268 0.45399472
0.92884622 0.94260921 0.58038484
1.00000000 0.97456236 0.84676024
0.92262332 1.00000000 0.80864683
0.92264625 1.00000000 0.80868014
0.92284983 1.00000000 0.80898174
0.92351758 1.00000000 0.80997190
0.92573111 1.00000000 0.81324736
0.93239935 1.00000000 0.82296680
0.95022589 1.00000000 0.84902251
1.00000000 1.00000000 1.00000000
1.00000000 1.00000000 1.00000000
0.17296546 0.01019879 0.45863551
0.17912706 0.01199293 0.45687877
0.22512784 0.00000000 0.44901471
0.35382851 0.00000000 0.46779118
0.51303811 0.00000000 0.51523615
0.65505537 0.06070707 0.54795407
0.79344824 0.20563377 0.56509302
0.92674265 0.42729023 0.58309172
1.00000000 0.75723531 0.69849014
0.16705384 0.01013455 0.46133462
0.17385293 0.01089852 0.45968775
0.22139670 0.00000000 0.45139765
0.35205839 0.00000000 0.46872753
0.51324257 0.00000000 0.51557908
0.65535792 0.04831375 0.54761916
0.79364063 0.19994556 0.56433873
0.92680551 0.42718377 0.58269457
1.00000000 0.75721880 0.69833901
0.10095639 0.09476582 0.47405419
0.11165401 0.08443807 0.47414307
0.18023359 0.00119062 0.47104738
0.33122344 0.00000000 0.47990813
0.51411712 0.00000000 0.51868850
0.65743357 0.00000000 0.54312890
0.79445189 0.17368897 0.55796835
0.92742239 0.42440171 0.57894815
1.00000000 0.75705306 0.69699289
0.00000000 0.30696215 0.47595875
0.00000000 0.30438224 0.47770434
0.00000000 0.28252428 0.49173026
0.31701047 0.24292963 0.51612705
0.49450273 0.25771997 0.50812656
0.64932024 0.25173689 0.52298848
0.79472763 0.26553949 0.54169682
0.92915633 0.42539516 0.56742684
1.00000000 0.75761678 0.69343329
0.03931245 0.49797394 0.49247970
0.05140925 0.49804905 0.49259898
0.15330615 0.49863527 0.49356384
0.30668984 0.50011739 0.49618798
0.49554313 0.49554313 0.49554313
0.65266156 0.47914296 0.49339400
0.79769876 0.45437917 0.50310671
0.93281589 0.48287825 0.53465710
1.00000000 0.76553045 0.68850297
0.16874963 0.66792164 0.42263995
0.17500116 0.66789843 0.42203450
0.22630441 0.66771067 0.41752719
0.34011900 0.66720187 0.40825586
0.48786307 0.66575508 0.38790154
0.65055247 0.66181476 0.38264959
0.80152187 0.64785886 0.36351558
0.93725351 0.64355073 0.42630459
1.00000000 0.80234919 0.69785321
0.50940594 0.78646210 0.19732764
0.50991685 0.78649747 0.19601216
0.51472760 0.78681876 0.18648768
0.53114908 0.78791474 0.16254207
0.57683012 0.79115706 0.09163014
0.66731375 0.79830614 0.00000000
0.79424491 0.80767677 0.06447663
0.93068186 0.81603380 0.41252002
1.00000000 0.87888503 0.73808946
0.70639590 0.91093327 0.40860952
0.70651627 0.91094688 0.40862518
0.70759688 0.91106460 0.40894121
0.71122016 0.91144654 0.41062069
0.72252439 0.91267395 0.41602254
0.75357699 0.91657727 0.42667054
0.82170928 0.92631729 0.45898213
0.93050404 0.94427596 0.58704454
1.00000000 0.97469322 0.84970309
0.92468122 1.00000000 0.81459591
0.92470238 1.00000000 0.81462430
0.92489100 1.00000000 0.81488424
0.92551599 1.00000000 0.81575801
0.92755635 1.00000000 0.81865061
0.93409004 1.00000000 0.82802444
0.95164503 1.00000000 0.85341052
1.00000000 1.00000000 1.00000000
1.00000000 1.00000000 1.00000000
0.28353038 0.01942393 0.60126279
0.28575157 0.02770692 0.60029878
0.30384863 0.06377777 0.59371299
0.35412317 0.00000000 0.58410414
0.50535036 0.00000000 0.61406443
0.66188768 0.00000000 0.66111737
0.79259137 0.18954835 0.68631351
0.92259027 0.44025769 0.70481392
1.00000000 0.75967299 0.76725248
0.28154747 0.01362553 0.60247196
0.28383668 0.02109032 0.60153112
0.30213149 0.05724465 0.59492554
0.35285214 0.00000000 0.58496276
0.50473990 0.00000000 0.61430216
0.66194100 0.00000000 0.66121337
0.79269385 0.18586350 0.68623069
0.92266442 0.43958054 0.70461140
1.00000000 0.75971912 0.76720576
0.26282610 0.01850388 0.61015589
0.26548544 0.02083613 0.60948452
0.28643222 0.03186282 0.60404021
0.34131473 0.00000000 0.59288886
0.49876975 0.00000000 0.61697839
0.66222815 0.00000000 0.66209320
0.79365164 0.11406948 0.68535618
0.92340543 0.43083176 0.70266513
1.00000000 0.75996198 0.76671331
0.17089454 0.23707199 0.61875445
0.17535576 0.23350269 0.61885665
0.21158829 0.19741843 0.61962277
0.29392331 0.00000000 0.61542925
0.47200766 0.00000000 0.62556459
0.65872293 0.00000000 0.66212269
0.79516064 0.00000000 0.68074257
0.92500069 0.42654114 0.69780507
1.00000000 0.76095244 0.76516704
0.00000000 0.45022927 0.61717677
0.00000000 0.44947283 0.61772583
0.00000000 0.44202817 0.62289293
0.00000000 0.42264499 0.63829686
0.45964105 0.38609792 0.66217624
0.63945080 0.39772639 0.65320229
0.79230367 0.39070022 0.66579567
0.92850977 0.47356786 0.68579271
1.00000000 0.76711889 0.76150978
0.12074418 0.64320450 0.63748756
0.12800899 0.64323823 0.63753574
0.17794414 0.64353060 0.63795331
0.28744510 0.64431693 0.63914073
0.44924567 0.64595736 0.64197173
0.64131749 0.64131749 0.64131749
0.79892230 0.62466254 0.63913668
0.93429402 0.62522773 0.65729279
1.00000000 0.79650770 0.75651890
0.32713770 0.81226257 0.56731031
0.32851805 0.81226683 0.56713045
0.34135343 0.81229903 0.56566472
0.38587771 0.81235834 0.56184056
0.49186781 0.81233272 0.55412839
0.63352181 0.81187111 0.53165827
0.79683369 0.80797753 0.52630201
0.94433775 0.79416510 0.50680481
1.00000000 0.87204526 0.75656483
0.69033195 0.92678450 0.46430300
0.69044424 0.92679645 0.46416302
0.69147185 0.92689897 0.46307729
0.69530983 0.92721837 0.46092014
0.70834915 0.92820829 0.45715932
0.74557836 0.93097615 0.45435381
0.82373551 0.93761779 0.47732465
0.93580551 0.94961144 0.61146438
1.00000000 0.97489466 0.85776526
0.93166106 1.00000000 0.83418389
0.93167819 1.00000000 0.83420229
0.93183125 1.00000000 0.83437316
0.93235855 1.00000000 0.83500532
0.93413403 1.00000000 0.83725451
0.93981311 1.00000000 0.84480449
0.95651437 1.00000000 0.86847281
1.00000000 1.00000000 1.00000000
1.00000000 1.00000000 1.00000000
0.40634599 0.03338909 0.74334142
0.40703836 0.04647473 0.74290316
0.41297124 0.12329394 0.73945502
0.43128117 0.18592717 0.73113261
0.48303564 0.07004921 0.71758926
0.64365740 0.00000000 0.74856891
0.79417006 0.00000000 0.79156446
0.91671518 0.42970809 0.81499124
1.00000000 0.75368343 0.84941545
0.40574276 0.02265161 0.74383990
0.40644181 0.03558300 0.74340792
0.41240322 0.11633466 0.73996808
0.43077090 0.18258514 0.73161308
0.48265246 0.06555376 0.71791563
0.64347621 0.00000000 0.74864672
0.79419348 0.00000000 0.79160010
0.91675297 0.42937423 0.81497766
1.00000000 0.75368602 0.84938227
0.40029822 0.00000000 0.74744829
0.40103226 0.00000000 0.74706802
0.40727511 0.05843523 0.74390947
0.42618935 0.15124495 0.73564323
0.47928936 0.01472865 0.72097506
0.64181877 0.00000000 0.74949710
0.79439704 0.00000000 0.79195566
0.91711967 0.42502765 0.81485737
1.00000000 0.75359633 0.84907318
0.37960887 0.07444700 0.75468568
0.38045810 0.07557416 0.75443977
0.38780586 0.08458227 0.75232086
0.40997962 0.10550461 0.74593967
0.46778270 0.00000000 0.73074678
0.63580611 0.00000000 0.75285466
0.79505574 0.00000000 0.79330989
0.91847957 0.40296934 0.81443587
1.00000000 0.75308405 0.84799770
0.26676822 0.37851183 0.76122152
0.26859919 0.37750550 0.76123733
0.28317048 0.36723122 0.76160776
0.32642516 0.32685994 0.76273200
0.41845608 0.01942011 0.75688726
0.60821456 0.00000000 0.76240237
0.79269358 0.00000000 0.79509361
0.92214264 0.35022086 0.81249224
1.00000000 0.75821630 0.84691119
0.00000000 0.59312289 0.75735173
0.00000000 0.59290624 0.75751971
0.00000000 0.59092256 0.75907779
0.00000000 0.58345600 0.76470575
0.11427423 0.56595431 0.78213411
0.60482230 0.52981866 0.80833483
0.78375461 0.54258905 0.79697795
0.92722451 0.56906987 0.80735496
1.00000000 0.78612504 0.84694078
0.32977601 0.78789956 0.78216806
0.33086364 0.78791540 0.78218841
0.33988357 0.78805481 0.78236705
0.36901034 0.78848566 0.78292615
0.45097971 0.78963123 0.78448130
0.59423347 0.79228049 0.78832822
0.78767918 0.78767918 0.78767918
0.94183209 0.77113170 0.78551519
1.00000000 0.86316817 0.85381947
0.66233191 0.94828576 0.74024457
0.66240892 0.94829201 0.74020437
0.66309781 0.94834581 0.73985754
0.66592905 0.94849809 0.73887223
0.67743707 0.94887999 0.73635589
0.71964150 0.94948665 0.73218002
0.77993981 0.95430138 0.67787803
0.93981807 0.95055507 0.67246670
1.00000000 0.97366438 0.89950053
0.95316979 1.00000000 0.89016287
0.95317939 1.00000000 0.89016629
0.95326322 1.00000000 0.89019627
0.95356660 1.00000000 0.89036249
0.95465296 1.00000000 0.89117179
0.95747955 1.00000000 0.89377676
0.96656550 1.00000000 0.90513929
1.00000000 1.00000000 1.00000000
1.00000000 1.00000000 1.00000000
0.53755352 0.17428101 0.88097450
0.53774790 0.18018679 0.88079835
0.53944389 0.21978009 0.87931167
0.54500903 0.27704026 0.87524315
0.56255005 0.33108565 0.86505578
0.61186140 0.25395160 0.84590917
0.76690202 0.00000000 0.86691385
0.90976034 0.34475782 0.90491459
1.00000000 0.73024175 0.92542242
0.53738578 0.16903675 0.88116112
0.53758102 0.17541823 0.88098667
0.53928030 0.21634709 0.87950440
0.54485414 0.27506232 0.87543571
0.56241181 0.33006810 0.86523521
0.61176422 0.25305995 0.84603739
0.76685679 0.00000000 0.86694807
0.90977093 0.34423065 0.90492819
1.00000000 0.73025163 0.92542096
0.53587748 0.12654891 0.88261848
0.53607742 0.13520850 0.88245483
0.53781255 0.18755251 0.88104137
0.54347659 0.25783900 0.87704211
0.56119355 0.32060756 0.86680641
0.61092201 0.24315934 0.84722248
0.76646425 0.00000000 0.86729902
0.90987530 0.33795158 0.90506743
1.00000000 0.73026849 0.92541501
0.53044214 0.06246986 0.88609744
0.53065376 0.07199025 0.88595856
0.53253077 0.13608192 0.88478473
0.53857395 0.22004420 0.88122022
0.55694663 0.29461200 0.87132764
0.60810855 0.20471055 0.85109399
0.76514639 0.00000000 0.86858301
0.91025651 0.30826832 0.90559107
1.00000000 0.73016187 0.92541037
0.50919014 0.26462900 0.89330439
0.50944359 0.26473476 0.89321932
0.51172059 0.26500647 0.89251481
0.51924555 0.26604666 0.89022590
0.54115727 0.27266841 0.88245077
0.59808234 0.00000000 0.86294951
0.76042522 0.00000000 0.87340821
0.91170427 0.00000000 0.90766101
1.00000000 0.72937136 0.92542426
0.38360794 0.52996380 0.89751098
0.38424548 0.52968423 0.89751263
0.38958242 0.52700206 0.89759241
0.40560404 0.51697939 0.89804372
0.45311087 0.47853660 0.89933991
0.55006492 0.26988673 0.89180395
0.73897258 0.00000000 0.88841917
0.91448600 0.00000000 0.91424761
1.00000000 0.74112449 0.92645141
0.00000000 0.73632893 0.88891239
0.00000000 0.73627126 0.88896507
0.00000000 0.73575703 0.88945009
0.00000000 0.73399592 0.89109752
0.00000000 0.72738135 0.89703261
0.34285807 0.71379475 0.91699061
0.75135707 0.67601997 0.95089897
0.91904125 0.71376317 0.92878481
1.00000000 0.83463580 0.93479211
0.67034405 0.92496873 0.91951346
0.67040652 0.92497588 0.91952189
0.67093486 0.92503914 0.91959619
0.67283412 0.92523926 0.91983290
0.67996948 0.92584484 0.92055994
0.70871078 0.92736321 0.92248102
0.74077595 0.93542483 0.93160844
0.93098146 0.93098146 0.93098146
1.00000000 0.96503258 0.96518597
1.00000000 1.00000000 1.00000000
1.00000000 1.00000000 1.00000000
1.00000000 1.00000000 1.00000000
1.00000000 1.00000000 1.00000000
1.00000000 1.00000000 1.00000000
1.00000000 1.00000000 1.00000000
1.00000000 1.00000000 1.00000000
1.00000000 1.00000000 1.00000000
1.00000000 1.00000000 1.00000000
0.67136050 0.48847319 1.00000000
0.67141268 0.48890331 1.00000000
0.67186502 0.49270539 1.00000000
0.67341153 0.50144635 1.00000000
0.67857756 0.51684846 0.99873899
0.69492261 0.53218483 0.98793347
0.73831129 0.50179174 0.96113175
0.87672821 0.00000000 0.96805685
1.00000000 0.67077449 0.99595312
0.67131685 0.48825086 1.00000000
0.67136598 0.48866469 1.00000000
0.67181906 0.49245208 1.00000000
0.67336680 0.50120321 1.00000000
0.67853567 0.51665541 0.99880016
0.69488680 0.53204092 0.98799259
0.73829310 0.50164570 0.96118901
0.87671901 0.00000000 0.96807018
1.00000000 0.67076777 0.99595600
0.67092364 0.48677182 1.00000000
0.67097401 0.48715140 1.00000000
0.67140672 0.49064469 1.00000000
0.67296996 0.49924680 1.00000000
0.67816962 0.51489904 0.99934018
0.69457839 0.53059192 0.98853555
0.73814025 0.50015851 0.96171533
0.87664563 0.00000000 0.96820664
1.00000000 0.67063907 0.99599083
0.66948778 0.48717058 1.00000000
0.66954144 0.48746092 1.00000000
0.67000243 0.49021244 1.00000000
0.67153537 0.49725082 1.00000000
0.67687035 0.51183269 1.00000000
0.69351050 0.52688701 0.99014455
0.73762303 0.49538103 0.96341222
0.87640950 0.00000000 0.96868150
1.00000000 0.67009966 0.99612130
0.66407816 0.50629022 1.00000000
0.66414014 0.50638943 1.00000000
0.66467647 0.50736611 1.00000000
0.66643110 0.50995499 1.00000000
0.67199150 0.51610630 1.00000000
0.68956612 0.52243557 0.99426086
0.73575957 0.48164566 0.96857705
0.87561290 0.00000000 0.97029931
1.00000000 0.66821516 0.99656274
0.64247825 0.58857661 1.00000000
0.64255336 0.58849238 1.00000000
0.64320728 0.58770222 1.00000000
0.64543236 0.58504752 1.00000000
0.65282427 0.57721896 1.00000000
0.67386735 0.55551026 1.00000000
0.72777975 0.46696756 0.98171676
0.87246147 0.00000000 0.97537871
1.00000000 0.66456616 0.99765180
0.55832896 0.73089889 0.99785058
0.55841209 0.73083442 0.99786498
0.55911047 0.73025012 0.99800759
0.56138910 0.72827635 0.99849342
0.56891388 0.72141036 1.00000000
0.59947101 0.69814901 1.00000000
0.68125491 0.61737652 0.99775484
0.85686433 0.00000000 0.98654060
1.00000000 0.72123258 0.99784338
0.33370731 0.87601904 0.99318030
0.33309878 0.87600703 0.99319364
0.32721337 0.87590188 0.99331712
0.30706377 0.87555206 0.99370407
0.22003584 0.87436451 0.99484488
0.00000000 0.87010185 0.99740614
0.70152592 0.86885222 0.99925922
0.88860986 0.88090352 0.99671927
1.00000000 0.93211037 1.00000000
1.00000000 1.00000000 1.00000000
1.00000000 1.00000000 1.00000000
1.00000000 1.00000000 1.00000000
1.00000000 1.00000000 1.00000000
1.00000000 1.00000000 1.00000000
1.00000000 1.00000000 1.00000000
1.00000000 1.00000000 1.00000000
1.00000000 1.00000000 1.00000000
1.00000000 1.00000000 1.00000000
