Luts Download/Canon Luts/3dlut/17grid-3dlut/full-to-full-range/CinemaGamut_CanonLog2-to-BT2020_709WideDR_17_FF_Ver.2.0.cube
# Gamut : Cinema Gamut to BT.2020
# Gamma : Canon Log 2 to Wide DR
# Range : Full in / Full out
# Version : 2.0 2019/10/24
# Copyright(c) 2019 Canon Inc. All Rights Reserved.
LUT_3D_SIZE 9
# LUT_3D_INPUT_RANGE 0.0 1.0
0.00000000 0.00000000 0.00000000
0.00924798 0.00924798 0.00924798
0.13283113 0.00809811 0.01271894
0.34908448 0.00598134 0.02106782
0.62415022 0.00000000 0.02233326
0.83344732 0.00245704 0.01381614
0.94601013 0.07879754 0.02214941
0.97944361 0.29125057 0.15890131
1.00000000 0.64424367 0.49546755
0.00924798 0.00924798 0.00924798
0.01194480 0.01211997 0.01033132
0.13807094 0.02303503 0.01307460
0.35169556 0.02409271 0.01900163
0.62830479 0.00788374 0.01963576
0.83786520 0.01318971 0.01449336
0.94857279 0.09337930 0.02746659
0.97926743 0.30038259 0.16715527
1.00000000 0.64873997 0.50072994
0.02812179 0.11411854 0.00878995
0.03601071 0.12612338 0.00796680
0.14012481 0.15172212 0.00299105
0.34959994 0.16526402 0.00241523
0.64337637 0.13472637 0.00144161
0.87284234 0.08477426 0.00679623
0.96097318 0.18813178 0.07365637
0.97679334 0.36173850 0.22356185
1.00000000 0.68175104 0.54038822
0.08759776 0.30346508 0.00565400
0.09624768 0.30794320 0.00472159
0.16865575 0.32930416 0.00055356
0.34107254 0.36307156 0.00000000
0.63599464 0.36790674 0.00463326
0.90154853 0.31780873 0.05417055
0.97394988 0.37715562 0.21062817
0.97518291 0.49832557 0.35896848
1.00000000 0.76941057 0.64932825
0.20082807 0.54401152 0.00246360
0.20566581 0.54646838 0.00233492
0.24521628 0.56197669 0.00068841
0.35764539 0.59931638 0.00045145
0.60347989 0.63975686 0.00109282
0.92535159 0.59215933 0.05781140
1.00000000 0.59600870 0.34803196
1.00000000 0.68161473 0.54783578
1.00000000 0.91624543 0.83874418
0.30981482 0.73258710 0.00410882
0.31221037 0.73454069 0.00435406
0.33113187 0.74804790 0.00530214
0.39104508 0.78583269 0.01016019
0.54605266 0.84861921 0.03798101
0.81139067 0.86124114 0.10698562
1.00000000 0.80688310 0.39724468
1.00000000 0.83216891 0.68909920
1.00000000 1.00000000 1.00000000
0.39905010 0.84957491 0.03190520
0.40056761 0.85129323 0.03261793
0.41300273 0.86329430 0.03983808
0.45273479 0.89842196 0.06689668
0.56149903 0.96201164 0.16452581
0.74467417 0.99362464 0.34725544
0.93759459 0.98944333 0.49835816
1.00000000 0.96107684 0.82126038
1.00000000 1.00000000 1.00000000
0.55565298 0.95274799 0.23050547
0.55718427 0.95400786 0.23212987
0.57205415 0.96166397 0.25130635
0.63472156 0.97669218 0.34476508
0.75895206 1.00000000 0.53316441
0.88209739 1.00000000 0.73166735
0.97383569 1.00000000 0.88957164
1.00000000 1.00000000 1.00000000
1.00000000 1.00000000 1.00000000
1.00000000 1.00000000 1.00000000
1.00000000 1.00000000 1.00000000
1.00000000 1.00000000 1.00000000
1.00000000 1.00000000 1.00000000
1.00000000 1.00000000 1.00000000
1.00000000 1.00000000 1.00000000
1.00000000 1.00000000 1.00000000
1.00000000 1.00000000 1.00000000
1.00000000 1.00000000 1.00000000
0.00924798 0.00924798 0.00924798
0.01337907 0.00957603 0.01397414
0.13621917 0.00614491 0.02550869
0.34819904 0.00373573 0.03967707
0.62355912 0.00000000 0.03459069
0.83364300 0.00000000 0.01483015
0.94766573 0.06351775 0.01745878
0.98049458 0.28538545 0.15383801
1.00000000 0.64163403 0.49264981
0.00988891 0.01456860 0.01437414
0.01903558 0.01903558 0.01903558
0.15823518 0.01134376 0.01752269
0.35914510 0.01073534 0.02707784
0.63146461 0.00000000 0.02338443
0.83885106 0.00223628 0.01438410
0.94971047 0.08140249 0.02365022
0.97987756 0.29560574 0.16305056
1.00000000 0.64624051 0.49804017
0.02516554 0.14333451 0.01117239
0.03508658 0.15070686 0.00830527
0.14985469 0.16193496 0.00280523
0.35964164 0.16154573 0.00241775
0.65076145 0.12133768 0.00010639
0.87800269 0.06535289 0.00286369
0.95994875 0.18610734 0.07398600
0.97669731 0.35913170 0.22138764
1.00000000 0.67960163 0.53804720
0.08405551 0.31652783 0.00627869
0.09362901 0.32042614 0.00493515
0.16981424 0.33943718 0.00019170
0.34570095 0.36792098 0.00000000
0.64102006 0.36736334 0.00510465
0.90497146 0.31523387 0.05449680
0.97425353 0.37689165 0.21169008
0.97512218 0.49775524 0.35868306
1.00000000 0.76801990 0.64776182
0.19956704 0.55118242 0.00250263
0.20461344 0.55349080 0.00237568
0.24489472 0.56853963 0.00058558
0.35884710 0.60445578 0.00029542
0.60608476 0.64248668 0.00113952
0.92814484 0.59307893 0.05979157
1.00000000 0.59757734 0.35118448
1.00000000 0.68257517 0.54938170
1.00000000 0.91592487 0.83848188
0.31036181 0.73749364 0.00417783
0.31281531 0.73938582 0.00449837
0.33196030 0.75266599 0.00573155
0.39209158 0.78992219 0.01070699
0.54758035 0.85158618 0.03938982
0.81323989 0.86319777 0.11031459
1.00000000 0.80873192 0.40250852
1.00000000 0.83356378 0.69188268
1.00000000 1.00000000 1.00000000
0.40077528 0.85340877 0.03309552
0.40235900 0.85507785 0.03398693
0.41509173 0.86688112 0.04202553
0.45521592 0.90156505 0.07063582
0.56486478 0.96400845 0.17070183
0.74857292 0.99413646 0.35745768
0.93890968 0.98976683 0.51840261
1.00000000 0.96222734 0.82617182
1.00000000 1.00000000 1.00000000
0.55866099 0.95531598 0.23418664
0.56031686 0.95650282 0.23607795
0.57614888 0.96368008 0.25725126
0.64039880 0.97754778 0.35410608
0.76350249 1.00000000 0.54140955
0.88535679 1.00000000 0.73854710
0.97533948 1.00000000 0.89481657
1.00000000 1.00000000 1.00000000
1.00000000 1.00000000 1.00000000
1.00000000 1.00000000 1.00000000
1.00000000 1.00000000 1.00000000
1.00000000 1.00000000 1.00000000
1.00000000 1.00000000 1.00000000
1.00000000 1.00000000 1.00000000
1.00000000 1.00000000 1.00000000
1.00000000 1.00000000 1.00000000
1.00000000 1.00000000 1.00000000
1.00000000 1.00000000 1.00000000
0.00847604 0.00074316 0.09695601
0.01354344 0.00000000 0.10100917
0.12203755 0.00000000 0.13154263
0.33180508 0.00000000 0.17039556
0.60693157 0.00000000 0.17523960
0.82038084 0.00831637 0.10887351
0.93738718 0.07650509 0.03913925
0.97558694 0.28258360 0.15607391
1.00000000 0.63211223 0.48315963
0.00614990 0.00717449 0.11013408
0.00952058 0.00000000 0.11782511
0.12918156 0.00000000 0.13961932
0.34192569 0.00000000 0.16874084
0.61483081 0.00000000 0.16843702
0.82594013 0.01118472 0.10549913
0.94051890 0.08608639 0.04203263
0.97536812 0.29087051 0.16333979
1.00000000 0.63635823 0.48808300
0.00558404 0.14400426 0.13922024
0.01769165 0.14570850 0.14139454
0.14520997 0.14520997 0.14520997
0.37002006 0.12709860 0.14213826
0.64120617 0.10863703 0.14096363
0.84983306 0.11076884 0.10568459
0.94961227 0.18778195 0.09362320
0.97213303 0.35341880 0.22003303
1.00000000 0.66688174 0.52431055
0.02681797 0.39005874 0.06906560
0.03613562 0.39113010 0.06466471
0.15091796 0.39197497 0.05176432
0.36605590 0.38733764 0.05029419
0.67344704 0.35286883 0.04147205
0.91608492 0.30409749 0.08320736
0.97597715 0.37167289 0.21812220
0.97993740 0.48803796 0.34997308
1.00000000 0.75559796 0.63309950
0.17761810 0.60420734 0.00759120
0.18322068 0.60622129 0.00646807
0.23102250 0.61831926 0.00065895
0.36173411 0.64379503 0.00000000
0.62489062 0.66218741 0.00000000
0.95138433 0.59711245 0.06957370
1.00000000 0.60491818 0.36740915
1.00000000 0.68691505 0.55603656
1.00000000 0.91242027 0.83436669
0.31132057 0.77353893 0.00503847
0.31378420 0.77536683 0.00518698
0.33436169 0.78739422 0.00743816
0.39743834 0.82062576 0.01468716
0.55780369 0.87363457 0.05041166
0.82672228 0.87745039 0.13195621
1.00000000 0.82099259 0.43527579
1.00000000 0.84267720 0.70889848
1.00000000 1.00000000 1.00000000
0.41518945 0.88089577 0.04798199
0.41690744 0.88249859 0.04925163
0.43130778 0.89302197 0.06244725
0.47574397 0.92396585 0.10573075
0.59373053 0.97673458 0.22488835
0.77473879 0.99853243 0.42334595
0.94907551 0.99397805 0.61488467
1.00000000 0.97032396 0.85670573
1.00000000 1.00000000 1.00000000
0.59487905 0.96832548 0.28968071
0.59782551 0.96888496 0.29418964
0.62034334 0.97206620 0.32914624
0.68147413 0.98287669 0.42230616
0.79574126 1.00000000 0.60054062
0.90764855 1.00000000 0.78498549
1.00000000 1.00000000 1.00000000
1.00000000 1.00000000 1.00000000
1.00000000 1.00000000 1.00000000
1.00000000 1.00000000 1.00000000
1.00000000 1.00000000 1.00000000
1.00000000 1.00000000 1.00000000
1.00000000 1.00000000 1.00000000
1.00000000 1.00000000 1.00000000
1.00000000 1.00000000 1.00000000
1.00000000 1.00000000 1.00000000
1.00000000 1.00000000 1.00000000
1.00000000 1.00000000 1.00000000
0.02835058 0.00301515 0.26723624
0.03346696 0.00053090 0.26130468
0.10581493 0.00000000 0.25449011
0.30857652 0.00000000 0.31585624
0.58087404 0.00000000 0.34965233
0.80452137 0.00000000 0.27466829
0.93193113 0.04873063 0.15506879
0.96986852 0.27446088 0.16782847
1.00000000 0.63479118 0.49109851
0.02397039 0.00661567 0.27964480
0.02937910 0.00256126 0.27540261
0.10111533 0.00000000 0.26284535
0.31241521 0.00000000 0.32061295
0.58698463 0.00000000 0.34949545
0.81028461 0.00000000 0.27157534
0.93579048 0.04783697 0.15370327
0.97065974 0.27791089 0.17018040
1.00000000 0.63803348 0.49483166
0.00000000 0.08954018 0.30776642
0.00000000 0.08132818 0.31621420
0.10461848 0.04126517 0.38809960
0.33854976 0.05433713 0.35998673
0.61979778 0.04773623 0.34962850
0.83861645 0.05831441 0.27286611
0.94813622 0.14875912 0.18366226
0.96654312 0.34220739 0.22420255
1.00000000 0.67069173 0.53299465
0.00671950 0.34940260 0.34018327
0.01514720 0.35066144 0.34166551
0.09544627 0.35798570 0.35082333
0.34979522 0.34979522 0.34979522
0.64617722 0.32925678 0.34364056
0.87729471 0.30783562 0.30997714
0.94322024 0.38306324 0.31076064
0.96054486 0.49646587 0.37297333
1.00000000 0.76104842 0.64253819
0.09920898 0.66974806 0.21365346
0.07605575 0.67332067 0.20278568
0.17965550 0.67367373 0.20968741
0.35950652 0.67593357 0.22856113
0.63846777 0.67087587 0.23451851
0.95922659 0.60011638 0.25031316
1.00000000 0.63505044 0.45590259
0.99795747 0.70958768 0.59605662
1.00000000 0.91861070 0.84240743
0.29141620 0.88966111 0.01318592
0.29386975 0.89133334 0.01231842
0.31737228 0.90128593 0.00923297
0.40216595 0.91821022 0.03185570
0.58814992 0.93704992 0.11128585
0.86450845 0.91732348 0.18783606
1.00000000 0.84896256 0.48307339
1.00000000 0.86411158 0.73697226
1.00000000 1.00000000 1.00000000
0.46415229 0.96557954 0.11283520
0.46629298 0.96681330 0.11517032
0.48353800 0.97487185 0.13429850
0.54770911 0.99170140 0.21444969
0.68345714 1.00000000 0.37835328
0.83607077 1.00000000 0.55360631
0.98144085 1.00000000 0.75579065
1.00000000 0.99417546 0.91430043
1.00000000 1.00000000 1.00000000
0.71335479 0.99816438 0.47391691
0.71591977 0.99834016 0.47806168
0.73446685 0.99944179 0.50822410
0.78342264 1.00000000 0.58717771
0.87191717 1.00000000 0.73161188
0.96034202 1.00000000 0.88053443
1.00000000 1.00000000 1.00000000
1.00000000 1.00000000 1.00000000
1.00000000 1.00000000 1.00000000
1.00000000 1.00000000 1.00000000
1.00000000 1.00000000 1.00000000
1.00000000 1.00000000 1.00000000
1.00000000 1.00000000 1.00000000
1.00000000 1.00000000 1.00000000
1.00000000 1.00000000 1.00000000
1.00000000 1.00000000 1.00000000
1.00000000 1.00000000 1.00000000
1.00000000 1.00000000 1.00000000
0.06680934 0.00434860 0.49321412
0.07124198 0.00477354 0.48517462
0.10871082 0.00000000 0.44299882
0.27206459 0.00000000 0.46982102
0.54390270 0.00000000 0.54248891
0.77207371 0.00000000 0.48493603
0.91921883 0.01701612 0.33529327
0.97581608 0.23727031 0.25251294
1.00000000 0.62063448 0.49252985
0.06312694 0.00471979 0.50398753
0.06785170 0.00466306 0.49648585
0.10665044 0.00000000 0.45262511
0.27052656 0.00000000 0.47401091
0.54595501 0.00000000 0.54501993
0.77509239 0.00000000 0.48531100
0.92186426 0.01521470 0.33464396
0.97647994 0.23953622 0.25355507
1.00000000 0.62225041 0.49426763
0.02589590 0.04253169 0.55264360
0.03011188 0.03643460 0.55162785
0.07486606 0.00000000 0.53183639
0.26279207 0.00000000 0.53255055
0.56886338 0.00000000 0.57293574
0.80576701 0.00000000 0.49027582
0.94568695 0.01357668 0.33303188
0.98071792 0.26996779 0.27023016
1.00000000 0.64558428 0.52005888
0.00000000 0.25779136 0.57980662
0.00000000 0.25469099 0.58533128
0.01606563 0.25681065 0.61906042
0.29799854 0.23970387 0.67392829
0.62755348 0.20470430 0.65966467
0.89456650 0.16138992 0.53460893
0.96659432 0.29385648 0.41688387
0.97674086 0.44419482 0.39970102
1.00000000 0.74457375 0.63403320
0.00000000 0.62096410 0.60572092
0.00000000 0.62177554 0.60664424
0.04104119 0.62635212 0.61222044
0.29440780 0.62936745 0.61879741
0.61787795 0.61787795 0.61787795
0.85849802 0.60462769 0.60847749
0.95239328 0.63302350 0.60781314
0.97485694 0.70893325 0.64877840
1.00000000 0.93030668 0.86168216
0.34120491 0.85804917 0.38763319
0.34628675 0.85824902 0.38962156
0.38259358 0.85953704 0.40346789
0.47839237 0.86446348 0.44603531
0.64700929 0.87937830 0.52644563
0.84779389 0.88236556 0.54763935
1.00000000 0.85804058 0.68394326
1.00000000 0.90528281 0.83907970
1.00000000 1.00000000 1.00000000
0.54388048 0.98858566 0.29837447
0.54591947 0.98908548 0.30034618
0.56102591 0.99268447 0.31440145
0.67389335 0.97574034 0.47109727
0.77835590 0.99230980 0.59714495
0.89188268 1.00000000 0.72921688
0.99121500 1.00000000 0.86267859
1.00000000 1.00000000 1.00000000
1.00000000 1.00000000 1.00000000
0.85392948 1.00000000 0.70206186
0.85559568 1.00000000 0.70496344
0.86786286 1.00000000 0.72645672
0.90222157 1.00000000 0.78543653
1.00000000 1.00000000 1.00000000
1.00000000 1.00000000 1.00000000
1.00000000 1.00000000 1.00000000
1.00000000 1.00000000 1.00000000
1.00000000 1.00000000 1.00000000
1.00000000 1.00000000 1.00000000
1.00000000 1.00000000 1.00000000
1.00000000 1.00000000 1.00000000
1.00000000 1.00000000 1.00000000
1.00000000 1.00000000 1.00000000
1.00000000 1.00000000 1.00000000
1.00000000 1.00000000 1.00000000
1.00000000 1.00000000 1.00000000
1.00000000 1.00000000 1.00000000
0.09639817 0.00564044 0.67803207
0.09826931 0.00742644 0.67149300
0.11440593 0.01391309 0.62865186
0.17662756 0.00000000 0.62661534
0.46895885 0.00000000 0.72661202
0.71854369 0.00000000 0.70441718
0.88073587 0.02270620 0.56507071
0.97398668 0.20381027 0.41746625
1.00000000 0.59177411 0.55025183
0.09531904 0.00475455 0.68616188
0.09730863 0.00661316 0.67957434
0.11368823 0.01344241 0.63593087
0.17327443 0.00000000 0.62902211
0.46888203 0.00000000 0.72939585
0.71978717 0.00000000 0.70586733
0.88218113 0.02132423 0.56551635
0.97444374 0.20532338 0.41791111
1.00000000 0.59306022 0.55135406
0.08199677 0.00956248 0.74088456
0.08434184 0.00960868 0.73566434
0.10369715 0.01096507 0.69405651
0.15368746 0.00000000 0.66437262
0.47138997 0.00000000 0.77006992
0.73503172 0.00000000 0.72505132
0.89848176 0.00000000 0.56947848
0.97958421 0.21371275 0.42017953
1.00000000 0.60380349 0.56063154
0.01675070 0.10090049 0.90322778
0.01911503 0.09415588 0.90417625
0.04438867 0.02969077 0.91183360
0.18299980 0.12987704 0.81001851
0.52558248 0.11510015 0.86128577
0.79824461 0.11994216 0.78095778
0.94925548 0.19044601 0.62057291
0.98605463 0.37322152 0.49865405
1.00000000 0.70140880 0.65542521
0.03088118 0.51760012 0.89192826
0.03892806 0.51886122 0.89236379
0.10511280 0.52743236 0.89404873
0.28856804 0.54026899 0.90422019
0.57117705 0.55417500 0.88735390
0.85121802 0.52705093 0.85553288
0.97357611 0.56331675 0.73349618
0.99165349 0.66091540 0.69349752
1.00000000 0.90425178 0.86818592
0.00000000 0.83412481 0.81388653
0.00000000 0.83460830 0.81441969
0.05019085 0.83768555 0.81795171
0.28923246 0.84160495 0.82377077
0.58142790 0.84352182 0.83248774
0.83311348 0.83311348 0.83311348
0.96145363 0.83889803 0.83822730
1.00000000 0.89221530 0.87960558
1.00000000 1.00000000 1.00000000
0.47327172 0.97312441 0.49500003
0.47680860 0.97330303 0.49717065
0.50235653 0.97454642 0.51288523
0.57614472 0.97861631 0.56236038
0.76631963 0.96695841 0.72473217
0.88953254 0.98281596 0.83191759
0.98163513 0.99484863 0.89794843
1.00000000 1.00000000 1.00000000
1.00000000 1.00000000 1.00000000
0.86916171 1.00000000 0.76110541
0.87078078 1.00000000 0.76368030
0.88256513 1.00000000 0.78243037
0.91655652 1.00000000 0.83573829
1.00000000 1.00000000 1.00000000
1.00000000 1.00000000 1.00000000
1.00000000 1.00000000 1.00000000
1.00000000 1.00000000 1.00000000
1.00000000 1.00000000 1.00000000
1.00000000 1.00000000 1.00000000
1.00000000 1.00000000 1.00000000
1.00000000 1.00000000 1.00000000
1.00000000 1.00000000 1.00000000
1.00000000 1.00000000 1.00000000
1.00000000 1.00000000 1.00000000
1.00000000 1.00000000 1.00000000
1.00000000 1.00000000 1.00000000
1.00000000 1.00000000 1.00000000
0.10918919 0.01257289 0.79437390
0.10949239 0.01472608 0.78909004
0.11309749 0.03009678 0.74914070
0.12007476 0.00000000 0.72292725
0.30828171 0.00000000 0.91355541
0.61487158 0.00000000 0.90518888
0.81910799 0.03929219 0.79227579
0.95189976 0.17791064 0.63497476
1.00000000 0.56733855 0.67705052
0.10965172 0.01244543 0.79985533
0.10998424 0.01501296 0.79420091
0.11356484 0.03042516 0.75399154
0.12047922 0.00000000 0.72577123
0.30725112 0.00000000 0.91533864
0.61515895 0.00000000 0.90671542
0.81983753 0.03835928 0.79305520
0.95223695 0.17903805 0.63529976
1.00000000 0.56840867 0.67765485
0.11180530 0.01307232 0.84212218
0.11204935 0.01557104 0.83612872
0.11574940 0.03110524 0.79477095
0.12168208 0.00000000 0.75303480
0.29938940 0.00000000 0.94208239
0.61974580 0.00000000 0.92806694
0.82819515 0.01661263 0.80263766
0.95580912 0.18507213 0.63785747
1.00000000 0.57743743 0.68240126
0.12349833 0.10905102 0.92750676
0.12375844 0.10669463 0.92574970
0.12713065 0.09450613 0.90315621
0.13227568 0.03776329 0.84032417
0.33112680 0.13176648 0.98838935
0.66694935 0.10470319 0.97783454
0.87551640 0.14254750 0.84273505
0.96848548 0.31568808 0.67390001
1.00000000 0.66158050 0.74083155
0.20164563 0.41479905 0.99673488
0.20618092 0.41734530 0.99449722
0.23859661 0.43462404 0.97907870
0.32627425 0.47998379 0.94144750
0.47940919 0.54410739 0.95138301
0.75598602 0.52735357 0.97272799
0.93890466 0.52482730 0.89171851
0.98691157 0.62099699 0.79237272
1.00000000 0.87534583 0.90842857
0.34650078 0.72265212 1.00000000
0.35005625 0.72358558 1.00000000
0.37583203 0.73022435 1.00000000
0.45555262 0.74989111 0.99799804
0.63119221 0.78217877 0.96644743
0.80347060 0.80419249 0.96727671
0.95487277 0.80458390 0.94661199
1.00000000 0.86635614 0.91671515
1.00000000 1.00000000 1.00000000
0.33095871 0.94056422 0.91872001
0.33535152 0.94092541 0.91912475
0.36683957 0.94346988 0.92202828
0.46960765 0.94857573 0.92871361
0.67365867 0.95572737 0.94142272
0.81183404 0.97975861 0.97121427
0.97244176 0.97244176 0.97244176
1.00000000 1.00000000 1.00000000
1.00000000 1.00000000 1.00000000
0.84000610 1.00000000 0.81993996
0.84179631 1.00000000 0.82177906
0.85503891 1.00000000 0.83544114
0.89411308 1.00000000 0.87646629
1.00000000 1.00000000 1.00000000
1.00000000 1.00000000 1.00000000
1.00000000 1.00000000 1.00000000
1.00000000 1.00000000 1.00000000
1.00000000 1.00000000 1.00000000
1.00000000 1.00000000 1.00000000
1.00000000 1.00000000 1.00000000
1.00000000 1.00000000 1.00000000
1.00000000 1.00000000 1.00000000
1.00000000 1.00000000 1.00000000
1.00000000 1.00000000 1.00000000
1.00000000 1.00000000 1.00000000
1.00000000 1.00000000 1.00000000
1.00000000 1.00000000 1.00000000
0.12955329 0.05098377 0.88988875
0.12926156 0.05174607 0.88664080
0.12760711 0.05808651 0.86131966
0.11823308 0.02736265 0.82205600
0.20387620 0.01515142 0.96277126
0.39578054 0.11863585 1.00000000
0.69396826 0.09860494 0.97498664
0.89483655 0.18632960 0.85189657
1.00000000 0.55088644 0.84210495
0.13049040 0.05215677 0.89335213
0.13021139 0.05301724 0.89003319
0.12850171 0.05929220 0.86453669
0.11918008 0.02942173 0.82418248
0.20301617 0.01309343 0.96298281
0.39546591 0.11763938 1.00000000
0.69413163 0.09824111 0.97550078
0.89514892 0.18670461 0.85218214
1.00000000 0.55171429 0.84235468
0.13709230 0.06511898 0.91654001
0.13671786 0.06539756 0.91338304
0.13514548 0.07131727 0.88805507
0.12609635 0.04464460 0.84231390
0.19596549 0.00000000 0.96898245
0.39316016 0.10285921 1.00000000
0.69630063 0.08857474 0.98267431
0.89791767 0.18816797 0.85482915
1.00000000 0.55879584 0.84380949
0.16709715 0.16893368 0.94139282
0.16650100 0.16721221 0.94015332
0.16237262 0.15562718 0.92695373
0.15058560 0.11808447 0.88799826
0.21239205 0.10543309 0.97187968
0.41304170 0.20093860 1.00000000
0.72020468 0.17723381 0.99676079
0.91580692 0.26059480 0.86797021
1.00000000 0.62135933 0.86586200
0.26996902 0.38148997 0.98101438
0.26924556 0.38019942 0.98108181
0.26397279 0.36988433 0.98074250
0.31910432 0.42088636 0.95210540
0.43346031 0.51047673 0.96095806
0.57758837 0.56128598 1.00000000
0.82008961 0.53831639 0.98141018
0.95371840 0.58771763 0.89903757
1.00000000 0.84340411 0.97102598
0.45818372 0.64738952 1.00000000
0.46028424 0.64869806 1.00000000
0.47570737 0.65809180 1.00000000
0.52399534 0.68652895 0.99962620
0.62726681 0.74450981 0.98590522
0.73671297 0.79325297 1.00000000
0.89805404 0.79347398 0.99223143
0.98622323 0.83970818 0.95732734
1.00000000 1.00000000 1.00000000
0.56895406 0.82667191 1.00000000
0.57112975 0.82748326 1.00000000
0.58723414 0.83333343 1.00000000
0.63800195 0.85122045 1.00000000
0.74808505 0.89041786 0.99772648
0.86349991 0.92817767 0.99831028
0.94985395 0.95166783 1.00000000
1.00000000 1.00000000 1.00000000
1.00000000 1.00000000 1.00000000
0.77593859 0.99116431 0.97831199
0.77816187 0.99141663 0.97865551
0.79472708 0.99315811 0.98110181
0.84441074 0.99937958 0.98954489
0.94391661 1.00000000 1.00000000
1.00000000 1.00000000 1.00000000
1.00000000 1.00000000 1.00000000
1.00000000 1.00000000 1.00000000
1.00000000 1.00000000 1.00000000
1.00000000 1.00000000 1.00000000
1.00000000 1.00000000 1.00000000
1.00000000 1.00000000 1.00000000
1.00000000 1.00000000 1.00000000
1.00000000 1.00000000 1.00000000
1.00000000 1.00000000 1.00000000
1.00000000 1.00000000 1.00000000
1.00000000 1.00000000 1.00000000
1.00000000 1.00000000 1.00000000
0.25831317 0.28285306 1.00000000
0.25803939 0.28261655 1.00000000
0.25621940 0.28153815 1.00000000
0.24918396 0.27218625 1.00000000
0.22242149 0.20594422 1.00000000
0.27679508 0.21012489 1.00000000
0.44384240 0.23703085 1.00000000
0.76050049 0.23852956 1.00000000
1.00000000 0.52079815 1.00000000
0.25906668 0.28437699 1.00000000
0.25878629 0.28411252 1.00000000
0.25696642 0.28294347 1.00000000
0.24989092 0.27339364 1.00000000
0.22321502 0.20771830 1.00000000
0.27624966 0.20906955 1.00000000
0.44349305 0.23648152 1.00000000
0.76027486 0.23840798 1.00000000
1.00000000 0.52115093 1.00000000
0.26479707 0.29714218 1.00000000
0.26450563 0.29674237 1.00000000
0.26256218 0.29452892 1.00000000
0.25506361 0.28293813 1.00000000
0.22893132 0.22053846 1.00000000
0.27191165 0.20013368 1.00000000
0.44079841 0.23151258 1.00000000
0.75846034 0.23760920 1.00000000
1.00000000 0.52459270 1.00000000
0.28679896 0.34368882 1.00000000
0.28636047 0.34290222 1.00000000
0.28333287 0.33751674 1.00000000
0.27421942 0.32095212 1.00000000
0.24863649 0.26457256 1.00000000
0.25594911 0.17364903 1.00000000
0.43053296 0.21673734 1.00000000
0.75065991 0.23766850 0.99989649
1.00000000 0.53965361 0.99646837
0.35144111 0.45046410 1.00000000
0.35084815 0.44960454 1.00000000
0.34656005 0.44313559 1.00000000
0.33189140 0.42093644 1.00000000
0.30155863 0.36880542 1.00000000
0.35213411 0.38496780 1.00000000
0.50947651 0.42224975 1.00000000
0.79196568 0.43840686 0.96955718
1.00000000 0.69817688 1.00000000
0.43694781 0.57710955 1.00000000
0.43628963 0.57642582 1.00000000
0.43147440 0.57120166 1.00000000
0.41607618 0.55311467 1.00000000
0.45006995 0.57415409 1.00000000
0.55596821 0.64640938 1.00000000
0.67500705 0.67867666 1.00000000
0.88282158 0.70086437 0.97562176
1.00000000 0.92658704 1.00000000
0.49809692 0.69132291 1.00000000
0.49749965 0.69080662 1.00000000
0.49336127 0.68682055 1.00000000
0.50282963 0.68950243 1.00000000
0.59839724 0.75141708 1.00000000
0.69712901 0.80758185 1.00000000
0.77922848 0.83131489 0.99759915
0.92836227 0.86670419 0.98079453
1.00000000 1.00000000 1.00000000
0.65988088 0.84727272 0.97556346
0.66160871 0.84810500 0.97576876
0.67472157 0.85404577 0.97670029
0.71554798 0.87253366 0.97961368
0.80271438 0.91453791 0.99061615
0.89163996 0.95901603 1.00000000
0.95311194 0.98471634 1.00000000
1.00000000 1.00000000 1.00000000
1.00000000 1.00000000 1.00000000
1.00000000 1.00000000 1.00000000
1.00000000 1.00000000 1.00000000
1.00000000 1.00000000 1.00000000
1.00000000 1.00000000 1.00000000
1.00000000 1.00000000 1.00000000
1.00000000 1.00000000 1.00000000
1.00000000 1.00000000 1.00000000
1.00000000 1.00000000 1.00000000
1.00000000 1.00000000 1.00000000
