Luts Download/Canon Luts/3dlut/17grid-3dlut/full-to-full-range/CinemaGamut_CanonLog2-to-BT709_WideDR_17_FF_Ver.2.0.cube
# Gamut : Cinema Gamut to BT.709
# Gamma : Canon Log 2 to Wide DR
# Range : Full in / Full out
# Version : 2.0 2019/10/24
# Copyright(c) 2019 Canon Inc. All Rights Reserved.
LUT_3D_SIZE 9
# LUT_3D_INPUT_RANGE 0.0 1.0
0.00000000 0.00000000 0.00000000
0.00924798 0.00924798 0.00924798
0.16055116 0.00666066 0.02028450
0.41321342 0.00000000 0.04371425
0.71155552 0.00000000 0.07930836
0.92289512 0.00147017 0.10221291
0.99445803 0.16181527 0.16090781
0.98896918 0.34498875 0.28518070
1.00000000 0.64236696 0.56700231
0.00924798 0.00924798 0.00924798
0.01195163 0.01211510 0.01043241
0.16613502 0.02053215 0.01965020
0.41886664 0.00359456 0.03809513
0.71928262 0.00000000 0.07231328
0.92936740 0.00731767 0.10127157
0.99522546 0.17396521 0.16741282
0.98867142 0.35234706 0.29163948
1.00000000 0.64668741 0.57169481
0.00689760 0.11455857 0.01997131
0.01064002 0.12782698 0.01764368
0.14084595 0.15342360 0.00450328
0.40933016 0.15128027 0.00579207
0.74663454 0.08637465 0.02891854
0.96186794 0.08831127 0.09952743
0.99539338 0.25469438 0.21413805
0.98454284 0.40350960 0.33763497
1.00000000 0.67819746 0.60642475
0.00544233 0.30782229 0.04186011
0.00512783 0.31348819 0.03498489
0.08464776 0.33830840 0.00612264
0.34336812 0.36948836 0.00000000
0.71579452 0.35797815 0.01109435
0.97292707 0.33014516 0.16437437
0.99470995 0.41680198 0.32901052
0.98039035 0.52241419 0.45232914
1.00000000 0.76245377 0.70106352
0.00135481 0.55348297 0.05700942
0.00000000 0.55662748 0.05008500
0.02565667 0.57546094 0.01238375
0.25053733 0.61294728 0.00000000
0.60490475 0.65043456 0.00626746
0.98462758 0.59836208 0.16783383
1.00000000 0.61379862 0.45885518
1.00000000 0.68907797 0.61702596
1.00000000 0.90539177 0.86455231
0.01504769 0.74346143 0.04135490
0.01330283 0.74571056 0.03770919
0.02092625 0.76075185 0.01687598
0.15977076 0.79805943 0.01288520
0.42891881 0.85860381 0.05270995
0.80651150 0.86857906 0.17574372
1.00000000 0.80885728 0.50979777
1.00000000 0.82849188 0.74140265
1.00000000 1.00000000 1.00000000
0.10896402 0.85969990 0.05201875
0.11029797 0.86143992 0.05189095
0.12955448 0.87334735 0.05648443
0.20358287 0.90695971 0.09089925
0.39068544 0.96665271 0.20477368
0.67224556 0.99398394 0.40799080
0.92972460 0.98581520 0.58362630
1.00000000 0.95388731 0.85620183
1.00000000 1.00000000 1.00000000
0.38681549 0.95776207 0.27344360
0.38887528 0.95895245 0.27523365
0.41497993 0.96543358 0.29952224
0.51586691 0.97839715 0.39932846
0.69077676 1.00000000 0.58548296
0.85320528 1.00000000 0.77331023
1.00000000 1.00000000 1.00000000
1.00000000 1.00000000 1.00000000
1.00000000 1.00000000 1.00000000
1.00000000 1.00000000 1.00000000
1.00000000 1.00000000 1.00000000
1.00000000 1.00000000 1.00000000
1.00000000 1.00000000 1.00000000
1.00000000 1.00000000 1.00000000
1.00000000 1.00000000 1.00000000
1.00000000 1.00000000 1.00000000
1.00000000 1.00000000 1.00000000
1.00000000 1.00000000 1.00000000
0.00924798 0.00924798 0.00924798
0.01463063 0.00949122 0.01371662
0.16419847 0.00494093 0.03212854
0.41077336 0.00000000 0.06321881
0.71000505 0.00000000 0.09328398
0.92261909 0.00000000 0.10395586
0.99583327 0.15249445 0.15699787
0.98974315 0.34035700 0.28132077
1.00000000 0.63964589 0.56419170
0.00884700 0.01453923 0.01404787
0.01903558 0.01903558 0.01903558
0.18411604 0.01179518 0.02806442
0.42605971 0.00000000 0.04937323
0.72143579 0.00000000 0.07933347
0.92953950 0.00000000 0.10237028
0.99613093 0.16683717 0.16433964
0.98916878 0.34831778 0.28825086
1.00000000 0.64405266 0.56897378
0.00127858 0.14276985 0.02836881
0.00417917 0.15207541 0.02244511
0.15064785 0.16382677 0.00389065
0.42287235 0.14552498 0.00550065
0.75342337 0.07122886 0.03095517
0.96249174 0.08168801 0.10168154
0.99598056 0.25096345 0.21252212
0.98480579 0.40077975 0.33527271
1.00000000 0.67589395 0.60401707
0.00461699 0.32002661 0.05121329
0.00282080 0.32531837 0.04273450
0.07950618 0.34868381 0.00688127
0.34802110 0.37444144 0.00000000
0.72221696 0.35682778 0.01115797
0.97446047 0.32953352 0.16748241
0.99482748 0.41652931 0.32974371
0.98044658 0.52168125 0.45178848
1.00000000 0.76094196 0.69944732
0.00423832 0.55988742 0.06585397
0.00079546 0.56295209 0.05825213
0.02130444 0.58179958 0.01569069
0.24921997 0.61814022 0.00000000
0.60747262 0.65317006 0.00578656
0.98647838 0.59972335 0.17240477
1.00000000 0.61517310 0.46141978
1.00000000 0.68990053 0.61819518
1.00000000 0.90500727 0.86418984
0.01824003 0.74783628 0.04693082
0.01619368 0.75005057 0.04305587
0.02129941 0.76503874 0.02053000
0.15810932 0.80204835 0.01387959
0.42968271 0.86151001 0.05424613
0.80828840 0.87044313 0.17941842
1.00000000 0.81054065 0.51444705
1.00000000 0.82978608 0.74358258
1.00000000 1.00000000 1.00000000
0.11169907 0.86327200 0.05542547
0.11315005 0.86497226 0.05539962
0.13254803 0.87674074 0.06028584
0.20675785 0.90998126 0.09548518
0.39554850 0.96854602 0.21128449
0.67734172 0.99449076 0.41749410
0.93124262 0.98624083 0.59690018
1.00000000 0.95504342 0.85994847
1.00000000 1.00000000 1.00000000
0.39131013 0.96011318 0.27798935
0.39384563 0.96119297 0.28026868
0.42346689 0.96688607 0.30823455
0.52455990 0.97916519 0.40877513
0.69715624 1.00000000 0.59335271
0.85751429 1.00000000 0.77954507
1.00000000 1.00000000 1.00000000
1.00000000 1.00000000 1.00000000
1.00000000 1.00000000 1.00000000
1.00000000 1.00000000 1.00000000
1.00000000 1.00000000 1.00000000
1.00000000 1.00000000 1.00000000
1.00000000 1.00000000 1.00000000
1.00000000 1.00000000 1.00000000
1.00000000 1.00000000 1.00000000
1.00000000 1.00000000 1.00000000
1.00000000 1.00000000 1.00000000
1.00000000 1.00000000 1.00000000
0.00750552 0.00304319 0.08368898
0.01548240 0.00000000 0.08862413
0.15496490 0.00000000 0.12495349
0.39184396 0.00000000 0.17676603
0.69053677 0.00000000 0.21168559
0.90741099 0.00798292 0.18311726
0.98502640 0.15968763 0.17366545
0.98474621 0.33794406 0.28233818
1.00000000 0.63013158 0.55494886
0.00352805 0.01030712 0.08990297
0.00823971 0.00264719 0.10262284
0.16448151 0.00000000 0.13392143
0.40570379 0.00000000 0.17643066
0.70165582 0.00000000 0.20574075
0.91479579 0.00713018 0.17995730
0.98667970 0.16823387 0.17761846
0.98462482 0.34424957 0.28771319
1.00000000 0.63413627 0.55926091
0.00000000 0.14147324 0.13023039
0.00000000 0.14450754 0.13377887
0.14520997 0.14520997 0.14520997
0.46859542 0.06635383 0.13685767
0.74958288 0.03964420 0.16933963
0.94957796 0.08064639 0.17338381
0.98881838 0.24717246 0.22096438
0.98177256 0.39457790 0.33222488
1.00000000 0.66289523 0.59068446
0.00000000 0.38622457 0.14752977
0.00000000 0.38870812 0.13970421
0.00546593 0.39953574 0.07739767
0.36754715 0.39222632 0.03519057
0.76635495 0.33483720 0.04999503
0.98443605 0.31960448 0.19076067
1.00000000 0.40818325 0.32995369
0.98603093 0.51227324 0.44343522
1.00000000 0.74798922 0.68543104
0.00093835 0.60680048 0.12896699
0.00000000 0.60977040 0.12119866
0.00000000 0.62831743 0.05535734
0.22062279 0.65832321 0.00000000
0.62596687 0.67285952 0.00000000
1.00000000 0.60509877 0.19020537
1.00000000 0.62101903 0.47336231
1.00000000 0.69370958 0.62349070
1.00000000 0.90116440 0.86006180
0.03204709 0.77975288 0.08884134
0.02843698 0.78198182 0.08414001
0.01792087 0.79676917 0.05095847
0.13349755 0.83218548 0.01856618
0.43075020 0.88358646 0.05777279
0.82127442 0.88414867 0.19714555
1.00000000 0.82157832 0.54190341
1.00000000 0.83829804 0.75709773
1.00000000 1.00000000 1.00000000
0.14017710 0.88855441 0.09067858
0.14124470 0.89024358 0.09048901
0.15953128 0.90118218 0.09594454
0.23643704 0.93141119 0.13492447
0.44269233 0.97980617 0.27274713
0.71122182 0.99881021 0.47924644
0.94238961 0.99046473 0.67200634
1.00000000 0.96322061 0.88370180
1.00000000 1.00000000 1.00000000
0.45711334 0.97040972 0.34555269
0.46178293 0.97091110 0.35015016
0.49670824 0.97382521 0.38496738
0.58570097 0.98403036 0.47670494
0.74166566 1.00000000 0.64916661
0.88676097 1.00000000 0.82186073
1.00000000 1.00000000 1.00000000
1.00000000 1.00000000 1.00000000
1.00000000 1.00000000 1.00000000
1.00000000 1.00000000 1.00000000
1.00000000 1.00000000 1.00000000
1.00000000 1.00000000 1.00000000
1.00000000 1.00000000 1.00000000
1.00000000 1.00000000 1.00000000
1.00000000 1.00000000 1.00000000
1.00000000 1.00000000 1.00000000
1.00000000 1.00000000 1.00000000
1.00000000 1.00000000 1.00000000
0.01983749 0.01366068 0.24078860
0.02884146 0.00915628 0.23928803
0.13537662 0.00000000 0.23840316
0.36840820 0.00000000 0.30073178
0.66586516 0.00000000 0.35366809
0.89274564 0.00000000 0.31590058
0.98570602 0.12810055 0.24935042
0.97943284 0.32984570 0.28821349
1.00000000 0.63296603 0.56113319
0.01289999 0.02189457 0.24053453
0.02052949 0.01436615 0.24652521
0.13033158 0.00000000 0.24565493
0.37432807 0.00000000 0.30583648
0.67434633 0.00000000 0.35423792
0.89989762 0.00000000 0.31360551
0.98830463 0.13039849 0.24950239
0.97998930 0.33259397 0.29014632
1.00000000 0.63601818 0.56439883
0.00000000 0.10750709 0.23397073
0.00000000 0.10212726 0.24255086
0.09728017 0.07049135 0.32821370
0.40536813 0.02872588 0.35421992
0.72504878 0.00000000 0.35889389
0.93997831 0.02075997 0.31421917
0.99214857 0.21241919 0.28036033
0.97671951 0.38433614 0.33325133
1.00000000 0.66755829 0.59846720
0.00000000 0.34053255 0.32019156
0.00000000 0.34273552 0.32237715
0.00000000 0.35613815 0.33696243
0.34979522 0.34979522 0.34979522
0.78617344 0.26516844 0.33711312
0.96067903 0.30339915 0.35882657
0.98145242 0.40887498 0.39124230
0.96969833 0.52011838 0.46071321
1.00000000 0.75529512 0.69539914
0.00000000 0.65158724 0.32142002
0.00000000 0.65342006 0.31814280
0.00000000 0.66590739 0.29036793
0.15959574 0.68648274 0.23712961
0.63787659 0.67598114 0.21347758
1.00000000 0.60702780 0.34440397
1.00000000 0.64651186 0.53856886
1.00000000 0.71797815 0.65858238
1.00000000 0.90915281 0.86962430
0.00000000 0.88543110 0.15674040
0.00000000 0.88772063 0.15118107
0.00000000 0.90270405 0.10325109
0.00000000 0.92973702 0.00712223
0.40841228 0.95126360 0.03377447
0.85796631 0.92337464 0.20337554
1.00000000 0.84714229 0.57731059
1.00000000 0.85927411 0.78249704
1.00000000 1.00000000 1.00000000
0.20520490 0.96749345 0.17720234
0.20709732 0.96888708 0.17776361
0.22637878 0.97814645 0.18456984
0.33716753 0.99632073 0.25180811
0.55911514 1.00000000 0.41703780
0.78293091 1.00000000 0.59635461
0.97611781 1.00000000 0.79497577
1.00000000 0.98719679 0.93060835
1.00000000 1.00000000 1.00000000
0.62873815 0.99827603 0.53028151
0.63226859 0.99849125 0.53411664
0.65773527 0.99988963 0.56202309
0.72372278 1.00000000 0.63606486
0.83906363 1.00000000 0.77132388
1.00000000 1.00000000 1.00000000
1.00000000 1.00000000 1.00000000
1.00000000 1.00000000 1.00000000
1.00000000 1.00000000 1.00000000
1.00000000 1.00000000 1.00000000
1.00000000 1.00000000 1.00000000
1.00000000 1.00000000 1.00000000
1.00000000 1.00000000 1.00000000
1.00000000 1.00000000 1.00000000
1.00000000 1.00000000 1.00000000
1.00000000 1.00000000 1.00000000
1.00000000 1.00000000 1.00000000
1.00000000 1.00000000 1.00000000
0.02791782 0.02886508 0.46194876
0.03652523 0.02536733 0.45910206
0.11096815 0.00243103 0.42653573
0.32525343 0.00000000 0.44272902
0.63160083 0.00000000 0.51333459
0.86627241 0.00000000 0.48221203
0.98742670 0.06776624 0.38076473
0.98945562 0.29672408 0.34354441
1.00000000 0.61769738 0.55734573
0.02083397 0.03885900 0.45834813
0.02878755 0.03194938 0.46103112
0.10559418 0.00456993 0.43373024
0.32381765 0.00000000 0.44658493
0.63466697 0.00000000 0.51592906
0.86996197 0.00000000 0.48280318
0.98903807 0.06915102 0.38079057
0.98963028 0.29879805 0.34464983
1.00000000 0.61915932 0.55881128
0.00000000 0.12777150 0.39426382
0.00000000 0.12113220 0.40299925
0.03359245 0.04633985 0.46790441
0.31620007 0.00000000 0.50190971
0.67074575 0.00000000 0.54725548
0.91018783 0.00000000 0.49030015
1.00000000 0.09402413 0.38480079
0.99120906 0.32471543 0.36042374
1.00000000 0.64165841 0.58199826
0.00000000 0.28031203 0.43480461
0.00000000 0.27879870 0.43980820
0.00000000 0.28487812 0.49784850
0.28477235 0.22457426 0.70731789
0.72114918 0.17706696 0.63883883
0.97568580 0.18110436 0.53909772
1.00000000 0.33179865 0.46732477
0.98616673 0.47520800 0.47511118
1.00000000 0.73941764 0.68581893
0.00000000 0.60290295 0.56896080
0.00000000 0.60450479 0.57046714
0.00000000 0.61671036 0.58200190
0.00000000 0.63657061 0.60608306
0.61787795 0.61787795 0.61787795
0.93320957 0.59222999 0.62028296
0.98620147 0.64224324 0.64625291
0.98319830 0.72036212 0.69661900
1.00000000 0.92414729 0.88973190
0.18598753 0.84143073 0.46622720
0.18607548 0.84256083 0.46592021
0.18778672 0.85089842 0.46238776
0.26135437 0.87056877 0.46599026
0.46531966 0.90606861 0.47303057
0.84475544 0.88878164 0.49312365
1.00000000 0.85712737 0.73289224
1.00000000 0.90662897 0.86898241
1.00000000 1.00000000 1.00000000
0.43860994 0.97261106 0.41508391
0.44223275 0.97292950 0.41753130
0.46769511 0.97536754 0.43451956
0.54208037 0.98291998 0.48806708
0.69138450 0.99947261 0.60795400
0.85134549 1.00000000 0.73966680
0.98827256 1.00000000 0.88128463
1.00000000 1.00000000 1.00000000
1.00000000 1.00000000 1.00000000
0.80655196 1.00000000 0.73991746
0.80869531 1.00000000 0.74245449
0.82452173 1.00000000 0.76129170
0.86844312 1.00000000 0.81406527
1.00000000 1.00000000 1.00000000
1.00000000 1.00000000 1.00000000
1.00000000 1.00000000 1.00000000
1.00000000 1.00000000 1.00000000
1.00000000 1.00000000 1.00000000
1.00000000 1.00000000 1.00000000
1.00000000 1.00000000 1.00000000
1.00000000 1.00000000 1.00000000
1.00000000 1.00000000 1.00000000
1.00000000 1.00000000 1.00000000
1.00000000 1.00000000 1.00000000
1.00000000 1.00000000 1.00000000
1.00000000 1.00000000 1.00000000
1.00000000 1.00000000 1.00000000
0.01009262 0.05938416 0.62649337
0.01440246 0.05346878 0.62865881
0.05625263 0.03503440 0.61148839
0.18509750 0.00000000 0.60380947
0.54531863 0.00000000 0.68034677
0.81898294 0.00000000 0.66011865
0.96624921 0.04360953 0.55411500
0.99744391 0.26598969 0.45873959
1.00000000 0.59092855 0.59544551
0.00804407 0.07397701 0.61603843
0.01096120 0.06287665 0.62508945
0.05234729 0.03812845 0.61499895
0.18060548 0.00000000 0.60530035
0.54543509 0.00000000 0.68293609
0.82056315 0.00000000 0.66142452
0.96747680 0.04318043 0.55452655
0.99753388 0.26741543 0.45922222
1.00000000 0.59210033 0.59638920
0.00000000 0.15236791 0.55189464
0.00000000 0.14653749 0.55952472
0.01780334 0.08780105 0.61523110
0.14795612 0.00000000 0.62942613
0.55227028 0.00000000 0.72190651
0.84192641 0.00000000 0.67924399
0.98149228 0.02570104 0.55807601
0.99927553 0.27684906 0.46232677
1.00000000 0.60203339 0.60432347
0.00000000 0.26420756 0.55286688
0.00000000 0.26154203 0.55619090
0.00000000 0.23420948 0.59281453
0.08453417 0.17934136 0.74632947
0.60437428 0.07682963 0.83737417
0.91734459 0.05829922 0.74706367
1.00000000 0.24307326 0.60704540
0.99953922 0.41407294 0.53630787
1.00000000 0.69836424 0.69285231
0.00000000 0.52992533 0.71069908
0.00000000 0.53138203 0.71386299
0.00000000 0.54200068 0.74174421
0.08968149 0.55840630 0.81361442
0.55074929 0.54831295 0.91818853
0.93127291 0.51643026 0.83481224
1.00000000 0.57890827 0.73227976
1.00000000 0.67807046 0.72018528
1.00000000 0.90018236 0.88973453
0.00000000 0.81452421 0.76845876
0.00000000 0.81572053 0.76958544
0.00000000 0.82486898 0.77816729
0.00000000 0.84516701 0.79960905
0.29802038 0.87036463 0.83518757
0.83311348 0.83311348 0.83311348
0.98722444 0.83910698 0.84790239
1.00000000 0.89619156 0.89465899
1.00000000 1.00000000 1.00000000
0.38231162 0.94866726 0.58365266
0.38516076 0.94923010 0.58484239
0.40578451 0.95336871 0.59332531
0.49008737 0.96186730 0.63034594
0.67518975 0.97502209 0.72874182
0.85090713 0.98779760 0.83304910
0.98012640 0.99448840 0.90543415
1.00000000 1.00000000 1.00000000
1.00000000 1.00000000 1.00000000
0.83062119 1.00000000 0.79041893
0.83250418 1.00000000 0.79250712
0.84644895 1.00000000 0.80803094
0.88761564 1.00000000 0.85448694
1.00000000 1.00000000 1.00000000
1.00000000 1.00000000 1.00000000
1.00000000 1.00000000 1.00000000
1.00000000 1.00000000 1.00000000
1.00000000 1.00000000 1.00000000
1.00000000 1.00000000 1.00000000
1.00000000 1.00000000 1.00000000
1.00000000 1.00000000 1.00000000
1.00000000 1.00000000 1.00000000
1.00000000 1.00000000 1.00000000
1.00000000 1.00000000 1.00000000
1.00000000 1.00000000 1.00000000
1.00000000 1.00000000 1.00000000
1.00000000 1.00000000 1.00000000
0.00000000 0.14208737 0.65319665
0.00000000 0.13799342 0.65672711
0.00327354 0.10933208 0.67434718
0.04390829 0.01757606 0.69430816
0.31655085 0.00991846 0.87607029
0.70457876 0.00000000 0.84277890
0.91879131 0.04481449 0.73579379
0.99167697 0.24464884 0.60958940
1.00000000 0.57053330 0.68468570
0.00000000 0.14691578 0.65068811
0.00000000 0.14290586 0.65453288
0.00285450 0.11388738 0.67373071
0.04280806 0.02066041 0.69544122
0.31503710 0.00799943 0.87740795
0.70496197 0.00000000 0.84412652
0.91947147 0.04441015 0.73635258
0.99176574 0.24570133 0.60986626
1.00000000 0.57150864 0.68522315
0.00012926 0.17827162 0.63941590
0.00000000 0.17502475 0.64234017
0.00000000 0.14818531 0.66554449
0.03100410 0.04204993 0.70640265
0.30370388 0.00000000 0.90128691
0.71187622 0.00000000 0.86371892
0.92782856 0.02927212 0.74310240
0.99290953 0.25283069 0.61194107
1.00000000 0.57988957 0.68940691
0.00302945 0.25551126 0.66692915
0.00192457 0.25328462 0.66843500
0.00000000 0.23254748 0.68514205
0.00000000 0.13780645 0.74608748
0.31001227 0.15038416 0.96405352
0.76567796 0.06199396 0.93150006
0.96550135 0.17134104 0.77709354
0.99504758 0.36570806 0.64899197
1.00000000 0.66226388 0.74688637
0.00000000 0.45931754 0.81727626
0.00052054 0.46078676 0.82009123
0.01595921 0.47066976 0.84478926
0.12833573 0.50033983 0.89754545
0.39107855 0.55225552 0.95095736
0.82255755 0.50985087 0.96375087
0.99610280 0.53865613 0.84606441
1.00000000 0.64223301 0.77941266
1.00000000 0.87359197 0.91221915
0.02251756 0.73522856 0.93609228
0.02264020 0.73640932 0.93789179
0.02469444 0.74491959 0.95129882
0.15995152 0.76738788 0.97203571
0.51163624 0.79445516 0.96603485
0.79208409 0.80460991 0.96851685
0.98713089 0.80592466 0.93142919
1.00000000 0.87259146 0.91534744
1.00000000 1.00000000 1.00000000
0.00000000 0.93246125 0.88443950
0.00000000 0.93317021 0.88518796
0.00000000 0.93837416 0.89070338
0.17402536 0.95104844 0.90575405
0.51278367 0.96683791 0.93255780
0.79793951 0.97110392 0.95583357
0.97244176 0.97244176 0.97244176
1.00000000 1.00000000 1.00000000
1.00000000 1.00000000 1.00000000
0.79464339 1.00000000 0.84054075
0.79668946 1.00000000 0.84205407
0.81196199 1.00000000 0.85336323
0.85897564 1.00000000 0.88917100
1.00000000 1.00000000 1.00000000
1.00000000 1.00000000 1.00000000
1.00000000 1.00000000 1.00000000
1.00000000 1.00000000 1.00000000
1.00000000 1.00000000 1.00000000
1.00000000 1.00000000 1.00000000
1.00000000 1.00000000 1.00000000
1.00000000 1.00000000 1.00000000
1.00000000 1.00000000 1.00000000
1.00000000 1.00000000 1.00000000
1.00000000 1.00000000 1.00000000
1.00000000 1.00000000 1.00000000
1.00000000 1.00000000 1.00000000
1.00000000 1.00000000 1.00000000
0.00000000 0.20067055 0.70075700
0.00000000 0.19929443 0.70073299
0.00000000 0.18907792 0.69966193
0.00000000 0.14233278 0.70922995
0.10350811 0.07523968 0.92941796
0.39951992 0.14145313 1.00000000
0.78827630 0.07942301 0.91123590
0.96869743 0.22236042 0.77634410
1.00000000 0.55506677 0.79994077
0.00000000 0.20248361 0.70237869
0.00000000 0.20111737 0.70237796
0.00000000 0.19079811 0.70132198
0.00000000 0.14512526 0.70931845
0.10193972 0.07515060 0.92807352
0.39902828 0.14080752 1.00000000
0.78846123 0.07905563 0.91168947
0.96881799 0.22297397 0.77647593
1.00000000 0.55581508 0.80020061
0.00000000 0.21599798 0.71529996
0.00000000 0.21455445 0.71512152
0.00000000 0.20425150 0.71455712
0.00000000 0.16228353 0.71722966
0.08847902 0.06261345 0.92684900
0.39547005 0.12964371 1.00000000
0.79113039 0.06961963 0.91780759
0.96981338 0.22726705 0.77752486
1.00000000 0.56234628 0.80176860
0.00903910 0.26574757 0.76670456
0.00839818 0.26422560 0.76634029
0.00349484 0.25145472 0.76510946
0.00000000 0.20881171 0.76493170
0.08379867 0.15616721 0.93305279
0.40579259 0.21498562 1.00000000
0.81709862 0.15094142 0.94142274
0.97320873 0.30554269 0.78605366
1.00000000 0.62276160 0.82782211
0.06077361 0.41420039 0.90428991
0.05867592 0.41290091 0.90504921
0.04025306 0.40155905 0.91428810
0.14448512 0.43959429 0.92591819
0.32278182 0.52078205 0.95842822
0.54474029 0.56461762 1.00000000
0.88929463 0.52718553 0.94992590
0.98990672 0.60382250 0.85061174
1.00000000 0.84119352 0.94986121
0.26945395 0.66397986 0.98713511
0.27253104 0.66520716 0.98763649
0.29488357 0.67402613 0.99127131
0.37069577 0.70065820 0.99252023
0.52870059 0.75477539 0.98532126
0.68894129 0.79853899 0.99857277
0.92872134 0.78909322 0.98089083
1.00000000 0.84437853 0.93968436
1.00000000 1.00000000 1.00000000
0.37128561 0.84234032 0.99756504
0.37474993 0.84313825 0.99778024
0.40022497 0.84887285 0.99911032
0.48342771 0.86563998 0.99902597
0.65488944 0.90097408 0.99399330
0.82380192 0.93332763 0.99705214
0.94605504 0.95208919 1.00000000
1.00000000 1.00000000 1.00000000
1.00000000 1.00000000 1.00000000
0.68510277 0.99789128 0.97064546
0.68802296 0.99816970 0.97110347
0.70999810 1.00000000 0.97438277
0.77786656 1.00000000 0.98482568
0.91042467 1.00000000 1.00000000
1.00000000 1.00000000 1.00000000
1.00000000 1.00000000 1.00000000
1.00000000 1.00000000 1.00000000
1.00000000 1.00000000 1.00000000
1.00000000 1.00000000 1.00000000
1.00000000 1.00000000 1.00000000
1.00000000 1.00000000 1.00000000
1.00000000 1.00000000 1.00000000
1.00000000 1.00000000 1.00000000
1.00000000 1.00000000 1.00000000
1.00000000 1.00000000 1.00000000
1.00000000 1.00000000 1.00000000
1.00000000 1.00000000 1.00000000
0.03524815 0.34122653 1.00000000
0.03511968 0.34057719 1.00000000
0.03524369 0.33589599 1.00000000
0.03299312 0.31889718 0.99046973
0.01185645 0.24141060 0.99636896
0.15635990 0.23607704 1.00000000
0.44087265 0.25087325 1.00000000
0.85213021 0.21462437 0.94984434
1.00000000 0.52011964 0.91895657
0.03593383 0.34238799 1.00000000
0.03577860 0.34172315 1.00000000
0.03584688 0.33702370 1.00000000
0.03356829 0.32002466 0.99141926
0.01251998 0.24315505 0.99667367
0.15555963 0.23517495 1.00000000
0.44047944 0.25039080 1.00000000
0.85190381 0.21448663 0.94965640
1.00000000 0.52040364 0.91890303
0.04084669 0.35119456 1.00000000
0.04063375 0.35051853 1.00000000
0.04007142 0.34554783 1.00000000
0.03683772 0.32811944 0.99921702
0.01689447 0.25559150 0.99955556
0.14890446 0.22754860 1.00000000
0.43739139 0.24613996 1.00000000
0.84993316 0.21385450 0.94790242
1.00000000 0.52331108 0.91778747
0.06551979 0.38319062 1.00000000
0.06491853 0.38236865 1.00000000
0.06115540 0.37608095 1.00000000
0.05269611 0.35690783 1.00000000
0.03507303 0.29537439 1.00000000
0.12546328 0.20398803 1.00000000
0.42570238 0.23363077 1.00000000
0.84047505 0.21619043 0.93762455
1.00000000 0.53648771 0.91063398
0.15276935 0.47233573 1.00000000
0.15168962 0.47146108 1.00000000
0.14372298 0.46465853 1.00000000
0.12106710 0.44160422 1.00000000
0.09635617 0.38774049 1.00000000
0.22739068 0.40030452 1.00000000
0.49098213 0.42883958 1.00000000
0.86492302 0.42447529 0.92191800
1.00000000 0.69007094 0.94076780
0.25553617 0.59392640 1.00000000
0.25430936 0.59324862 1.00000000
0.24550031 0.58803484 1.00000000
0.22286997 0.56997008 1.00000000
0.29136905 0.58891455 1.00000000
0.45696945 0.65714181 1.00000000
0.64503688 0.68230406 1.00000000
0.92796286 0.69202713 0.95150706
1.00000000 0.91712492 1.00000000
0.30371653 0.70892852 1.00000000
0.30262924 0.70843140 1.00000000
0.29566323 0.70455090 1.00000000
0.31618345 0.70668975 1.00000000
0.46806532 0.76536072 1.00000000
0.61358513 0.81788854 1.00000000
0.74073195 0.83690065 0.99442348
0.94629468 0.86206918 0.97388966
1.00000000 1.00000000 1.00000000
0.52954617 0.86281935 0.97225386
0.53206931 0.86360141 0.97254052
0.55149008 0.86913383 0.97406997
0.61186044 0.88612309 0.97807798
0.73444758 0.92475266 0.99026841
0.85378741 0.96572207 1.00000000
0.93697161 0.98851356 1.00000000
1.00000000 1.00000000 1.00000000
1.00000000 1.00000000 1.00000000
1.00000000 1.00000000 1.00000000
1.00000000 1.00000000 1.00000000
1.00000000 1.00000000 1.00000000
1.00000000 1.00000000 1.00000000
1.00000000 1.00000000 1.00000000
1.00000000 1.00000000 1.00000000
1.00000000 1.00000000 1.00000000
1.00000000 1.00000000 1.00000000
1.00000000 1.00000000 1.00000000
