Luts Download/Canon Luts/3dlut/17grid-3dlut/full-to-full-range/CinemaGamut_CanonLog2-to-BT2020_709WideDR_17_FF_Ver.2.0.cube
# Gamut : Cinema Gamut to BT.2020
# Gamma : Canon Log 2 to Wide DR
# Range : Full in / Full out
# Version : 2.0 2019/10/24
# Copyright(c) 2019 Canon Inc. All Rights Reserved.
LUT_3D_SIZE 5
# LUT_3D_INPUT_RANGE 0.0 1.0
0.00000000 0.00000000 0.00000000
0.13283113 0.00809811 0.01271894
0.62415022 0.00000000 0.02233326
0.94601013 0.07879754 0.02214941
1.00000000 0.64424367 0.49546755
0.02812179 0.11411854 0.00878995
0.14012481 0.15172212 0.00299105
0.64337637 0.13472637 0.00144161
0.96097318 0.18813178 0.07365637
1.00000000 0.68175104 0.54038822
0.20082807 0.54401152 0.00246360
0.24521628 0.56197669 0.00068841
0.60347989 0.63975686 0.00109282
1.00000000 0.59600870 0.34803196
1.00000000 0.91624543 0.83874418
0.39905010 0.84957491 0.03190520
0.41300273 0.86329430 0.03983808
0.56149903 0.96201164 0.16452581
0.93759459 0.98944333 0.49835816
1.00000000 1.00000000 1.00000000
1.00000000 1.00000000 1.00000000
1.00000000 1.00000000 1.00000000
1.00000000 1.00000000 1.00000000
1.00000000 1.00000000 1.00000000
1.00000000 1.00000000 1.00000000
0.00847604 0.00074316 0.09695601
0.12203755 0.00000000 0.13154263
0.60693157 0.00000000 0.17523960
0.93738718 0.07650509 0.03913925
1.00000000 0.63211223 0.48315963
0.00558404 0.14400426 0.13922024
0.14520997 0.14520997 0.14520997
0.64120617 0.10863703 0.14096363
0.94961227 0.18778195 0.09362320
1.00000000 0.66688174 0.52431055
0.17761810 0.60420734 0.00759120
0.23102250 0.61831926 0.00065895
0.62489062 0.66218741 0.00000000
1.00000000 0.60491818 0.36740915
1.00000000 0.91242027 0.83436669
0.41518945 0.88089577 0.04798199
0.43130778 0.89302197 0.06244725
0.59373053 0.97673458 0.22488835
0.94907551 0.99397805 0.61488467
1.00000000 1.00000000 1.00000000
1.00000000 1.00000000 1.00000000
1.00000000 1.00000000 1.00000000
1.00000000 1.00000000 1.00000000
1.00000000 1.00000000 1.00000000
1.00000000 1.00000000 1.00000000
0.06680934 0.00434860 0.49321412
0.10871082 0.00000000 0.44299882
0.54390270 0.00000000 0.54248891
0.91921883 0.01701612 0.33529327
1.00000000 0.62063448 0.49252985
0.02589590 0.04253169 0.55264360
0.07486606 0.00000000 0.53183639
0.56886338 0.00000000 0.57293574
0.94568695 0.01357668 0.33303188
1.00000000 0.64558428 0.52005888
0.00000000 0.62096410 0.60572092
0.04104119 0.62635212 0.61222044
0.61787795 0.61787795 0.61787795
0.95239328 0.63302350 0.60781314
1.00000000 0.93030668 0.86168216
0.54388048 0.98858566 0.29837447
0.56102591 0.99268447 0.31440145
0.77835590 0.99230980 0.59714495
0.99121500 1.00000000 0.86267859
1.00000000 1.00000000 1.00000000
1.00000000 1.00000000 1.00000000
1.00000000 1.00000000 1.00000000
1.00000000 1.00000000 1.00000000
1.00000000 1.00000000 1.00000000
1.00000000 1.00000000 1.00000000
0.10918919 0.01257289 0.79437390
0.11309749 0.03009678 0.74914070
0.30828171 0.00000000 0.91355541
0.81910799 0.03929219 0.79227579
1.00000000 0.56733855 0.67705052
0.11180530 0.01307232 0.84212218
0.11574940 0.03110524 0.79477095
0.29938940 0.00000000 0.94208239
0.82819515 0.01661263 0.80263766
1.00000000 0.57743743 0.68240126
0.20164563 0.41479905 0.99673488
0.23859661 0.43462404 0.97907870
0.47940919 0.54410739 0.95138301
0.93890466 0.52482730 0.89171851
1.00000000 0.87534583 0.90842857
0.33095871 0.94056422 0.91872001
0.36683957 0.94346988 0.92202828
0.67365867 0.95572737 0.94142272
0.97244176 0.97244176 0.97244176
1.00000000 1.00000000 1.00000000
1.00000000 1.00000000 1.00000000
1.00000000 1.00000000 1.00000000
1.00000000 1.00000000 1.00000000
1.00000000 1.00000000 1.00000000
1.00000000 1.00000000 1.00000000
0.25831317 0.28285306 1.00000000
0.25621940 0.28153815 1.00000000
0.22242149 0.20594422 1.00000000
0.44384240 0.23703085 1.00000000
1.00000000 0.52079815 1.00000000
0.26479707 0.29714218 1.00000000
0.26256218 0.29452892 1.00000000
0.22893132 0.22053846 1.00000000
0.44079841 0.23151258 1.00000000
1.00000000 0.52459270 1.00000000
0.35144111 0.45046410 1.00000000
0.34656005 0.44313559 1.00000000
0.30155863 0.36880542 1.00000000
0.50947651 0.42224975 1.00000000
1.00000000 0.69817688 1.00000000
0.49809692 0.69132291 1.00000000
0.49336127 0.68682055 1.00000000
0.59839724 0.75141708 1.00000000
0.77922848 0.83131489 0.99759915
1.00000000 1.00000000 1.00000000
1.00000000 1.00000000 1.00000000
1.00000000 1.00000000 1.00000000
1.00000000 1.00000000 1.00000000
1.00000000 1.00000000 1.00000000
1.00000000 1.00000000 1.00000000
