Luts Download/Canon Luts/3dlut/17grid-3dlut/full-to-full-range/CinemaGamut_CanonLog3-to-DCIP3_DCI_17_FF_Ver.2.0.cube
# Gamut : Cinema Gamut to DCI-P3
# Gamma : Canon Log 3 to DCI
# Range : Full in / Full out
# Version : 2.0 2019/10/24
# Copyright(c) 2019 Canon Inc. All Rights Reserved.
LUT_3D_SIZE 9
# LUT_3D_INPUT_RANGE 0.0 1.0
0.00000587 0.00000000 0.00000064
0.00000587 0.00000000 0.00000064
0.28893065 0.08922239 0.12146928
0.56785765 0.09090113 0.19675918
0.78619168 0.00000000 0.23574292
0.92380593 0.00000000 0.23425976
0.99494665 0.20328528 0.23510971
1.00000000 0.32727783 0.27472736
1.00000000 0.38376528 0.29584880
0.00000587 0.00000000 0.00000064
0.00000587 0.00000000 0.00000064
0.28893065 0.08922239 0.12146928
0.56785765 0.09090113 0.19675918
0.78619168 0.00000000 0.23574292
0.92380593 0.00000000 0.23425976
0.99494665 0.20328528 0.23510971
1.00000000 0.32727783 0.27472736
1.00000000 0.38376528 0.29584880
0.12976716 0.24715035 0.14209609
0.12976716 0.24715035 0.14209609
0.27534268 0.28587761 0.13196931
0.53503618 0.33059096 0.00000000
0.78539287 0.30447937 0.00000000
0.93969730 0.26940097 0.16074407
0.99340690 0.33891002 0.26847467
1.00000000 0.41528152 0.33656534
1.00000000 0.45643167 0.36643738
0.15657663 0.47748052 0.19893059
0.15657663 0.47748052 0.19893059
0.29025669 0.49753114 0.10129037
0.51967938 0.54170740 0.12130347
0.77205022 0.54817719 0.13897932
0.99063289 0.49255837 0.13560353
0.99862132 0.55297895 0.42078058
0.99886787 0.59437004 0.50275458
1.00000000 0.61851969 0.53773041
0.14046352 0.65903349 0.20462345
0.14046352 0.65903349 0.20462345
0.25796833 0.67388102 0.11065560
0.46570910 0.71707781 0.08935474
0.71110592 0.74310119 0.09099582
0.94756194 0.71638977 0.21972272
1.00000000 0.71184235 0.48810675
1.00000000 0.73537678 0.62085647
1.00000000 0.75146748 0.67304208
0.17007733 0.77711349 0.15778205
0.17007733 0.77711349 0.15778205
0.25114354 0.78950360 0.09731836
0.40251820 0.83322938 0.10503714
0.60428172 0.87439953 0.14443702
0.83497480 0.87598117 0.21428068
1.00000000 0.84522837 0.45919577
1.00000000 0.83966929 0.67631636
1.00000000 0.84370017 0.75675404
0.25476295 0.85415678 0.10719679
0.25476295 0.85415678 0.10719679
0.29536837 0.86534965 0.09710064
0.38540582 0.90814316 0.14503195
0.52976786 0.95576529 0.20893601
0.71758165 0.97502081 0.30042559
0.91548794 0.96235408 0.41575866
1.00000000 0.93014053 0.68393891
1.00000000 0.91597706 0.80800314
0.32560219 0.90301786 0.09646650
0.32560219 0.90301786 0.09646650
0.34680875 0.91374507 0.11545810
0.41020784 0.95418444 0.19544892
0.56013305 0.99436060 0.35748506
0.73602996 1.00000000 0.54021385
0.86233847 1.00000000 0.65564379
0.96525131 0.99839722 0.75800208
1.00000000 0.97658757 0.85639765
0.36915074 0.93271019 0.08542077
0.36915074 0.93271019 0.08542077
0.38230781 0.94323785 0.11556850
0.44595396 0.98058894 0.23551851
0.63466840 1.00000000 0.47787541
0.78817619 1.00000000 0.66359263
0.88691651 1.00000000 0.78750109
0.95423624 1.00000000 0.87663968
1.00000000 1.00000000 1.00000000
0.00000587 0.00000000 0.00000064
0.00000587 0.00000000 0.00000064
0.28893065 0.08922239 0.12146928
0.56785765 0.09090113 0.19675918
0.78619168 0.00000000 0.23574292
0.92380593 0.00000000 0.23425976
0.99494665 0.20328528 0.23510971
1.00000000 0.32727783 0.27472736
1.00000000 0.38376528 0.29584880
0.00000587 0.00000000 0.00000064
0.00000587 0.00000000 0.00000064
0.28893065 0.08922239 0.12146928
0.56785765 0.09090113 0.19675918
0.78619168 0.00000000 0.23574292
0.92380593 0.00000000 0.23425976
0.99494665 0.20328528 0.23510971
1.00000000 0.32727783 0.27472736
1.00000000 0.38376528 0.29584880
0.12976716 0.24715035 0.14209609
0.12976716 0.24715035 0.14209609
0.27534268 0.28587761 0.13196931
0.53503618 0.33059096 0.00000000
0.78539287 0.30447937 0.00000000
0.93969730 0.26940097 0.16074407
0.99340690 0.33891002 0.26847467
1.00000000 0.41528152 0.33656534
1.00000000 0.45643167 0.36643738
0.15657663 0.47748052 0.19893059
0.15657663 0.47748052 0.19893059
0.29025669 0.49753114 0.10129037
0.51967938 0.54170740 0.12130347
0.77205022 0.54817719 0.13897932
0.99063289 0.49255837 0.13560353
0.99862132 0.55297895 0.42078058
0.99886787 0.59437004 0.50275458
1.00000000 0.61851969 0.53773041
0.14046352 0.65903349 0.20462345
0.14046352 0.65903349 0.20462345
0.25796833 0.67388102 0.11065560
0.46570910 0.71707781 0.08935474
0.71110592 0.74310119 0.09099582
0.94756194 0.71638977 0.21972272
1.00000000 0.71184235 0.48810675
1.00000000 0.73537678 0.62085647
1.00000000 0.75146748 0.67304208
0.17007733 0.77711349 0.15778205
0.17007733 0.77711349 0.15778205
0.25114354 0.78950360 0.09731836
0.40251820 0.83322938 0.10503714
0.60428172 0.87439953 0.14443702
0.83497480 0.87598117 0.21428068
1.00000000 0.84522837 0.45919577
1.00000000 0.83966929 0.67631636
1.00000000 0.84370017 0.75675404
0.25476295 0.85415678 0.10719679
0.25476295 0.85415678 0.10719679
0.29536837 0.86534965 0.09710064
0.38540582 0.90814316 0.14503195
0.52976786 0.95576529 0.20893601
0.71758165 0.97502081 0.30042559
0.91548794 0.96235408 0.41575866
1.00000000 0.93014053 0.68393891
1.00000000 0.91597706 0.80800314
0.32560219 0.90301786 0.09646650
0.32560219 0.90301786 0.09646650
0.34680875 0.91374507 0.11545810
0.41020784 0.95418444 0.19544892
0.56013305 0.99436060 0.35748506
0.73602996 1.00000000 0.54021385
0.86233847 1.00000000 0.65564379
0.96525131 0.99839722 0.75800208
1.00000000 0.97658757 0.85639765
0.36915074 0.93271019 0.08542077
0.36915074 0.93271019 0.08542077
0.38230781 0.94323785 0.11556850
0.44595396 0.98058894 0.23551851
0.63466840 1.00000000 0.47787541
0.78817619 1.00000000 0.66359263
0.88691651 1.00000000 0.78750109
0.95423624 1.00000000 0.87663968
1.00000000 1.00000000 1.00000000
0.08442009 0.06135444 0.20468252
0.08442009 0.06135444 0.20468252
0.27060252 0.00000000 0.24971566
0.53983158 0.00000000 0.35831774
0.76471605 0.00000000 0.39372630
0.90810042 0.00000000 0.37194731
0.98940933 0.16681406 0.32689441
1.00000000 0.31143014 0.30711430
1.00000000 0.37438787 0.29982370
0.08442009 0.06135444 0.20468252
0.08442009 0.06135444 0.20468252
0.27060252 0.00000000 0.24971566
0.53983158 0.00000000 0.35831774
0.76471605 0.00000000 0.39372630
0.90810042 0.00000000 0.37194731
0.98940933 0.16681406 0.32689441
1.00000000 0.31143014 0.30711430
1.00000000 0.37438787 0.29982370
0.07450969 0.27069719 0.26278668
0.07450969 0.27069719 0.26278668
0.27963641 0.27963641 0.27963641
0.62018867 0.20731532 0.27932722
0.81246500 0.20766728 0.31936058
0.94296134 0.21347352 0.32394707
0.99264138 0.31549323 0.33665263
0.99955212 0.40205319 0.35299020
1.00000000 0.44597650 0.36546579
0.00000000 0.55451106 0.32924886
0.00000000 0.55451106 0.32924886
0.00000000 0.57331282 0.22093768
0.54893776 0.56895986 0.12313601
0.84568473 0.52195409 0.17404020
0.98864657 0.49833785 0.33377023
1.00000000 0.54631233 0.44957922
1.00000000 0.58975344 0.50968295
1.00000000 0.61412080 0.53761532
0.07907515 0.70183138 0.30288777
0.07907515 0.70183138 0.30288777
0.16892321 0.71854484 0.20984637
0.44354051 0.75255551 0.10624779
0.72822016 0.76125014 0.04690351
0.97553513 0.72026093 0.25135160
1.00000000 0.71853738 0.51868217
1.00000000 0.74199661 0.63740710
1.00000000 0.75768926 0.68370952
0.14773132 0.80993087 0.24275256
0.14773132 0.80993087 0.24275256
0.18924675 0.82360844 0.17269759
0.37421012 0.86280156 0.13428065
0.60240852 0.89582330 0.15723941
0.84801237 0.88966705 0.23721413
1.00000000 0.85553024 0.49979339
1.00000000 0.84961671 0.70107605
1.00000000 0.85313601 0.77323704
0.23111760 0.88312502 0.16588701
0.23111760 0.88312502 0.16588701
0.27362692 0.89372005 0.15061311
0.38406561 0.93165635 0.19836806
0.54688222 0.97177452 0.27769166
0.73584959 0.98582887 0.36882055
0.92562400 0.97173862 0.47952384
1.00000000 0.93986029 0.73341782
1.00000000 0.92645468 0.83573681
0.33424438 0.92774085 0.16838329
0.33424438 0.92774085 0.16838329
0.36465566 0.93681494 0.19423269
0.45654884 0.97021404 0.29015585
0.63024547 0.99741220 0.46741061
0.78226820 1.00000000 0.62470502
0.89103837 1.00000000 0.73346327
0.97511630 1.00000000 0.83197707
1.00000000 0.98391270 0.90152133
0.39491409 0.95428592 0.18730470
0.39491409 0.95428592 0.18730470
0.42140480 0.96243450 0.22594861
0.52508433 0.98971562 0.36095257
0.70560339 1.00000000 0.57612250
0.83395021 1.00000000 0.73555199
0.91827895 1.00000000 0.84658127
0.97434386 1.00000000 0.92719917
1.00000000 1.00000000 1.00000000
0.14990729 0.12563191 0.38710259
0.14990729 0.12563191 0.38710259
0.27940735 0.00000000 0.37414610
0.51182980 0.00000000 0.46528958
0.73215335 0.00000000 0.51577365
0.88166021 0.00000000 0.49710836
0.97460123 0.11329360 0.44361929
1.00000000 0.27402524 0.38848264
1.00000000 0.35200229 0.34238683
0.14990729 0.12563191 0.38710259
0.14990729 0.12563191 0.38710259
0.27940735 0.00000000 0.37414610
0.51182980 0.00000000 0.46528958
0.73215335 0.00000000 0.51577365
0.88166021 0.00000000 0.49710836
0.97460123 0.11329360 0.44361929
1.00000000 0.27402524 0.38848264
1.00000000 0.35200229 0.34238683
0.00000000 0.25310009 0.38529539
0.00000000 0.25310009 0.38529539
0.21186088 0.15934520 0.46876342
0.54933354 0.10498338 0.51899611
0.78561280 0.00000000 0.51729297
0.92643505 0.00000000 0.47990386
0.99292915 0.23852111 0.43895541
1.00000000 0.35578570 0.41084812
1.00000000 0.41538764 0.38339114
0.05470805 0.51183317 0.49595313
0.05470805 0.51183317 0.49595313
0.00000000 0.52668152 0.51150558
0.52628255 0.52628255 0.52628255
0.81359579 0.49156397 0.52404525
0.94271687 0.49515092 0.53294248
0.98320092 0.53903106 0.54980451
0.98898224 0.58372953 0.56188550
0.99108839 0.61191298 0.56187712
0.00000000 0.74243008 0.51091194
0.00000000 0.74243008 0.51091194
0.00000000 0.75389559 0.47985053
0.37165871 0.77916876 0.43112627
0.74071113 0.76379827 0.43578789
0.97596435 0.71857069 0.50596806
1.00000000 0.72959912 0.63127006
1.00000000 0.75800050 0.69638161
1.00000000 0.77637471 0.72138148
0.17668147 0.88835785 0.40110383
0.17668147 0.88835785 0.40110383
0.21839092 0.89573645 0.36520006
0.40034765 0.91574287 0.34562662
0.63899959 0.92838235 0.37638457
0.87132450 0.91323807 0.41080371
1.00000000 0.87854887 0.59741807
1.00000000 0.87459272 0.75516335
1.00000000 0.87970816 0.81374430
0.04550338 0.98765198 0.27340051
0.04550338 0.98765198 0.27340051
0.22214079 0.99162101 0.26769065
0.44390893 1.00000000 0.35160352
0.64168195 1.00000000 0.46637391
0.80586013 1.00000000 0.55381713
0.95734652 0.99859957 0.64071430
1.00000000 0.96974504 0.82340941
1.00000000 0.95850727 0.89286082
0.45424261 1.00000000 0.36207197
0.45424261 1.00000000 0.36207197
0.50556883 1.00000000 0.40108698
0.62875881 1.00000000 0.51328783
0.76963422 1.00000000 0.65665421
0.87873652 1.00000000 0.77705722
0.95884261 1.00000000 0.87401772
1.00000000 1.00000000 1.00000000
1.00000000 1.00000000 1.00000000
0.58177186 1.00000000 0.45134580
0.58177186 1.00000000 0.45134580
0.62173779 1.00000000 0.49416072
0.72567766 1.00000000 0.61273288
0.84388606 1.00000000 0.75900804
0.93309060 1.00000000 0.87985520
1.00000000 1.00000000 1.00000000
1.00000000 1.00000000 1.00000000
1.00000000 1.00000000 1.00000000
0.17321912 0.16767896 0.54331616
0.17321912 0.16767896 0.54331616
0.28979939 0.00000000 0.51859325
0.48087587 0.00000000 0.56131480
0.69910283 0.00000000 0.62414870
0.85409492 0.00000000 0.61257661
0.95655295 0.00000000 0.55968994
1.00000000 0.21457113 0.48697596
1.00000000 0.31205285 0.41519627
0.17321912 0.16767896 0.54331616
0.17321912 0.16767896 0.54331616
0.28979939 0.00000000 0.51859325
0.48087587 0.00000000 0.56131480
0.69910283 0.00000000 0.62414870
0.85409492 0.00000000 0.61257661
0.95655295 0.00000000 0.55968994
1.00000000 0.21457113 0.48697596
1.00000000 0.31205285 0.41519627
0.00000000 0.27086291 0.50690474
0.00000000 0.27086291 0.50690474
0.16830545 0.16578768 0.57621613
0.47136304 0.00000000 0.62844211
0.73102644 0.00000000 0.66323267
0.89373909 0.00000000 0.62125804
0.98455970 0.00000000 0.55323492
1.00000000 0.25282493 0.48475120
1.00000000 0.34378029 0.42323974
0.00000000 0.46355233 0.59013657
0.00000000 0.46355233 0.59013657
0.00000000 0.46004917 0.65611664
0.48278576 0.44436243 0.76729255
0.79849554 0.39370275 0.76142503
0.95143430 0.40966700 0.67938614
1.00000000 0.47228457 0.62940298
1.00000000 0.53431234 0.60180820
1.00000000 0.57141169 0.57730126
0.00000000 0.70498494 0.68135741
0.00000000 0.70498494 0.68135741
0.00000000 0.71747201 0.69369231
0.35252667 0.73368042 0.71576995
0.72099367 0.72099367 0.72099367
0.92059239 0.70181570 0.71797421
0.97980601 0.72077213 0.73137958
0.99009828 0.74876779 0.74489831
0.99336122 0.76829051 0.74892660
0.15978929 0.85852905 0.61490989
0.15978929 0.85852905 0.61490989
0.18303034 0.86667058 0.60631257
0.41860903 0.88300962 0.62303283
0.66051977 0.89123987 0.66398609
0.86210447 0.88284599 0.67381982
1.00000000 0.86113175 0.74332969
1.00000000 0.87340358 0.82334419
1.00000000 0.88738920 0.85518930
0.42622973 0.95085473 0.50049193
0.42622973 0.95085473 0.50049193
0.46217410 0.95398396 0.50549316
0.51789099 0.97621977 0.51139334
0.72052181 0.97666488 0.64153702
0.83686253 0.98432842 0.70121033
0.94966434 0.99061863 0.63115847
1.00000000 0.96732212 0.87091566
1.00000000 0.96827149 0.92783601
0.58026896 0.99691805 0.52273172
0.58026896 0.99691805 0.52273172
0.61573463 0.99638606 0.54979097
0.71093328 1.00000000 0.63735000
0.82191263 1.00000000 0.75109941
0.90871355 1.00000000 0.84611231
0.97161944 1.00000000 0.92134478
1.00000000 1.00000000 1.00000000
1.00000000 1.00000000 1.00000000
0.70020404 1.00000000 0.60501056
0.70020404 1.00000000 0.60501056
0.72742413 1.00000000 0.63521926
0.80366825 1.00000000 0.72582603
0.89639569 1.00000000 0.84368439
0.96889981 1.00000000 0.94225056
1.00000000 1.00000000 1.00000000
1.00000000 1.00000000 1.00000000
1.00000000 1.00000000 1.00000000
0.13276814 0.20666123 0.64444020
0.13276814 0.20666123 0.64444020
0.24935319 0.13277816 0.63853457
0.42146138 0.00000000 0.65246699
0.65099538 0.00000000 0.71857569
0.81858873 0.00000000 0.71828868
0.92999447 0.00000000 0.67195703
0.99559511 0.15326466 0.59751738
1.00000000 0.27042250 0.51256613
0.13276814 0.20666123 0.64444020
0.13276814 0.20666123 0.64444020
0.24935319 0.13277816 0.63853457
0.42146138 0.00000000 0.65246699
0.65099538 0.00000000 0.71857569
0.81858873 0.00000000 0.71828868
0.92999447 0.00000000 0.67195703
0.99559511 0.15326466 0.59751738
1.00000000 0.27042250 0.51256613
0.00000000 0.29046145 0.59966734
0.00000000 0.29046145 0.59966734
0.13453284 0.21329519 0.66073429
0.37278000 0.00000000 0.70571084
0.66287431 0.00000000 0.76176044
0.84361148 0.00000000 0.74088937
0.95211403 0.00000000 0.67829409
1.00000000 0.15932716 0.59626154
1.00000000 0.28787216 0.51228567
0.00000000 0.43156896 0.65735613
0.00000000 0.43156896 0.65735613
0.00000000 0.40609400 0.71212940
0.38483213 0.40351836 0.84045826
0.71156531 0.35978166 0.88796243
0.91617499 0.33241842 0.83226407
0.99760200 0.40412429 0.74050742
1.00000000 0.48227914 0.67269842
1.00000000 0.52669769 0.62103766
0.00000000 0.65632689 0.78924179
0.00000000 0.65632689 0.78924179
0.00000000 0.65982336 0.82761075
0.36741545 0.67413866 0.90478640
0.69086017 0.67913427 0.88585620
0.91509579 0.65201430 0.87426753
0.99704502 0.67663910 0.81068149
1.00000000 0.71402606 0.78219472
1.00000000 0.73923019 0.76559136
0.00000000 0.83371520 0.80432711
0.00000000 0.83371520 0.80432711
0.00000000 0.84353647 0.81390218
0.00000000 0.86199637 0.83550635
0.61002687 0.86470352 0.84941809
0.85006914 0.85006914 0.85006914
0.96922268 0.84561601 0.85304110
0.99422086 0.86269022 0.86578229
0.99845543 0.87816934 0.87430654
0.16785196 0.94002977 0.67923657
0.16785196 0.94002977 0.67923657
0.22909034 0.94537395 0.68027723
0.45087828 0.95675791 0.71169753
0.64787476 0.96843188 0.76131658
0.81717883 0.96665282 0.81148596
0.94536682 0.96164172 0.82089750
1.00000000 0.95326015 0.90625609
1.00000000 0.96221985 0.94376734
0.56362335 0.98425779 0.58535841
0.56362335 0.98425779 0.58535841
0.59901177 0.98433115 0.60531203
0.70160379 0.98797788 0.68152697
0.81869202 0.99436672 0.78365933
0.90505034 1.00000000 0.86647699
0.96610801 1.00000000 0.92794122
1.00000000 1.00000000 1.00000000
1.00000000 1.00000000 1.00000000
0.69164024 1.00000000 0.62272868
0.69164024 1.00000000 0.62272868
0.71785126 1.00000000 0.64913150
0.79694931 1.00000000 0.73620211
0.89300344 1.00000000 0.85055954
0.96625199 1.00000000 0.94426850
1.00000000 1.00000000 1.00000000
1.00000000 1.00000000 1.00000000
1.00000000 1.00000000 1.00000000
0.00000000 0.26821541 0.66957093
0.00000000 0.26821541 0.66957093
0.14560235 0.20805518 0.70383278
0.29839335 0.00000000 0.73276133
0.57171821 0.00000000 0.81846493
0.76585750 0.00000000 0.81637239
0.89584818 0.00000000 0.77678981
0.97574500 0.09829170 0.70773442
1.00000000 0.21727716 0.61914423
0.00000000 0.26821541 0.66957093
0.00000000 0.26821541 0.66957093
0.14560235 0.20805518 0.70383278
0.29839335 0.00000000 0.73276133
0.57171821 0.00000000 0.81846493
0.76585750 0.00000000 0.81637239
0.89584818 0.00000000 0.77678981
0.97574500 0.09829170 0.70773442
1.00000000 0.21727716 0.61914423
0.00000000 0.31309524 0.65065847
0.00000000 0.31309524 0.65065847
0.00000000 0.26960079 0.68965201
0.22016585 0.00000000 0.75549164
0.56000293 0.00000000 0.86050114
0.77813300 0.00000000 0.84432456
0.91164260 0.00000000 0.79068802
0.98550973 0.00000000 0.71144187
1.00000000 0.23304262 0.62002556
0.00000000 0.42128435 0.71762496
0.00000000 0.42128435 0.71762496
0.00000000 0.39217363 0.75339855
0.26619211 0.37512577 0.87223507
0.58987626 0.36902752 0.95683705
0.85188167 0.30671458 0.92611705
0.97295720 0.34387683 0.84894959
1.00000000 0.43383159 0.76089260
1.00000000 0.48473692 0.69027522
0.13238587 0.61589695 0.85492418
0.13238587 0.61589695 0.85492418
0.13403480 0.62151828 0.88785534
0.35298290 0.65004826 0.93072826
0.62411818 0.66454888 0.95663080
0.85093732 0.64354413 0.96319915
0.98435934 0.64380773 0.90492702
1.00000000 0.68376658 0.84040228
1.00000000 0.71174497 0.80226380
0.00000000 0.78454053 0.92652631
0.00000000 0.78454053 0.92652631
0.00000000 0.78975557 0.94878501
0.39197973 0.80696723 0.97067979
0.65901246 0.82212525 0.95722653
0.82860945 0.82459578 0.96388667
0.96776452 0.81868344 0.93737104
1.00000000 0.83918678 0.90254033
1.00000000 0.85876154 0.88987681
0.00000000 0.91867759 0.88584145
0.00000000 0.91867759 0.88584145
0.00000000 0.92580487 0.89292707
0.00000000 0.94139675 0.91112168
0.48357886 0.96067953 0.93559463
0.78330707 0.94825496 0.93695013
0.93772690 0.93772690 0.93772690
0.99480585 0.94253340 0.94528176
1.00000000 0.95494921 0.95565553
0.32335029 0.98663384 0.72971751
0.32335029 0.98663384 0.72971751
0.38190597 0.98869007 0.73762763
0.56901227 0.99168964 0.78215048
0.75058082 0.99399675 0.84929309
0.87539116 0.99537989 0.90763201
0.95409831 0.99870313 0.95005330
1.00000000 1.00000000 1.00000000
1.00000000 1.00000000 1.00000000
0.66374610 0.99578033 0.65850648
0.66374610 0.99578033 0.65850648
0.69051885 0.99571926 0.67916684
0.77600508 0.99821620 0.75497555
0.88016521 1.00000000 0.85872001
0.95847372 1.00000000 0.94514113
1.00000000 1.00000000 1.00000000
1.00000000 1.00000000 1.00000000
1.00000000 1.00000000 1.00000000
0.00000000 0.31327662 0.66310340
0.00000000 0.31327662 0.66310340
0.00000000 0.29000755 0.67864988
0.00000000 0.17357609 0.74075772
0.41454227 0.15360252 0.91189611
0.67495358 0.00000000 0.92914779
0.84096252 0.00000000 0.87663954
0.94495520 0.04206357 0.81311693
1.00000000 0.13201576 0.72906470
0.00000000 0.31327662 0.66310340
0.00000000 0.31327662 0.66310340
0.00000000 0.29000755 0.67864988
0.00000000 0.17357609 0.74075772
0.41454227 0.15360252 0.91189611
0.67495358 0.00000000 0.92914779
0.84096252 0.00000000 0.87663954
0.94495520 0.04206357 0.81311693
1.00000000 0.13201576 0.72906470
0.00000000 0.33491556 0.67237706
0.00000000 0.33491556 0.67237706
0.00000000 0.31394087 0.68553612
0.00000000 0.18963126 0.73033205
0.38790521 0.06432130 0.93524850
0.67311329 0.00000000 0.95513091
0.85010611 0.00000000 0.89334757
0.95394128 0.00000000 0.82092134
1.00000000 0.14136868 0.73120527
0.04621441 0.41693917 0.76125917
0.04621441 0.41693917 0.76125917
0.00000000 0.39479320 0.77711148
0.14615676 0.36850522 0.85533404
0.43642534 0.40560859 0.97649544
0.71557180 0.37455612 0.99829801
0.90997342 0.32880305 0.94886842
0.98962714 0.38592726 0.85796693
1.00000000 0.44328909 0.77253512
0.17321777 0.57902842 0.91265073
0.17321777 0.57902842 0.91265073
0.21688921 0.58500252 0.93643394
0.38394931 0.62218452 0.95611763
0.55310342 0.66392675 0.97818378
0.75484921 0.66205206 1.00000000
0.94463654 0.63560186 0.96724841
1.00000000 0.66114053 0.90206490
1.00000000 0.68966499 0.85095622
0.27740958 0.74900734 0.98476307
0.27740958 0.74900734 0.98476307
0.31415874 0.75521010 0.99307086
0.47055056 0.78113183 0.98854225
0.63227654 0.81392860 0.97799260
0.78816654 0.82228187 0.99018920
0.92931440 0.81431890 0.98865891
1.00000000 0.82326687 0.94826655
1.00000000 0.84269202 0.91727851
0.25898358 0.86724650 1.00000000
0.25898358 0.86724650 1.00000000
0.31222709 0.87141365 1.00000000
0.49759282 0.88711262 1.00000000
0.69077156 0.90571631 1.00000000
0.83049519 0.91821405 0.99005147
0.92567494 0.92532751 0.98891725
0.99344137 0.92970271 0.97832102
1.00000000 0.94384323 0.96647881
0.00000000 0.96825245 0.93472743
0.00000000 0.96825245 0.93472743
0.00000000 0.97215028 0.93914733
0.40666763 0.98140699 0.95209126
0.67322516 0.98683695 0.96596358
0.83556082 0.98912573 0.97748014
0.93694893 0.99165649 0.98739980
0.99564408 0.99564408 0.99564408
1.00000000 1.00000000 1.00000000
0.50641500 1.00000000 0.77784590
0.50641500 1.00000000 0.77784590
0.54754562 1.00000000 0.78871109
0.67974543 1.00000000 0.83443215
0.82841242 1.00000000 0.90135232
0.93568447 1.00000000 0.95991099
1.00000000 1.00000000 1.00000000
1.00000000 1.00000000 1.00000000
1.00000000 1.00000000 1.00000000
0.00000000 0.33752977 0.65931812
0.00000000 0.33752977 0.65931812
0.00000000 0.32593546 0.65942367
0.00000000 0.25816534 0.68921715
0.22707808 0.23548495 0.93992316
0.48404807 0.24554152 1.00000000
0.74088650 0.12056560 0.99257205
0.88868664 0.03402156 0.91320239
0.97601257 0.05931320 0.83544304
0.00000000 0.33752977 0.65931812
0.00000000 0.33752977 0.65931812
0.00000000 0.32593546 0.65942367
0.00000000 0.25816534 0.68921715
0.22707808 0.23548495 0.93992316
0.48404807 0.24554152 1.00000000
0.74088650 0.12056560 0.99257205
0.88868664 0.03402156 0.91320239
0.97601257 0.05931320 0.83544304
0.00000000 0.35118122 0.68233513
0.00000000 0.35118122 0.68233513
0.00000000 0.33876708 0.68144150
0.00000000 0.27321259 0.70117226
0.18023153 0.21821285 0.94916584
0.47280985 0.23146727 1.00000000
0.74184924 0.00000000 1.00000000
0.89569211 0.00000000 0.92408771
0.98202661 0.00000000 0.84066161
0.01914005 0.41711432 0.78525789
0.01914005 0.41711432 0.78525789
0.00000000 0.40141092 0.78951699
0.00000000 0.36932137 0.83252581
0.30912844 0.42213166 0.97830160
0.52615276 0.45159679 1.00000000
0.78155616 0.40182674 1.00000000
0.94266543 0.35713214 0.96094734
1.00000000 0.40742964 0.86435531
0.20622468 0.55124400 0.94869508
0.20622468 0.55124400 0.94869508
0.25220699 0.56047846 0.96130507
0.38706978 0.60603017 0.96982412
0.52070421 0.65893275 0.98836815
0.65110631 0.68554609 1.00000000
0.84231363 0.66582677 1.00000000
0.97679398 0.64812377 0.97195709
1.00000000 0.67421043 0.90484882
0.41198294 0.72050604 1.00000000
0.41198294 0.72050604 1.00000000
0.43623653 0.72779297 1.00000000
0.53320010 0.75883616 0.99947203
0.64988662 0.79903222 0.99214384
0.74521161 0.82577421 1.00000000
0.86880127 0.82573818 1.00000000
0.98384822 0.81607275 0.98487305
1.00000000 0.83260337 0.94673463
0.48593557 0.83287405 1.00000000
0.48593557 0.83287405 1.00000000
0.50809292 0.83863669 1.00000000
0.60164490 0.86120655 1.00000000
0.72233671 0.89142374 1.00000000
0.81728955 0.91511454 0.99648774
0.90500505 0.92414038 1.00000000
0.97506971 0.92726527 0.99820593
1.00000000 0.93665285 0.98190356
0.46584387 0.91425974 1.00000000
0.46584387 0.91425974 1.00000000
0.49963367 0.91788024 1.00000000
0.62212392 0.93216053 1.00000000
0.76780696 0.95128605 1.00000000
0.87841845 0.96668886 1.00000000
0.95201963 0.97945546 1.00000000
0.99102326 0.99112631 1.00000000
1.00000000 1.00000000 1.00000000
0.17696413 0.99530498 0.96228188
0.17696413 0.99530498 0.96228188
0.30093549 0.99706787 0.96503102
0.56150146 0.99924935 0.97274765
0.77223902 1.00000000 0.98448501
0.91073140 1.00000000 0.99586020
1.00000000 1.00000000 1.00000000
1.00000000 1.00000000 1.00000000
1.00000000 1.00000000 1.00000000
