Luts Download/Canon Luts/3dlut/17grid-3dlut/full-to-full-range/CinemaGamut_CanonLog2-to-BT709_WideDR_17_FF_Ver.2.0.cube
# Gamut : Cinema Gamut to BT.709
# Gamma : Canon Log 2 to Wide DR
# Range : Full in / Full out
# Version : 2.0 2019/10/24
# Copyright(c) 2019 Canon Inc. All Rights Reserved.
LUT_3D_SIZE 17
# LUT_3D_INPUT_RANGE 0.0 1.0
0.00000000 0.00000000 0.00000000
0.00000000 0.00000000 0.00000000
0.00924798 0.00924798 0.00924798
0.07428301 0.00535003 0.01128724
0.16055116 0.00666066 0.02028450
0.27675969 0.00000000 0.02943020
0.41321342 0.00000000 0.04371425
0.57018828 0.00000000 0.06365318
0.71155552 0.00000000 0.07930836
0.83025921 0.00000000 0.09108100
0.92289512 0.00147017 0.10221291
0.98082720 0.05867595 0.12102161
0.99445803 0.16181527 0.16090781
0.98982193 0.24988306 0.21184125
0.98896918 0.34498875 0.28518070
1.00000000 0.47096363 0.40057756
1.00000000 0.64236696 0.56700231
0.00000000 0.00000000 0.00000000
0.00000000 0.00000000 0.00000000
0.00924798 0.00924798 0.00924798
0.07428301 0.00535003 0.01128724
0.16055116 0.00666066 0.02028450
0.27675969 0.00000000 0.02943020
0.41321342 0.00000000 0.04371425
0.57018828 0.00000000 0.06365318
0.71155552 0.00000000 0.07930836
0.83025921 0.00000000 0.09108100
0.92289512 0.00147017 0.10221291
0.98082720 0.05867595 0.12102161
0.99445803 0.16181527 0.16090781
0.98982193 0.24988306 0.21184125
0.98896918 0.34498875 0.28518070
1.00000000 0.47096363 0.40057756
1.00000000 0.64236696 0.56700231
0.00924798 0.00924798 0.00924798
0.00924798 0.00924798 0.00924798
0.01195163 0.01211510 0.01043241
0.08339498 0.01549899 0.01272185
0.16613502 0.02053215 0.01965020
0.28177022 0.01471185 0.02612660
0.41886664 0.00359456 0.03809513
0.57722124 0.00000000 0.05599689
0.71928262 0.00000000 0.07231328
0.83792286 0.00000000 0.08661163
0.92936740 0.00731767 0.10127157
0.98369257 0.07310394 0.12518864
0.99522546 0.17396521 0.16741282
0.98974902 0.25942583 0.21879489
0.98867142 0.35234706 0.29163948
1.00000000 0.47654795 0.40614841
1.00000000 0.64668741 0.57169481
0.00681827 0.04791492 0.01228401
0.00681827 0.04791492 0.01228401
0.01307231 0.06155067 0.01432852
0.06681926 0.07337450 0.01101367
0.16485876 0.07593328 0.01028195
0.28358904 0.07035246 0.01247202
0.42756749 0.05226352 0.01730070
0.59226809 0.02486065 0.03046479
0.73742346 0.00491204 0.05112019
0.85683466 0.00149150 0.07286102
0.94534990 0.02927335 0.09863731
0.98928538 0.11571330 0.13777065
0.99621455 0.20666463 0.18549382
0.98892097 0.28526436 0.23793593
0.98726814 0.37259212 0.30959243
1.00000000 0.49209160 0.42177659
1.00000000 0.65884346 0.58501768
0.00689760 0.11455857 0.01997131
0.00689760 0.11455857 0.01997131
0.01064002 0.12782698 0.01764368
0.04834496 0.14376610 0.00909745
0.14084595 0.15342360 0.00450328
0.26087946 0.15737336 0.00364312
0.40933016 0.15128027 0.00579207
0.58507391 0.12787526 0.01280124
0.74663454 0.08637465 0.02891854
0.87510440 0.06023178 0.05653324
0.96186794 0.08831127 0.09952743
0.99328643 0.17695208 0.15967525
0.99539338 0.25469438 0.21413805
0.98649649 0.32395527 0.26775154
0.98454284 0.40350960 0.33763497
1.00000000 0.51633398 0.44646922
1.00000000 0.67819746 0.60642475
0.00697580 0.20135592 0.02997395
0.00697580 0.20135592 0.02997395
0.00867600 0.20971041 0.02490094
0.03296197 0.22427281 0.01191526
0.11351096 0.23714600 0.00439631
0.23080833 0.24931378 0.00146598
0.37812813 0.25590106 0.00129257
0.55928413 0.24958992 0.00442742
0.73629429 0.22106052 0.02130227
0.88120048 0.18949543 0.05634121
0.96651873 0.20478579 0.12643555
0.99291015 0.26523848 0.20129845
0.99259272 0.32576917 0.26188646
0.98292649 0.38323605 0.31659445
0.98093605 0.45279015 0.38410189
1.00000000 0.55638778 0.48811104
1.00000000 0.71096573 0.64299828
0.00544233 0.30782229 0.04186011
0.00544233 0.30782229 0.04186011
0.00512783 0.31348819 0.03498489
0.01883906 0.32551424 0.01783263
0.08464776 0.33830840 0.00612264
0.19919605 0.35384060 0.00037900
0.34336812 0.36948836 0.00000000
0.52338534 0.37639364 0.00000000
0.71579452 0.35797815 0.01109435
0.88033875 0.32717706 0.06119030
0.97292707 0.33014516 0.16437437
0.99799361 0.37107679 0.25944985
0.99470995 0.41680198 0.32901052
0.98340019 0.46294297 0.38642928
0.98039035 0.52241419 0.45232914
1.00000000 0.61638491 0.55183165
1.00000000 0.76245377 0.70106352
0.00181011 0.43513413 0.05364838
0.00181011 0.43513413 0.05364838
0.00000000 0.43915533 0.04595258
0.00548712 0.44870746 0.02643160
0.05231338 0.46033812 0.00912480
0.16375977 0.47610045 0.00025046
0.30305987 0.49592524 0.00000000
0.47875888 0.51445207 0.00000000
0.67894258 0.50798658 0.00000000
0.87239438 0.47705164 0.04629101
0.99256723 0.46071126 0.18473405
1.00000000 0.48389715 0.31438680
1.00000000 0.51822351 0.40348530
0.99949613 0.55629181 0.46966180
0.99180024 0.60843206 0.53817773
1.00000000 0.69479851 0.63620646
1.00000000 0.83335196 0.78164750
0.00135481 0.55348297 0.05700942
0.00135481 0.55348297 0.05700942
0.00000000 0.55662748 0.05008500
0.00000000 0.56454648 0.03205208
0.02565667 0.57546094 0.01238375
0.12092557 0.59083184 0.00283194
0.25053733 0.61294728 0.00000000
0.41186973 0.63892822 0.00147405
0.60490475 0.65043456 0.00626746
0.81322089 0.63161342 0.03670673
0.98462758 0.59836208 0.16783383
1.00000000 0.59513349 0.34010801
1.00000000 0.61379862 0.45885518
1.00000000 0.64299031 0.54128998
1.00000000 0.68907797 0.61702596
1.00000000 0.77036133 0.71776427
1.00000000 0.90539177 0.86455231
0.00520092 0.65675145 0.05156250
0.00520092 0.65675145 0.05156250
0.00270255 0.65936539 0.04619123
0.00041353 0.66618164 0.03192134
0.01458104 0.67619807 0.01509998
0.08360128 0.69126706 0.00607918
0.19790455 0.71415105 0.00437326
0.34075351 0.74433274 0.01174342
0.51322997 0.76656197 0.02527819
0.71486574 0.76950628 0.05721848
0.91643464 0.74182507 0.15132155
1.00000000 0.71406371 0.34054229
1.00000000 0.70894293 0.49292915
1.00000000 0.72416005 0.59781309
1.00000000 0.76156601 0.68434597
1.00000000 0.83702825 0.78905806
1.00000000 0.96956879 0.93864281
0.01504769 0.74346143 0.04135490
0.01504769 0.74346143 0.04135490
0.01330283 0.74571056 0.03770919
0.01162161 0.75168191 0.02809971
0.02092625 0.76075185 0.01687598
0.06669229 0.77542603 0.01101657
0.15977076 0.79805943 0.01288520
0.28001069 0.83028426 0.02641956
0.42891881 0.85860381 0.05270995
0.60638236 0.87379549 0.09862599
0.80651150 0.86857906 0.17574372
0.97844802 0.83536583 0.31920897
1.00000000 0.80885728 0.50979777
1.00000000 0.80424807 0.64152792
1.00000000 0.82849188 0.74140265
1.00000000 0.89507790 0.84986832
1.00000000 1.00000000 1.00000000
0.04126403 0.81062464 0.03510824
0.04126403 0.81062464 0.03510824
0.04082948 0.81260043 0.03317941
0.04237984 0.81787350 0.02860401
0.05394685 0.82600335 0.02483708
0.08888298 0.83997013 0.02506021
0.15515610 0.86199776 0.03464925
0.25117060 0.89428250 0.05994655
0.37502704 0.92533551 0.10758381
0.52585702 0.94692654 0.16959759
0.69700423 0.95373640 0.24248898
0.87667761 0.94190646 0.34343607
0.99885958 0.90676998 0.52446380
1.00000000 0.88477820 0.68179838
1.00000000 0.89239829 0.79386842
1.00000000 0.94675557 0.90372599
1.00000000 1.00000000 1.00000000
0.10896402 0.85969990 0.05201875
0.10896402 0.85969990 0.05201875
0.11029797 0.86143992 0.05189095
0.11618643 0.86607280 0.05273545
0.12955448 0.87334735 0.05648443
0.15579810 0.88620486 0.06652326
0.20358287 0.90695971 0.09089925
0.28030750 0.93756509 0.13521382
0.39068544 0.96665271 0.20477368
0.53014395 0.98557024 0.30462213
0.67224556 0.99398394 0.40799080
0.80443465 0.99366735 0.49725273
0.92972460 0.98581520 0.58362630
0.99976081 0.95763282 0.74092443
1.00000000 0.95388731 0.85620183
1.00000000 1.00000000 1.00000000
1.00000000 1.00000000 1.00000000
0.21625028 0.90166120 0.12367928
0.21625028 0.90166120 0.12367928
0.21799941 0.90319174 0.12480386
0.22498941 0.90716495 0.12980729
0.23917816 0.91330541 0.14043920
0.26647041 0.92405829 0.16162242
0.31346117 0.94155776 0.19881935
0.38859246 0.96699182 0.25997350
0.50990410 0.98531027 0.36941850
0.63125300 0.99717925 0.48453050
0.73867884 1.00000000 0.59000927
0.83088837 1.00000000 0.68119545
0.91193867 1.00000000 0.76638690
0.98398985 1.00000000 0.87148398
1.00000000 1.00000000 1.00000000
1.00000000 1.00000000 1.00000000
1.00000000 1.00000000 1.00000000
0.38681549 0.95776207 0.27344360
0.38681549 0.95776207 0.27344360
0.38887528 0.95895245 0.27523365
0.39706082 0.96176179 0.28268217
0.41497993 0.96543358 0.29952224
0.45379336 0.97043912 0.33725887
0.51586691 0.97839715 0.39932846
0.59900540 0.99092479 0.48549078
0.69077676 1.00000000 0.58548296
0.77716365 1.00000000 0.68376010
0.85320528 1.00000000 0.77331023
0.91662679 1.00000000 0.85079810
1.00000000 1.00000000 1.00000000
1.00000000 1.00000000 1.00000000
1.00000000 1.00000000 1.00000000
1.00000000 1.00000000 1.00000000
1.00000000 1.00000000 1.00000000
0.71322022 1.00000000 0.61256894
0.71322022 1.00000000 0.61256894
0.71563808 1.00000000 0.61531669
0.72323244 1.00000000 0.62413268
0.73651355 1.00000000 0.63976680
0.76023546 1.00000000 0.66805845
0.79801214 1.00000000 0.71370125
0.85079714 1.00000000 0.77841697
0.94901205 1.00000000 0.91863615
1.00000000 1.00000000 1.00000000
1.00000000 1.00000000 1.00000000
1.00000000 1.00000000 1.00000000
1.00000000 1.00000000 1.00000000
1.00000000 1.00000000 1.00000000
1.00000000 1.00000000 1.00000000
1.00000000 1.00000000 1.00000000
1.00000000 1.00000000 1.00000000
1.00000000 1.00000000 1.00000000
1.00000000 1.00000000 1.00000000
1.00000000 1.00000000 1.00000000
1.00000000 1.00000000 1.00000000
1.00000000 1.00000000 1.00000000
1.00000000 1.00000000 1.00000000
1.00000000 1.00000000 1.00000000
1.00000000 1.00000000 1.00000000
1.00000000 1.00000000 1.00000000
1.00000000 1.00000000 1.00000000
1.00000000 1.00000000 1.00000000
1.00000000 1.00000000 1.00000000
1.00000000 1.00000000 1.00000000
1.00000000 1.00000000 1.00000000
1.00000000 1.00000000 1.00000000
1.00000000 1.00000000 1.00000000
1.00000000 1.00000000 1.00000000
0.00000000 0.00000000 0.00000000
0.00000000 0.00000000 0.00000000
0.00924798 0.00924798 0.00924798
0.07428301 0.00535003 0.01128724
0.16055116 0.00666066 0.02028450
0.27675969 0.00000000 0.02943020
0.41321342 0.00000000 0.04371425
0.57018828 0.00000000 0.06365318
0.71155552 0.00000000 0.07930836
0.83025921 0.00000000 0.09108100
0.92289512 0.00147017 0.10221291
0.98082720 0.05867595 0.12102161
0.99445803 0.16181527 0.16090781
0.98982193 0.24988306 0.21184125
0.98896918 0.34498875 0.28518070
1.00000000 0.47096363 0.40057756
1.00000000 0.64236696 0.56700231
0.00000000 0.00000000 0.00000000
0.00000000 0.00000000 0.00000000
0.00924798 0.00924798 0.00924798
0.07428301 0.00535003 0.01128724
0.16055116 0.00666066 0.02028450
0.27675969 0.00000000 0.02943020
0.41321342 0.00000000 0.04371425
0.57018828 0.00000000 0.06365318
0.71155552 0.00000000 0.07930836
0.83025921 0.00000000 0.09108100
0.92289512 0.00147017 0.10221291
0.98082720 0.05867595 0.12102161
0.99445803 0.16181527 0.16090781
0.98982193 0.24988306 0.21184125
0.98896918 0.34498875 0.28518070
1.00000000 0.47096363 0.40057756
1.00000000 0.64236696 0.56700231
0.00924798 0.00924798 0.00924798
0.00924798 0.00924798 0.00924798
0.01195163 0.01211510 0.01043241
0.08339498 0.01549899 0.01272185
0.16613502 0.02053215 0.01965020
0.28177022 0.01471185 0.02612660
0.41886664 0.00359456 0.03809513
0.57722124 0.00000000 0.05599689
0.71928262 0.00000000 0.07231328
0.83792286 0.00000000 0.08661163
0.92936740 0.00731767 0.10127157
0.98369257 0.07310394 0.12518864
0.99522546 0.17396521 0.16741282
0.98974902 0.25942583 0.21879489
0.98867142 0.35234706 0.29163948
1.00000000 0.47654795 0.40614841
1.00000000 0.64668741 0.57169481
0.00681827 0.04791492 0.01228401
0.00681827 0.04791492 0.01228401
0.01307231 0.06155067 0.01432852
0.06681926 0.07337450 0.01101367
0.16485876 0.07593328 0.01028195
0.28358904 0.07035246 0.01247202
0.42756749 0.05226352 0.01730070
0.59226809 0.02486065 0.03046479
0.73742346 0.00491204 0.05112019
0.85683466 0.00149150 0.07286102
0.94534990 0.02927335 0.09863731
0.98928538 0.11571330 0.13777065
0.99621455 0.20666463 0.18549382
0.98892097 0.28526436 0.23793593
0.98726814 0.37259212 0.30959243
1.00000000 0.49209160 0.42177659
1.00000000 0.65884346 0.58501768
0.00689760 0.11455857 0.01997131
0.00689760 0.11455857 0.01997131
0.01064002 0.12782698 0.01764368
0.04834496 0.14376610 0.00909745
0.14084595 0.15342360 0.00450328
0.26087946 0.15737336 0.00364312
0.40933016 0.15128027 0.00579207
0.58507391 0.12787526 0.01280124
0.74663454 0.08637465 0.02891854
0.87510440 0.06023178 0.05653324
0.96186794 0.08831127 0.09952743
0.99328643 0.17695208 0.15967525
0.99539338 0.25469438 0.21413805
0.98649649 0.32395527 0.26775154
0.98454284 0.40350960 0.33763497
1.00000000 0.51633398 0.44646922
1.00000000 0.67819746 0.60642475
0.00697580 0.20135592 0.02997395
0.00697580 0.20135592 0.02997395
0.00867600 0.20971041 0.02490094
0.03296197 0.22427281 0.01191526
0.11351096 0.23714600 0.00439631
0.23080833 0.24931378 0.00146598
0.37812813 0.25590106 0.00129257
0.55928413 0.24958992 0.00442742
0.73629429 0.22106052 0.02130227
0.88120048 0.18949543 0.05634121
0.96651873 0.20478579 0.12643555
0.99291015 0.26523848 0.20129845
0.99259272 0.32576917 0.26188646
0.98292649 0.38323605 0.31659445
0.98093605 0.45279015 0.38410189
1.00000000 0.55638778 0.48811104
1.00000000 0.71096573 0.64299828
0.00544233 0.30782229 0.04186011
0.00544233 0.30782229 0.04186011
0.00512783 0.31348819 0.03498489
0.01883906 0.32551424 0.01783263
0.08464776 0.33830840 0.00612264
0.19919605 0.35384060 0.00037900
0.34336812 0.36948836 0.00000000
0.52338534 0.37639364 0.00000000
0.71579452 0.35797815 0.01109435
0.88033875 0.32717706 0.06119030
0.97292707 0.33014516 0.16437437
0.99799361 0.37107679 0.25944985
0.99470995 0.41680198 0.32901052
0.98340019 0.46294297 0.38642928
0.98039035 0.52241419 0.45232914
1.00000000 0.61638491 0.55183165
1.00000000 0.76245377 0.70106352
0.00181011 0.43513413 0.05364838
0.00181011 0.43513413 0.05364838
0.00000000 0.43915533 0.04595258
0.00548712 0.44870746 0.02643160
0.05231338 0.46033812 0.00912480
0.16375977 0.47610045 0.00025046
0.30305987 0.49592524 0.00000000
0.47875888 0.51445207 0.00000000
0.67894258 0.50798658 0.00000000
0.87239438 0.47705164 0.04629101
0.99256723 0.46071126 0.18473405
1.00000000 0.48389715 0.31438680
1.00000000 0.51822351 0.40348530
0.99949613 0.55629181 0.46966180
0.99180024 0.60843206 0.53817773
1.00000000 0.69479851 0.63620646
1.00000000 0.83335196 0.78164750
0.00135481 0.55348297 0.05700942
0.00135481 0.55348297 0.05700942
0.00000000 0.55662748 0.05008500
0.00000000 0.56454648 0.03205208
0.02565667 0.57546094 0.01238375
0.12092557 0.59083184 0.00283194
0.25053733 0.61294728 0.00000000
0.41186973 0.63892822 0.00147405
0.60490475 0.65043456 0.00626746
0.81322089 0.63161342 0.03670673
0.98462758 0.59836208 0.16783383
1.00000000 0.59513349 0.34010801
1.00000000 0.61379862 0.45885518
1.00000000 0.64299031 0.54128998
1.00000000 0.68907797 0.61702596
1.00000000 0.77036133 0.71776427
1.00000000 0.90539177 0.86455231
0.00520092 0.65675145 0.05156250
0.00520092 0.65675145 0.05156250
0.00270255 0.65936539 0.04619123
0.00041353 0.66618164 0.03192134
0.01458104 0.67619807 0.01509998
0.08360128 0.69126706 0.00607918
0.19790455 0.71415105 0.00437326
0.34075351 0.74433274 0.01174342
0.51322997 0.76656197 0.02527819
0.71486574 0.76950628 0.05721848
0.91643464 0.74182507 0.15132155
1.00000000 0.71406371 0.34054229
1.00000000 0.70894293 0.49292915
1.00000000 0.72416005 0.59781309
1.00000000 0.76156601 0.68434597
1.00000000 0.83702825 0.78905806
1.00000000 0.96956879 0.93864281
0.01504769 0.74346143 0.04135490
0.01504769 0.74346143 0.04135490
0.01330283 0.74571056 0.03770919
0.01162161 0.75168191 0.02809971
0.02092625 0.76075185 0.01687598
0.06669229 0.77542603 0.01101657
0.15977076 0.79805943 0.01288520
0.28001069 0.83028426 0.02641956
0.42891881 0.85860381 0.05270995
0.60638236 0.87379549 0.09862599
0.80651150 0.86857906 0.17574372
0.97844802 0.83536583 0.31920897
1.00000000 0.80885728 0.50979777
1.00000000 0.80424807 0.64152792
1.00000000 0.82849188 0.74140265
1.00000000 0.89507790 0.84986832
1.00000000 1.00000000 1.00000000
0.04126403 0.81062464 0.03510824
0.04126403 0.81062464 0.03510824
0.04082948 0.81260043 0.03317941
0.04237984 0.81787350 0.02860401
0.05394685 0.82600335 0.02483708
0.08888298 0.83997013 0.02506021
0.15515610 0.86199776 0.03464925
0.25117060 0.89428250 0.05994655
0.37502704 0.92533551 0.10758381
0.52585702 0.94692654 0.16959759
0.69700423 0.95373640 0.24248898
0.87667761 0.94190646 0.34343607
0.99885958 0.90676998 0.52446380
1.00000000 0.88477820 0.68179838
1.00000000 0.89239829 0.79386842
1.00000000 0.94675557 0.90372599
1.00000000 1.00000000 1.00000000
0.10896402 0.85969990 0.05201875
0.10896402 0.85969990 0.05201875
0.11029797 0.86143992 0.05189095
0.11618643 0.86607280 0.05273545
0.12955448 0.87334735 0.05648443
0.15579810 0.88620486 0.06652326
0.20358287 0.90695971 0.09089925
0.28030750 0.93756509 0.13521382
0.39068544 0.96665271 0.20477368
0.53014395 0.98557024 0.30462213
0.67224556 0.99398394 0.40799080
0.80443465 0.99366735 0.49725273
0.92972460 0.98581520 0.58362630
0.99976081 0.95763282 0.74092443
1.00000000 0.95388731 0.85620183
1.00000000 1.00000000 1.00000000
1.00000000 1.00000000 1.00000000
0.21625028 0.90166120 0.12367928
0.21625028 0.90166120 0.12367928
0.21799941 0.90319174 0.12480386
0.22498941 0.90716495 0.12980729
0.23917816 0.91330541 0.14043920
0.26647041 0.92405829 0.16162242
0.31346117 0.94155776 0.19881935
0.38859246 0.96699182 0.25997350
0.50990410 0.98531027 0.36941850
0.63125300 0.99717925 0.48453050
0.73867884 1.00000000 0.59000927
0.83088837 1.00000000 0.68119545
0.91193867 1.00000000 0.76638690
0.98398985 1.00000000 0.87148398
1.00000000 1.00000000 1.00000000
1.00000000 1.00000000 1.00000000
1.00000000 1.00000000 1.00000000
0.38681549 0.95776207 0.27344360
0.38681549 0.95776207 0.27344360
0.38887528 0.95895245 0.27523365
0.39706082 0.96176179 0.28268217
0.41497993 0.96543358 0.29952224
0.45379336 0.97043912 0.33725887
0.51586691 0.97839715 0.39932846
0.59900540 0.99092479 0.48549078
0.69077676 1.00000000 0.58548296
0.77716365 1.00000000 0.68376010
0.85320528 1.00000000 0.77331023
0.91662679 1.00000000 0.85079810
1.00000000 1.00000000 1.00000000
1.00000000 1.00000000 1.00000000
1.00000000 1.00000000 1.00000000
1.00000000 1.00000000 1.00000000
1.00000000 1.00000000 1.00000000
0.71322022 1.00000000 0.61256894
0.71322022 1.00000000 0.61256894
0.71563808 1.00000000 0.61531669
0.72323244 1.00000000 0.62413268
0.73651355 1.00000000 0.63976680
0.76023546 1.00000000 0.66805845
0.79801214 1.00000000 0.71370125
0.85079714 1.00000000 0.77841697
0.94901205 1.00000000 0.91863615
1.00000000 1.00000000 1.00000000
1.00000000 1.00000000 1.00000000
1.00000000 1.00000000 1.00000000
1.00000000 1.00000000 1.00000000
1.00000000 1.00000000 1.00000000
1.00000000 1.00000000 1.00000000
1.00000000 1.00000000 1.00000000
1.00000000 1.00000000 1.00000000
1.00000000 1.00000000 1.00000000
1.00000000 1.00000000 1.00000000
1.00000000 1.00000000 1.00000000
1.00000000 1.00000000 1.00000000
1.00000000 1.00000000 1.00000000
1.00000000 1.00000000 1.00000000
1.00000000 1.00000000 1.00000000
1.00000000 1.00000000 1.00000000
1.00000000 1.00000000 1.00000000
1.00000000 1.00000000 1.00000000
1.00000000 1.00000000 1.00000000
1.00000000 1.00000000 1.00000000
1.00000000 1.00000000 1.00000000
1.00000000 1.00000000 1.00000000
1.00000000 1.00000000 1.00000000
1.00000000 1.00000000 1.00000000
1.00000000 1.00000000 1.00000000
0.00924798 0.00924798 0.00924798
0.00924798 0.00924798 0.00924798
0.01463063 0.00949122 0.01371662
0.08556336 0.00418871 0.01990653
0.16419847 0.00494093 0.03212854
0.27567021 0.00000000 0.04540207
0.41077336 0.00000000 0.06321881
0.56797680 0.00000000 0.08346128
0.71000505 0.00000000 0.09328398
0.82915348 0.00000000 0.09735387
0.92261909 0.00000000 0.10395586
0.98168141 0.04689092 0.11873730
0.99583327 0.15249445 0.15699787
0.99110787 0.24341201 0.20763171
0.98974315 0.34035700 0.28132077
1.00000000 0.46755182 0.39727988
1.00000000 0.63964589 0.56419170
0.00924798 0.00924798 0.00924798
0.00924798 0.00924798 0.00924798
0.01463063 0.00949122 0.01371662
0.08556336 0.00418871 0.01990653
0.16419847 0.00494093 0.03212854
0.27567021 0.00000000 0.04540207
0.41077336 0.00000000 0.06321881
0.56797680 0.00000000 0.08346128
0.71000505 0.00000000 0.09328398
0.82915348 0.00000000 0.09735387
0.92261909 0.00000000 0.10395586
0.98168141 0.04689092 0.11873730
0.99583327 0.15249445 0.15699787
0.99110787 0.24341201 0.20763171
0.98974315 0.34035700 0.28132077
1.00000000 0.46755182 0.39727988
1.00000000 0.63964589 0.56419170
0.00884700 0.01453923 0.01404787
0.00884700 0.01453923 0.01404787
0.01903558 0.01903558 0.01903558
0.11660220 0.00822571 0.01772760
0.18411604 0.01179518 0.02806442
0.29341118 0.00363252 0.03631868
0.42605971 0.00000000 0.04937323
0.58106661 0.00000000 0.06694226
0.72143579 0.00000000 0.07933347
0.83897790 0.00000000 0.09030204
0.92953950 0.00000000 0.10237028
0.98439941 0.06237387 0.12345411
0.99613093 0.16683717 0.16433964
0.99060175 0.25413665 0.21529532
0.98916878 0.34831778 0.28825086
1.00000000 0.47340139 0.40309641
1.00000000 0.64405266 0.56897378
0.00224067 0.07585129 0.02275674
0.00224067 0.07585129 0.02275674
0.01026307 0.08509370 0.02005094
0.07816273 0.08566023 0.01430723
0.18317139 0.07636424 0.01367760
0.30128564 0.06065111 0.01536508
0.44222941 0.03568525 0.01981178
0.60029675 0.00953939 0.03570734
0.74113537 0.00000000 0.05662481
0.85791045 0.00000000 0.07724514
0.94531663 0.02224019 0.10059090
0.98985511 0.10812003 0.13668919
0.99690636 0.20125585 0.18311392
0.98956984 0.28098028 0.23504519
0.98764046 0.36913494 0.30664585
1.00000000 0.48924352 0.41899550
1.00000000 0.65634319 0.58242453
0.00127858 0.14276985 0.02836881
0.00127858 0.14276985 0.02836881
0.00417917 0.15207541 0.02244511
0.04701719 0.16218134 0.00967950
0.15064785 0.16382677 0.00389065
0.27458993 0.15927843 0.00305061
0.42287235 0.14552498 0.00550065
0.59581533 0.11597287 0.01361545
0.75342337 0.07122886 0.03095517
0.87759637 0.05053897 0.06006485
0.96249174 0.08168801 0.10168154
0.99386354 0.17232316 0.15929448
0.99598056 0.25096345 0.21252212
0.98701289 0.32077708 0.26557162
0.98480579 0.40077975 0.33527271
1.00000000 0.51388510 0.44405153
1.00000000 0.67589395 0.60401707
0.00349497 0.21955239 0.03853376
0.00349497 0.21955239 0.03853376
0.00370322 0.22664083 0.03115134
0.02670786 0.23957131 0.01382819
0.11398211 0.24907814 0.00399395
0.23747844 0.25640489 0.00046636
0.38722946 0.25771862 0.00045925
0.56840463 0.24665769 0.00411396
0.74365061 0.21518004 0.02203659
0.88585769 0.18312092 0.05791237
0.96793450 0.20149524 0.12845921
0.99351021 0.26313117 0.20187844
0.99297350 0.32392657 0.26140409
0.98324532 0.38145961 0.31546665
0.98111505 0.45101341 0.38256351
1.00000000 0.55451180 0.48623244
1.00000000 0.70898061 0.64089829
0.00461699 0.32002661 0.05121329
0.00461699 0.32002661 0.05121329
0.00282080 0.32531837 0.04273450
0.01374951 0.33695667 0.02227959
0.07950618 0.34868381 0.00688127
0.20010554 0.36193589 0.00000000
0.34802110 0.37444144 0.00000000
0.52969825 0.37792276 0.00000000
0.72221696 0.35682778 0.01115797
0.88513435 0.32498108 0.06296512
0.97446047 0.32953352 0.16748241
0.99837959 0.37088736 0.26121663
0.99482748 0.41652931 0.32974371
0.98349965 0.46247465 0.38644805
0.98044658 0.52168125 0.45178848
1.00000000 0.61527466 0.55072799
1.00000000 0.76094196 0.69944732
0.00335323 0.44364081 0.06337093
0.00335323 0.44364081 0.06337093
0.00023114 0.44751014 0.05460764
0.00326981 0.45690364 0.03284980
0.04602262 0.46843554 0.01130359
0.16089982 0.48330037 0.00025926
0.30395660 0.50154278 0.00000000
0.48208123 0.51799081 0.00000000
0.68359914 0.50948207 0.00000000
0.87684026 0.47717836 0.04765111
0.99425835 0.46146431 0.18877404
1.00000000 0.48490550 0.31728744
1.00000000 0.51910253 0.40536692
0.99949115 0.55691157 0.47080401
0.99180883 0.60868710 0.53868146
1.00000000 0.69451947 0.63599615
1.00000000 0.83245469 0.78069840
0.00423832 0.55988742 0.06585397
0.00423832 0.55988742 0.06585397
0.00079546 0.56295209 0.05825213
0.00000000 0.57081620 0.03870020
0.02130444 0.58179958 0.01569069
0.11653193 0.59680756 0.00374470
