Luts Download/Canon Luts/3dlut/17grid-3dlut/full-to-full-range/CinemaGamut_CanonLog2-to-BT2020_HLGKnee-Vivid_17_FF_Ver.2.0.cube
# Gamut : Cinema Gamut to BT.2020
# Gamma : Canon Log 2 to HLGKnee-Vivid
# Range : Full in / Full out
# Version : 2.0 2019/10/24
# Copyright(c) 2019 Canon Inc. All Rights Reserved.
LUT_3D_SIZE 5
# LUT_3D_INPUT_RANGE 0.0 1.0
0.00000003 0.00000000 0.00000002
0.17704216 0.04286498 0.05475338
0.65815261 0.02883666 0.11718843
0.98658722 0.42082057 0.33482761
1.00000000 0.93492750 0.89069359
0.07322939 0.15214199 0.04426299
0.16637998 0.17503157 0.03128203
0.65151641 0.16726311 0.03352333
0.98812469 0.43089853 0.32012209
1.00000000 0.93602361 0.89207191
0.23162100 0.56856764 0.03289149
0.27080298 0.57235883 0.02677179
0.59968109 0.62307533 0.04191685
0.98575213 0.68074703 0.35322460
1.00000000 0.95595997 0.92032640
0.69490827 0.95510682 0.31177900
0.69985620 0.95521128 0.31526705
0.75705423 0.96192763 0.36144921
0.98661611 1.00000000 0.83717607
1.00000000 1.00000000 1.00000000
1.00000000 1.00000000 1.00000000
1.00000000 1.00000000 1.00000000
1.00000000 1.00000000 1.00000000
1.00000000 1.00000000 1.00000000
1.00000000 1.00000000 1.00000000
0.05098129 0.01901382 0.15793896
0.16577147 0.00000000 0.17674405
0.65174989 0.03051750 0.25034214
0.98526763 0.41859140 0.35410826
1.00000000 0.93437314 0.89035073
0.03839143 0.17184634 0.16827180
0.16895397 0.16895397 0.16895397
0.66000026 0.11307433 0.18057235
0.98691997 0.42821668 0.33920087
1.00000000 0.93526906 0.89147990
0.20900236 0.59215884 0.06282904
0.25207452 0.59465060 0.04286339
0.60646507 0.62976150 0.03593391
0.98625692 0.67758037 0.36282692
1.00000000 0.95528656 0.91964552
0.69498462 0.95649271 0.31869647
0.69983464 0.95660395 0.32172189
0.75727023 0.96312052 0.36715114
0.98700866 1.00000000 0.84142153
1.00000000 1.00000000 1.00000000
1.00000000 1.00000000 1.00000000
1.00000000 1.00000000 1.00000000
1.00000000 1.00000000 1.00000000
1.00000000 1.00000000 1.00000000
1.00000000 1.00000000 1.00000000
0.17687822 0.03843310 0.60969685
0.21443815 0.03129546 0.56956533
0.61985247 0.00000000 0.62512519
0.97931570 0.37291704 0.66062058
1.00000000 0.92958945 0.89042619
0.12041387 0.09499175 0.62236148
0.17211499 0.03583838 0.60649766
0.62318408 0.00000000 0.63126700
0.98114784 0.37327778 0.65216087
1.00000000 0.93039916 0.89124189
0.12975261 0.61316635 0.60319583
0.14052671 0.61515005 0.60591039
0.60391133 0.60391133 0.60391133
0.98609335 0.63531282 0.63512020
1.00000000 0.94598543 0.91135828
0.72196580 0.98167927 0.46974393
0.72546312 0.98183181 0.46859852
0.77976313 0.98551199 0.50142367
0.99547895 1.00000000 0.89264581
1.00000000 1.00000000 1.00000000
1.00000000 1.00000000 1.00000000
1.00000000 1.00000000 1.00000000
1.00000000 1.00000000 1.00000000
1.00000000 1.00000000 1.00000000
1.00000000 1.00000000 1.00000000
0.37717309 0.18301058 0.94532407
0.38741644 0.19324424 0.93919961
0.49141666 0.12130031 0.88805014
0.94384778 0.30566476 0.93368552
1.00000000 0.91728113 0.94018422
0.36655395 0.18204836 0.94988046
0.37732417 0.18965829 0.94441865
0.48439990 0.11803367 0.89289219
0.94409659 0.30417291 0.93396956
1.00000000 0.91758657 0.94013198
0.22706765 0.43243840 0.95036860
0.23867437 0.41949767 0.95243279
0.38586115 0.25341152 0.94018105
0.94972933 0.30327411 0.94286085
1.00000000 0.92774027 0.94398798
0.76629507 0.97912606 0.97174772
0.76803159 0.97922043 0.97190076
0.80694081 0.98063191 0.97427458
1.00000000 1.00000000 1.00000000
1.00000000 1.00000000 1.00000000
1.00000000 1.00000000 1.00000000
1.00000000 1.00000000 1.00000000
1.00000000 1.00000000 1.00000000
1.00000000 1.00000000 1.00000000
1.00000000 1.00000000 1.00000000
0.70864888 0.76878567 1.00000000
0.70919225 0.76849676 1.00000000
0.71324382 0.76196756 1.00000000
0.73042358 0.61138312 1.00000000
1.00000000 0.86844579 1.00000000
0.70847556 0.76948890 1.00000000
0.70885852 0.76903947 1.00000000
0.71288318 0.76246754 1.00000000
0.73012765 0.61290487 1.00000000
1.00000000 0.86854213 1.00000000
0.71097873 0.78228709 1.00000000
0.71122940 0.78176571 1.00000000
0.71262930 0.77323661 1.00000000
0.73047873 0.64196505 1.00000000
1.00000000 0.87117023 1.00000000
0.79275451 0.88566632 1.00000000
0.79265642 0.88542373 1.00000000
0.79009212 0.88083522 1.00000000
0.77093891 0.81554786 0.95373762
1.00000000 1.00000000 1.00000000
1.00000000 1.00000000 1.00000000
1.00000000 1.00000000 1.00000000
1.00000000 1.00000000 1.00000000
1.00000000 1.00000000 1.00000000
1.00000000 1.00000000 1.00000000
