Luts Download/Canon Luts/3dlut/17grid-3dlut/full-to-full-range/CinemaGamut_CanonLog2-to-BT709_WideDR_17_FF_Ver.2.0.cube
# Gamut : Cinema Gamut to BT.709
# Gamma : Canon Log 2 to Wide DR
# Range : Full in / Full out
# Version : 2.0 2019/10/24
# Copyright(c) 2019 Canon Inc. All Rights Reserved.
LUT_3D_SIZE 5
# LUT_3D_INPUT_RANGE 0.0 1.0
0.00000000 0.00000000 0.00000000
0.16055116 0.00666066 0.02028450
0.71155552 0.00000000 0.07930836
0.99445803 0.16181527 0.16090781
1.00000000 0.64236696 0.56700231
0.00689760 0.11455857 0.01997131
0.14084595 0.15342360 0.00450328
0.74663454 0.08637465 0.02891854
0.99539338 0.25469438 0.21413805
1.00000000 0.67819746 0.60642475
0.00135481 0.55348297 0.05700942
0.02565667 0.57546094 0.01238375
0.60490475 0.65043456 0.00626746
1.00000000 0.61379862 0.45885518
1.00000000 0.90539177 0.86455231
0.10896402 0.85969990 0.05201875
0.12955448 0.87334735 0.05648443
0.39068544 0.96665271 0.20477368
0.92972460 0.98581520 0.58362630
1.00000000 1.00000000 1.00000000
1.00000000 1.00000000 1.00000000
1.00000000 1.00000000 1.00000000
1.00000000 1.00000000 1.00000000
1.00000000 1.00000000 1.00000000
1.00000000 1.00000000 1.00000000
0.00750552 0.00304319 0.08368898
0.15496490 0.00000000 0.12495349
0.69053677 0.00000000 0.21168559
0.98502640 0.15968763 0.17366545
1.00000000 0.63013158 0.55494886
0.00000000 0.14147324 0.13023039
0.14520997 0.14520997 0.14520997
0.74958288 0.03964420 0.16933963
0.98881838 0.24717246 0.22096438
1.00000000 0.66289523 0.59068446
0.00093835 0.60680048 0.12896699
0.00000000 0.62831743 0.05535734
0.62596687 0.67285952 0.00000000
1.00000000 0.62101903 0.47336231
1.00000000 0.90116440 0.86006180
0.14017710 0.88855441 0.09067858
0.15953128 0.90118218 0.09594454
0.44269233 0.97980617 0.27274713
0.94238961 0.99046473 0.67200634
1.00000000 1.00000000 1.00000000
1.00000000 1.00000000 1.00000000
1.00000000 1.00000000 1.00000000
1.00000000 1.00000000 1.00000000
1.00000000 1.00000000 1.00000000
1.00000000 1.00000000 1.00000000
0.02791782 0.02886508 0.46194876
0.11096815 0.00243103 0.42653573
0.63160083 0.00000000 0.51333459
0.98742670 0.06776624 0.38076473
1.00000000 0.61769738 0.55734573
0.00000000 0.12777150 0.39426382
0.03359245 0.04633985 0.46790441
0.67074575 0.00000000 0.54725548
1.00000000 0.09402413 0.38480079
1.00000000 0.64165841 0.58199826
0.00000000 0.60290295 0.56896080
0.00000000 0.61671036 0.58200190
0.61787795 0.61787795 0.61787795
0.98620147 0.64224324 0.64625291
1.00000000 0.92414729 0.88973190
0.43860994 0.97261106 0.41508391
0.46769511 0.97536754 0.43451956
0.69138450 0.99947261 0.60795400
0.98827256 1.00000000 0.88128463
1.00000000 1.00000000 1.00000000
1.00000000 1.00000000 1.00000000
1.00000000 1.00000000 1.00000000
1.00000000 1.00000000 1.00000000
1.00000000 1.00000000 1.00000000
1.00000000 1.00000000 1.00000000
0.00000000 0.14208737 0.65319665
0.00327354 0.10933208 0.67434718
0.31655085 0.00991846 0.87607029
0.91879131 0.04481449 0.73579379
1.00000000 0.57053330 0.68468570
0.00012926 0.17827162 0.63941590
0.00000000 0.14818531 0.66554449
0.30370388 0.00000000 0.90128691
0.92782856 0.02927212 0.74310240
1.00000000 0.57988957 0.68940691
0.00000000 0.45931754 0.81727626
0.01595921 0.47066976 0.84478926
0.39107855 0.55225552 0.95095736
0.99610280 0.53865613 0.84606441
1.00000000 0.87359197 0.91221915
0.00000000 0.93246125 0.88443950
0.00000000 0.93837416 0.89070338
0.51278367 0.96683791 0.93255780
0.97244176 0.97244176 0.97244176
1.00000000 1.00000000 1.00000000
1.00000000 1.00000000 1.00000000
1.00000000 1.00000000 1.00000000
1.00000000 1.00000000 1.00000000
1.00000000 1.00000000 1.00000000
1.00000000 1.00000000 1.00000000
0.03524815 0.34122653 1.00000000
0.03524369 0.33589599 1.00000000
0.01185645 0.24141060 0.99636896
0.44087265 0.25087325 1.00000000
1.00000000 0.52011964 0.91895657
0.04084669 0.35119456 1.00000000
0.04007142 0.34554783 1.00000000
0.01689447 0.25559150 0.99955556
0.43739139 0.24613996 1.00000000
1.00000000 0.52331108 0.91778747
0.15276935 0.47233573 1.00000000
0.14372298 0.46465853 1.00000000
0.09635617 0.38774049 1.00000000
0.49098213 0.42883958 1.00000000
1.00000000 0.69007094 0.94076780
0.30371653 0.70892852 1.00000000
0.29566323 0.70455090 1.00000000
0.46806532 0.76536072 1.00000000
0.74073195 0.83690065 0.99442348
1.00000000 1.00000000 1.00000000
1.00000000 1.00000000 1.00000000
1.00000000 1.00000000 1.00000000
1.00000000 1.00000000 1.00000000
1.00000000 1.00000000 1.00000000
1.00000000 1.00000000 1.00000000
