Luts Download/Canon Luts/3dlut/17grid-3dlut/full-to-full-range/CinemaGamut_CanonLog3-to-BT2020_PQ_17_FF_Ver.2.0.cube
# Gamut : Cinema Gamut to BT.2020
# Gamma : Canon Log 3 to PQ
# Range : Full in / Full out
# Version : 2.0 2019/10/24
# Copyright(c) 2019 Canon Inc. All Rights Reserved.
LUT_3D_SIZE 9
# LUT_3D_INPUT_RANGE 0.0 1.0
0.00000000 0.00000000 0.00000000
0.00000000 0.00000000 0.00000000
0.27082739 0.03497478 0.05604640
0.41024806 0.01734228 0.08981531
0.52148191 0.00000000 0.13530647
0.62373999 0.00000000 0.19030573
0.72117369 0.00000000 0.25410516
0.81495603 0.00000000 0.32055028
0.90537324 0.00000000 0.39073158
0.17928283 0.24165170 0.08766307
0.10735846 0.13029043 0.00000000
0.27082739 0.03497478 0.05604640
0.41024806 0.01734228 0.08981531
0.52148191 0.00000000 0.13530647
0.62373999 0.00000000 0.19030573
0.72117369 0.00000000 0.25410516
0.81495603 0.00000000 0.32055028
0.90537324 0.00000000 0.39073158
0.13259501 0.25043958 0.07923771
0.13259501 0.25043958 0.07923771
0.27678213 0.28722471 0.03804953
0.40663679 0.29997522 0.02156235
0.52002500 0.29572223 0.03180617
0.62475282 0.26646127 0.07197068
0.72398723 0.18235769 0.16247712
0.81807991 0.00000000 0.27021323
0.90796912 0.00000000 0.36694524
0.20497607 0.38104924 0.06134487
0.20497607 0.38104924 0.06134487
0.29569446 0.39894218 0.01542798
0.40362091 0.41556258 0.00185891
0.51335027 0.42653378 0.00233814
0.62033218 0.42643793 0.01418865
0.72310581 0.40521052 0.05508100
0.82094585 0.33501939 0.16868058
0.91003883 0.32263527 0.33918226
0.28393995 0.48850065 0.02812837
0.28393995 0.48850065 0.02812837
0.33865217 0.49724224 0.00708900
0.41647144 0.50973910 0.00000000
0.51128242 0.52390245 0.00000000
0.61412480 0.53472614 0.00000000
0.71814123 0.53627568 0.01593767
0.81877802 0.52018202 0.10567192
0.91037265 0.50979663 0.31702916
0.37428677 0.58962379 0.01308460
0.37428677 0.58962379 0.01308460
0.40394354 0.59386631 0.00800925
0.45279645 0.60136321 0.00079497
0.52369080 0.61272227 0.00000000
0.61313432 0.62619946 0.00000000
0.71245422 0.63689104 0.00000000
0.81378648 0.63967370 0.07519091
0.90907380 0.63663051 0.29044796
0.46918546 0.68825569 0.00529882
0.46918546 0.68825569 0.00529882
0.48414253 0.69022260 0.00827219
0.51166056 0.69417007 0.00379257
0.55774414 0.70124315 0.00000000
0.62541518 0.71207780 0.00000000
0.71195161 0.72524673 0.00000000
0.80846426 0.73587268 0.03288554
0.90625145 0.74029622 0.22693453
0.56573547 0.78469405 0.00136953
0.56573547 0.78469405 0.00136953
0.57287943 0.78555762 0.00630272
0.58703440 0.78736903 0.01195587
0.61351943 0.79112271 0.00000308
0.65800295 0.79780871 0.00000000
0.72371787 0.80825029 0.00000000
0.80804153 0.82139118 0.10108613
0.90038151 0.83289982 0.30879018
0.66193126 0.87852043 0.00000000
0.66193126 0.87852043 0.00000000
0.66533610 0.87887676 0.00000000
0.67232674 0.87964231 0.01521298
0.68628823 0.88128473 0.04695128
0.71212781 0.88469242 0.04283480
0.75553877 0.89091082 0.07813129
0.82052622 0.90053573 0.31069801
0.89875835 0.91269844 0.64421773
0.00000000 0.00000000 0.00000000
0.00000000 0.00000000 0.00000000
0.27082739 0.03497478 0.05604640
0.41024806 0.01734228 0.08981531
0.52148191 0.00000000 0.13530647
0.62373999 0.00000000 0.19030573
0.72117369 0.00000000 0.25410516
0.81495603 0.00000000 0.32055028
0.90537324 0.00000000 0.39073158
0.00000000 0.00000000 0.00000000
0.00000000 0.00000000 0.00000000
0.27082739 0.03497478 0.05604640
0.41024806 0.01734228 0.08981531
0.52148191 0.00000000 0.13530647
0.62373999 0.00000000 0.19030573
0.72117369 0.00000000 0.25410516
0.81495603 0.00000000 0.32055028
0.90537324 0.00000000 0.39073158
0.13259501 0.25043958 0.07923771
0.13259501 0.25043958 0.07923771
0.27678213 0.28722471 0.03804953
0.40663679 0.29997522 0.02156235
0.52002500 0.29572223 0.03180617
0.62475282 0.26646127 0.07197068
0.72398723 0.18235769 0.16247712
0.81807991 0.00000000 0.27021323
0.90796912 0.00000000 0.36694524
0.20497607 0.38104924 0.06134487
0.20497607 0.38104924 0.06134487
0.29569446 0.39894218 0.01542798
0.40362091 0.41556258 0.00185891
0.51335027 0.42653378 0.00233814
0.62033218 0.42643793 0.01418865
0.72310581 0.40521052 0.05508100
0.82094585 0.33501939 0.16868058
0.91003883 0.32263527 0.33918226
0.28393995 0.48850065 0.02812837
0.28393995 0.48850065 0.02812837
0.33865217 0.49724224 0.00708900
0.41647144 0.50973910 0.00000000
0.51128242 0.52390245 0.00000000
0.61412480 0.53472614 0.00000000
0.71814123 0.53627568 0.01593767
0.81877802 0.52018202 0.10567192
0.91037265 0.50979663 0.31702916
0.37428677 0.58962379 0.01308460
0.37428677 0.58962379 0.01308460
0.40394354 0.59386631 0.00800925
0.45279645 0.60136321 0.00079497
0.52369080 0.61272227 0.00000000
0.61313432 0.62619946 0.00000000
0.71245422 0.63689104 0.00000000
0.81378648 0.63967370 0.07519091
0.90907380 0.63663051 0.29044796
0.46918546 0.68825569 0.00529882
0.46918546 0.68825569 0.00529882
0.48414253 0.69022260 0.00827219
0.51166056 0.69417007 0.00379257
0.55774414 0.70124315 0.00000000
0.62541518 0.71207780 0.00000000
0.71195161 0.72524673 0.00000000
0.80846426 0.73587268 0.03288554
0.90625145 0.74029622 0.22693453
0.56573547 0.78469405 0.00136953
0.56573547 0.78469405 0.00136953
0.57287943 0.78555762 0.00630272
0.58703440 0.78736903 0.01195587
0.61351943 0.79112271 0.00000308
0.65800295 0.79780871 0.00000000
0.72371787 0.80825029 0.00000000
0.80804153 0.82139118 0.10108613
0.90038151 0.83289982 0.30879018
0.66193126 0.87852043 0.00000000
0.66193126 0.87852043 0.00000000
0.66533610 0.87887676 0.00000000
0.67232674 0.87964231 0.01521298
0.68628823 0.88128473 0.04695128
0.71212781 0.88469242 0.04283480
0.75553877 0.89091082 0.07813129
0.82052622 0.90053573 0.31069801
0.89875835 0.91269844 0.64421773
0.04166176 0.00485754 0.23023312
0.04166176 0.00485754 0.23023312
0.25967201 0.00000000 0.27307055
0.40131826 0.00000000 0.30489520
0.51724381 0.00000000 0.32804535
0.62241388 0.00000000 0.34626550
0.72060889 0.00000000 0.36287684
0.81445256 0.00000000 0.37678826
0.90410520 0.00415607 0.41188375
0.04166176 0.00485754 0.23023312
0.04166176 0.00485754 0.23023312
0.25967201 0.00000000 0.27307055
0.40131826 0.00000000 0.30489520
0.51724381 0.00000000 0.32804535
0.62241388 0.00000000 0.34626550
0.72060889 0.00000000 0.36287684
0.81445256 0.00000000 0.37678826
0.90410520 0.00415607 0.41188375
0.04056621 0.27934246 0.27501643
0.04056621 0.27934246 0.27501643
0.28106553 0.28106553 0.28106553
0.41847350 0.26771582 0.27930335
0.52895438 0.23153108 0.27534829
0.62659972 0.22073564 0.29801510
0.72389447 0.16000754 0.31605173
0.81764145 0.00000000 0.33332386
0.90675868 0.00000000 0.39035780
0.10728180 0.42937598 0.24191763
0.10728180 0.42937598 0.24191763
0.27478581 0.43056654 0.19820520
0.41653362 0.42691832 0.19449161
0.52702296 0.42013465 0.20167298
0.62957217 0.40399736 0.19289368
0.72834041 0.36342712 0.17601748
0.82236888 0.27260038 0.22744505
0.90953529 0.29814735 0.36181913
0.23165884 0.52209114 0.10504745
0.23165884 0.52209114 0.10504745
0.31638350 0.52692815 0.01642506
0.41919618 0.53170400 0.00000000
0.52210132 0.53476744 0.00000000
0.62365404 0.53443229 0.00000000
0.72405076 0.52695482 0.01911133
0.82163303 0.50377144 0.12996850
0.91069073 0.49888758 0.33429648
0.35583470 0.60470738 0.03970824
0.35583470 0.60470738 0.03970824
0.39174268 0.60808834 0.01203428
0.44913295 0.61384027 0.00000000
0.52644498 0.62206792 0.00000000
0.61802813 0.63110066 0.00000000
0.71659403 0.63719077 0.00000000
0.81631026 0.63631508 0.08658101
0.90955234 0.63364547 0.31065035
0.46144316 0.69510820 0.00842021
0.46144316 0.69510820 0.00842021
0.47790219 0.69685198 0.00854708
0.50794985 0.70035687 0.00362851
0.55704642 0.70668081 0.00000000
0.62692336 0.71618292 0.00000000
0.71416749 0.72746217 0.00000000
0.81024843 0.73615958 0.04516018
0.90678314 0.73987680 0.26021623
0.56221956 0.78777833 0.00000000
0.56221956 0.78777833 0.00000000
0.56972298 0.78859515 0.00173024
0.58455161 0.79030346 0.00713729
0.61213673 0.79385252 0.00000000
0.65787810 0.80020583 0.00000000
0.72448093 0.81006275 0.00000000
0.80905141 0.82240800 0.12276240
0.90101767 0.83314994 0.31947658
0.66029325 0.87992148 0.00000000
0.66029325 0.87992148 0.00000000
0.66377762 0.88026279 0.00000000
0.67094278 0.88100572 0.00457278
0.68523987 0.88259884 0.03959425
0.71160883 0.88592252 0.03801510
0.75563772 0.89194931 0.09967790
0.82125864 0.90120615 0.33549642
0.89907626 0.91299825 0.65280952
0.11849392 0.01272645 0.36233724
0.11849392 0.01272645 0.36233724
0.25443068 0.00000000 0.37058395
0.39207136 0.00000000 0.40236468
0.51025047 0.00000000 0.43254432
0.61766613 0.00000000 0.45545961
0.71757412 0.00000000 0.47092764
0.81215860 0.01537873 0.48013365
0.90239092 0.14131098 0.48868908
0.11849392 0.01272645 0.36233724
0.11849392 0.01272645 0.36233724
0.25443068 0.00000000 0.37058395
0.39207136 0.00000000 0.40236468
0.51025047 0.00000000 0.43254432
0.61766613 0.00000000 0.45545961
0.71757412 0.00000000 0.47092764
0.81215860 0.01537873 0.48013365
0.90239092 0.14131098 0.48868908
0.00000000 0.23108318 0.39062838
0.00000000 0.23108318 0.39062838
0.25214718 0.19692587 0.42725268
0.41014492 0.16637555 0.42673921
0.51860274 0.19395856 0.42591848
0.62230041 0.18098762 0.43746254
0.72054617 0.17389742 0.45138514
0.81453071 0.17024961 0.46415289
0.90495088 0.01958158 0.47258779
0.06967065 0.40815148 0.40312396
0.06967065 0.40815148 0.40312396
0.24399299 0.41231499 0.40866469
0.40806628 0.40806628 0.40806628
0.52482553 0.39820899 0.40674564
0.62979424 0.37332828 0.40380286
0.72565893 0.35184765 0.41441851
0.81905737 0.31556088 0.42792702
0.90832050 0.25972972 0.44217593
0.16354166 0.53535064 0.37904390
0.16354166 0.53535064 0.37904390
0.26873613 0.53645980 0.36463240
0.40338676 0.53602089 0.35304598
0.52303900 0.53263322 0.35095321
0.62903208 0.52487529 0.34623847
0.72974794 0.50597143 0.33521195
0.82419121 0.47686187 0.34103928
0.91140263 0.46838942 0.38072333
0.24432799 0.63565942 0.19439452
0.24432799 0.63565942 0.19439452
0.31611117 0.63779747 0.11507731
0.41959328 0.64039922 0.00000000
0.52624320 0.64189417 0.00000000
0.62768057 0.64072699 0.00000000
0.72579298 0.63619703 0.00000000
0.82204682 0.62681387 0.08239915
0.91097197 0.62460586 0.33885843
0.43590936 0.70931691 0.07788427
0.43590936 0.70931691 0.07788427
0.45613244 0.71078150 0.03779489
0.49394467 0.71354874 0.00051761
0.55244403 0.71828902 0.00000000
0.62911145 0.72491722 0.00000000
0.71875970 0.73204136 0.00000000
0.81415638 0.73647970 0.05065867
0.90799688 0.73865120 0.30814203
0.55296238 0.79433997 0.00092987
0.55296238 0.79433997 0.00092987
0.56130788 0.79510197 0.00000000
0.57786560 0.79660448 0.00130544
0.60819723 0.79970721 0.00000000
0.65707142 0.80535265 0.00000000
0.72594387 0.81395032 0.00000000
0.81119764 0.82456683 0.15497827
0.90235131 0.83367879 0.34173628
0.65654764 0.88292526 0.00000000
0.65654764 0.88292526 0.00000000
0.66021521 0.88324472 0.00000000
0.66775296 0.88393080 0.00000000
0.68279339 0.88542117 0.03059109
0.71035937 0.88852957 0.05168299
0.75582064 0.89417620 0.14068247
0.82275541 0.90265527 0.37439674
0.89977175 0.91363749 0.66895757
0.19396891 0.01982571 0.47097345
0.19396891 0.01982571 0.47097345
0.26431491 0.00000000 0.45935245
0.38695489 0.00000000 0.47675397
0.50574690 0.00000000 0.51168534
0.61361441 0.00000000 0.54130531
0.71357360 0.03241924 0.56173718
0.80870775 0.10112211 0.57377343
0.89966249 0.21683171 0.58035658
0.19396891 0.01982571 0.47097345
0.19396891 0.01982571 0.47097345
0.26431491 0.00000000 0.45935245
0.38695489 0.00000000 0.47675397
0.50574690 0.00000000 0.51168534
0.61361441 0.00000000 0.54130531
0.71357360 0.03241924 0.56173718
0.80870775 0.10112211 0.57377343
0.89966249 0.21683171 0.58035658
0.05612305 0.18954590 0.49214237
0.05612305 0.18954590 0.49214237
0.20481408 0.00000000 0.49592761
0.38043058 0.00000000 0.49997323
0.50905970 0.00000000 0.51930277
0.61779847 0.00000000 0.53838389
0.71701621 0.06484167 0.55370179
0.81123226 0.15258205 0.56506170
0.90197033 0.20283549 0.57301848
0.00000000 0.37008170 0.49687475
0.00000000 0.37008170 0.49687475
0.18177520 0.36411477 0.51829095
0.38716128 0.35232114 0.53294334
0.51717470 0.33623770 0.53246713
0.62201035 0.33123334 0.53126454
0.72132338 0.31440843 0.53854829
0.81553456 0.30325870 0.54929866
0.90612508 0.25622062 0.55772917
0.13584528 0.51574071 0.51033278
0.13584528 0.51574071 0.51033278
0.23600342 0.51801250 0.51325999
0.38157812 0.51916325 0.51582034
0.51527328 0.51527328 0.51527328
0.62579216 0.50630294 0.51406697
0.72833183 0.48403955 0.51138389
0.82195965 0.46039913 0.51839536
0.90971153 0.45490706 0.53412693
0.21157523 0.63591608 0.48708889
0.21157523 0.63591608 0.48708889
0.27518734 0.63676122 0.48063184
0.36836633 0.63812621 0.46716754
0.51100506 0.63665261 0.46635501
0.62406172 0.63336338 0.46455696
0.72758394 0.62584036 0.46052572
0.82639128 0.60757165 0.45120778
0.91171563 0.60914065 0.48906031
0.26173675 0.73901458 0.28536700
0.26173675 0.73901458 0.28536700
0.30559015 0.73996070 0.24075643
0.40541882 0.74174199 0.14557353
0.51992058 0.74320119 0.00000000
0.62728239 0.74222261 0.00000000
0.72723735 0.74031248 0.00000000
0.82311889 0.73547431 0.00000000
0.91129692 0.73374330 0.36040388
0.52382950 0.80816359 0.14535503
0.52382950 0.80816359 0.14535503
0.53395058 0.80878867 0.11639891
0.55506910 0.81006339 0.05782380
0.59384836 0.81243436 0.00000000
0.65242285 0.81654678 0.00000000
0.72821341 0.82237335 0.00000000
0.81573871 0.82912541 0.19304613
0.90496299 0.83485869 0.39063741
0.64794237 0.88927873 0.04779222
0.64794237 0.88927873 0.04779222
0.65195813 0.88959058 0.04181821
0.66033048 0.89021896 0.04671071
0.67710548 0.89147051 0.09404120
0.70758127 0.89410923 0.14427202
0.75661070 0.89888269 0.23817653
0.82634195 0.90560279 0.44530512
0.90130456 0.91498324 0.69740659
0.26748485 0.02178171 0.57153359
0.26748485 0.02178171 0.57153359
0.30860449 0.00525450 0.55806260
0.37761283 0.00000000 0.55081128
0.50026164 0.00000000 0.57755658
0.61134444 0.00000000 0.61337728
0.70999802 0.04457938 0.63956385
0.80375743 0.15482555 0.65716774
0.89472572 0.28959351 0.66864963
0.26748485 0.02178171 0.57153359
0.26748485 0.02178171 0.57153359
0.30860449 0.00525450 0.55806260
0.37761283 0.00000000 0.55081128
0.50026164 0.00000000 0.57755658
0.61134444 0.00000000 0.61337728
0.70999802 0.04457938 0.63956385
0.80375743 0.15482555 0.65716774
0.89472572 0.28959351 0.66864963
0.21358438 0.11918324 0.58940754
0.21358438 0.11918324 0.58940754
0.27389251 0.02277418 0.57985686
0.35633583 0.00000000 0.56619973
0.49583556 0.00000000 0.58568911
0.61433013 0.00000000 0.61764928
0.71377020 0.00000000 0.63966953
0.80681055 0.00000000 0.65410861
0.89693791 0.24211638 0.66406709
0.00000000 0.33473217 0.58786898
0.00000000 0.33473217 0.58786898
0.06338183 0.27510896 0.60268109
0.32258257 0.11784785 0.60717409
0.49106091 0.15859450 0.60946243
0.61087149 0.17462099 0.62192837
0.71468711 0.19898225 0.63584681
0.81012052 0.23505141 0.64808226
0.90133873 0.25682775 0.65728442
0.00000000 0.48174291 0.59482516
0.00000000 0.48174291 0.59482516
0.00000000 0.47951591 0.60701897
0.31273230 0.47150004 0.63387492
0.49634663 0.46573166 0.63366439
0.61838709 0.45206786 0.63320218
0.72517247 0.41544735 0.63218408
0.81734090 0.42112504 0.63649890
0.90728676 0.41191738 0.64510574
0.19306854 0.61695905 0.61133031
0.19306854 0.61695905 0.61133031
0.24743792 0.61823360 0.61292540
0.35179744 0.62008323 0.61544263
0.49135707 0.62031035 0.61707779
0.61654907 0.61654907 0.61654907
0.72440485 0.60789118 0.61538348
0.82500426 0.58651162 0.61279237
0.91080068 0.58876664 0.62719618
0.26621494 0.73378339 0.58766096
0.26621494 0.73378339 0.58766096
0.30445642 0.73435464 0.58489294
0.37986177 0.73522049 0.58007096
0.47967163 0.73650885 0.57043204
0.61242669 0.73506254 0.56966073
0.72270705 0.73183439 0.56795497
0.82427168 0.72445215 0.56413607
0.91114357 0.72433615 0.59351708
0.33829299 0.83629859 0.38669852
0.33829299 0.83629859 0.38669852
0.35811296 0.83696326 0.36759890
0.40753599 0.83805332 0.32600873
0.51105432 0.83911159 0.27135763
0.62440786 0.83848052 0.28652659
0.72712838 0.83752653 0.31889008
0.82339146 0.83644681 0.36683699
0.90963319 0.83651884 0.48630161
0.63930126 0.90151296 0.36532288
0.63930126 0.90151296 0.36532288
0.64348170 0.90177390 0.36254334
0.65246022 0.90230346 0.35797038
0.67156343 0.90331404 0.35495408
0.70739989 0.90501391 0.36888472
0.76594675 0.90724718 0.45044067
0.83745069 0.91005430 0.58493452
0.90466206 0.91778338 0.73958727
0.34412110 0.02927926 0.66792624
0.34412110 0.02927926 0.66792624
0.36556874 0.07850540 0.65841376
0.40387142 0.02637712 0.64430102
0.48352248 0.00000000 0.64231195
0.60279614 0.00000000 0.67229504
0.70709341 0.00000000 0.70624180
0.79837556 0.11488176 0.72899068
0.88729447 0.32886893 0.74604660
0.34412110 0.02927926 0.66792624
0.34412110 0.02927926 0.66792624
0.36556874 0.07850540 0.65841376
0.40387142 0.02637712 0.64430102
0.48352248 0.00000000 0.64231195
0.60279614 0.00000000 0.67229504
0.70709341 0.00000000 0.70624180
0.79837556 0.11488176 0.72899068
0.88729447 0.32886893 0.74604660
0.32095429 0.02518366 0.67968412
0.32095429 0.02518366 0.67968412
0.34729983 0.04443467 0.67120474
0.39115978 0.00000000 0.65582154
0.46968693 0.00000000 0.64659324
0.60095554 0.00000000 0.67484548
0.70829878 0.00000000 0.70780862
0.79998054 0.00000000 0.72919092
0.88878391 0.30529200 0.74503303
0.24409742 0.24974987 0.69198020
0.24409742 0.24974987 0.69198020
0.28860369 0.19510662 0.69016163
0.35373959 0.02028973 0.67982179
0.44468361 0.00000000 0.66418437
0.59628788 0.00000000 0.68524081
0.71164105 0.00000000 0.71315225
0.80419438 0.00000000 0.72985325
0.89283832 0.19218705 0.74288671
0.00000000 0.44981267 0.67846502
0.00000000 0.44981267 0.67846502
0.00000000 0.42990633 0.68738253
0.03705236 0.36207730 0.70502464
0.43779816 0.29402747 0.70860048
0.59228838 0.30519923 0.70994639
0.70800649 0.30679416 0.71928577
0.80818869 0.31168178 0.73010419
0.90049027 0.31667188 0.74008413
0.00000000 0.58344794 0.69046503
0.00000000 0.58344794 0.69046503
0.00000000 0.58276559 0.69647713
0.18892364 0.58089777 0.70946478
0.43273227 0.57454970 0.73233641
0.59830966 0.56906921 0.73212980
0.71714027 0.55614943 0.73167619
0.82190941 0.52203977 0.73067705
0.90806178 0.54139190 0.73385843
0.26261342 0.71518019 0.70946089
0.26261342 0.71518019 0.70946089
0.29291121 0.71587077 0.71030589
0.35254479 0.71718537 0.71194617
0.45836416 0.71897044 0.71440501
0.59352004 0.71902683 0.71585604
0.71533747 0.71533747 0.71533747
0.82115738 0.70684776 0.71419429
0.91017683 0.70573227 0.72201937
0.41466783 0.82853550 0.68836688
0.41466783 0.82853550 0.68836688
0.42665907 0.82888551 0.68729833
0.45367674 0.82954644 0.68517386
0.51057636 0.83058263 0.68140367
0.58233774 0.83301177 0.67018114
0.71129468 0.83159571 0.66942766
0.81949396 0.82843467 0.66776158
0.90798683 0.82858707 0.70499119
0.69481823 0.91871692 0.63009954
0.69481823 0.91871692 0.63009954
0.69716071 0.91899102 0.62863212
0.70235420 0.91950937 0.62582363
0.71431611 0.92029267 0.62176574
0.74050137 0.92029464 0.62498162
0.78683544 0.91937652 0.64268976
0.84975312 0.91851059 0.69496095
0.90698993 0.90698993 0.90698993
0.42535906 0.05018215 0.76190533
0.42535906 0.05018215 0.76190533
0.43556395 0.12483860 0.75635158
0.45572179 0.16802135 0.74621506
0.49284796 0.10116420 0.72974044
0.57798169 0.00000000 0.72830366
0.69407993 0.00000000 0.75834991
0.79266257 0.00000000 0.79002560
0.87817080 0.33189298 0.81044030
0.42535906 0.05018215 0.76190533
0.42535906 0.05018215 0.76190533
0.43556395 0.12483860 0.75635158
0.45572179 0.16802135 0.74621506
0.49284796 0.10116420 0.72974044
0.57798169 0.00000000 0.72830366
0.69407993 0.00000000 0.75834991
0.79266257 0.00000000 0.79002560
0.87817080 0.33189298 0.81044030
0.41554596 0.00000000 0.76863101
0.41554596 0.00000000 0.76863101
0.42686654 0.06748785 0.76330384
0.44843012 0.13604248 0.75298960
0.48768472 0.07854456 0.73540843
0.57214410 0.00000000 0.72972619
0.69330993 0.00000000 0.75924373
0.79319324 0.00000000 0.79066634
0.87892087 0.32233908 0.81061354
0.39004241 0.10089341 0.77965012
0.39004241 0.10089341 0.77965012
0.40363214 0.08611607 0.77560299
0.43005727 0.09946822 0.76630728
0.47515528 0.00509042 0.74834331
0.55748990 0.00000000 0.73473071
0.69173368 0.00000000 0.76252396
0.79471529 0.00000000 0.79272680
0.88107584 0.25939723 0.81132270
0.29166347 0.37033929 0.78684052
0.29166347 0.37033929 0.78684052
0.31882405 0.34091476 0.78815606
0.36789451 0.27806603 0.78696364
0.43692709 0.04695177 0.77482593
0.53164777 0.00000000 0.75596728
0.68670419 0.00000000 0.77446633
0.79784479 0.00000000 0.79909222
0.88729019 0.00000000 0.81432837
0.00000000 0.55319893 0.76764604
0.00000000 0.55319893 0.76764604
0.00000000 0.54559325 0.77216815
0.00000000 0.52497853 0.78239111
0.00000000 0.45511400 0.80110937
0.54045181 0.41021283 0.80539733
0.68986711 0.41421246 0.80632505
0.80236678 0.40772495 0.81363971
0.89906189 0.39469128 0.82218128
0.00000000 0.68084624 0.78347738
0.00000000 0.68084624 0.78347738
0.00000000 0.68078479 0.78637088
0.00000000 0.68056086 0.79273384
0.32623868 0.67942022 0.80679704
0.53803596 0.67420488 0.82892629
0.69745761 0.66884985 0.82872396
0.81403890 0.65624170 0.82827974
0.90700118 0.65959316 0.82379901
0.41128556 0.81045938 0.80476357
0.41128556 0.81045938 0.80476357
0.42008644 0.81084806 0.80522370
0.43981698 0.81164040 0.80616889
0.48256452 0.81317092 0.80802525
0.57341550 0.81506284 0.81059254
0.69276613 0.81588778 0.81278023
0.81227196 0.81227196 0.81227196
0.90625125 0.81219333 0.81711016
0.68996501 0.91328263 0.80170139
0.68996501 0.91328263 0.80170139
0.69154500 0.91346902 0.80147799
0.69530247 0.91383351 0.80105640
0.70476026 0.91447152 0.80040065
0.72843871 0.91524858 0.80011898
0.77719886 0.91534098 0.80322903
0.84505269 0.91439976 0.81637099
0.90698993 0.90698993 0.90698993
0.51079327 0.10031226 0.85368518
0.51079327 0.10031226 0.85368518
0.51530082 0.19015126 0.85009217
0.52455565 0.26073443 0.84296416
0.54343258 0.31666744 0.82918077
0.57808842 0.30730401 0.80738894
0.66260295 0.00000000 0.80470008
0.77527777 0.00000000 0.83595770
0.86962473 0.09940309 0.86558020
0.51079327 0.10031226 0.85368518
0.51079327 0.10031226 0.85368518
0.51530082 0.19015126 0.85009217
0.52455565 0.26073443 0.84296416
0.54343258 0.31666744 0.82918077
0.57808842 0.30730401 0.80738894
0.66260295 0.00000000 0.80470008
0.77527777 0.00000000 0.83595770
0.86962473 0.09940309 0.86558020
0.50695813 0.00000000 0.85790221
0.50695813 0.00000000 0.85790221
0.51148879 0.11780810 0.85424349
0.52117576 0.22991170 0.84719548
0.54059229 0.30251986 0.83322798
0.57605633 0.30393219 0.81043481
0.66007316 0.00000000 0.80515404
0.77496035 0.00000000 0.83631799
0.86988690 0.03744773 0.86588837
0.49722321 0.00000000 0.86528124
0.49722321 0.00000000 0.86528124
0.50249716 0.00000000 0.86211951
0.51294673 0.15616427 0.85528499
0.53384558 0.26805462 0.84161779
0.57153902 0.28933975 0.81763050
0.65436023 0.00000000 0.80695243
0.77443709 0.00000000 0.83764845
0.87069112 0.00000000 0.86690304
0.46941861 0.17586802 0.87543975
0.46941861 0.17586802 0.87543975
0.47636238 0.15812762 0.87369952
0.49009834 0.14265214 0.86937888
0.51611211 0.20407685 0.85771033
0.56032233 0.22008069 0.83464627
0.64017391 0.00000000 0.81442135
0.77392964 0.00000000 0.84297332
0.87345644 0.00000000 0.87062242
0.35682247 0.48853541 0.87553359
0.35682247 0.48853541 0.87553359
0.37087405 0.47626720 0.87671666
0.39912568 0.44278716 0.87961004
0.45191418 0.37324774 0.87961249
0.52354405 0.11596510 0.86682194
0.61843380 0.00000000 0.84498696
0.77356871 0.00000000 0.86276489
0.88163928 0.00000000 0.88365489
0.00000000 0.65389432 0.84921026
0.00000000 0.65389432 0.84921026
0.00000000 0.65095153 0.85157973
0.00000000 0.64371647 0.85715932
0.00000000 0.62353683 0.86972700
0.00000000 0.54894819 0.89412193
0.63917495 0.50525420 0.90134127
0.78660060 0.49442059 0.90316616
0.89496160 0.48743019 0.90642826
0.00000000 0.77564879 0.87525576
0.00000000 0.77564879 0.87525576
0.00000000 0.77579710 0.87711407
0.00000000 0.77606329 0.88105860
0.00000000 0.77639464 0.88969263
0.39669822 0.77593948 0.90411771
0.65830321 0.77456238 0.90817307
0.79388048 0.77333895 0.90755125
0.89736171 0.77604675 0.90672953
0.53927753 0.90341774 0.89782315
0.53927753 0.90341774 0.89782315
0.53787350 0.90373154 0.89816771
0.53834815 0.90433013 0.89883397
0.55982783 0.90514533 0.89980265
0.62070322 0.90600557 0.90099914
0.71755046 0.90612628 0.90185021
0.81855175 0.90535722 0.90264199
0.90698993 0.90698993 0.90698993
