Luts Download/Canon Luts/3dlut/17grid-3dlut/full-to-full-range/CinemaGamut_CanonLog3-to-BT2020_HLG_17_FF_Ver.2.0.cube
# Gamut : Cinema Gamut to BT.2020
# Gamma : Canon Log 3 to HLG
# Range : Full in / Full out
# Version : 2.0 2019/10/24
# Copyright(c) 2019 Canon Inc. All Rights Reserved.
LUT_3D_SIZE 5
# LUT_3D_INPUT_RANGE 0.0 1.0
0.00000010 0.00000000 0.00000000
0.22900462 0.05536980 0.06912101
0.64582268 0.00000000 0.11270549
0.94632922 0.23217842 0.26330338
1.00000000 0.88299508 0.82910355
0.11300862 0.20811015 0.08252224
0.23665726 0.24863713 0.05829849
0.64686853 0.25913805 0.05528786
0.95384616 0.30514278 0.22047000
1.00000000 0.89266793 0.83837239
0.24472018 0.58944042 0.05088237
0.31526080 0.60566495 0.03148242
0.63122958 0.65354392 0.02283595
0.94734842 0.70026813 0.23533178
1.00000000 0.94624055 0.89803645
0.60412056 0.91153407 0.21947824
0.62607312 0.91427876 0.22410493
0.73511784 0.92994491 0.26280091
0.94875072 0.96942730 0.58544064
1.00000000 1.00000000 1.00000000
1.00000000 1.00000000 1.00000000
1.00000000 1.00000000 1.00000000
1.00000000 1.00000000 1.00000000
1.00000000 1.00000000 1.00000000
1.00000000 1.00000000 1.00000000
0.05875890 0.02247434 0.18572298
0.21491450 0.00000000 0.22896109
0.63462005 0.00000000 0.29469560
0.94281889 0.22272389 0.37735009
1.00000000 0.87723004 0.82585994
0.06102729 0.23918782 0.23433236
0.24181371 0.24181371 0.24181371
0.66346678 0.19034505 0.23534648
0.95113812 0.28986530 0.33136334
1.00000000 0.88594794 0.83355852
0.19005343 0.64951339 0.09607614
0.28500482 0.65853025 0.04237195
0.65044936 0.67243739 0.00000000
0.95510512 0.68924006 0.24072668
1.00000000 0.94223453 0.89442403
0.60058298 0.92149914 0.23340505
0.62435107 0.92386821 0.23903055
0.73999370 0.93724983 0.28989402
0.95187967 0.97249457 0.60076591
1.00000000 1.00000000 1.00000000
1.00000000 1.00000000 1.00000000
1.00000000 1.00000000 1.00000000
1.00000000 1.00000000 1.00000000
1.00000000 1.00000000 1.00000000
1.00000000 1.00000000 1.00000000
0.15064632 0.04077509 0.54356966
0.20903423 0.00000000 0.50593497
0.59806173 0.00000000 0.60745576
0.92698513 0.21253933 0.69894651
1.00000000 0.87672722 0.87406782
0.06535341 0.15254500 0.58942293
0.15998931 0.00000000 0.59381564
0.61432462 0.00000000 0.63190625
0.93558211 0.23792130 0.69241772
1.00000000 0.88531383 0.87911705
0.12342597 0.63781805 0.62818280
0.19835070 0.64329623 0.63488379
0.63952564 0.63952564 0.63952564
0.97798793 0.58244050 0.63261350
1.00000000 0.93475035 0.91400609
0.58769661 0.97877681 0.46528184
0.60274922 0.98112264 0.44301247
0.74421641 0.98618268 0.42292729
0.97104286 0.99119877 0.65619290
1.00000000 1.00000000 1.00000000
1.00000000 1.00000000 1.00000000
1.00000000 1.00000000 1.00000000
1.00000000 1.00000000 1.00000000
1.00000000 1.00000000 1.00000000
1.00000000 1.00000000 1.00000000
0.31114582 0.09062112 0.87107912
0.33976233 0.10522856 0.85347327
0.53162934 0.00000000 0.80398840
0.89874652 0.18396941 0.89415562
1.00000000 0.85575091 0.93588294
0.28189846 0.10154441 0.89031169
0.31555451 0.10153447 0.87535074
0.50493620 0.00000000 0.81260535
0.90091515 0.16659319 0.89665877
1.00000000 0.85821710 0.93577592
0.00000000 0.51260206 0.88188945
0.00000000 0.47672160 0.89571371
0.47985711 0.29322551 0.93043658
0.92377471 0.41289580 0.93449828
1.00000000 0.91030309 0.95500582
0.63048308 0.94196983 0.93392913
0.64073685 0.94331933 0.93549445
0.72718308 0.94920122 0.94292980
0.95845399 0.95845399 0.95845399
1.00000000 1.00000000 1.00000000
1.00000000 1.00000000 1.00000000
1.00000000 1.00000000 1.00000000
1.00000000 1.00000000 1.00000000
1.00000000 1.00000000 1.00000000
1.00000000 1.00000000 1.00000000
0.60928909 0.62525377 1.00000000
0.61534305 0.62045630 1.00000000
0.65339435 0.58309665 1.00000000
0.81072466 0.27204350 1.00000000
1.00000000 0.81439689 1.00000000
0.60562618 0.63483366 1.00000000
0.61088157 0.62884774 1.00000000
0.64954599 0.59150969 1.00000000
0.80680186 0.26892642 1.00000000
1.00000000 0.81502726 1.00000000
0.58550181 0.69708317 1.00000000
0.58952128 0.69144316 1.00000000
0.62175317 0.65111333 1.00000000
0.77283272 0.25729971 0.99987983
1.00000000 0.82283635 0.99874797
0.67264034 0.86285418 1.00000000
0.67146435 0.86098242 1.00000000
0.66766416 0.84633516 0.99861807
0.82853186 0.83962895 0.98175012
1.00000000 1.00000000 1.00000000
1.00000000 1.00000000 1.00000000
1.00000000 1.00000000 1.00000000
1.00000000 1.00000000 1.00000000
1.00000000 1.00000000 1.00000000
1.00000000 1.00000000 1.00000000
