Luts Download/Canon Luts/3dlut/17grid-3dlut/full-to-full-range/CinemaGamut_CanonLog2-to-BT2020_HLGKnee_17_FF_Ver.2.0.cube
# Gamut : Cinema Gamut to BT.2020
# Gamma : Canon Log 2 to HLGKnee
# Range : Full in / Full out
# Version : 2.0 2019/10/24
# Copyright(c) 2019 Canon Inc. All Rights Reserved.
LUT_3D_SIZE 5
# LUT_3D_INPUT_RANGE 0.0 1.0
0.00000004 0.00000000 0.00000003
0.15773582 0.04224140 0.05083558
0.61361115 0.00000000 0.08985833
0.98062422 0.31291418 0.26769079
1.00000000 0.90699206 0.85040553
0.07056677 0.14675584 0.04100208
0.16550250 0.17423424 0.02360872
0.61604066 0.16988013 0.04410840
0.98395266 0.34118878 0.26159153
1.00000000 0.91075267 0.85572585
0.22693021 0.55362358 0.02828337
0.26722354 0.56413093 0.02099343
0.59737257 0.62085676 0.01635407
0.98472630 0.68092908 0.35320675
1.00000000 0.94977692 0.91139297
0.68146156 0.95054910 0.28333899
0.68882964 0.95155608 0.29099914
0.75848181 0.96365462 0.36101164
0.98585747 1.00000000 0.83347161
1.00000000 1.00000000 1.00000000
1.00000000 1.00000000 1.00000000
1.00000000 1.00000000 1.00000000
1.00000000 1.00000000 1.00000000
1.00000000 1.00000000 1.00000000
1.00000000 1.00000000 1.00000000
0.04086163 0.01240462 0.13476516
0.15382403 0.00000000 0.16222603
0.60622069 0.00171846 0.22262785
0.97828557 0.31016570 0.28749461
1.00000000 0.90455806 0.84752543
0.01253805 0.16848978 0.16488529
0.16895397 0.16895397 0.16895397
0.61994610 0.13821740 0.17859968
0.98283356 0.32690716 0.27563898
1.00000000 0.90819723 0.85267157
0.20399102 0.59072274 0.05099688
0.25071575 0.59810822 0.02857881
0.60895052 0.63216151 0.00000000
0.98557568 0.67770634 0.36217529
1.00000000 0.94810327 0.90933299
0.68581358 0.95378429 0.29854647
0.69294304 0.95475536 0.30562047
0.76159281 0.96634655 0.37364837
0.98693213 1.00000000 0.84344063
1.00000000 1.00000000 1.00000000
1.00000000 1.00000000 1.00000000
1.00000000 1.00000000 1.00000000
1.00000000 1.00000000 1.00000000
1.00000000 1.00000000 1.00000000
1.00000000 1.00000000 1.00000000
0.13326902 0.03047680 0.51192638
0.16967271 0.00000000 0.47567481
0.58247646 0.00000000 0.58534985
0.96780580 0.30027400 0.63254229
1.00000000 0.90618880 0.85788849
0.08996196 0.08953050 0.55029816
0.13876433 0.01048303 0.53804867
0.59201903 0.00000000 0.59956575
0.97210695 0.29955480 0.62545715
1.00000000 0.90973130 0.86237209
0.07829750 0.60418016 0.59401192
0.13526809 0.60704769 0.59769747
0.60391133 0.60391133 0.60391133
0.97911853 0.65333054 0.64783650
1.00000000 0.94736039 0.91227117
0.74078183 0.98911229 0.50583418
0.74677949 0.98971473 0.51112312
0.81060539 0.99428720 0.58060440
1.00000000 1.00000000 1.00000000
1.00000000 1.00000000 1.00000000
1.00000000 1.00000000 1.00000000
1.00000000 1.00000000 1.00000000
1.00000000 1.00000000 1.00000000
1.00000000 1.00000000 1.00000000
1.00000000 1.00000000 1.00000000
0.33326886 0.11393164 0.91314439
0.34156078 0.13446074 0.90471159
0.43947148 0.00000000 0.85960940
0.93373606 0.25091708 0.92446172
1.00000000 0.87952076 0.91195182
0.32626653 0.10562402 0.92148058
0.33514700 0.12387235 0.91387441
0.43496630 0.00000000 0.86556779
0.93442083 0.24766659 0.92522845
1.00000000 0.88056745 0.91228397
0.20225661 0.39396858 0.94532941
0.21363657 0.37791219 0.94686785
0.35885482 0.18216423 0.93016195
0.94765583 0.38750992 0.93850580
1.00000000 0.91612520 0.93463024
0.73611935 0.97794098 0.97025549
0.74110526 0.97826535 0.97066572
0.80883189 0.98005812 0.97373685
1.00000000 1.00000000 1.00000000
1.00000000 1.00000000 1.00000000
1.00000000 1.00000000 1.00000000
1.00000000 1.00000000 1.00000000
1.00000000 1.00000000 1.00000000
1.00000000 1.00000000 1.00000000
1.00000000 1.00000000 1.00000000
0.62869101 0.67971324 1.00000000
0.62892500 0.67887607 1.00000000
0.63074390 0.66615995 1.00000000
0.70606017 0.50778317 1.00000000
1.00000000 0.84366442 1.00000000
0.62944301 0.68221072 1.00000000
0.62952745 0.68116636 1.00000000
0.63123764 0.66817421 1.00000000
0.70471606 0.50691647 1.00000000
1.00000000 0.84395964 1.00000000
0.64159077 0.71492891 1.00000000
0.64128873 0.71348342 1.00000000
0.64023393 0.69811507 1.00000000
0.68510709 0.50677470 1.00000000
1.00000000 0.85036449 0.99613930
0.77494832 0.87425465 1.00000000
0.77435595 0.87364522 1.00000000
0.76779618 0.86516746 0.99695638
0.86074455 0.89129606 0.98134453
1.00000000 1.00000000 1.00000000
1.00000000 1.00000000 1.00000000
1.00000000 1.00000000 1.00000000
1.00000000 1.00000000 1.00000000
1.00000000 1.00000000 1.00000000
1.00000000 1.00000000 1.00000000
