Luts Download/Canon Luts/3dlut/17grid-3dlut/full-to-full-range/CinemaGamut_CanonLog3-to-BT2020_HLG-Vivid_17_FF_Ver.2.0.cube
# Gamut : Cinema Gamut to BT.2020
# Gamma : Canon Log 3 to HLG-Vivid
# Range : Full in / Full out
# Version : 2.0 2019/10/24
# Copyright(c) 2019 Canon Inc. All Rights Reserved.
LUT_3D_SIZE 5
# LUT_3D_INPUT_RANGE 0.0 1.0
0.00000011 0.00000000 0.00000000
0.25380498 0.04608910 0.06019197
0.69089556 0.00000000 0.08749544
0.97782899 0.22403806 0.22766901
1.00000000 0.86688748 0.80710886
0.10248818 0.21323911 0.07028058
0.23610893 0.25052167 0.04401757
0.68514255 0.23396146 0.03736277
0.98144017 0.30607298 0.20540604
1.00000000 0.87738260 0.81723707
0.21019375 0.60205545 0.03204864
0.28206910 0.61705862 0.01803916
0.63010335 0.65685953 0.01471881
0.97001942 0.68467428 0.20273283
1.00000000 0.93523456 0.88133800
0.54826639 0.92123615 0.16044186
0.57602774 0.92368785 0.16608853
0.70870086 0.93735677 0.21451917
0.94723093 0.97194052 0.51627077
1.00000000 1.00000000 1.00000000
1.00000000 1.00000000 1.00000000
1.00000000 1.00000000 1.00000000
1.00000000 1.00000000 1.00000000
1.00000000 1.00000000 1.00000000
1.00000000 1.00000000 1.00000000
0.05706372 0.01746748 0.22828106
0.23399366 0.00000000 0.25244042
0.67837249 0.00000000 0.27770308
0.97396511 0.21531546 0.33453305
1.00000000 0.86049590 0.80338336
0.04789384 0.24508658 0.23913130
0.24181371 0.24181371 0.24181371
0.70506739 0.16154795 0.20840147
0.97949179 0.28697960 0.29866353
1.00000000 0.86987000 0.81172471
0.15144649 0.66229706 0.06692256
0.24450531 0.67040515 0.02536564
0.64934480 0.67571385 0.00000000
0.97698538 0.67462019 0.21707204
1.00000000 0.93075745 0.87728443
0.54923983 0.93075947 0.18328275
0.57896517 0.93278123 0.19076964
0.71336675 0.94457167 0.23759721
0.95034975 0.97498755 0.53273257
1.00000000 1.00000000 1.00000000
1.00000000 1.00000000 1.00000000
1.00000000 1.00000000 1.00000000
1.00000000 1.00000000 1.00000000
1.00000000 1.00000000 1.00000000
1.00000000 1.00000000 1.00000000
0.14297884 0.03016167 0.63680655
0.20844721 0.00000000 0.58844696
0.63434634 0.00000000 0.64490905
0.95596548 0.20954550 0.69094080
1.00000000 0.86088213 0.85695410
0.05005861 0.14175393 0.67440383
0.15074612 0.00000000 0.68410362
0.65124536 0.00000000 0.67140861
0.96497644 0.23024007 0.68260794
1.00000000 0.87004557 0.86241084
0.09241561 0.64825467 0.63679262
0.16000795 0.65331149 0.64329886
0.63952564 0.63952564 0.63952564
0.97502608 0.62905232 0.64906721
1.00000000 0.92284920 0.89965082
0.54417053 0.98666079 0.40105895
0.57367160 0.98800366 0.39389286
0.72296752 0.99158961 0.38353377
0.96948531 0.99354234 0.59788937
1.00000000 1.00000000 1.00000000
1.00000000 1.00000000 1.00000000
1.00000000 1.00000000 1.00000000
1.00000000 1.00000000 1.00000000
1.00000000 1.00000000 1.00000000
1.00000000 1.00000000 1.00000000
0.29150231 0.11147476 0.93909487
0.32438741 0.11252597 0.92102222
0.54080776 0.00000000 0.85786537
0.92393931 0.17206465 0.91704805
1.00000000 0.83701499 0.92418681
0.25817438 0.13061076 0.95689217
0.29559569 0.12222572 0.94201447
0.50847699 0.00000000 0.86692755
0.92593571 0.16407719 0.91928897
1.00000000 0.83959377 0.92398554
0.00000000 0.51260692 0.92698326
0.01340670 0.47850729 0.94181952
0.46498338 0.31764174 0.97370529
0.94389049 0.41022013 0.95307210
1.00000000 0.89622941 0.94519284
0.59425534 0.94797160 0.93846834
0.60643305 0.94919170 0.93994900
0.70589151 0.95378794 0.94643962
0.95845399 0.95845399 0.95845399
1.00000000 1.00000000 1.00000000
1.00000000 1.00000000 1.00000000
1.00000000 1.00000000 1.00000000
1.00000000 1.00000000 1.00000000
1.00000000 1.00000000 1.00000000
1.00000000 1.00000000 1.00000000
0.58811270 0.64112098 1.00000000
0.59411209 0.63666730 1.00000000
0.63318569 0.60169362 1.00000000
0.80524335 0.35269641 1.00000000
1.00000000 0.78973094 0.99926742
0.58519224 0.64946882 1.00000000
0.58990089 0.64372807 1.00000000
0.62911844 0.60923496 1.00000000
0.80091388 0.35152719 1.00000000
1.00000000 0.79037236 0.99901090
0.57108897 0.70234575 1.00000000
0.57427383 0.69727277 1.00000000
0.60168914 0.65976579 1.00000000
0.76305768 0.35073184 1.00000000
1.00000000 0.79838065 0.99370001
0.66837004 0.85828594 1.00000000
0.66726293 0.85636262 1.00000000
0.66240080 0.84129498 0.99824213
0.81915082 0.83261809 0.98038757
1.00000000 0.98429304 1.00000000
1.00000000 1.00000000 1.00000000
1.00000000 1.00000000 1.00000000
1.00000000 1.00000000 1.00000000
1.00000000 1.00000000 1.00000000
1.00000000 1.00000000 1.00000000
