Luts Download/Canon Luts/3dlut/17grid-3dlut/full-to-full-range/CinemaGamut_CanonLog3-to-BT2020_HLGKnee_17_FF_Ver.2.0.cube
# Gamut : Cinema Gamut to BT.2020
# Gamma : Canon Log 3 to HLGKnee
# Range : Full in / Full out
# Version : 2.0 2019/10/24
# Copyright(c) 2019 Canon Inc. All Rights Reserved.
LUT_3D_SIZE 9
# LUT_3D_INPUT_RANGE 0.0 1.0
0.00000010 0.00000000 0.00000000
0.00000010 0.00000000 0.00000000
0.22900820 0.05536315 0.06911653
0.43089953 0.03847247 0.08670967
0.64602843 0.00000000 0.11204113
0.81215946 0.00000000 0.15045154
0.94308739 0.07042427 0.20264346
0.99402201 0.36092788 0.29982243
1.00000000 0.65538327 0.52671954
0.09216029 0.14617220 0.00000000
0.07524484 0.09056129 0.00000000
0.22900820 0.05536315 0.06911653
0.43089953 0.03847247 0.08670967
0.64602843 0.00000000 0.11204113
0.81215946 0.00000000 0.15045154
0.94308739 0.07042427 0.20264346
0.99402201 0.36092788 0.29982243
1.00000000 0.65538327 0.52671954
0.11300418 0.20811141 0.08251502
0.11300418 0.20811141 0.08251502
0.23665711 0.24863750 0.05827057
0.42673969 0.26404083 0.04560603
0.64707351 0.25873303 0.05358380
0.81816037 0.22703186 0.08100177
0.95171035 0.19876192 0.14514878
0.99640796 0.43683327 0.31077004
1.00000000 0.68467982 0.55318767
0.16563782 0.38060946 0.07135024
0.16563782 0.38060946 0.07135024
0.25848455 0.41228409 0.03860733
0.42100901 0.44352879 0.01646437
0.63547656 0.46523307 0.02056114
0.81179577 0.46604487 0.04769530
0.95185961 0.44481489 0.12465388
0.99749312 0.57716695 0.35330875
1.00000000 0.73547635 0.60305035
0.24408754 0.58948738 0.04848296
0.24408754 0.58948738 0.04848296
0.31477075 0.60570363 0.02694438
0.44462760 0.62831516 0.00000000
0.63115544 0.65346357 0.00000000
0.80170872 0.67278362 0.04011359
0.94646230 0.67583115 0.13778031
0.99813926 0.71733101 0.43595302
1.00000000 0.80872461 0.68236239
0.37009470 0.76247310 0.04061044
0.37009470 0.76247310 0.04061044
0.42141803 0.76906747 0.03630336
0.51920125 0.78074489 0.02859992
0.65251883 0.79860121 0.02417315
0.79959265 0.82020839 0.06480623
0.94068746 0.83343110 0.17600649
1.00000000 0.84445164 0.55821840
1.00000000 0.89484410 0.78596017
0.54911511 0.89999061 0.08868099
0.54911511 0.89999061 0.08868099
0.57702165 0.90308465 0.09464130
0.62607771 0.90932918 0.10154836
0.70410689 0.92062977 0.12084458
0.81233637 0.93815510 0.17916426
0.93558610 0.95647230 0.31947650
1.00000000 0.95618403 0.71350485
1.00000000 0.97624312 0.90291541
0.69415288 0.96865964 0.26816170
0.69415288 0.96865964 0.26816170
0.70698158 0.97058682 0.28401600
0.73135656 0.97464206 0.31378177
0.77586434 0.98251839 0.37501017
0.85412180 0.99347649 0.55856868
0.94411932 1.00000000 0.77545745
1.00000000 1.00000000 1.00000000
1.00000000 1.00000000 1.00000000
0.88262442 1.00000000 0.72384511
0.88262442 1.00000000 0.72384511
0.88938739 1.00000000 0.73844148
0.90231028 1.00000000 0.76571599
0.92547827 1.00000000 0.81360699
0.96239264 1.00000000 0.89008307
1.00000000 1.00000000 1.00000000
1.00000000 1.00000000 1.00000000
1.00000000 1.00000000 1.00000000
0.00000010 0.00000000 0.00000000
0.00000010 0.00000000 0.00000000
0.22900820 0.05536315 0.06911653
0.43089953 0.03847247 0.08670967
0.64602843 0.00000000 0.11204113
0.81215946 0.00000000 0.15045154
0.94308739 0.07042427 0.20264346
0.99402201 0.36092788 0.29982243
1.00000000 0.65538327 0.52671954
0.00000010 0.00000000 0.00000000
0.00000010 0.00000000 0.00000000
0.22900820 0.05536315 0.06911653
0.43089953 0.03847247 0.08670967
0.64602843 0.00000000 0.11204113
0.81215946 0.00000000 0.15045154
0.94308739 0.07042427 0.20264346
0.99402201 0.36092788 0.29982243
1.00000000 0.65538327 0.52671954
0.11300418 0.20811141 0.08251502
0.11300418 0.20811141 0.08251502
0.23665711 0.24863750 0.05827057
0.42673969 0.26404083 0.04560603
0.64707351 0.25873303 0.05358380
0.81816037 0.22703186 0.08100177
0.95171035 0.19876192 0.14514878
0.99640796 0.43683327 0.31077004
1.00000000 0.68467982 0.55318767
0.16563782 0.38060946 0.07135024
0.16563782 0.38060946 0.07135024
0.25848455 0.41228409 0.03860733
0.42100901 0.44352879 0.01646437
0.63547656 0.46523307 0.02056114
0.81179577 0.46604487 0.04769530
0.95185961 0.44481489 0.12465388
0.99749312 0.57716695 0.35330875
1.00000000 0.73547635 0.60305035
0.24408754 0.58948738 0.04848296
0.24408754 0.58948738 0.04848296
0.31477075 0.60570363 0.02694438
0.44462760 0.62831516 0.00000000
0.63115544 0.65346357 0.00000000
0.80170872 0.67278362 0.04011359
0.94646230 0.67583115 0.13778031
0.99813926 0.71733101 0.43595302
1.00000000 0.80872461 0.68236239
0.37009470 0.76247310 0.04061044
0.37009470 0.76247310 0.04061044
0.42141803 0.76906747 0.03630336
0.51920125 0.78074489 0.02859992
0.65251883 0.79860121 0.02417315
0.79959265 0.82020839 0.06480623
0.94068746 0.83343110 0.17600649
1.00000000 0.84445164 0.55821840
1.00000000 0.89484410 0.78596017
0.54911511 0.89999061 0.08868099
0.54911511 0.89999061 0.08868099
0.57702165 0.90308465 0.09464130
0.62607771 0.90932918 0.10154836
0.70410689 0.92062977 0.12084458
0.81233637 0.93815510 0.17916426
0.93558610 0.95647230 0.31947650
1.00000000 0.95618403 0.71350485
1.00000000 0.97624312 0.90291541
0.69415288 0.96865964 0.26816170
0.69415288 0.96865964 0.26816170
0.70698158 0.97058682 0.28401600
0.73135656 0.97464206 0.31378177
0.77586434 0.98251839 0.37501017
0.85412180 0.99347649 0.55856868
0.94411932 1.00000000 0.77545745
1.00000000 1.00000000 1.00000000
1.00000000 1.00000000 1.00000000
0.88262442 1.00000000 0.72384511
0.88262442 1.00000000 0.72384511
0.88938739 1.00000000 0.73844148
0.90231028 1.00000000 0.76571599
0.92547827 1.00000000 0.81360699
0.96239264 1.00000000 0.89008307
1.00000000 1.00000000 1.00000000
1.00000000 1.00000000 1.00000000
1.00000000 1.00000000 1.00000000
0.05875864 0.02247149 0.18572522
0.05875864 0.02247149 0.18572522
0.21491777 0.00000000 0.22896540
0.41117101 0.00000000 0.26615682
0.63481278 0.00000000 0.29452919
0.80624827 0.00000000 0.31783542
0.93907291 0.06049360 0.33102538
0.99260210 0.34203693 0.34877132
1.00000000 0.64489735 0.52814395
0.05875864 0.02247149 0.18572522
0.05875864 0.02247149 0.18572522
0.21491777 0.00000000 0.22896540
0.41117101 0.00000000 0.26615682
0.63481278 0.00000000 0.29452919
0.80624827 0.00000000 0.31783542
0.93907291 0.06049360 0.33102538
0.99260210 0.34203693 0.34877132
1.00000000 0.64489735 0.52814395
0.06100737 0.23918973 0.23433408
0.06100737 0.23918973 0.23433408
0.24181371 0.24181371 0.24181371
0.44979474 0.22693661 0.23980483
0.66346678 0.19034505 0.23534648
0.81923097 0.18130174 0.26001224
0.94824944 0.18679323 0.28087463
0.99442029 0.42260002 0.34976463
1.00000000 0.67230907 0.54954484
0.09613113 0.46908706 0.19844479
0.09613113 0.46908706 0.19844479
0.23471804 0.47397554 0.16100418
0.44602017 0.46656100 0.15797099
0.65973606 0.45282438 0.16408959
0.82620899 0.42328786 0.15937304
0.95812716 0.38953666 0.18137305
0.99828620 0.55546245 0.36402530
1.00000000 0.72521593 0.59802767
0.18873789 0.64956792 0.09438479
0.18873789 0.64956792 0.09438479
0.28415644 0.65857571 0.03812670
0.44991227 0.66689585 0.00000000
0.65037431 0.67235312 0.00000000
0.81665667 0.67254318 0.02972738
0.95434749 0.66428431 0.15306729
0.99891838 0.71349068 0.45445591
1.00000000 0.80505732 0.68311365
0.34175785 0.78647666 0.06339024
0.34175785 0.78647666 0.06339024
0.40047825 0.79172517 0.04474381
0.51229730 0.80049837 0.01965953
0.65759015 0.81325959 0.00000000
0.80735092 0.82792721 0.06660309
0.94628253 0.83520736 0.19462920
1.00000000 0.84632896 0.58109805
1.00000000 0.89509303 0.79080051
0.53950431 0.91101298 0.10210459
0.53950431 0.91101298 0.10210459
0.57020478 0.91371491 0.10738569
0.62332750 0.91915192 0.11520977
0.70564900 0.92904161 0.13588626
0.81618878 0.94425846 0.19792956
0.93909410 0.96002353 0.34545432
1.00000000 0.95848130 0.73219110
1.00000000 0.97746803 0.90876364
0.70364170 0.97441370 0.30420992
0.70364170 0.97441370 0.30420992
0.71596805 0.97618188 0.31879499
0.73967921 0.97985628 0.34747935
0.78463142 0.98679540 0.41484886
0.86420420 0.99524562 0.60814916
0.94879576 1.00000000 0.79686785
1.00000000 1.00000000 1.00000000
1.00000000 1.00000000 1.00000000
0.89449683 1.00000000 0.75510204
0.89449683 1.00000000 0.75510204
0.90046606 1.00000000 0.76747734
0.91210110 1.00000000 0.79111506
0.93356872 1.00000000 0.83456742
0.96805743 1.00000000 0.90487191
1.00000000 1.00000000 1.00000000
1.00000000 1.00000000 1.00000000
1.00000000 1.00000000 1.00000000
0.10052119 0.03329446 0.34175100
0.10052119 0.03329446 0.34175100
0.20408342 0.00000000 0.34960912
0.38827513 0.00000000 0.40528876
0.61652202 0.00000000 0.46218298
0.79459330 0.00000000 0.50841333
0.93197114 0.08076590 0.52366289
0.99100982 0.31793432 0.49028032
1.00000000 0.64064100 0.58831906
0.10052119 0.03329446 0.34175100
0.10052119 0.03329446 0.34175100
0.20408342 0.00000000 0.34960912
0.38827513 0.00000000 0.40528876
0.61652202 0.00000000 0.46218298
0.79459330 0.00000000 0.50841333
0.93197114 0.08076590 0.52366289
0.99100982 0.31793432 0.49028032
1.00000000 0.64064100 0.58831906
0.00000000 0.18802497 0.39324856
0.00000000 0.18802497 0.39324856
0.21054807 0.15995413 0.46723619
0.43378789 0.13642463 0.46619968
0.64178278 0.15565638 0.46048208
0.80970334 0.14684927 0.48071751
0.94128506 0.18092739 0.49452410
0.99215725 0.40522494 0.49636903
1.00000000 0.67085659 0.60450923
0.07867965 0.42832612 0.41901324
0.07867965 0.42832612 0.41901324
0.20235903 0.43790896 0.43099667
0.42987279 0.42987279 0.42987279
0.65629964 0.41173004 0.42740171
0.82779665 0.36890345 0.42194068
0.95315263 0.37110525 0.44475889
0.99341769 0.55347758 0.51467081
1.00000000 0.72268185 0.63647329
0.13229902 0.67180843 0.37551007
0.13229902 0.67180843 0.37551007
0.22726495 0.67544970 0.35389725
0.42117352 0.67562531 0.33692454
0.65318332 0.66981307 0.33376601
0.82660862 0.65638629 0.32674373
0.96733698 0.62345648 0.32303719
0.99518322 0.70942564 0.55405278
1.00000000 0.80175443 0.69746056
0.20829630 0.83402738 0.15963786
0.20829630 0.83402738 0.15963786
0.28930143 0.83806252 0.10873263
0.45464352 0.84224259 0.01199281
0.65851900 0.84443076 0.00000000
0.82290556 0.84335045 0.01213911
0.95917543 0.83660261 0.21373937
1.00000000 0.84716851 0.61052258
1.00000000 0.89359336 0.79531670
0.50872669 0.93340003 0.15219392
0.50872669 0.93340003 0.15219392
0.54620873 0.93569325 0.14733194
0.61196839 0.93979574 0.15087567
0.70662713 0.94675221 0.17117342
0.82371490 0.95708667 0.23827715
0.94633783 0.96735542 0.42018929
1.00000000 0.96310839 0.76967959
1.00000000 0.97971203 0.91849307
0.72650807 0.98554684 0.38869460
0.72650807 0.98554684 0.38869460
0.73839763 0.98703001 0.40314887
0.76376080 0.98942726 0.44321651
0.81292794 0.99297984 0.54440959
0.88396054 0.99864256 0.68845326
0.95913520 1.00000000 0.84278940
1.00000000 1.00000000 1.00000000
1.00000000 1.00000000 1.00000000
0.91580764 1.00000000 0.80747667
0.91580764 1.00000000 0.80747667
0.92068525 1.00000000 0.81702961
0.93034418 1.00000000 0.83595699
0.94896724 1.00000000 0.87268445
0.97693607 1.00000000 0.92927031
1.00000000 1.00000000 1.00000000
1.00000000 1.00000000 1.00000000
1.00000000 1.00000000 1.00000000
0.15063660 0.04049506 0.54367819
0.15063660 0.04049506 0.54367819
0.20903979 0.00000000 0.50601831
0.36932735 0.00000000 0.53935693
0.59818275 0.00000000 0.60764026
0.78049442 0.00000000 0.66087894
0.92092963 0.09712295 0.68309685
0.98770862 0.28200460 0.64184714
1.00000000 0.62432931 0.66785265
0.15063660 0.04049506 0.54367819
0.15063660 0.04049506 0.54367819
0.20903979 0.00000000 0.50601831
0.36932735 0.00000000 0.53935693
0.59818275 0.00000000 0.60764026
0.78049442 0.00000000 0.66087894
0.92092963 0.09712295 0.68309685
0.98770862 0.28200460 0.64184714
1.00000000 0.62432931 0.66785265
0.06521933 0.15243936 0.58957598
0.06521933 0.15243936 0.58957598
0.15997945 0.00000000 0.59394714
0.36931643 0.00000000 0.59840950
0.61447600 0.00000000 0.63213934
0.79440036 0.00000000 0.66382481
0.93089673 0.12181740 0.67568951
0.99035222 0.34525899 0.63983127
1.00000000 0.65136170 0.67617799
0.00000000 0.35913269 0.59952920
0.00000000 0.35913269 0.59952920
0.14786591 0.35291503 0.64257967
0.39220313 0.33582767 0.67034640
0.64288697 0.31226789 0.66952734
0.82277396 0.25313901 0.66772078
0.94558155 0.31389075 0.66470320
0.99260256 0.50799717 0.65161703
1.00000000 0.70871574 0.70164733
0.11846553 0.63802106 0.62837952
0.11846553 0.63802106 0.62837952
0.19568311 0.64347434 0.63505715
0.38264842 0.64639017 0.64049390
0.63952564 0.63952564 0.63952564
0.82155198 0.62350687 0.63738711
0.96363270 0.58898214 0.63053984
0.99266352 0.69319348 0.68330444
1.00000000 0.79445552 0.75265923
0.18924747 0.83414661 0.58683119
0.18924747 0.83414661 0.58683119
0.24773063 0.83650909 0.57606602
0.36084578 0.84074836 0.54980375
0.63193758 0.83846235 0.54819306
0.81884691 0.83335264 0.54461491
0.96803445 0.81753799 0.54451106
0.99776869 0.84576444 0.73996450
1.00000000 0.89683853 0.83746200
0.38992986 0.97696146 0.31922084
0.38992986 0.97696146 0.31922084
0.42985086 0.97891697 0.29418613
0.56394272 0.97841228 0.29468213
0.70542189 0.97724247 0.32297581
0.83562816 0.97757316 0.39336108
0.95779566 0.97848945 0.55556567
1.00000000 0.97050359 0.81960272
1.00000000 0.98427673 0.93313144
0.80437818 1.00000000 0.63589205
0.80437818 1.00000000 0.63589205
0.81389476 1.00000000 0.64715307
0.83250352 1.00000000 0.67021059
0.86525260 1.00000000 0.71332469
0.91663792 1.00000000 0.79145677
0.97611715 1.00000000 0.89990567
1.00000000 1.00000000 1.00000000
1.00000000 1.00000000 1.00000000
0.95121530 1.00000000 0.88665165
0.95121530 1.00000000 0.88665165
0.95470180 1.00000000 0.89309574
0.96146794 1.00000000 0.90551116
0.97384707 1.00000000 0.92862838
1.00000000 1.00000000 1.00000000
1.00000000 1.00000000 1.00000000
1.00000000 1.00000000 1.00000000
1.00000000 1.00000000 1.00000000
0.21726666 0.04425179 0.72313124
0.21726666 0.04425179 0.72313124
0.25999940 0.02471136 0.69325401
0.34373690 0.00000000 0.66521929
0.57525079 0.00000000 0.70901713
0.76581995 0.00000000 0.76775185
0.90701059 0.09274743 0.79836756
0.97953629 0.25014182 0.76386329
1.00000000 0.59271328 0.75193660
0.21726666 0.04425179 0.72313124
0.21726666 0.04425179 0.72313124
0.25999940 0.02471136 0.69325401
0.34373690 0.00000000 0.66521929
0.57525079 0.00000000 0.70901713
0.76581995 0.00000000 0.76775185
0.90701059 0.09274743 0.79836756
0.97953629 0.25014182 0.76386329
1.00000000 0.59271328 0.75193660
0.16776671 0.10307819 0.75701767
0.16776671 0.10307819 0.75701767
0.22406478 0.04468004 0.73685598
0.31943732 0.00000000 0.70148396
0.57043353 0.00000000 0.72634852
0.77308939 0.00000000 0.77717247
0.91459049 0.00000000 0.80051904
0.98433403 0.24373512 0.76127334
1.00000000 0.60369856 0.75036989
0.00000000 0.30565481 0.75256631
0.00000000 0.30565481 0.75256631
0.06698518 0.23314344 0.77811926
0.28682638 0.10382849 0.78501920
0.58622449 0.12881356 0.78717021
0.78685900 0.13953376 0.80381787
0.92913968 0.19323612 0.80904575
0.98986775 0.39858896 0.76685172
1.00000000 0.66987502 0.76674155
0.00000000 0.57109267 0.76549679
0.00000000 0.57109267 0.76549679
0.00000000 0.56995811 0.78768057
0.28038543 0.55832834 0.83414795
0.60539010 0.54695475 0.83382066
0.80995425 0.51919590 0.83310196
0.96044942 0.45444950 0.82057042
0.99376636 0.64204352 0.78513334
1.00000000 0.77055432 0.80446310
0.17712816 0.80488605 0.79601766
0.17712816 0.80488605 0.79601766
0.22131373 0.80771877 0.79936740
0.34596744 0.81159162 0.80431007
0.59616436 0.81297201 0.80789753
0.80706646 0.80706646 0.80706646
0.95725278 0.79536649 0.80483522
0.99156326 0.83309048 0.83250800
1.00000000 0.89066446 0.87779079
0.46872247 0.96173565 0.76084357
0.46872247 0.96173565 0.76084357
0.50107469 0.96285313 0.75913523
0.57188573 0.96447309 0.75711802
0.61803324 0.97268312 0.73355224
0.80527663 0.97173751 0.74148957
0.95443403 0.96794606 0.74180861
1.00000000 0.96456367 0.90154228
1.00000000 0.99216774 0.97257652
0.87496914 1.00000000 0.81347589
0.87496914 1.00000000 0.81347589
0.88042621 1.00000000 0.81779131
0.89141809 1.00000000 0.82716518
0.91243999 1.00000000 0.84768270
0.94710426 1.00000000 0.88882901
1.00000000 1.00000000 1.00000000
1.00000000 1.00000000 1.00000000
1.00000000 1.00000000 1.00000000
1.00000000 1.00000000 1.00000000
1.00000000 1.00000000 1.00000000
1.00000000 1.00000000 1.00000000
1.00000000 1.00000000 1.00000000
1.00000000 1.00000000 1.00000000
1.00000000 1.00000000 1.00000000
1.00000000 1.00000000 1.00000000
1.00000000 1.00000000 1.00000000
1.00000000 1.00000000 1.00000000
0.29720909 0.04946312 0.86269609
0.29720909 0.04946312 0.86269609
0.32543617 0.08049418 0.84363885
0.37944875 0.05073548 0.81251148
0.52773758 0.00000000 0.79822415
0.73930159 0.00000000 0.84626911
0.89092075 0.05551717 0.88778154
0.96822059 0.21153981 0.86368935
1.00000000 0.54339411 0.83568746
0.29720909 0.04946312 0.86269609
0.29720909 0.04946312 0.86269609
0.32543617 0.08049418 0.84363885
0.37944875 0.05073548 0.81251148
0.52773758 0.00000000 0.79822415
0.73930159 0.00000000 0.84626911
0.89092075 0.05551717 0.88778154
0.96822059 0.21153981 0.86368935
1.00000000 0.54339411 0.83568746
0.26852381 0.04920670 0.88415439
0.26852381 0.04920670 0.88415439
0.30194688 0.06382675 0.86759534
0.36264565 0.02487639 0.83562095
0.50165145 0.00000000 0.80798302
0.73790169 0.00000000 0.85188973
0.89358586 0.00000000 0.89099005
0.97056353 0.20750359 0.86420186
1.00000000 0.55296713 0.83517189
0.18433972 0.20538016 0.90585519
0.18433972 0.20538016 0.90585519
0.23107270 0.15787385 0.90188621
0.31203367 0.06011914 0.88086060
0.45362335 0.00000000 0.84710771
0.73884451 0.00000000 0.87489293
0.90323351 0.00000000 0.90301789
0.97807600 0.19204080 0.86752166
1.00000000 0.58433229 0.83626381
0.00000000 0.50074817 0.88311129
0.00000000 0.50074817 0.88311129
0.00000000 0.46284755 0.89750166
0.04050305 0.34972137 0.92597341
0.49144153 0.31832573 0.93207919
0.76219137 0.31902511 0.93706867
0.92280188 0.34317632 0.93620398
0.98882317 0.52411857 0.88248959
1.00000000 0.71908686 0.85918115
0.00000000 0.75101675 0.90990433
0.00000000 0.75101675 0.90990433
0.00000000 0.75173722 0.91995555
0.24537344 0.75202183 0.93899777
0.55392553 0.75063725 0.95155738
0.78089763 0.74368622 0.96857467
0.94779102 0.72558165 0.96596284
0.99361690 0.79030557 0.90567367
1.00000000 0.86520906 0.90799712
0.36456145 0.93863906 0.93003767
0.36456145 0.93863906 0.93003767
0.39774307 0.93988531 0.93152454
0.48096395 0.94188953 0.93404669
0.63501986 0.94406825 0.93734409
0.77583555 0.94964814 0.94500401
0.94441540 0.94441540 0.94441540
0.99686629 0.95617698 0.95688881
1.00000000 0.99033649 0.98909266
0.85434930 0.99694930 0.90104091
0.85434930 0.99694930 0.90104091
0.86056777 0.99727667 0.90331109
0.87369339 0.99785024 0.90844752
0.89884871 0.99920461 0.91962134
0.94160527 1.00000000 0.94379541
1.00000000 1.00000000 1.00000000
1.00000000 1.00000000 1.00000000
1.00000000 1.00000000 1.00000000
1.00000000 1.00000000 1.00000000
1.00000000 1.00000000 1.00000000
1.00000000 1.00000000 1.00000000
1.00000000 1.00000000 1.00000000
1.00000000 1.00000000 1.00000000
1.00000000 1.00000000 1.00000000
1.00000000 1.00000000 1.00000000
1.00000000 1.00000000 1.00000000
1.00000000 1.00000000 1.00000000
0.34017944 0.07655087 0.93783339
0.34017944 0.07655087 0.93783339
0.35574956 0.09821365 0.92655193
0.38720636 0.10984943 0.90525618
0.44939601 0.00000000 0.87871614
0.68320839 0.00000000 0.91083606
0.85724359 0.00000000 0.95011460
0.95176608 0.18886840 0.94353013
1.00000000 0.49015000 0.91679619
0.34017944 0.07655087 0.93783339
0.34017944 0.07655087 0.93783339
0.35574956 0.09821365 0.92655193
0.38720636 0.10984943 0.90525618
0.44939601 0.00000000 0.87871614
0.68320839 0.00000000 0.91083606
0.85724359 0.00000000 0.95011460
0.95176608 0.18886840 0.94353013
1.00000000 0.49015000 0.91679619
0.32686537 0.07570124 0.95069424
0.32686537 0.07570124 0.95069424
0.34423626 0.09355457 0.94020480
0.37767801 0.10362604 0.91910916
0.44077808 0.00000000 0.88831778
0.67566349 0.00000000 0.91480322
0.85726543 0.00000000 0.95258779
0.95275306 0.18698247 0.94455634
1.00000000 0.49823486 0.91675852
0.29370265 0.16621030 0.96922047
0.29370265 0.16621030 0.96922047
0.31337780 0.14982719 0.96220687
0.35272330 0.12883690 0.94426989
0.42356243 0.00000000 0.91130189
0.65748795 0.00000000 0.92992434
0.85916220 0.00000000 0.96249871
0.95611317 0.15108223 0.94845279
1.00000000 0.51445276 0.91674877
0.20780441 0.41031849 0.97305331
0.20780441 0.41031849 0.97305331
0.22940322 0.37802887 0.97580146
0.27808894 0.30892243 0.97510078
0.37073349 0.16598783 0.95611500
0.66556614 0.20209169 0.97249525
0.87749143 0.26366164 0.98335992
0.96853370 0.40372604 0.95882384
1.00000000 0.66111118 0.92450311
0.07151820 0.68587783 0.97571825
0.07151820 0.68587783 0.97571825
0.04563984 0.67664676 0.98104508
0.20856534 0.68099567 0.98437832
0.44648515 0.70680793 0.97838053
0.72429782 0.71842798 0.98323296
0.88972019 0.73456976 0.99590071
0.97644709 0.75795542 0.97198648
1.00000000 0.83836732 0.94861666
0.58436190 0.89628032 0.99878584
0.58436190 0.89628032 0.99878584
0.61117452 0.89698218 0.99950429
0.66018842 0.89840619 1.00000000
0.73853717 0.90144282 0.99974896
0.83927655 0.90930643 0.99445268
0.93146187 0.92738139 0.99374564
0.98940848 0.94189850 0.98988456
1.00000000 0.97951403 0.99773700
0.81122339 0.98799270 0.98111773
0.81122339 0.98799270 0.98111773
0.81995034 0.98829560 0.98162180
0.83736465 0.98896793 0.98272400
0.86961774 0.99061482 0.98527411
0.92298483 0.99465001 0.99112541
0.98791143 1.00000000 1.00000000
1.00000000 1.00000000 1.00000000
1.00000000 1.00000000 1.00000000
1.00000000 1.00000000 1.00000000
1.00000000 1.00000000 1.00000000
1.00000000 1.00000000 1.00000000
1.00000000 1.00000000 1.00000000
1.00000000 1.00000000 1.00000000
1.00000000 1.00000000 1.00000000
1.00000000 1.00000000 1.00000000
1.00000000 1.00000000 1.00000000
1.00000000 1.00000000 1.00000000
0.40874399 0.19578954 1.00000000
0.40874399 0.19578954 1.00000000
0.41660212 0.19373879 1.00000000
0.43260539 0.19035237 0.99000014
0.46152691 0.18289934 0.96283637
0.56713581 0.00000000 0.96772258
0.80092775 0.00000000 1.00000000
0.91877649 0.14628699 1.00000000
1.00000000 0.41853787 0.99130846
0.40874399 0.19578954 1.00000000
0.40874399 0.19578954 1.00000000
0.41660212 0.19373879 1.00000000
0.43260539 0.19035237 0.99000014
0.46152691 0.18289934 0.96283637
0.56713581 0.00000000 0.96772258
0.80092775 0.00000000 1.00000000
0.91877649 0.14628699 1.00000000
1.00000000 0.41853787 0.99130846
0.40374244 0.22056121 1.00000000
0.40374244 0.22056121 1.00000000
0.41172702 0.21472029 1.00000000
0.42833012 0.20363268 0.99566907
0.45934402 0.18376607 0.97110434
0.55475469 0.00000000 0.96885391
0.79814407 0.00000000 1.00000000
0.91841270 0.14784696 1.00000000
1.00000000 0.42460391 0.99120247
0.39221250 0.29594466 1.00000000
0.39221250 0.29594466 1.00000000
0.40047931 0.28044595 1.00000000
0.41810485 0.25658992 1.00000000
0.45250763 0.20801266 0.98471071
0.52480297 0.00000000 0.97212847
0.79227224 0.00000000 1.00000000
0.91798409 0.13660466 1.00000000
1.00000000 0.43744342 0.99096616
0.37364389 0.45514775 1.00000000
0.37364389 0.45514775 1.00000000
0.38052977 0.43708817 1.00000000
0.39753918 0.40385360 1.00000000
0.43248180 0.33014734 0.99713247
0.50060112 0.00000000 0.98425472
0.78329458 0.00000000 1.00000000
0.91961044 0.23997430 1.00000000
1.00000000 0.53420325 0.98802943
0.38708050 0.66511157 1.00000000
0.38708050 0.66511157 1.00000000
0.38911134 0.65760901 1.00000000
0.39577134 0.63992075 1.00000000
0.41914328 0.59653619 1.00000000
0.61407824 0.65746183 0.99578747
0.81531866 0.70498408 1.00000000
0.93817264 0.72509942 0.99486974
1.00000000 0.79675702 0.98519524
0.60968459 0.84845977 1.00000000
0.60968459 0.84845977 1.00000000
0.62541560 0.85115330 1.00000000
0.65601016 0.85670545 1.00000000
0.71036260 0.86772462 1.00000000
0.79163184 0.88730104 1.00000000
0.89621281 0.90634069 1.00000000
0.96495445 0.92262191 1.00000000
1.00000000 0.95929781 1.00000000
0.83243061 0.95136642 1.00000000
0.83243061 0.95136642 1.00000000
0.83902413 0.95230064 1.00000000
0.85241582 0.95432059 1.00000000
0.87823901 0.95876351 1.00000000
0.92140082 0.96885357 1.00000000
0.97331079 0.98830540 1.00000000
1.00000000 1.00000000 1.00000000
1.00000000 1.00000000 1.00000000
1.00000000 1.00000000 1.00000000
1.00000000 1.00000000 1.00000000
1.00000000 1.00000000 1.00000000
1.00000000 1.00000000 1.00000000
1.00000000 1.00000000 1.00000000
1.00000000 1.00000000 1.00000000
1.00000000 1.00000000 1.00000000
1.00000000 1.00000000 1.00000000
1.00000000 1.00000000 1.00000000
