Luts Download/Canon Luts/3dlut/17grid-3dlut/full-to-full-range/CinemaGamut_CanonLog2-to-BT2020_HLG_17_FF_Ver.2.0.cube
# Gamut : Cinema Gamut to BT.2020
# Gamma : Canon Log 2 to HLG
# Range : Full in / Full out
# Version : 2.0 2019/10/24
# Copyright(c) 2019 Canon Inc. All Rights Reserved.
LUT_3D_SIZE 9
# LUT_3D_INPUT_RANGE 0.0 1.0
0.00000004 0.00000000 0.00000003
0.02636438 0.02636435 0.02636437
0.15772910 0.04225396 0.05084393
0.33914791 0.02883163 0.06508548
0.61303994 0.00000000 0.09164271
0.84333163 0.13511857 0.17032435
0.99508610 0.61173970 0.49321063
1.00000000 0.91612475 0.87248476
1.00000000 1.00000000 1.00000000
0.02636438 0.02636435 0.02636437
0.04104191 0.04151348 0.03563211
0.16039857 0.06525193 0.04812926
0.34032033 0.05831420 0.05717359
0.61454527 0.01331918 0.08314192
0.84453973 0.13381585 0.16439822
0.99562982 0.61221050 0.49178143
1.00000000 0.91639704 0.87268866
1.00000000 1.00000000 1.00000000
0.07057997 0.14675341 0.04102672
0.07951934 0.15412041 0.03798756
0.16550383 0.17423490 0.02370984
0.33665145 0.18474732 0.02506560
0.61544541 0.17166404 0.04755169
0.85040403 0.17392501 0.12901839
0.99861710 0.62089479 0.48500950
1.00000000 0.91891681 0.87489333
1.00000000 1.00000000 1.00000000
0.12419478 0.29956018 0.03418213
0.13061499 0.30242112 0.03122815
0.18780190 0.31990296 0.01522441
0.33012787 0.34805648 0.00178849
0.60280531 0.36944544 0.03327939
0.84860175 0.37477670 0.11128072
1.00000000 0.66651417 0.49402544
1.00000000 0.92773582 0.88413652
1.00000000 1.00000000 1.00000000
0.22934241 0.55364728 0.03773379
0.23354848 0.55484977 0.03724858
0.26931863 0.56417121 0.03332091
0.36999605 0.58628841 0.02779750
0.59785013 0.62140066 0.04413397
0.83792637 0.65426794 0.13470430
0.99937476 0.77571820 0.56146910
1.00000000 0.95772371 0.91863092
1.00000000 1.00000000 1.00000000
0.45451005 0.80127313 0.13260067
0.45689454 0.80155361 0.13298663
0.47728390 0.80392376 0.13603733
0.53632190 0.81118894 0.14171277
0.65836157 0.82942449 0.16256457
0.84090867 0.86241485 0.26188643
0.99807655 0.92024705 0.71565445
1.00000000 1.00000000 1.00000000
1.00000000 1.00000000 1.00000000
0.83582131 0.99419378 0.65318808
0.83624683 0.99421715 0.65381447
0.83982637 0.99443601 0.65899835
0.85062620 0.99524775 0.67428982
0.88069145 0.99859839 0.71707985
0.94573465 1.00000000 0.81942511
1.00000000 1.00000000 1.00000000
1.00000000 1.00000000 1.00000000
1.00000000 1.00000000 1.00000000
1.00000000 1.00000000 1.00000000
1.00000000 1.00000000 1.00000000
1.00000000 1.00000000 1.00000000
1.00000000 1.00000000 1.00000000
1.00000000 1.00000000 1.00000000
1.00000000 1.00000000 1.00000000
1.00000000 1.00000000 1.00000000
1.00000000 1.00000000 1.00000000
1.00000000 1.00000000 1.00000000
1.00000000 1.00000000 1.00000000
1.00000000 1.00000000 1.00000000
1.00000000 1.00000000 1.00000000
1.00000000 1.00000000 1.00000000
1.00000000 1.00000000 1.00000000
1.00000000 1.00000000 1.00000000
1.00000000 1.00000000 1.00000000
1.00000000 1.00000000 1.00000000
1.00000000 1.00000000 1.00000000
0.02636438 0.02636435 0.02636437
0.04472641 0.03119897 0.04601921
0.15956237 0.03522860 0.07052469
0.33895017 0.00964545 0.08680534
0.61406597 0.00000000 0.10458218
0.84322338 0.13420002 0.17556076
0.99470747 0.61168655 0.49509265
1.00000000 0.91593027 0.87239822
1.00000000 1.00000000 1.00000000
0.03314261 0.04702874 0.04664194
0.05426708 0.05426708 0.05426708
0.17089239 0.05392941 0.06197532
0.34621648 0.03986035 0.07180920
0.61677318 0.00000000 0.09131739
0.84435327 0.13369677 0.17006837
0.99523955 0.61220134 0.49372303
1.00000000 0.91620581 0.87260869
1.00000000 1.00000000 1.00000000
0.06557871 0.16599330 0.04585201
0.07769073 0.17074185 0.03921385
0.17194555 0.18104154 0.02287562
0.34432360 0.18167150 0.02666552
0.61873613 0.16331190 0.05104570
0.85057039 0.17061928 0.13377472
0.99831215 0.62070503 0.48673178
1.00000000 0.91872639 0.87480585
1.00000000 1.00000000 1.00000000
0.12100355 0.30878499 0.03616127
0.12808996 0.31129359 0.03227062
0.18810141 0.32715344 0.01408517
0.33337068 0.35148011 0.00000000
0.60555587 0.36832523 0.03384945
0.84943632 0.37114157 0.11221724
1.00000000 0.66573426 0.49460481
1.00000000 0.92748194 0.88393230
1.00000000 1.00000000 1.00000000
0.22758369 0.55771717 0.03852593
0.23191494 0.55882891 0.03783481
0.26834034 0.56778185 0.03371620
0.37036732 0.58905306 0.02731583
0.59908931 0.62261195 0.04387328
0.83860298 0.65399220 0.13487530
0.99944700 0.77537315 0.56175276
1.00000000 0.95752975 0.91844876
1.00000000 1.00000000 1.00000000
0.45394101 0.80225275 0.13320024
0.45633615 0.80252744 0.13355619
0.47681651 0.80487108 0.13656471
0.53618404 0.81205658 0.14224237
0.65859949 0.83009783 0.16296680
0.84122173 0.86272700 0.26223172
0.99813443 0.92027024 0.71604150
1.00000000 1.00000000 1.00000000
1.00000000 1.00000000 1.00000000
0.83637915 0.99429238 0.65483496
0.83679916 0.99431609 0.65544605
0.84035929 0.99453508 0.66057729
0.85110407 0.99534689 0.67572110
0.88103974 0.99869073 0.71815312
0.94591464 1.00000000 0.81997305
1.00000000 1.00000000 1.00000000
1.00000000 1.00000000 1.00000000
1.00000000 1.00000000 1.00000000
1.00000000 1.00000000 1.00000000
1.00000000 1.00000000 1.00000000
1.00000000 1.00000000 1.00000000
1.00000000 1.00000000 1.00000000
1.00000000 1.00000000 1.00000000
1.00000000 1.00000000 1.00000000
1.00000000 1.00000000 1.00000000
1.00000000 1.00000000 1.00000000
1.00000000 1.00000000 1.00000000
1.00000000 1.00000000 1.00000000
1.00000000 1.00000000 1.00000000
1.00000000 1.00000000 1.00000000
1.00000000 1.00000000 1.00000000
1.00000000 1.00000000 1.00000000
1.00000000 1.00000000 1.00000000
1.00000000 1.00000000 1.00000000
1.00000000 1.00000000 1.00000000
1.00000000 1.00000000 1.00000000
0.04086242 0.01242126 0.13475965
0.05005024 0.00000000 0.13701662
0.15381709 0.00000000 0.16221600
0.32843282 0.00000000 0.19478837
0.60565667 0.02594705 0.22347419
0.84040369 0.13876598 0.25984598
0.99339402 0.60527730 0.50454400
1.00000000 0.91407875 0.87128852
1.00000000 1.00000000 1.00000000
0.03139732 0.02785406 0.14319723
0.04293453 0.00610042 0.14824889
0.15818938 0.00000000 0.16746101
0.33542820 0.00000000 0.19207392
0.60907103 0.02216363 0.21633995
0.84129951 0.14087769 0.25520851
0.99380158 0.60620660 0.50365683
1.00000000 0.91437062 0.87153129
1.00000000 1.00000000 1.00000000
0.01260242 0.16848535 0.16488125
0.05307386 0.16949320 0.16621018
0.16895397 0.16895397 0.16895397
0.35300322 0.15455754 0.16703079
0.61934736 0.14041174 0.17962717
0.84832230 0.16934597 0.21690895
0.99676671 0.61563492 0.49750674
1.00000000 0.91695459 0.87380341
1.00000000 1.00000000 1.00000000
0.06148605 0.37333237 0.11379139
0.07358301 0.37355498 0.10933101
0.17157419 0.37292244 0.09567585
0.35061021 0.36813750 0.09296849
0.62438298 0.35340927 0.09054186
0.85663577 0.33455012 0.12100879
0.99998217 0.65826605 0.49905798
1.00000000 0.92565751 0.88261388
1.00000000 1.00000000 1.00000000
0.20738922 0.59072405 0.05779665
0.21193140 0.59158153 0.05507924
0.25349216 0.59812943 0.03978522
0.37008460 0.61252597 0.01248295
0.60941235 0.63269231 0.03619946
0.84462146 0.65091130 0.13522536
1.00000000 0.77206387 0.56364752
1.00000000 0.95581009 0.91684694
1.00000000 1.00000000 1.00000000
0.44858632 0.81068565 0.13950057
0.45098105 0.81093652 0.13963549
0.47194152 0.81306434 0.14160099
0.53412691 0.81956217 0.14677124
0.66030492 0.83594492 0.16555604
0.84391773 0.86541318 0.26455259
0.99871821 0.92041840 0.71897835
1.00000000 1.00000000 1.00000000
1.00000000 1.00000000 1.00000000
0.84091672 0.99521371 0.66799910
0.84131289 0.99523920 0.66854560
0.84468929 0.99546829 0.67318184
0.85498559 0.99628271 0.68713971
0.88387997 0.99954435 0.72679976
0.94742046 1.00000000 0.82439887
1.00000000 1.00000000 1.00000000
1.00000000 1.00000000 1.00000000
1.00000000 1.00000000 1.00000000
1.00000000 1.00000000 1.00000000
1.00000000 1.00000000 1.00000000
1.00000000 1.00000000 1.00000000
1.00000000 1.00000000 1.00000000
1.00000000 1.00000000 1.00000000
1.00000000 1.00000000 1.00000000
1.00000000 1.00000000 1.00000000
1.00000000 1.00000000 1.00000000
1.00000000 1.00000000 1.00000000
1.00000000 1.00000000 1.00000000
1.00000000 1.00000000 1.00000000
1.00000000 1.00000000 1.00000000
1.00000000 1.00000000 1.00000000
1.00000000 1.00000000 1.00000000
1.00000000 1.00000000 1.00000000
1.00000000 1.00000000 1.00000000
1.00000000 1.00000000 1.00000000
1.00000000 1.00000000 1.00000000
0.07667237 0.02403632 0.27416324
0.08315136 0.00757760 0.27008949
0.14695501 0.00000000 0.27073980
0.31646842 0.00000000 0.32499484
0.59397441 0.00160763 0.38654858
0.83312644 0.14615418 0.43878239
0.99135891 0.60270599 0.60477574
1.00000000 0.90869026 0.86917764
1.00000000 1.00000000 1.00000000
0.06999601 0.03215583 0.28277369
0.07775521 0.02270674 0.27970995
0.14306796 0.00000000 0.27671658
0.31878137 0.00000000 0.32801962
0.59696741 0.00000000 0.38539040
0.83449026 0.14130373 0.43466625
0.99164321 0.60385542 0.60419758
1.00000000 0.90894341 0.86933779
1.00000000 1.00000000 1.00000000
0.00000000 0.12737553 0.30462640
0.00000000 0.12136831 0.31120881
0.13820152 0.08112044 0.36782230
0.32833096 0.09884341 0.34764654
0.60683036 0.09907748 0.37143988
0.84067514 0.16894121 0.41296271
0.99438808 0.61285603 0.59843063
1.00000000 0.91113242 0.87074344
1.00000000 1.00000000 1.00000000
0.04426894 0.33658514 0.32904168
0.05694490 0.33733028 0.32996294
0.12977449 0.34287703 0.33697687
0.33601674 0.33601674 0.33601674
0.62427797 0.31234534 0.33283320
0.85228485 0.31090320 0.36124158
0.99915312 0.64974591 0.58590326
1.00000000 0.91972157 0.87860897
1.00000000 1.00000000 1.00000000
0.10426815 0.64650784 0.24456525
0.11039802 0.64665163 0.24248059
0.17203754 0.64725573 0.23018213
0.32475472 0.64727067 0.20314439
0.62052471 0.64040464 0.19783412
0.85657896 0.63423891 0.24885140
1.00000000 0.75883367 0.57880591
1.00000000 0.94984077 0.91147716
1.00000000 1.00000000 1.00000000
0.42063587 0.83698182 0.17193920
0.42294139 0.83719487 0.17111599
0.44484581 0.83895024 0.16651124
0.51712180 0.84382957 0.16136954
0.66228083 0.85496039 0.16914320
0.85244385 0.87389437 0.26731201
1.00000000 0.92046213 0.72602914
1.00000000 1.00000000 1.00000000
1.00000000 1.00000000 1.00000000
0.85379829 0.99855255 0.70351584
0.85412682 0.99858465 0.70389260
0.85700121 0.99884651 0.70727488
0.86608072 0.99966755 0.71821633
0.89201059 1.00000000 0.75057149
0.95197294 1.00000000 0.83685523
1.00000000 1.00000000 1.00000000
1.00000000 1.00000000 1.00000000
1.00000000 1.00000000 1.00000000
1.00000000 1.00000000 1.00000000
1.00000000 1.00000000 1.00000000
1.00000000 1.00000000 1.00000000
1.00000000 1.00000000 1.00000000
1.00000000 1.00000000 1.00000000
1.00000000 1.00000000 1.00000000
1.00000000 1.00000000 1.00000000
1.00000000 1.00000000 1.00000000
1.00000000 1.00000000 1.00000000
1.00000000 1.00000000 1.00000000
1.00000000 1.00000000 1.00000000
1.00000000 1.00000000 1.00000000
1.00000000 1.00000000 1.00000000
1.00000000 1.00000000 1.00000000
1.00000000 1.00000000 1.00000000
1.00000000 1.00000000 1.00000000
1.00000000 1.00000000 1.00000000
1.00000000 1.00000000 1.00000000
0.13329751 0.03233967 0.51129105
0.13729553 0.03484280 0.50554253
0.16966896 0.00000000 0.47508468
0.30001079 0.00000000 0.49198105
0.58214237 0.00000000 0.58467223
0.82124307 0.14455095 0.65078890
0.98699483 0.58988697 0.72865798
1.00000000 0.91514651 0.90062711
1.00000000 1.00000000 1.00000000
0.12956489 0.03200619 0.51853757
0.13390694 0.03329554 0.51339577
0.16715756 0.00000000 0.48214120
0.29809228 0.00000000 0.49494361
0.58297938 0.00000000 0.58578638
0.82200106 0.14186794 0.65056463
0.98723606 0.59015055 0.72815156
1.00000000 0.91545094 0.90084516
1.00000000 1.00000000 1.00000000
0.09011443 0.09034298 0.54958084
0.09588316 0.08478457 0.54943114
0.13879134 0.01611947 0.53734170
0.27663914 0.00000000 0.53018133
0.59169290 0.00000000 0.59883996
0.82976014 0.09634511 0.64808430
0.98958011 0.59630406 0.72544207
1.00000000 0.91805879 0.90270896
1.00000000 1.00000000 1.00000000
0.00000000 0.26593585 0.55032769
0.00000000 0.26299083 0.55418276
0.00000000 0.24011603 0.58617358
0.28597274 0.20131051 0.64103635
0.59495269 0.21702565 0.61922161
0.83990815 0.24713667 0.64003607
0.99511499 0.63427910 0.72424888
1.00000000 0.92652676 0.90903883
1.00000000 1.00000000 1.00000000
0.09493585 0.60362272 0.59346363
0.09958328 0.60397748 0.59390415
0.14465553 0.60653154 0.59718844
0.27265141 0.61229575 0.60509832
0.60391133 0.60391133 0.60391133
0.86319843 0.57311892 0.59994310
1.00000000 0.74241430 0.72938141
1.00000000 0.95142248 0.92963769
1.00000000 1.00000000 1.00000000
0.32566158 0.87645593 0.49804422
0.32726971 0.87655247 0.49704494
0.34559786 0.87723024 0.48982452
0.42625057 0.87835416 0.47637930
0.58964118 0.88328341 0.39348558
0.85995148 0.87725171 0.38446608
1.00000000 0.91522079 0.78121095
1.00000000 1.00000000 1.00000000
1.00000000 1.00000000 1.00000000
0.88565186 1.00000000 0.78389101
0.88584170 1.00000000 0.78396634
0.88761139 1.00000000 0.78489970
0.89383870 1.00000000 0.78924054
0.91346775 1.00000000 0.80656177
0.96441694 1.00000000 0.86639246
1.00000000 1.00000000 1.00000000
1.00000000 1.00000000 1.00000000
1.00000000 1.00000000 1.00000000
1.00000000 1.00000000 1.00000000
1.00000000 1.00000000 1.00000000
1.00000000 1.00000000 1.00000000
1.00000000 1.00000000 1.00000000
1.00000000 1.00000000 1.00000000
1.00000000 1.00000000 1.00000000
1.00000000 1.00000000 1.00000000
1.00000000 1.00000000 1.00000000
1.00000000 1.00000000 1.00000000
1.00000000 1.00000000 1.00000000
1.00000000 1.00000000 1.00000000
1.00000000 1.00000000 1.00000000
1.00000000 1.00000000 1.00000000
1.00000000 1.00000000 1.00000000
1.00000000 1.00000000 1.00000000
1.00000000 1.00000000 1.00000000
1.00000000 1.00000000 1.00000000
1.00000000 1.00000000 1.00000000
0.23139628 0.06862480 0.76052984
0.23349853 0.07285775 0.75833669
0.25128994 0.08918007 0.74268225
0.30556049 0.04860174 0.71236821
0.54400500 0.00000000 0.73178148
0.80708486 0.10946098 0.80275883
0.97960099 0.55367850 0.84581906
1.00000000 0.91116926 0.93273962
1.00000000 1.00000000 1.00000000
0.22954528 0.06551745 0.76297526
0.23170896 0.06983666 0.76086718
0.24965034 0.08646256 0.74530659
0.30436730 0.04581905 0.71458253
0.54316806 0.00000000 0.73248086
0.80730075 0.10696631 0.80302912
0.97970910 0.55400737 0.84578891
1.00000000 0.91126224 0.93274231
1.00000000 1.00000000 1.00000000
0.21163230 0.07331953 0.77786608
0.21411998 0.07426309 0.77640549
0.23442346 0.07790926 0.76414692
0.29318556 0.00000000 0.73375467
0.53550592 0.00000000 0.74037383
0.80966117 0.06061034 0.80617510
0.98100303 0.55533148 0.84562897
1.00000000 0.91209368 0.93276885
1.00000000 1.00000000 1.00000000
0.13559026 0.20342662 0.79203044
0.13863413 0.20030876 0.79213648
0.16592227 0.17130418 0.79314759
0.24326567 0.06764577 0.78169298
0.50186461 0.00000000 0.77136062
0.81715941 0.00000000 0.81868274
0.98564114 0.57039305 0.84635156
1.00000000 0.92008370 0.93746509
1.00000000 1.00000000 1.00000000
0.00000000 0.50065089 0.78233663
0.00000000 0.49927464 0.78332982
0.00000000 0.48590477 0.79270156
0.07119363 0.45731089 0.82367679
0.53473127 0.39036737 0.87780548
0.82918671 0.44906573 0.84655402
0.99363430 0.70056103 0.85815064
1.00000000 0.95058070 0.95847137
1.00000000 1.00000000 1.00000000
0.35462486 0.83814458 0.82945210
0.35564023 0.83827213 0.82960081
0.36553442 0.83933760 0.83085105
0.41250926 0.84209711 0.83422353
0.51330342 0.85286522 0.84670493
0.84569243 0.84569243 0.84569243
1.00000000 0.89708783 0.89820926
1.00000000 1.00000000 1.00000000
1.00000000 1.00000000 1.00000000
0.93949457 1.00000000 0.93108156
0.93951164 1.00000000 0.93101813
0.93969380 1.00000000 0.93049486
1.00000000 1.00000000 1.00000000
1.00000000 1.00000000 1.00000000
1.00000000 1.00000000 1.00000000
1.00000000 1.00000000 1.00000000
1.00000000 1.00000000 1.00000000
1.00000000 1.00000000 1.00000000
1.00000000 1.00000000 1.00000000
1.00000000 1.00000000 1.00000000
1.00000000 1.00000000 1.00000000
1.00000000 1.00000000 1.00000000
1.00000000 1.00000000 1.00000000
1.00000000 1.00000000 1.00000000
1.00000000 1.00000000 1.00000000
1.00000000 1.00000000 1.00000000
1.00000000 1.00000000 1.00000000
1.00000000 1.00000000 1.00000000
1.00000000 1.00000000 1.00000000
1.00000000 1.00000000 1.00000000
1.00000000 1.00000000 1.00000000
1.00000000 1.00000000 1.00000000
1.00000000 1.00000000 1.00000000
1.00000000 1.00000000 1.00000000
1.00000000 1.00000000 1.00000000
1.00000000 1.00000000 1.00000000
0.39966688 0.26714203 0.94749787
0.40069659 0.26824978 0.94667236
0.40955974 0.27526373 0.94016468
0.43757181 0.28009100 0.92414819
0.52058068 0.22837566 0.89203042
0.75834046 0.07982037 0.90632850
0.96485886 0.50624116 0.95052684
1.00000000 0.88854522 0.95766060
1.00000000 1.00000000 1.00000000
0.39878278 0.26662435 0.94832576
0.39982400 0.26768780 0.94751947
0.40873470 0.27464201 0.94105266
0.43682733 0.27959235 0.92500240
0.52011291 0.22825414 0.89271468
0.75815521 0.07665813 0.90650078
0.96489133 0.50626485 0.95055947
1.00000000 0.88860448 0.95766544
1.00000000 1.00000000 1.00000000
0.39073331 0.26785072 0.95378702
0.39182903 0.26852446 0.95310857
0.40118257 0.27333518 0.94740856
0.43003581 0.27675245 0.93187265
0.51592322 0.22679467 0.89882383
0.75659403 0.02577474 0.90831044
0.96524619 0.50592263 0.95093225
1.00000000 0.88913590 0.95769880
1.00000000 1.00000000 1.00000000
0.36162933 0.31127596 0.95983249
0.36276994 0.31040669 0.95958024
0.37289847 0.30357493 0.95716245
0.40567114 0.29079046 0.94713401
0.49947295 0.23133790 0.91635812
0.75093074 0.00000000 0.91476172
0.96647174 0.50431335 0.95223084
1.00000000 0.89111226 0.95766183
1.00000000 1.00000000 1.00000000
0.27528957 0.50261078 0.94980156
0.27605742 0.50126117 0.95001936
0.28267355 0.48870929 0.95213388
0.31223269 0.44817978 0.95733807
0.42040781 0.33166565 0.95001959
0.72652411 0.00000000 0.93516613
0.96852425 0.55274181 0.95579636
1.00000000 0.90819712 0.96290647
1.00000000 1.00000000 1.00000000
0.20846043 0.75799502 0.94413913
0.20718942 0.75778021 0.94435376
0.19547084 0.75584930 0.94628804
0.15861429 0.74883265 0.95217596
0.43261058 0.74447696 0.96692993
0.78015507 0.76031411 0.97334805
0.97600651 0.84707029 0.97475209
1.00000000 1.00000000 1.00000000
1.00000000 1.00000000 1.00000000
0.94581722 1.00000000 1.00000000
0.94595819 1.00000000 1.00000000
0.94715476 1.00000000 1.00000000
0.95121204 1.00000000 1.00000000
1.00000000 1.00000000 1.00000000
1.00000000 1.00000000 1.00000000
1.00000000 1.00000000 1.00000000
1.00000000 1.00000000 1.00000000
1.00000000 1.00000000 1.00000000
1.00000000 1.00000000 1.00000000
1.00000000 1.00000000 1.00000000
1.00000000 1.00000000 1.00000000
1.00000000 1.00000000 1.00000000
1.00000000 1.00000000 1.00000000
1.00000000 1.00000000 1.00000000
1.00000000 1.00000000 1.00000000
1.00000000 1.00000000 1.00000000
1.00000000 1.00000000 1.00000000
1.00000000 1.00000000 1.00000000
1.00000000 1.00000000 1.00000000
1.00000000 1.00000000 1.00000000
1.00000000 1.00000000 1.00000000
1.00000000 1.00000000 1.00000000
1.00000000 1.00000000 1.00000000
1.00000000 1.00000000 1.00000000
1.00000000 1.00000000 1.00000000
1.00000000 1.00000000 1.00000000
0.65476577 0.70452874 1.00000000
0.65496552 0.70444526 1.00000000
0.65666806 0.70366471 1.00000000
0.66180294 0.70043287 1.00000000
0.67725903 0.68741886 0.99551528
0.72147304 0.62626065 0.98128509
0.88906702 0.60873619 0.98264466
1.00000000 0.86274630 0.98543893
1.00000000 1.00000000 1.00000000
0.65463821 0.70470991 1.00000000
0.65483756 0.70462430 1.00000000
0.65654045 0.70383855 1.00000000
0.66168295 0.70060685 1.00000000
0.67714725 0.68759997 0.99562586
0.72139855 0.62652143 0.98137717
0.88900012 0.60871064 0.98263056
1.00000000 0.86276262 0.98543196
1.00000000 1.00000000 1.00000000
0.65362288 0.70648987 1.00000000
0.65381771 0.70639123 1.00000000
0.65550002 0.70552544 1.00000000
0.66066603 0.70222554 1.00000000
0.67616670 0.68920932 0.99652998
0.72074495 0.62878421 0.98218554
0.88840655 0.60850607 0.98249560
1.00000000 0.86292318 0.98534588
1.00000000 1.00000000 1.00000000
0.65095043 0.71336743 1.00000000
0.65109718 0.71320825 1.00000000
0.65264455 0.71209202 1.00000000
0.65767345 0.70842262 1.00000000
0.67297869 0.69511089 0.99819576
0.71845838 0.63666699 0.98422867
0.88624257 0.60840938 0.98171927
1.00000000 0.86357956 0.98488143
1.00000000 1.00000000 1.00000000
0.64932044 0.73935652 1.00000000
0.64937403 0.73916494 1.00000000
0.64998499 0.73754227 1.00000000
0.65280459 0.73247278 1.00000000
0.66455633 0.71699627 0.99731484
0.70998996 0.66439523 0.98595612
0.87723528 0.61260244 0.97629489
1.00000000 0.86656758 0.98211631
1.00000000 1.00000000 1.00000000
0.67146247 0.80606760 0.98835695
0.67140279 0.80594195 0.98838842
0.67089698 0.80483578 0.98864918
0.66971595 0.80110507 0.98895443
0.67160840 0.78901672 0.98717614
0.68794307 0.74156358 0.96920546
0.84562665 0.68502642 0.94928153
0.99457815 0.89839791 0.97940335
1.00000000 1.00000000 1.00000000
0.85378533 0.93923585 0.99154171
0.85372501 0.93919005 0.99152473
0.85320133 0.93878639 0.99137013
0.85162503 0.93738224 0.99067590
0.84718601 0.93215936 0.98714237
0.89161278 0.94356317 0.99514162
0.99329282 0.99418613 1.00000000
1.00000000 1.00000000 1.00000000
1.00000000 1.00000000 1.00000000
1.00000000 1.00000000 1.00000000
1.00000000 1.00000000 1.00000000
1.00000000 1.00000000 1.00000000
1.00000000 1.00000000 1.00000000
1.00000000 1.00000000 1.00000000
1.00000000 1.00000000 1.00000000
1.00000000 1.00000000 1.00000000
1.00000000 1.00000000 1.00000000
1.00000000 1.00000000 1.00000000
1.00000000 1.00000000 1.00000000
1.00000000 1.00000000 1.00000000
1.00000000 1.00000000 1.00000000
1.00000000 1.00000000 1.00000000
1.00000000 1.00000000 1.00000000
1.00000000 1.00000000 1.00000000
1.00000000 1.00000000 1.00000000
1.00000000 1.00000000 1.00000000
1.00000000 1.00000000 1.00000000
0.87422307 0.91721778 1.00000000
0.87423502 0.91718898 1.00000000
0.87433903 0.91693903 1.00000000
0.87462291 0.91613078 1.00000000
0.87536609 0.91345136 1.00000000
0.87786847 0.90423295 1.00000000
0.88376447 0.86322375 1.00000000
0.95373179 0.84394223 0.99574080
1.00000000 0.98262678 1.00000000
0.87425097 0.91727200 1.00000000
0.87424509 0.91722705 1.00000000
0.87434749 0.91697733 1.00000000
0.87463065 0.91616968 1.00000000
0.87537388 0.91349139 1.00000000
0.87787295 0.90427426 1.00000000
0.88376855 0.86328571 1.00000000
0.95370823 0.84393964 0.99572141
1.00000000 0.98263063 1.00000000
0.87452281 0.91773418 1.00000000
0.87451491 0.91769013 1.00000000
0.87445105 0.91730247 1.00000000
0.87471652 0.91650189 1.00000000
0.87545120 0.91383694 1.00000000
0.87791486 0.90463362 1.00000000
0.88379966 0.86382914 1.00000000
0.95348138 0.84392765 0.99551937
1.00000000 0.98267545 1.00000000
0.87553412 0.91920228 1.00000000
0.87552188 0.91916040 1.00000000
0.87542360 0.91879034 1.00000000
0.87511918 0.91755011 1.00000000
0.87577799 0.91494127 1.00000000
0.87807942 0.90580243 1.00000000
0.88387573 0.86562791 1.00000000
0.95264152 0.84393189 0.99471138
1.00000000 0.98285846 1.00000000
0.87915144 0.92379866 1.00000000
0.87913324 0.92376102 1.00000000
0.87898140 0.92342824 1.00000000
0.87853436 0.92229630 1.00000000
0.87723845 0.91835087 1.00000000
0.87881440 0.90948286 1.00000000
0.88407584 0.87145172 1.00000000
0.94942968 0.84412670 0.99136844
1.00000000 0.98358104 1.00000000
0.89222596 0.93744764 1.00000000
0.89219551 0.93741402 1.00000000
0.89193483 0.93711688 1.00000000
0.89121770 0.93614641 1.00000000
0.88941503 0.93292871 1.00000000
0.88395257 0.92064397 1.00000000
0.88557739 0.88834567 1.00000000
0.93713232 0.84502244 0.97774311
1.00000000 0.98611843 1.00000000
0.94448305 0.97695065 1.00000000
0.94444654 0.97692563 1.00000000
0.94413159 0.97670405 1.00000000
0.94313574 0.97593893 1.00000000
0.93999924 0.97322403 1.00000000
0.93171985 0.96446841 1.00000000
0.90319603 0.92605271 0.99190974
0.92484064 0.88541975 0.95588670
1.00000000 1.00000000 1.00000000
1.00000000 1.00000000 1.00000000
1.00000000 1.00000000 1.00000000
1.00000000 1.00000000 1.00000000
1.00000000 1.00000000 1.00000000
1.00000000 1.00000000 1.00000000
1.00000000 1.00000000 1.00000000
1.00000000 1.00000000 1.00000000
1.00000000 1.00000000 1.00000000
1.00000000 1.00000000 1.00000000
1.00000000 1.00000000 1.00000000
1.00000000 1.00000000 1.00000000
1.00000000 1.00000000 1.00000000
1.00000000 1.00000000 1.00000000
1.00000000 1.00000000 1.00000000
1.00000000 1.00000000 1.00000000
1.00000000 1.00000000 1.00000000
1.00000000 1.00000000 1.00000000
1.00000000 1.00000000 1.00000000
