Luts Download/Canon Luts/3dlut/17grid-3dlut/full-to-full-range/CinemaGamut_CanonLog3-to-BT2020_HLGKnee_17_FF_Ver.2.0.cube
# Gamut : Cinema Gamut to BT.2020
# Gamma : Canon Log 3 to HLGKnee
# Range : Full in / Full out
# Version : 2.0 2019/10/24
# Copyright(c) 2019 Canon Inc. All Rights Reserved.
LUT_3D_SIZE 17
# LUT_3D_INPUT_RANGE 0.0 1.0
0.00000010 0.00000000 0.00000000
0.00000010 0.00000000 0.00000000
0.00000010 0.00000000 0.00000000
0.13602059 0.04983258 0.05536958
0.22900820 0.05536315 0.06911653
0.32533903 0.05077765 0.07784669
0.43089953 0.03847247 0.08670967
0.54656825 0.00669289 0.09801083
0.64602843 0.00000000 0.11204113
0.73281022 0.00000000 0.12902036
0.81215946 0.00000000 0.15045154
0.88656433 0.00000000 0.17788638
0.94308739 0.07042427 0.20264346
0.97598440 0.19263059 0.22973142
0.99402201 0.36092788 0.29982243
1.00000000 0.54493398 0.41482035
1.00000000 0.65538327 0.52671954
0.00000010 0.00000000 0.00000000
0.00000010 0.00000000 0.00000000
0.05041333 0.02709332 0.00000000
0.13602059 0.04983258 0.05536958
0.22900820 0.05536315 0.06911653
0.32533903 0.05077765 0.07784669
0.43089953 0.03847247 0.08670967
0.54656825 0.00669289 0.09801083
0.64602843 0.00000000 0.11204113
0.73281022 0.00000000 0.12902036
0.81215946 0.00000000 0.15045154
0.88656433 0.00000000 0.17788638
0.94308739 0.07042427 0.20264346
0.97598440 0.19263059 0.22973142
0.99402201 0.36092788 0.29982243
1.00000000 0.54493398 0.41482035
1.00000000 0.65538327 0.52671954
0.09216029 0.14617220 0.00000000
0.11363474 0.14266261 0.00000000
0.07524484 0.09056129 0.00000000
0.13602059 0.04983258 0.05536958
0.22900820 0.05536315 0.06911653
0.32533903 0.05077765 0.07784669
0.43089953 0.03847247 0.08670967
0.54656825 0.00669289 0.09801083
0.64602843 0.00000000 0.11204113
0.73281022 0.00000000 0.12902036
0.81215946 0.00000000 0.15045154
0.88656433 0.00000000 0.17788638
0.94308739 0.07042427 0.20264346
0.97598440 0.19263059 0.22973142
0.99402201 0.36092788 0.29982243
1.00000000 0.54493398 0.41482035
1.00000000 0.65538327 0.52671954
0.08233573 0.12911566 0.07001425
0.08233573 0.12911566 0.07001425
0.08233573 0.12911566 0.07001425
0.15149477 0.15796668 0.07015810
0.23280069 0.17011113 0.06624908
0.32597283 0.17403208 0.06275772
0.43182413 0.17218156 0.06296899
0.54900216 0.16564735 0.06808841
0.64949608 0.15372541 0.07764745
0.74512974 0.06378067 0.00000000
0.81677242 0.11243828 0.11367710
0.89120513 0.09516013 0.14451155
0.94745231 0.12450175 0.17675257
0.97952287 0.22193683 0.21608027
0.99520759 0.39264513 0.30361740
1.00000000 0.56574927 0.42464310
1.00000000 0.66796179 0.53787654
0.11300418 0.20811141 0.08251502
0.11300418 0.20811141 0.08251502
0.11300418 0.20811141 0.08251502
0.16577756 0.23246429 0.06964536
0.23665711 0.24863750 0.05827057
0.32356988 0.25890815 0.04963993
0.42673969 0.26404083 0.04560603
0.54443762 0.26414581 0.04737798
0.64707351 0.25873303 0.05358380
0.73651599 0.24661482 0.06380081
0.81816037 0.22703186 0.08100177
0.89450119 0.20093366 0.10680077
0.95171035 0.19876192 0.14514878
0.98333540 0.26991163 0.20112410
0.99640796 0.43683327 0.31077004
1.00000000 0.59266173 0.43946571
1.00000000 0.68467982 0.55318767
0.13835648 0.29006779 0.08083007
0.13835648 0.29006779 0.08083007
0.13835648 0.29006779 0.08083007
0.18242178 0.30984393 0.06282386
0.24429694 0.32666334 0.04822556
0.32384399 0.34095083 0.03732028
0.42164926 0.35185107 0.03132750
0.53752610 0.35873131 0.03082496
0.64159568 0.36058139 0.03601199
0.73268172 0.35627256 0.04555636
0.81603767 0.34453486 0.05984198
0.89395040 0.32565210 0.08441240
0.95296664 0.31384377 0.12804746
0.98530865 0.35714164 0.19899519
0.99723885 0.50195521 0.32671979
1.00000000 0.62764000 0.46302697
1.00000000 0.70704828 0.57458733
0.16563782 0.38060946 0.07135024
0.16563782 0.38060946 0.07135024
0.16563782 0.38060946 0.07135024
0.20438547 0.39630808 0.05408169
0.25848455 0.41228409 0.03860733
0.33008071 0.42838860 0.02561760
0.42100901 0.44352879 0.01646437
0.53205525 0.45622633 0.01476572
0.63547656 0.46523307 0.02056114
0.72727568 0.46896430 0.03141474
0.81179577 0.46604487 0.04769530
0.89105870 0.45618744 0.07248882
0.95185961 0.44481489 0.12465388
0.98560133 0.47024556 0.21094194
0.99749312 0.57716695 0.35330875
1.00000000 0.66959797 0.49785056
1.00000000 0.73547635 0.60305035
0.19992946 0.48406758 0.05946633
0.19992946 0.48406758 0.05946633
0.19992946 0.48406758 0.05946633
0.23417009 0.49669623 0.04479320
0.28135797 0.51083204 0.03074265
0.34491274 0.52613934 0.01496197
0.42771726 0.54159647 0.00000000
0.53157927 0.55620014 0.00000000
0.63113703 0.56845602 0.00000000
0.72184703 0.57745193 0.02115140
0.80662170 0.58209477 0.04043274
0.88669188 0.58201890 0.06917729
0.94945201 0.57546661 0.12950745
0.98531109 0.58516784 0.22919723
0.99766571 0.64898808 0.38966280
1.00000000 0.71633549 0.54252788
1.00000000 0.76976776 0.63914118
0.24408754 0.58948738 0.04848296
0.24408754 0.58948738 0.04848296
0.24408754 0.58948738 0.04848296
0.27397831 0.59681852 0.03833737
0.31477075 0.60570363 0.02694438
0.37045126 0.61633274 0.01004287
0.44462760 0.62831516 0.00000000
0.53870334 0.64099653 0.00000000
0.63115544 0.65346357 0.00000000
0.71828265 0.66429481 0.01490387
0.80170872 0.67278362 0.04011359
0.88169823 0.67837334 0.07235468
0.94646230 0.67583115 0.13778031
0.98516906 0.67745364 0.25114335
0.99813926 0.71733101 0.43595302
1.00000000 0.76623062 0.59311466
1.00000000 0.80872461 0.68236239
0.30003915 0.68002834 0.04073546
0.30003915 0.68002834 0.04073546
0.30003915 0.68002834 0.04073546
0.32565200 0.68447201 0.03505594
0.36057922 0.69032040 0.02571960
0.40890583 0.69759496 0.01895487
0.47437745 0.70666121 0.00000000
0.55573664 0.71712081 0.00000000
0.63752277 0.72846164 0.00000000
0.71872219 0.73989373 0.01882842
0.79869731 0.75009189 0.04689075
0.87711438 0.75882506 0.08534327
0.94333391 0.75936438 0.15043604
0.98559859 0.75716020 0.27444670
0.99968783 0.78204092 0.49261832
1.00000000 0.81760210 0.64780981
1.00000000 0.85103101 0.73186598
0.37009470 0.76247310 0.04061044
0.37009470 0.76247310 0.04061044
0.37009470 0.76247310 0.04061044
0.39175077 0.76527019 0.03926818
0.42141803 0.76906747 0.03630336
0.46285427 0.77418428 0.03157785
0.51920125 0.78074489 0.02859992
0.58364310 0.78896792 0.02367060
0.65251883 0.79860121 0.02417315
0.72488381 0.80922806 0.03765126
0.79959265 0.82020839 0.06480623
0.87457776 0.83037716 0.10878070
0.94068746 0.83343110 0.17600649
0.98638563 0.83007675 0.30572876
1.00000000 0.84445164 0.55821840
1.00000000 0.86913354 0.70638397
1.00000000 0.89484410 0.78596017
0.45774531 0.84005718 0.05523605
0.45774531 0.84005718 0.05523605
0.45774531 0.84005718 0.05523605
0.47580784 0.84184622 0.05633202
0.50075665 0.84432263 0.05702528
0.53383043 0.84781688 0.05606220
0.57440626 0.85248309 0.05641560
0.62252339 0.85864433 0.05705412
0.67777413 0.86634081 0.06099915
0.73937329 0.87547513 0.07333600
0.80611633 0.88572841 0.10094872
0.87624355 0.89671050 0.15018827
0.94011555 0.90142333 0.22296518
0.98770945 0.89846576 0.36047878
1.00000000 0.90521593 0.63303209
1.00000000 0.92034150 0.77094997
1.00000000 0.93883699 0.84497593
0.54911511 0.89999061 0.08868099
0.54911511 0.89999061 0.08868099
0.54911511 0.89999061 0.08868099
0.56111319 0.90127909 0.09144229
0.57702165 0.90308465 0.09464130
0.59833514 0.90567188 0.09821534
0.62607771 0.90932918 0.10154836
0.66125952 0.91416441 0.11025268
0.70410689 0.92062977 0.12084458
0.75476252 0.92860159 0.14250800
0.81233637 0.93815510 0.17916426
0.87515988 0.94916544 0.23701883
0.93558610 0.95647230 0.31947650
0.98289572 0.95504646 0.46239284
1.00000000 0.95618403 0.71350485
1.00000000 0.96383200 0.83780597
1.00000000 0.97624312 0.90291541
0.62065089 0.93816465 0.15092339
0.62065089 0.93816465 0.15092339
0.62065089 0.93816465 0.15092339
0.62827926 0.93922188 0.15524222
0.63861153 0.94071472 0.16079724
0.65286458 0.94287300 0.16814494
0.67212710 0.94595743 0.17774894
0.69783622 0.95020437 0.19206808
0.73060933 0.95585884 0.21472039
0.77162824 0.96312076 0.25085738
0.82071118 0.97192476 0.31308711
0.87519335 0.98253273 0.40112591
0.92779505 0.99088770 0.50775016
0.97262634 0.99353376 0.62923682
0.99883774 0.99129690 0.80206372
1.00000000 0.99408415 0.90512975
1.00000000 1.00000000 1.00000000
0.69415288 0.96865964 0.26816170
0.69415288 0.96865964 0.26816170
0.69415288 0.96865964 0.26816170
0.69959521 0.96945336 0.27497047
0.70698158 0.97058682 0.28401600
0.71725353 0.97224110 0.29649625
0.73135656 0.97464206 0.31378177
0.75035932 0.97809213 0.33777195
0.77586434 0.98251839 0.37501017
0.80899734 0.98819973 0.43574661
0.85412180 0.99347649 0.55856868
0.90242477 0.99969757 0.68017620
0.94411932 1.00000000 0.77545745
0.97595953 1.00000000 0.85169479
1.00000000 1.00000000 1.00000000
1.00000000 1.00000000 1.00000000
1.00000000 1.00000000 1.00000000
0.79070813 0.99646172 0.50634141
0.79070813 0.99646172 0.50634141
0.79070813 0.99646172 0.50634141
0.79537310 0.99668153 0.51871689
0.80162349 0.99702756 0.53459027
0.81025446 0.99756045 0.55558447
0.82208274 0.99841753 0.58303400
0.83768984 0.99969472 0.61744515
0.85783293 1.00000000 0.66026312
0.88300418 1.00000000 0.71268094
0.91309106 1.00000000 0.77608302
0.94575863 1.00000000 0.84422679
0.97455823 1.00000000 0.90410880
1.00000000 1.00000000 1.00000000
1.00000000 1.00000000 1.00000000
1.00000000 1.00000000 1.00000000
1.00000000 1.00000000 1.00000000
0.88262442 1.00000000 0.72384511
0.88262442 1.00000000 0.72384511
0.88262442 1.00000000 0.72384511
0.88549716 1.00000000 0.73009531
0.88938739 1.00000000 0.73844148
0.89481758 1.00000000 0.74996332
0.90231028 1.00000000 0.76571599
0.91235393 1.00000000 0.78657845
0.92547827 1.00000000 0.81360699
0.94226970 1.00000000 0.84844300
0.96239264 1.00000000 0.89008307
1.00000000 1.00000000 1.00000000
1.00000000 1.00000000 1.00000000
1.00000000 1.00000000 1.00000000
1.00000000 1.00000000 1.00000000
1.00000000 1.00000000 1.00000000
1.00000000 1.00000000 1.00000000
0.00000010 0.00000000 0.00000000
0.00000010 0.00000000 0.00000000
0.00000010 0.00000000 0.00000000
0.13602059 0.04983258 0.05536958
0.22900820 0.05536315 0.06911653
0.32533903 0.05077765 0.07784669
0.43089953 0.03847247 0.08670967
0.54656825 0.00669289 0.09801083
0.64602843 0.00000000 0.11204113
0.73281022 0.00000000 0.12902036
0.81215946 0.00000000 0.15045154
0.88656433 0.00000000 0.17788638
0.94308739 0.07042427 0.20264346
0.97598440 0.19263059 0.22973142
0.99402201 0.36092788 0.29982243
1.00000000 0.54493398 0.41482035
1.00000000 0.65538327 0.52671954
0.00000010 0.00000000 0.00000000
0.00000010 0.00000000 0.00000000
0.00000010 0.00000000 0.00000000
0.13602059 0.04983258 0.05536958
0.22900820 0.05536315 0.06911653
0.32533903 0.05077765 0.07784669
0.43089953 0.03847247 0.08670967
0.54656825 0.00669289 0.09801083
0.64602843 0.00000000 0.11204113
0.73281022 0.00000000 0.12902036
0.81215946 0.00000000 0.15045154
0.88656433 0.00000000 0.17788638
0.94308739 0.07042427 0.20264346
0.97598440 0.19263059 0.22973142
0.99402201 0.36092788 0.29982243
1.00000000 0.54493398 0.41482035
1.00000000 0.65538327 0.52671954
0.00000010 0.00000000 0.00000000
0.00000010 0.00000000 0.00000000
0.00000010 0.00000000 0.00000000
0.13602059 0.04983258 0.05536958
0.22900820 0.05536315 0.06911653
0.32533903 0.05077765 0.07784669
0.43089953 0.03847247 0.08670967
0.54656825 0.00669289 0.09801083
0.64602843 0.00000000 0.11204113
0.73281022 0.00000000 0.12902036
0.81215946 0.00000000 0.15045154
0.88656433 0.00000000 0.17788638
0.94308739 0.07042427 0.20264346
0.97598440 0.19263059 0.22973142
0.99402201 0.36092788 0.29982243
1.00000000 0.54493398 0.41482035
1.00000000 0.65538327 0.52671954
0.08233573 0.12911566 0.07001425
0.08233573 0.12911566 0.07001425
0.08233573 0.12911566 0.07001425
0.15149477 0.15796668 0.07015810
0.23280069 0.17011113 0.06624908
0.32597283 0.17403208 0.06275772
0.43182413 0.17218156 0.06296899
0.54900216 0.16564735 0.06808841
0.64949608 0.15372541 0.07764745
0.74512974 0.06378067 0.00000000
0.81677242 0.11243828 0.11367710
0.89120513 0.09516013 0.14451155
0.94745231 0.12450175 0.17675257
0.97952287 0.22193683 0.21608027
0.99520759 0.39264513 0.30361740
1.00000000 0.56574927 0.42464310
1.00000000 0.66796179 0.53787654
0.11300418 0.20811141 0.08251502
0.11300418 0.20811141 0.08251502
0.11300418 0.20811141 0.08251502
0.16577756 0.23246429 0.06964536
0.23665711 0.24863750 0.05827057
0.32356988 0.25890815 0.04963993
0.42673969 0.26404083 0.04560603
0.54443762 0.26414581 0.04737798
0.64707351 0.25873303 0.05358380
0.73651599 0.24661482 0.06380081
0.81816037 0.22703186 0.08100177
0.89450119 0.20093366 0.10680077
0.95171035 0.19876192 0.14514878
0.98333540 0.26991163 0.20112410
0.99640796 0.43683327 0.31077004
1.00000000 0.59266173 0.43946571
1.00000000 0.68467982 0.55318767
0.13835648 0.29006779 0.08083007
0.13835648 0.29006779 0.08083007
0.13835648 0.29006779 0.08083007
0.18242178 0.30984393 0.06282386
0.24429694 0.32666334 0.04822556
0.32384399 0.34095083 0.03732028
0.42164926 0.35185107 0.03132750
0.53752610 0.35873131 0.03082496
0.64159568 0.36058139 0.03601199
0.73268172 0.35627256 0.04555636
0.81603767 0.34453486 0.05984198
0.89395040 0.32565210 0.08441240
0.95296664 0.31384377 0.12804746
0.98530865 0.35714164 0.19899519
0.99723885 0.50195521 0.32671979
1.00000000 0.62764000 0.46302697
1.00000000 0.70704828 0.57458733
0.16563782 0.38060946 0.07135024
0.16563782 0.38060946 0.07135024
0.16563782 0.38060946 0.07135024
0.20438547 0.39630808 0.05408169
0.25848455 0.41228409 0.03860733
0.33008071 0.42838860 0.02561760
0.42100901 0.44352879 0.01646437
0.53205525 0.45622633 0.01476572
0.63547656 0.46523307 0.02056114
0.72727568 0.46896430 0.03141474
0.81179577 0.46604487 0.04769530
0.89105870 0.45618744 0.07248882
0.95185961 0.44481489 0.12465388
0.98560133 0.47024556 0.21094194
0.99749312 0.57716695 0.35330875
1.00000000 0.66959797 0.49785056
1.00000000 0.73547635 0.60305035
0.19992946 0.48406758 0.05946633
0.19992946 0.48406758 0.05946633
0.19992946 0.48406758 0.05946633
0.23417009 0.49669623 0.04479320
0.28135797 0.51083204 0.03074265
0.34491274 0.52613934 0.01496197
0.42771726 0.54159647 0.00000000
0.53157927 0.55620014 0.00000000
0.63113703 0.56845602 0.00000000
0.72184703 0.57745193 0.02115140
0.80662170 0.58209477 0.04043274
0.88669188 0.58201890 0.06917729
0.94945201 0.57546661 0.12950745
0.98531109 0.58516784 0.22919723
0.99766571 0.64898808 0.38966280
1.00000000 0.71633549 0.54252788
1.00000000 0.76976776 0.63914118
0.24408754 0.58948738 0.04848296
0.24408754 0.58948738 0.04848296
0.24408754 0.58948738 0.04848296
0.27397831 0.59681852 0.03833737
0.31477075 0.60570363 0.02694438
0.37045126 0.61633274 0.01004287
0.44462760 0.62831516 0.00000000
0.53870334 0.64099653 0.00000000
0.63115544 0.65346357 0.00000000
0.71828265 0.66429481 0.01490387
0.80170872 0.67278362 0.04011359
0.88169823 0.67837334 0.07235468
0.94646230 0.67583115 0.13778031
0.98516906 0.67745364 0.25114335
0.99813926 0.71733101 0.43595302
1.00000000 0.76623062 0.59311466
1.00000000 0.80872461 0.68236239
0.30003915 0.68002834 0.04073546
0.30003915 0.68002834 0.04073546
0.30003915 0.68002834 0.04073546
0.32565200 0.68447201 0.03505594
0.36057922 0.69032040 0.02571960
0.40890583 0.69759496 0.01895487
0.47437745 0.70666121 0.00000000
0.55573664 0.71712081 0.00000000
0.63752277 0.72846164 0.00000000
0.71872219 0.73989373 0.01882842
0.79869731 0.75009189 0.04689075
0.87711438 0.75882506 0.08534327
0.94333391 0.75936438 0.15043604
0.98559859 0.75716020 0.27444670
0.99968783 0.78204092 0.49261832
1.00000000 0.81760210 0.64780981
1.00000000 0.85103101 0.73186598
0.37009470 0.76247310 0.04061044
0.37009470 0.76247310 0.04061044
0.37009470 0.76247310 0.04061044
0.39175077 0.76527019 0.03926818
0.42141803 0.76906747 0.03630336
0.46285427 0.77418428 0.03157785
0.51920125 0.78074489 0.02859992
0.58364310 0.78896792 0.02367060
0.65251883 0.79860121 0.02417315
0.72488381 0.80922806 0.03765126
0.79959265 0.82020839 0.06480623
0.87457776 0.83037716 0.10878070
0.94068746 0.83343110 0.17600649
0.98638563 0.83007675 0.30572876
1.00000000 0.84445164 0.55821840
1.00000000 0.86913354 0.70638397
1.00000000 0.89484410 0.78596017
0.45774531 0.84005718 0.05523605
0.45774531 0.84005718 0.05523605
0.45774531 0.84005718 0.05523605
0.47580784 0.84184622 0.05633202
0.50075665 0.84432263 0.05702528
0.53383043 0.84781688 0.05606220
0.57440626 0.85248309 0.05641560
0.62252339 0.85864433 0.05705412
0.67777413 0.86634081 0.06099915
0.73937329 0.87547513 0.07333600
0.80611633 0.88572841 0.10094872
0.87624355 0.89671050 0.15018827
0.94011555 0.90142333 0.22296518
0.98770945 0.89846576 0.36047878
1.00000000 0.90521593 0.63303209
1.00000000 0.92034150 0.77094997
1.00000000 0.93883699 0.84497593
0.54911511 0.89999061 0.08868099
0.54911511 0.89999061 0.08868099
0.54911511 0.89999061 0.08868099
0.56111319 0.90127909 0.09144229
0.57702165 0.90308465 0.09464130
0.59833514 0.90567188 0.09821534
0.62607771 0.90932918 0.10154836
0.66125952 0.91416441 0.11025268
0.70410689 0.92062977 0.12084458
0.75476252 0.92860159 0.14250800
0.81233637 0.93815510 0.17916426
0.87515988 0.94916544 0.23701883
0.93558610 0.95647230 0.31947650
0.98289572 0.95504646 0.46239284
1.00000000 0.95618403 0.71350485
1.00000000 0.96383200 0.83780597
1.00000000 0.97624312 0.90291541
0.62065089 0.93816465 0.15092339
0.62065089 0.93816465 0.15092339
0.62065089 0.93816465 0.15092339
0.62827926 0.93922188 0.15524222
0.63861153 0.94071472 0.16079724
0.65286458 0.94287300 0.16814494
0.67212710 0.94595743 0.17774894
0.69783622 0.95020437 0.19206808
0.73060933 0.95585884 0.21472039
0.77162824 0.96312076 0.25085738
0.82071118 0.97192476 0.31308711
0.87519335 0.98253273 0.40112591
0.92779505 0.99088770 0.50775016
0.97262634 0.99353376 0.62923682
0.99883774 0.99129690 0.80206372
1.00000000 0.99408415 0.90512975
1.00000000 1.00000000 1.00000000
0.69415288 0.96865964 0.26816170
0.69415288 0.96865964 0.26816170
0.69415288 0.96865964 0.26816170
0.69959521 0.96945336 0.27497047
0.70698158 0.97058682 0.28401600
0.71725353 0.97224110 0.29649625
0.73135656 0.97464206 0.31378177
0.75035932 0.97809213 0.33777195
0.77586434 0.98251839 0.37501017
0.80899734 0.98819973 0.43574661
0.85412180 0.99347649 0.55856868
0.90242477 0.99969757 0.68017620
0.94411932 1.00000000 0.77545745
0.97595953 1.00000000 0.85169479
1.00000000 1.00000000 1.00000000
1.00000000 1.00000000 1.00000000
1.00000000 1.00000000 1.00000000
0.79070813 0.99646172 0.50634141
0.79070813 0.99646172 0.50634141
0.79070813 0.99646172 0.50634141
0.79537310 0.99668153 0.51871689
0.80162349 0.99702756 0.53459027
0.81025446 0.99756045 0.55558447
0.82208274 0.99841753 0.58303400
0.83768984 0.99969472 0.61744515
0.85783293 1.00000000 0.66026312
0.88300418 1.00000000 0.71268094
0.91309106 1.00000000 0.77608302
0.94575863 1.00000000 0.84422679
0.97455823 1.00000000 0.90410880
1.00000000 1.00000000 1.00000000
1.00000000 1.00000000 1.00000000
1.00000000 1.00000000 1.00000000
1.00000000 1.00000000 1.00000000
0.88262442 1.00000000 0.72384511
0.88262442 1.00000000 0.72384511
0.88262442 1.00000000 0.72384511
0.88549716 1.00000000 0.73009531
0.88938739 1.00000000 0.73844148
0.89481758 1.00000000 0.74996332
0.90231028 1.00000000 0.76571599
0.91235393 1.00000000 0.78657845
0.92547827 1.00000000 0.81360699
0.94226970 1.00000000 0.84844300
0.96239264 1.00000000 0.89008307
1.00000000 1.00000000 1.00000000
1.00000000 1.00000000 1.00000000
1.00000000 1.00000000 1.00000000
1.00000000 1.00000000 1.00000000
1.00000000 1.00000000 1.00000000
1.00000000 1.00000000 1.00000000
0.00000010 0.00000000 0.00000000
0.00000010 0.00000000 0.00000000
0.00000010 0.00000000 0.00000000
0.13602059 0.04983258 0.05536958
0.22900820 0.05536315 0.06911653
0.32533903 0.05077765 0.07784669
0.43089953 0.03847247 0.08670967
0.54656825 0.00669289 0.09801083
0.64602843 0.00000000 0.11204113
0.73281022 0.00000000 0.12902036
0.81215946 0.00000000 0.15045154
0.88656433 0.00000000 0.17788638
0.94308739 0.07042427 0.20264346
0.97598440 0.19263059 0.22973142
0.99402201 0.36092788 0.29982243
1.00000000 0.54493398 0.41482035
1.00000000 0.65538327 0.52671954
0.00000010 0.00000000 0.00000000
0.00000010 0.00000000 0.00000000
0.00000010 0.00000000 0.00000000
0.13602059 0.04983258 0.05536958
0.22900820 0.05536315 0.06911653
0.32533903 0.05077765 0.07784669
0.43089953 0.03847247 0.08670967
0.54656825 0.00669289 0.09801083
0.64602843 0.00000000 0.11204113
0.73281022 0.00000000 0.12902036
0.81215946 0.00000000 0.15045154
0.88656433 0.00000000 0.17788638
0.94308739 0.07042427 0.20264346
0.97598440 0.19263059 0.22973142
0.99402201 0.36092788 0.29982243
1.00000000 0.54493398 0.41482035
1.00000000 0.65538327 0.52671954
0.00000010 0.00000000 0.00000000
0.00000010 0.00000000 0.00000000
0.00000010 0.00000000 0.00000000
0.13602059 0.04983258 0.05536958
0.22900820 0.05536315 0.06911653
0.32533903 0.05077765 0.07784669
0.43089953 0.03847247 0.08670967
0.54656825 0.00669289 0.09801083
0.64602843 0.00000000 0.11204113
0.73281022 0.00000000 0.12902036
0.81215946 0.00000000 0.15045154
0.88656433 0.00000000 0.17788638
0.94308739 0.07042427 0.20264346
0.97598440 0.19263059 0.22973142
0.99402201 0.36092788 0.29982243
1.00000000 0.54493398 0.41482035
1.00000000 0.65538327 0.52671954
0.08233573 0.12911566 0.07001425
0.08233573 0.12911566 0.07001425
0.08233573 0.12911566 0.07001425
0.15149477 0.15796668 0.07015810
0.23280069 0.17011113 0.06624908
0.32597283 0.17403208 0.06275772
0.43182413 0.17218156 0.06296899
0.54900216 0.16564735 0.06808841
0.64949608 0.15372541 0.07764745
0.74512974 0.06378067 0.00000000
0.81677242 0.11243828 0.11367710
0.89120513 0.09516013 0.14451155
0.94745231 0.12450175 0.17675257
0.97952287 0.22193683 0.21608027
0.99520759 0.39264513 0.30361740
1.00000000 0.56574927 0.42464310
1.00000000 0.66796179 0.53787654
0.11300418 0.20811141 0.08251502
0.11300418 0.20811141 0.08251502
0.11300418 0.20811141 0.08251502
0.16577756 0.23246429 0.06964536
0.23665711 0.24863750 0.05827057
0.32356988 0.25890815 0.04963993
0.42673969 0.26404083 0.04560603
0.54443762 0.26414581 0.04737798
0.64707351 0.25873303 0.05358380
0.73651599 0.24661482 0.06380081
0.81816037 0.22703186 0.08100177
0.89450119 0.20093366 0.10680077
0.95171035 0.19876192 0.14514878
0.98333540 0.26991163 0.20112410
0.99640796 0.43683327 0.31077004
1.00000000 0.59266173 0.43946571
1.00000000 0.68467982 0.55318767
0.13835648 0.29006779 0.08083007
0.13835648 0.29006779 0.08083007
0.13835648 0.29006779 0.08083007
0.18242178 0.30984393 0.06282386
0.24429694 0.32666334 0.04822556
0.32384399 0.34095083 0.03732028
0.42164926 0.35185107 0.03132750
0.53752610 0.35873131 0.03082496
0.64159568 0.36058139 0.03601199
0.73268172 0.35627256 0.04555636
0.81603767 0.34453486 0.05984198
0.89395040 0.32565210 0.08441240
0.95296664 0.31384377 0.12804746
0.98530865 0.35714164 0.19899519
0.99723885 0.50195521 0.32671979
1.00000000 0.62764000 0.46302697
1.00000000 0.70704828 0.57458733
0.16563782 0.38060946 0.07135024
0.16563782 0.38060946 0.07135024
0.16563782 0.38060946 0.07135024
0.20438547 0.39630808 0.05408169
0.25848455 0.41228409 0.03860733
0.33008071 0.42838860 0.02561760
0.42100901 0.44352879 0.01646437
0.53205525 0.45622633 0.01476572
0.63547656 0.46523307 0.02056114
0.72727568 0.46896430 0.03141474
0.81179577 0.46604487 0.04769530
0.89105870 0.45618744 0.07248882
0.95185961 0.44481489 0.12465388
0.98560133 0.47024556 0.21094194
0.99749312 0.57716695 0.35330875
1.00000000 0.66959797 0.49785056
1.00000000 0.73547635 0.60305035
0.19992946 0.48406758 0.05946633
0.19992946 0.48406758 0.05946633
0.19992946 0.48406758 0.05946633
0.23417009 0.49669623 0.04479320
0.28135797 0.51083204 0.03074265
0.34491274 0.52613934 0.01496197
0.42771726 0.54159647 0.00000000
0.53157927 0.55620014 0.00000000
0.63113703 0.56845602 0.00000000
0.72184703 0.57745193 0.02115140
0.80662170 0.58209477 0.04043274
0.88669188 0.58201890 0.06917729
0.94945201 0.57546661 0.12950745
0.98531109 0.58516784 0.22919723
0.99766571 0.64898808 0.38966280
1.00000000 0.71633549 0.54252788
1.00000000 0.76976776 0.63914118
0.24408754 0.58948738 0.04848296
0.24408754 0.58948738 0.04848296
0.24408754 0.58948738 0.04848296
0.27397831 0.59681852 0.03833737
0.31477075 0.60570363 0.02694438
0.37045126 0.61633274 0.01004287
