Luts Download/Canon Luts/3dlut/17grid-3dlut/full-to-full-range/CinemaGamut_CanonLog3-to-DCIP3_DCI_17_FF_Ver.2.0.cube
# Gamut : Cinema Gamut to DCI-P3
# Gamma : Canon Log 3 to DCI
# Range : Full in / Full out
# Version : 2.0 2019/10/24
# Copyright(c) 2019 Canon Inc. All Rights Reserved.
LUT_3D_SIZE 5
# LUT_3D_INPUT_RANGE 0.0 1.0
0.00000587 0.00000000 0.00000064
0.28893065 0.08922239 0.12146928
0.78619168 0.00000000 0.23574292
0.99494665 0.20328528 0.23510971
1.00000000 0.38376528 0.29584880
0.12976716 0.24715035 0.14209609
0.27534268 0.28587761 0.13196931
0.78539287 0.30447937 0.00000000
0.99340690 0.33891002 0.26847467
1.00000000 0.45643167 0.36643738
0.14046352 0.65903349 0.20462345
0.25796833 0.67388102 0.11065560
0.71110592 0.74310119 0.09099582
1.00000000 0.71184235 0.48810675
1.00000000 0.75146748 0.67304208
0.25476295 0.85415678 0.10719679
0.29536837 0.86534965 0.09710064
0.52976786 0.95576529 0.20893601
0.91548794 0.96235408 0.41575866
1.00000000 0.91597706 0.80800314
0.36915074 0.93271019 0.08542077
0.38230781 0.94323785 0.11556850
0.63466840 1.00000000 0.47787541
0.88691651 1.00000000 0.78750109
1.00000000 1.00000000 1.00000000
0.08442009 0.06135444 0.20468252
0.27060252 0.00000000 0.24971566
0.76471605 0.00000000 0.39372630
0.98940933 0.16681406 0.32689441
1.00000000 0.37438787 0.29982370
0.07450969 0.27069719 0.26278668
0.27963641 0.27963641 0.27963641
0.81246500 0.20766728 0.31936058
0.99264138 0.31549323 0.33665263
1.00000000 0.44597650 0.36546579
0.07907515 0.70183138 0.30288777
0.16892321 0.71854484 0.20984637
0.72822016 0.76125014 0.04690351
1.00000000 0.71853738 0.51868217
1.00000000 0.75768926 0.68370952
0.23111760 0.88312502 0.16588701
0.27362692 0.89372005 0.15061311
0.54688222 0.97177452 0.27769166
0.92562400 0.97173862 0.47952384
1.00000000 0.92645468 0.83573681
0.39491409 0.95428592 0.18730470
0.42140480 0.96243450 0.22594861
0.70560339 1.00000000 0.57612250
0.91827895 1.00000000 0.84658127
1.00000000 1.00000000 1.00000000
0.17321912 0.16767896 0.54331616
0.28979939 0.00000000 0.51859325
0.69910283 0.00000000 0.62414870
0.95655295 0.00000000 0.55968994
1.00000000 0.31205285 0.41519627
0.00000000 0.27086291 0.50690474
0.16830545 0.16578768 0.57621613
0.73102644 0.00000000 0.66323267
0.98455970 0.00000000 0.55323492
1.00000000 0.34378029 0.42323974
0.00000000 0.70498494 0.68135741
0.00000000 0.71747201 0.69369231
0.72099367 0.72099367 0.72099367
0.97980601 0.72077213 0.73137958
0.99336122 0.76829051 0.74892660
0.42622973 0.95085473 0.50049193
0.46217410 0.95398396 0.50549316
0.72052181 0.97666488 0.64153702
0.94966434 0.99061863 0.63115847
1.00000000 0.96827149 0.92783601
0.70020404 1.00000000 0.60501056
0.72742413 1.00000000 0.63521926
0.89639569 1.00000000 0.84368439
1.00000000 1.00000000 1.00000000
1.00000000 1.00000000 1.00000000
0.00000000 0.26821541 0.66957093
0.14560235 0.20805518 0.70383278
0.57171821 0.00000000 0.81846493
0.89584818 0.00000000 0.77678981
1.00000000 0.21727716 0.61914423
0.00000000 0.31309524 0.65065847
0.00000000 0.26960079 0.68965201
0.56000293 0.00000000 0.86050114
0.91164260 0.00000000 0.79068802
1.00000000 0.23304262 0.62002556
0.13238587 0.61589695 0.85492418
0.13403480 0.62151828 0.88785534
0.62411818 0.66454888 0.95663080
0.98435934 0.64380773 0.90492702
1.00000000 0.71174497 0.80226380
0.00000000 0.91867759 0.88584145
0.00000000 0.92580487 0.89292707
0.48357886 0.96067953 0.93559463
0.93772690 0.93772690 0.93772690
1.00000000 0.95494921 0.95565553
0.66374610 0.99578033 0.65850648
0.69051885 0.99571926 0.67916684
0.88016521 1.00000000 0.85872001
1.00000000 1.00000000 1.00000000
1.00000000 1.00000000 1.00000000
0.00000000 0.33752977 0.65931812
0.00000000 0.32593546 0.65942367
0.22707808 0.23548495 0.93992316
0.74088650 0.12056560 0.99257205
0.97601257 0.05931320 0.83544304
0.00000000 0.35118122 0.68233513
0.00000000 0.33876708 0.68144150
0.18023153 0.21821285 0.94916584
0.74184924 0.00000000 1.00000000
0.98202661 0.00000000 0.84066161
0.20622468 0.55124400 0.94869508
0.25220699 0.56047846 0.96130507
0.52070421 0.65893275 0.98836815
0.84231363 0.66582677 1.00000000
1.00000000 0.67421043 0.90484882
0.48593557 0.83287405 1.00000000
0.50809292 0.83863669 1.00000000
0.72233671 0.89142374 1.00000000
0.90500505 0.92414038 1.00000000
1.00000000 0.93665285 0.98190356
0.17696413 0.99530498 0.96228188
0.30093549 0.99706787 0.96503102
0.77223902 1.00000000 0.98448501
1.00000000 1.00000000 1.00000000
1.00000000 1.00000000 1.00000000
