Luts Download/Canon Luts/3dlut/17grid-3dlut/full-to-full-range/CinemaGamut_CanonLog3-to-BT2020_HLG-Vivid_17_FF_Ver.2.0.cube
# Gamut : Cinema Gamut to BT.2020
# Gamma : Canon Log 3 to HLG-Vivid
# Range : Full in / Full out
# Version : 2.0 2019/10/24
# Copyright(c) 2019 Canon Inc. All Rights Reserved.
LUT_3D_SIZE 17
# LUT_3D_INPUT_RANGE 0.0 1.0
0.00000011 0.00000000 0.00000000
0.00000011 0.00000000 0.00000000
0.00000011 0.00000000 0.00000000
0.14909672 0.04463474 0.05065995
0.25380498 0.04608910 0.06019197
0.36225838 0.03875786 0.06493861
0.48054869 0.02649841 0.07012237
0.59614239 0.00558627 0.07757785
0.69089556 0.00000000 0.08749544
0.77470779 0.00000000 0.10119213
0.85124336 0.00798503 0.12209853
0.92052655 0.08886266 0.15733520
0.97782899 0.22403806 0.22766901
1.00000000 0.48895796 0.39377288
1.00000000 0.68247962 0.58644235
1.00000000 0.79299280 0.71873542
1.00000000 0.86688748 0.80710886
0.00000011 0.00000000 0.00000000
0.00000011 0.00000000 0.00000000
0.04882057 0.02029030 0.00000000
0.14909672 0.04463474 0.05065995
0.25380498 0.04608910 0.06019197
0.36225838 0.03875786 0.06493861
0.48054869 0.02649841 0.07012237
0.59614239 0.00558627 0.07757785
0.69089556 0.00000000 0.08749544
0.77470779 0.00000000 0.10119213
0.85124336 0.00798503 0.12209853
0.92052655 0.08886266 0.15733520
0.97782899 0.22403806 0.22766901
1.00000000 0.48895796 0.39377288
1.00000000 0.68247962 0.58644235
1.00000000 0.79299280 0.71873542
1.00000000 0.86688748 0.80710886
0.08277528 0.14663074 0.00000000
0.10928746 0.14385648 0.00000000
0.07272977 0.09089671 0.00000000
0.14909672 0.04463474 0.05065995
0.25380498 0.04608910 0.06019197
0.36225838 0.03875786 0.06493861
0.48054869 0.02649841 0.07012237
0.59614239 0.00558627 0.07757785
0.69089556 0.00000000 0.08749544
0.77470779 0.00000000 0.10119213
0.85124336 0.00798503 0.12209853
0.92052655 0.08886266 0.15733520
0.97782899 0.22403806 0.22766901
1.00000000 0.48895796 0.39377288
1.00000000 0.68247962 0.58644235
1.00000000 0.79299280 0.71873542
1.00000000 0.86688748 0.80710886
0.07683455 0.13177816 0.06327015
0.07683455 0.13177816 0.06327015
0.07683455 0.13177816 0.06327015
0.15122153 0.15900406 0.06010284
0.24339817 0.16705653 0.05394810
0.35070996 0.16518860 0.04865164
0.47245291 0.15682718 0.04701952
0.59402317 0.14405135 0.04990124
0.69247840 0.12736372 0.05689231
0.78838942 0.04217280 0.00000000
0.85561527 0.10008608 0.09190622
0.92481010 0.13202778 0.13295514
0.98043276 0.25351615 0.21490599
1.00000000 0.51025024 0.39116357
1.00000000 0.69156011 0.58893781
1.00000000 0.79842985 0.72228811
1.00000000 0.87125492 0.81124530
0.10248818 0.21323911 0.07028058
0.10248818 0.21323911 0.07028058
0.10248818 0.21323911 0.07028058
0.15787294 0.23685159 0.05579034
0.23610893 0.25052167 0.04401757
0.33491796 0.25632219 0.03546143
0.45377017 0.25513677 0.03132433
0.58107790 0.24753612 0.03225706
0.68514255 0.23396146 0.03736277
0.77501482 0.21547496 0.04774988
0.85547469 0.19789321 0.06882284
0.92688422 0.20435555 0.11064192
0.98144017 0.30607298 0.20540604
1.00000000 0.54083518 0.39073509
1.00000000 0.70450510 0.59357756
1.00000000 0.80653146 0.72814925
1.00000000 0.87738260 0.81723707
0.12254218 0.29788836 0.06429492
0.12254218 0.29788836 0.06429492
0.12254218 0.29788836 0.06429492
0.16801439 0.31721647 0.04680709
0.23460470 0.33244834 0.03358370
0.32304064 0.34362216 0.02442220
0.43421491 0.34950587 0.01976951
0.56295068 0.34931931 0.01980527
0.67220075 0.34235694 0.02502406
0.76633144 0.32893691 0.03613476
0.85030682 0.31264641 0.05731951
0.92438190 0.31062512 0.10141867
0.98108052 0.38364603 0.20014683
1.00000000 0.58261636 0.39505556
1.00000000 0.72437052 0.60367718
1.00000000 0.81904326 0.73823847
1.00000000 0.88610536 0.82607370
0.14427895 0.39134107 0.05260964
0.14427895 0.39134107 0.05260964
0.14427895 0.39134107 0.05260964
0.18378635 0.40668325 0.03743156
0.24080878 0.42159550 0.02483797
0.31860273 0.43556736 0.01541112
0.41994190 0.44703569 0.01009271
0.54448329 0.45401702 0.01055407
0.65658450 0.45503909 0.01677338
0.75414547 0.44911275 0.02935653
0.84150664 0.43814225 0.05269262
0.91888490 0.43409971 0.09794086
0.97957708 0.48370020 0.19656419
1.00000000 0.63339867 0.40546119
1.00000000 0.75100764 0.61940822
1.00000000 0.83606782 0.75283863
1.00000000 0.89820044 0.83883544
0.17255838 0.49798769 0.04066733
0.17255838 0.49798769 0.04066733
0.17255838 0.49798769 0.04066733
0.20721939 0.51011561 0.02914068
0.25617388 0.52292915 0.01900178
0.32382391 0.53632124 0.00958964
0.41418754 0.54906842 0.00296214
0.53036466 0.55986174 0.00386778
0.64139284 0.56683354 0.01283843
0.74029378 0.56900878 0.02688745
0.83023260 0.56647494 0.05135595
0.91085304 0.56521517 0.09807220
0.97635805 0.59064650 0.19478155
1.00000000 0.68955678 0.42095462
1.00000000 0.78404115 0.64139599
1.00000000 0.85823019 0.77326380
1.00000000 0.91442284 0.85683637
0.21019375 0.60205545 0.03204864
0.21019375 0.60205545 0.03204864
0.21019375 0.60205545 0.03204864
0.24027160 0.60889200 0.02506540
0.28206910 0.61705862 0.01803916
0.34033387 0.62662688 0.01076063
0.41970311 0.63707286 0.00582773
0.52449363 0.64753756 0.00680231
0.63010335 0.65685953 0.01471881
0.72718661 0.66336398 0.02906890
0.81779824 0.66678496 0.05457592
0.90075824 0.66946524 0.10262505
0.97001942 0.68467428 0.20273283
1.00000000 0.74930780 0.44603552
1.00000000 0.82279671 0.67038250
1.00000000 0.88561766 0.80060981
1.00000000 0.93523456 0.88133800
0.25942073 0.69158937 0.03041122
0.25942073 0.69158937 0.03041122
0.25942073 0.69158937 0.03041122
0.28509770 0.69573794 0.02756044
0.32053540 0.70116186 0.02345928
0.37037019 0.70780540 0.02149977
0.43914736 0.71595886 0.01921589
0.53086026 0.72508905 0.01969292
0.62582010 0.73451179 0.02540260
0.71783075 0.74327807 0.03880368
0.80632040 0.74998693 0.06477375
0.88974986 0.75580346 0.11545898
0.96166203 0.76770798 0.22146735
1.00000000 0.81023649 0.48400252
1.00000000 0.86605197 0.70886983
1.00000000 0.91768707 0.83614933
1.00000000 0.96051806 0.91327100
0.32436905 0.77324947 0.04264986
0.32436905 0.77324947 0.04264986
0.32436905 0.77324947 0.04264986
0.34587159 0.77586093 0.04247128
0.37565674 0.77939056 0.04196430
0.41778249 0.78411214 0.04135370
0.47670114 0.79010133 0.04238331
0.55275945 0.79750819 0.04449117
0.63285600 0.80596484 0.05033528
0.71532126 0.81494439 0.06361421
0.79889247 0.82380539 0.09050901
0.88002394 0.83158076 0.14364258
0.95283064 0.84231159 0.25756848
0.99649352 0.87066862 0.54089810
1.00000000 0.91175838 0.75844530
1.00000000 0.95296057 0.88099190
1.00000000 0.98825490 0.95127566
0.41418302 0.84974555 0.07830126
0.41418302 0.84974555 0.07830126
0.41418302 0.84974555 0.07830126
0.43187630 0.85140601 0.07948909
0.45658685 0.85369534 0.08103166
0.49189448 0.85690977 0.08286177
0.53903155 0.86117062 0.08657358
0.59435490 0.86678656 0.09256380
0.65698855 0.87372087 0.10252981
0.72591154 0.88182701 0.11968547
0.79959599 0.89079337 0.15032708
0.87553099 0.90050540 0.20911109
0.94595596 0.91049395 0.33268097
0.99332409 0.92920033 0.62250735
1.00000000 0.95758414 0.82390750
1.00000000 0.98898546 0.93377848
1.00000000 1.00000000 1.00000000
0.54826639 0.92123615 0.16044186
0.54826639 0.92123615 0.16044186
0.54826639 0.92123615 0.16044186
0.56008800 0.92226223 0.16273013
0.57602774 0.92368785 0.16608853
0.59792210 0.92569440 0.17156540
0.62687907 0.92850321 0.17987238
0.66382100 0.93230275 0.19410448
0.70870086 0.93735677 0.21451917
0.76106145 0.94371090 0.24526545
0.81985528 0.95146292 0.29204611
0.88323188 0.96066891 0.36916769
0.94723093 0.97194052 0.51627077
0.99420565 0.98297386 0.74455662
1.00000000 0.99994163 0.90870121
1.00000000 1.00000000 1.00000000
1.00000000 1.00000000 1.00000000
0.70643881 0.98338585 0.35545679
0.70643881 0.98338585 0.35545679
0.70643881 0.98338585 0.35545679
0.71203408 0.98392836 0.35941477
0.71998164 0.98465549 0.36564141
0.73235532 0.98548563 0.37843117
0.75016120 0.98649274 0.40026770
0.77432173 0.98802780 0.43444230
0.80466322 0.98998956 0.48588514
0.84101060 0.99277888 0.55443811
0.88228722 0.99656374 0.63317957
0.92656936 1.00000000 0.72208884
0.97076728 1.00000000 0.82131623
1.00000000 1.00000000 1.00000000
1.00000000 1.00000000 1.00000000
1.00000000 1.00000000 1.00000000
1.00000000 1.00000000 1.00000000
0.88832851 1.00000000 0.75829686
0.88832851 1.00000000 0.75829686
0.88832851 1.00000000 0.75829686
0.89042517 1.00000000 0.76108690
0.89339926 1.00000000 0.76512062
0.89782767 1.00000000 0.77142264
0.90440451 1.00000000 0.78122460
0.91398365 1.00000000 0.79602563
0.92681243 1.00000000 0.81634171
0.94340594 1.00000000 0.84416444
0.96371827 1.00000000 0.87947098
1.00000000 1.00000000 1.00000000
1.00000000 1.00000000 1.00000000
1.00000000 1.00000000 1.00000000
1.00000000 1.00000000 1.00000000
1.00000000 1.00000000 1.00000000
1.00000000 1.00000000 1.00000000
1.00000000 1.00000000 1.00000000
1.00000000 1.00000000 1.00000000
1.00000000 1.00000000 1.00000000
1.00000000 1.00000000 1.00000000
1.00000000 1.00000000 1.00000000
1.00000000 1.00000000 1.00000000
1.00000000 1.00000000 1.00000000
1.00000000 1.00000000 1.00000000
1.00000000 1.00000000 1.00000000
1.00000000 1.00000000 1.00000000
1.00000000 1.00000000 1.00000000
1.00000000 1.00000000 1.00000000
1.00000000 1.00000000 1.00000000
1.00000000 1.00000000 1.00000000
1.00000000 1.00000000 1.00000000
1.00000000 1.00000000 1.00000000
1.00000000 1.00000000 1.00000000
1.00000000 1.00000000 1.00000000
1.00000000 1.00000000 1.00000000
1.00000000 1.00000000 1.00000000
1.00000000 1.00000000 1.00000000
1.00000000 1.00000000 1.00000000
1.00000000 1.00000000 1.00000000
1.00000000 1.00000000 1.00000000
1.00000000 1.00000000 1.00000000
1.00000000 1.00000000 1.00000000
1.00000000 1.00000000 1.00000000
1.00000000 1.00000000 1.00000000
1.00000000 1.00000000 1.00000000
1.00000000 1.00000000 1.00000000
1.00000000 1.00000000 1.00000000
1.00000000 1.00000000 1.00000000
1.00000000 1.00000000 1.00000000
1.00000000 1.00000000 1.00000000
0.00000011 0.00000000 0.00000000
0.00000011 0.00000000 0.00000000
0.00000011 0.00000000 0.00000000
0.14909672 0.04463474 0.05065995
0.25380498 0.04608910 0.06019197
0.36225838 0.03875786 0.06493861
0.48054869 0.02649841 0.07012237
0.59614239 0.00558627 0.07757785
0.69089556 0.00000000 0.08749544
0.77470779 0.00000000 0.10119213
0.85124336 0.00798503 0.12209853
0.92052655 0.08886266 0.15733520
0.97782899 0.22403806 0.22766901
1.00000000 0.48895796 0.39377288
1.00000000 0.68247962 0.58644235
1.00000000 0.79299280 0.71873542
1.00000000 0.86688748 0.80710886
0.00000011 0.00000000 0.00000000
0.00000011 0.00000000 0.00000000
0.00000011 0.00000000 0.00000000
0.14909672 0.04463474 0.05065995
0.25380498 0.04608910 0.06019197
0.36225838 0.03875786 0.06493861
0.48054869 0.02649841 0.07012237
0.59614239 0.00558627 0.07757785
0.69089556 0.00000000 0.08749544
0.77470779 0.00000000 0.10119213
0.85124336 0.00798503 0.12209853
0.92052655 0.08886266 0.15733520
0.97782899 0.22403806 0.22766901
1.00000000 0.48895796 0.39377288
1.00000000 0.68247962 0.58644235
1.00000000 0.79299280 0.71873542
1.00000000 0.86688748 0.80710886
0.00000011 0.00000000 0.00000000
0.00000011 0.00000000 0.00000000
0.00000011 0.00000000 0.00000000
0.14909672 0.04463474 0.05065995
0.25380498 0.04608910 0.06019197
0.36225838 0.03875786 0.06493861
0.48054869 0.02649841 0.07012237
0.59614239 0.00558627 0.07757785
0.69089556 0.00000000 0.08749544
0.77470779 0.00000000 0.10119213
0.85124336 0.00798503 0.12209853
0.92052655 0.08886266 0.15733520
0.97782899 0.22403806 0.22766901
1.00000000 0.48895796 0.39377288
1.00000000 0.68247962 0.58644235
1.00000000 0.79299280 0.71873542
1.00000000 0.86688748 0.80710886
0.07683455 0.13177816 0.06327015
0.07683455 0.13177816 0.06327015
0.07683455 0.13177816 0.06327015
0.15122153 0.15900406 0.06010284
0.24339817 0.16705653 0.05394810
0.35070996 0.16518860 0.04865164
0.47245291 0.15682718 0.04701952
0.59402317 0.14405135 0.04990124
0.69247840 0.12736372 0.05689231
0.78838942 0.04217280 0.00000000
0.85561527 0.10008608 0.09190622
0.92481010 0.13202778 0.13295514
0.98043276 0.25351615 0.21490599
1.00000000 0.51025024 0.39116357
1.00000000 0.69156011 0.58893781
1.00000000 0.79842985 0.72228811
1.00000000 0.87125492 0.81124530
0.10248818 0.21323911 0.07028058
0.10248818 0.21323911 0.07028058
0.10248818 0.21323911 0.07028058
0.15787294 0.23685159 0.05579034
0.23610893 0.25052167 0.04401757
0.33491796 0.25632219 0.03546143
0.45377017 0.25513677 0.03132433
0.58107790 0.24753612 0.03225706
0.68514255 0.23396146 0.03736277
0.77501482 0.21547496 0.04774988
0.85547469 0.19789321 0.06882284
0.92688422 0.20435555 0.11064192
0.98144017 0.30607298 0.20540604
1.00000000 0.54083518 0.39073509
1.00000000 0.70450510 0.59357756
1.00000000 0.80653146 0.72814925
1.00000000 0.87738260 0.81723707
0.12254218 0.29788836 0.06429492
0.12254218 0.29788836 0.06429492
0.12254218 0.29788836 0.06429492
0.16801439 0.31721647 0.04680709
0.23460470 0.33244834 0.03358370
0.32304064 0.34362216 0.02442220
0.43421491 0.34950587 0.01976951
0.56295068 0.34931931 0.01980527
0.67220075 0.34235694 0.02502406
0.76633144 0.32893691 0.03613476
0.85030682 0.31264641 0.05731951
0.92438190 0.31062512 0.10141867
0.98108052 0.38364603 0.20014683
1.00000000 0.58261636 0.39505556
1.00000000 0.72437052 0.60367718
1.00000000 0.81904326 0.73823847
1.00000000 0.88610536 0.82607370
0.14427895 0.39134107 0.05260964
0.14427895 0.39134107 0.05260964
0.14427895 0.39134107 0.05260964
0.18378635 0.40668325 0.03743156
0.24080878 0.42159550 0.02483797
0.31860273 0.43556736 0.01541112
0.41994190 0.44703569 0.01009271
0.54448329 0.45401702 0.01055407
0.65658450 0.45503909 0.01677338
0.75414547 0.44911275 0.02935653
0.84150664 0.43814225 0.05269262
0.91888490 0.43409971 0.09794086
0.97957708 0.48370020 0.19656419
1.00000000 0.63339867 0.40546119
1.00000000 0.75100764 0.61940822
1.00000000 0.83606782 0.75283863
1.00000000 0.89820044 0.83883544
0.17255838 0.49798769 0.04066733
0.17255838 0.49798769 0.04066733
0.17255838 0.49798769 0.04066733
0.20721939 0.51011561 0.02914068
0.25617388 0.52292915 0.01900178
0.32382391 0.53632124 0.00958964
0.41418754 0.54906842 0.00296214
0.53036466 0.55986174 0.00386778
0.64139284 0.56683354 0.01283843
0.74029378 0.56900878 0.02688745
0.83023260 0.56647494 0.05135595
0.91085304 0.56521517 0.09807220
0.97635805 0.59064650 0.19478155
1.00000000 0.68955678 0.42095462
1.00000000 0.78404115 0.64139599
1.00000000 0.85823019 0.77326380
1.00000000 0.91442284 0.85683637
0.21019375 0.60205545 0.03204864
0.21019375 0.60205545 0.03204864
0.21019375 0.60205545 0.03204864
0.24027160 0.60889200 0.02506540
0.28206910 0.61705862 0.01803916
0.34033387 0.62662688 0.01076063
0.41970311 0.63707286 0.00582773
0.52449363 0.64753756 0.00680231
0.63010335 0.65685953 0.01471881
0.72718661 0.66336398 0.02906890
0.81779824 0.66678496 0.05457592
0.90075824 0.66946524 0.10262505
0.97001942 0.68467428 0.20273283
1.00000000 0.74930780 0.44603552
1.00000000 0.82279671 0.67038250
1.00000000 0.88561766 0.80060981
1.00000000 0.93523456 0.88133800
0.25942073 0.69158937 0.03041122
0.25942073 0.69158937 0.03041122
0.25942073 0.69158937 0.03041122
0.28509770 0.69573794 0.02756044
0.32053540 0.70116186 0.02345928
0.37037019 0.70780540 0.02149977
0.43914736 0.71595886 0.01921589
0.53086026 0.72508905 0.01969292
0.62582010 0.73451179 0.02540260
0.71783075 0.74327807 0.03880368
0.80632040 0.74998693 0.06477375
0.88974986 0.75580346 0.11545898
0.96166203 0.76770798 0.22146735
1.00000000 0.81023649 0.48400252
1.00000000 0.86605197 0.70886983
1.00000000 0.91768707 0.83614933
1.00000000 0.96051806 0.91327100
0.32436905 0.77324947 0.04264986
0.32436905 0.77324947 0.04264986
0.32436905 0.77324947 0.04264986
0.34587159 0.77586093 0.04247128
0.37565674 0.77939056 0.04196430
0.41778249 0.78411214 0.04135370
0.47670114 0.79010133 0.04238331
0.55275945 0.79750819 0.04449117
0.63285600 0.80596484 0.05033528
0.71532126 0.81494439 0.06361421
0.79889247 0.82380539 0.09050901
0.88002394 0.83158076 0.14364258
0.95283064 0.84231159 0.25756848
0.99649352 0.87066862 0.54089810
1.00000000 0.91175838 0.75844530
1.00000000 0.95296057 0.88099190
1.00000000 0.98825490 0.95127566
0.41418302 0.84974555 0.07830126
0.41418302 0.84974555 0.07830126
0.41418302 0.84974555 0.07830126
0.43187630 0.85140601 0.07948909
0.45658685 0.85369534 0.08103166
0.49189448 0.85690977 0.08286177
0.53903155 0.86117062 0.08657358
0.59435490 0.86678656 0.09256380
0.65698855 0.87372087 0.10252981
0.72591154 0.88182701 0.11968547
0.79959599 0.89079337 0.15032708
0.87553099 0.90050540 0.20911109
0.94595596 0.91049395 0.33268097
0.99332409 0.92920033 0.62250735
1.00000000 0.95758414 0.82390750
1.00000000 0.98898546 0.93377848
1.00000000 1.00000000 1.00000000
0.54826639 0.92123615 0.16044186
0.54826639 0.92123615 0.16044186
0.54826639 0.92123615 0.16044186
0.56008800 0.92226223 0.16273013
0.57602774 0.92368785 0.16608853
0.59792210 0.92569440 0.17156540
0.62687907 0.92850321 0.17987238
0.66382100 0.93230275 0.19410448
0.70870086 0.93735677 0.21451917
0.76106145 0.94371090 0.24526545
0.81985528 0.95146292 0.29204611
0.88323188 0.96066891 0.36916769
0.94723093 0.97194052 0.51627077
0.99420565 0.98297386 0.74455662
1.00000000 0.99994163 0.90870121
1.00000000 1.00000000 1.00000000
1.00000000 1.00000000 1.00000000
0.70643881 0.98338585 0.35545679
0.70643881 0.98338585 0.35545679
0.70643881 0.98338585 0.35545679
0.71203408 0.98392836 0.35941477
0.71998164 0.98465549 0.36564141
0.73235532 0.98548563 0.37843117
0.75016120 0.98649274 0.40026770
0.77432173 0.98802780 0.43444230
0.80466322 0.98998956 0.48588514
0.84101060 0.99277888 0.55443811
0.88228722 0.99656374 0.63317957
0.92656936 1.00000000 0.72208884
0.97076728 1.00000000 0.82131623
1.00000000 1.00000000 1.00000000
1.00000000 1.00000000 1.00000000
1.00000000 1.00000000 1.00000000
1.00000000 1.00000000 1.00000000
0.88832851 1.00000000 0.75829686
0.88832851 1.00000000 0.75829686
0.88832851 1.00000000 0.75829686
0.89042517 1.00000000 0.76108690
0.89339926 1.00000000 0.76512062
0.89782767 1.00000000 0.77142264
0.90440451 1.00000000 0.78122460
0.91398365 1.00000000 0.79602563
0.92681243 1.00000000 0.81634171
0.94340594 1.00000000 0.84416444
0.96371827 1.00000000 0.87947098
1.00000000 1.00000000 1.00000000
1.00000000 1.00000000 1.00000000
1.00000000 1.00000000 1.00000000
1.00000000 1.00000000 1.00000000
1.00000000 1.00000000 1.00000000
1.00000000 1.00000000 1.00000000
1.00000000 1.00000000 1.00000000
1.00000000 1.00000000 1.00000000
1.00000000 1.00000000 1.00000000
1.00000000 1.00000000 1.00000000
1.00000000 1.00000000 1.00000000
1.00000000 1.00000000 1.00000000
1.00000000 1.00000000 1.00000000
1.00000000 1.00000000 1.00000000
1.00000000 1.00000000 1.00000000
1.00000000 1.00000000 1.00000000
1.00000000 1.00000000 1.00000000
1.00000000 1.00000000 1.00000000
1.00000000 1.00000000 1.00000000
1.00000000 1.00000000 1.00000000
1.00000000 1.00000000 1.00000000
1.00000000 1.00000000 1.00000000
1.00000000 1.00000000 1.00000000
1.00000000 1.00000000 1.00000000
1.00000000 1.00000000 1.00000000
1.00000000 1.00000000 1.00000000
1.00000000 1.00000000 1.00000000
1.00000000 1.00000000 1.00000000
1.00000000 1.00000000 1.00000000
1.00000000 1.00000000 1.00000000
1.00000000 1.00000000 1.00000000
1.00000000 1.00000000 1.00000000
1.00000000 1.00000000 1.00000000
1.00000000 1.00000000 1.00000000
1.00000000 1.00000000 1.00000000
1.00000000 1.00000000 1.00000000
1.00000000 1.00000000 1.00000000
1.00000000 1.00000000 1.00000000
1.00000000 1.00000000 1.00000000
1.00000000 1.00000000 1.00000000
0.00000011 0.00000000 0.00000000
0.00000011 0.00000000 0.00000000
0.00000011 0.00000000 0.00000000
0.14909672 0.04463474 0.05065995
0.25380498 0.04608910 0.06019197
0.36225838 0.03875786 0.06493861
0.48054869 0.02649841 0.07012237
0.59614239 0.00558627 0.07757785
0.69089556 0.00000000 0.08749544
0.77470779 0.00000000 0.10119213
0.85124336 0.00798503 0.12209853
0.92052655 0.08886266 0.15733520
0.97782899 0.22403806 0.22766901
1.00000000 0.48895796 0.39377288
1.00000000 0.68247962 0.58644235
1.00000000 0.79299280 0.71873542
1.00000000 0.86688748 0.80710886
0.00000011 0.00000000 0.00000000
0.00000011 0.00000000 0.00000000
0.00000011 0.00000000 0.00000000
0.14909672 0.04463474 0.05065995
0.25380498 0.04608910 0.06019197
0.36225838 0.03875786 0.06493861
0.48054869 0.02649841 0.07012237
0.59614239 0.00558627 0.07757785
0.69089556 0.00000000 0.08749544
0.77470779 0.00000000 0.10119213
0.85124336 0.00798503 0.12209853
0.92052655 0.08886266 0.15733520
0.97782899 0.22403806 0.22766901
1.00000000 0.48895796 0.39377288
1.00000000 0.68247962 0.58644235
1.00000000 0.79299280 0.71873542
1.00000000 0.86688748 0.80710886
0.00000011 0.00000000 0.00000000
0.00000011 0.00000000 0.00000000
0.00000011 0.00000000 0.00000000
0.14909672 0.04463474 0.05065995
0.25380498 0.04608910 0.06019197
0.36225838 0.03875786 0.06493861
0.48054869 0.02649841 0.07012237
0.59614239 0.00558627 0.07757785
0.69089556 0.00000000 0.08749544
0.77470779 0.00000000 0.10119213
0.85124336 0.00798503 0.12209853
0.92052655 0.08886266 0.15733520
0.97782899 0.22403806 0.22766901
1.00000000 0.48895796 0.39377288
1.00000000 0.68247962 0.58644235
1.00000000 0.79299280 0.71873542
1.00000000 0.86688748 0.80710886
0.07683455 0.13177816 0.06327015
0.07683455 0.13177816 0.06327015
0.07683455 0.13177816 0.06327015
0.15122153 0.15900406 0.06010284
0.24339817 0.16705653 0.05394810
0.35070996 0.16518860 0.04865164
0.47245291 0.15682718 0.04701952
0.59402317 0.14405135 0.04990124
0.69247840 0.12736372 0.05689231
0.78838942 0.04217280 0.00000000
0.85561527 0.10008608 0.09190622
0.92481010 0.13202778 0.13295514
0.98043276 0.25351615 0.21490599
1.00000000 0.51025024 0.39116357
1.00000000 0.69156011 0.58893781
1.00000000 0.79842985 0.72228811
1.00000000 0.87125492 0.81124530
0.10248818 0.21323911 0.07028058
0.10248818 0.21323911 0.07028058
0.10248818 0.21323911 0.07028058
0.15787294 0.23685159 0.05579034
0.23610893 0.25052167 0.04401757
0.33491796 0.25632219 0.03546143
0.45377017 0.25513677 0.03132433
0.58107790 0.24753612 0.03225706
0.68514255 0.23396146 0.03736277
0.77501482 0.21547496 0.04774988
0.85547469 0.19789321 0.06882284
0.92688422 0.20435555 0.11064192
0.98144017 0.30607298 0.20540604
1.00000000 0.54083518 0.39073509
1.00000000 0.70450510 0.59357756
1.00000000 0.80653146 0.72814925
1.00000000 0.87738260 0.81723707
0.12254218 0.29788836 0.06429492
0.12254218 0.29788836 0.06429492
0.12254218 0.29788836 0.06429492
0.16801439 0.31721647 0.04680709
0.23460470 0.33244834 0.03358370
0.32304064 0.34362216 0.02442220
0.43421491 0.34950587 0.01976951
0.56295068 0.34931931 0.01980527
0.67220075 0.34235694 0.02502406
0.76633144 0.32893691 0.03613476
0.85030682 0.31264641 0.05731951
0.92438190 0.31062512 0.10141867
0.98108052 0.38364603 0.20014683
1.00000000 0.58261636 0.39505556
1.00000000 0.72437052 0.60367718
1.00000000 0.81904326 0.73823847
1.00000000 0.88610536 0.82607370
0.14427895 0.39134107 0.05260964
0.14427895 0.39134107 0.05260964
0.14427895 0.39134107 0.05260964
0.18378635 0.40668325 0.03743156
0.24080878 0.42159550 0.02483797
0.31860273 0.43556736 0.01541112
0.41994190 0.44703569 0.01009271
0.54448329 0.45401702 0.01055407
0.65658450 0.45503909 0.01677338
0.75414547 0.44911275 0.02935653
0.84150664 0.43814225 0.05269262
0.91888490 0.43409971 0.09794086
0.97957708 0.48370020 0.19656419
1.00000000 0.63339867 0.40546119
1.00000000 0.75100764 0.61940822
1.00000000 0.83606782 0.75283863
1.00000000 0.89820044 0.83883544
0.17255838 0.49798769 0.04066733
0.17255838 0.49798769 0.04066733
0.17255838 0.49798769 0.04066733
0.20721939 0.51011561 0.02914068
0.25617388 0.52292915 0.01900178
0.32382391 0.53632124 0.00958964
0.41418754 0.54906842 0.00296214
0.53036466 0.55986174 0.00386778
0.64139284 0.56683354 0.01283843
0.74029378 0.56900878 0.02688745
0.83023260 0.56647494 0.05135595
0.91085304 0.56521517 0.09807220
0.97635805 0.59064650 0.19478155
1.00000000 0.68955678 0.42095462
1.00000000 0.78404115 0.64139599
1.00000000 0.85823019 0.77326380
1.00000000 0.91442284 0.85683637
0.21019375 0.60205545 0.03204864
0.21019375 0.60205545 0.03204864
0.21019375 0.60205545 0.03204864
0.24027160 0.60889200 0.02506540
0.28206910 0.61705862 0.01803916
0.34033387 0.62662688 0.01076063
