Luts Download/Canon Luts/3dlut/17grid-3dlut/full-to-full-range/CinemaGamut_CanonLog3-to-DCIP3_DCI_17_FF_Ver.2.0.cube
# Gamut : Cinema Gamut to DCI-P3
# Gamma : Canon Log 3 to DCI
# Range : Full in / Full out
# Version : 2.0 2019/10/24
# Copyright(c) 2019 Canon Inc. All Rights Reserved.
LUT_3D_SIZE 17
# LUT_3D_INPUT_RANGE 0.0 1.0
0.00000587 0.00000000 0.00000064
0.00000587 0.00000000 0.00000064
0.00000587 0.00000000 0.00000064
0.14583842 0.06324784 0.07408478
0.28893065 0.08922239 0.12146928
0.42643624 0.09688601 0.15965161
0.56785765 0.09090113 0.19675918
0.68962244 0.05396614 0.22286165
0.78619168 0.00000000 0.23574292
0.86308553 0.00000000 0.23867187
0.92380593 0.00000000 0.23425976
0.96891321 0.11446804 0.22853158
0.99494665 0.20328528 0.23510971
1.00000000 0.27634361 0.25522590
1.00000000 0.32727783 0.27472736
1.00000000 0.36209882 0.28909365
1.00000000 0.38376528 0.29584880
0.00000587 0.00000000 0.00000064
0.00000587 0.00000000 0.00000064
0.00000587 0.00000000 0.00000064
0.14583842 0.06324784 0.07408478
0.28893065 0.08922239 0.12146928
0.42643624 0.09688601 0.15965161
0.56785765 0.09090113 0.19675918
0.68962244 0.05396614 0.22286165
0.78619168 0.00000000 0.23574292
0.86308553 0.00000000 0.23867187
0.92380593 0.00000000 0.23425976
0.96891321 0.11446804 0.22853158
0.99494665 0.20328528 0.23510971
1.00000000 0.27634361 0.25522590
1.00000000 0.32727783 0.27472736
1.00000000 0.36209882 0.28909365
1.00000000 0.38376528 0.29584880
0.00000587 0.00000000 0.00000064
0.00000587 0.00000000 0.00000064
0.00000587 0.00000000 0.00000064
0.14583842 0.06324784 0.07408478
0.28893065 0.08922239 0.12146928
0.42643624 0.09688601 0.15965161
0.56785765 0.09090113 0.19675918
0.68962244 0.05396614 0.22286165
0.78619168 0.00000000 0.23574292
0.86308553 0.00000000 0.23867187
0.92380593 0.00000000 0.23425976
0.96891321 0.11446804 0.22853158
0.99494665 0.20328528 0.23510971
1.00000000 0.27634361 0.25522590
1.00000000 0.32727783 0.27472736
1.00000000 0.36209882 0.28909365
1.00000000 0.38376528 0.29584880
0.08525302 0.12978866 0.09027660
0.08525302 0.12978866 0.09027660
0.08525302 0.12978866 0.09027660
0.14831465 0.15259440 0.09647676
0.26714907 0.18872666 0.00000000
0.41424328 0.20054491 0.00000000
0.56280232 0.19851543 0.00000000
0.69086670 0.17921969 0.04300394
0.79301365 0.14252117 0.11968490
0.87232094 0.10823051 0.15127533
0.93354827 0.10286541 0.16821293
0.97634168 0.15660634 0.18632630
0.99620535 0.23960541 0.22227077
1.00000000 0.30445273 0.25733688
1.00000000 0.35031767 0.28386399
1.00000000 0.38221534 0.30202040
1.00000000 0.40245946 0.31139899
0.12976716 0.24715035 0.14209609
0.12976716 0.24715035 0.14209609
0.12976716 0.24715035 0.14209609
0.18125681 0.25878959 0.10875651
0.27534268 0.28587761 0.13196931
0.38736863 0.31491117 0.12479658
0.53503618 0.33059096 0.00000000
0.67387863 0.32390872 0.00000000
0.78539287 0.30447937 0.00000000
0.87363358 0.28172661 0.11171826
0.93969730 0.26940097 0.16074407
0.97917757 0.29026055 0.21311499
0.99340690 0.33891002 0.26847467
0.99879081 0.38169751 0.30825649
1.00000000 0.41528152 0.33656534
1.00000000 0.44018647 0.35592150
1.00000000 0.45643167 0.36643738
0.15124689 0.36007732 0.17426736
0.15124689 0.36007732 0.17426736
0.15124689 0.36007732 0.17426736
0.19820572 0.36724201 0.12565585
0.28838089 0.38750760 0.10792121
0.39527218 0.41177909 0.13569767
0.51871685 0.43679029 0.14394498
0.65255377 0.44420740 0.10768193
0.77309495 0.43307336 0.11627669
0.87087770 0.41494897 0.16313450
0.94251664 0.40278133 0.21556939
0.97836985 0.41732756 0.28404286
0.99068364 0.44768961 0.34300062
0.99433115 0.47737635 0.38539552
0.99539729 0.50171785 0.41504509
0.99630296 0.52025010 0.43504749
0.99940909 0.53252260 0.44631874
0.15657663 0.47748052 0.19893059
0.15657663 0.47748052 0.19893059
0.15657663 0.47748052 0.19893059
0.20172676 0.48227409 0.14430744
0.29025669 0.49753114 0.10129037
0.39730196 0.51842276 0.09043146
0.51967938 0.54170740 0.12130347
0.64787224 0.55361921 0.12821059
0.77205022 0.54817719 0.13897932
0.87957937 0.53183956 0.18634856
0.99063289 0.49255837 0.13560353
0.98944093 0.53050956 0.35090603
0.99862132 0.55297895 0.42078058
0.99973032 0.57545246 0.46951762
0.99886787 0.59437004 0.50275458
0.99861055 0.60889084 0.52489765
1.00000000 0.61851969 0.53773041
0.14755958 0.57864234 0.20930012
0.14755958 0.57864234 0.20930012
0.14755958 0.57864234 0.20930012
0.18858681 0.58252992 0.15400276
0.27696091 0.59509438 0.10885332
0.38055387 0.61437623 0.07456503
0.49950571 0.63809527 0.08833825
0.62649067 0.65359693 0.09338673
0.75465979 0.65305254 0.08997183
0.87485471 0.63825749 0.14603469
0.96939455 0.61982064 0.24369472
1.00000000 0.62296420 0.37615612
1.00000000 0.63853879 0.46842170
1.00000000 0.65638314 0.53051496
1.00000000 0.67198948 0.57179764
1.00000000 0.68412703 0.59847697
1.00000000 0.69214220 0.61400962
0.14046352 0.65903349 0.20462345
0.14046352 0.65903349 0.20462345
0.14046352 0.65903349 0.20462345
0.17447201 0.66247675 0.15223999
0.25796833 0.67388102 0.11065560
0.35478615 0.69240161 0.07984564
0.46570910 0.71707781 0.08935474
0.58584147 0.73654216 0.09708505
0.71110592 0.74310119 0.09099582
0.83633259 0.73489444 0.12274186
0.94756194 0.71638977 0.21972272
1.00000000 0.70660598 0.36964316
1.00000000 0.71184235 0.48810675
1.00000000 0.72343344 0.56849291
1.00000000 0.73537678 0.62085647
1.00000000 0.74504759 0.65396258
1.00000000 0.75146748 0.67304208
0.14678370 0.72411185 0.18678211
0.14678370 0.72411185 0.18678211
0.14678370 0.72411185 0.18678211
0.17596805 0.72707961 0.14033807
0.24717586 0.73764740 0.10556870
0.33182730 0.75572428 0.08572503
0.43075198 0.78128922 0.09670063
0.54045622 0.80378479 0.11301345
0.65736326 0.81608976 0.12054252
0.77943561 0.81612663 0.14264035
0.89815100 0.80327100 0.20975182
0.99060008 0.78592961 0.33790953
1.00000000 0.78008651 0.48531598
1.00000000 0.78335647 0.58827462
1.00000000 0.79017288 0.65531584
1.00000000 0.79678747 0.69665639
1.00000000 0.80111769 0.71994674
0.17007733 0.77711349 0.15778205
0.17007733 0.77711349 0.15778205
0.17007733 0.77711349 0.15778205
0.19832377 0.77950443 0.12225898
0.25114354 0.78950360 0.09731836
0.31939715 0.80723963 0.08910407
0.40251820 0.83322938 0.10503714
0.49876509 0.85788484 0.12665853
0.60428172 0.87439953 0.14443702
0.71758916 0.88082297 0.16768355
0.83497480 0.87598117 0.21428068
0.94387918 0.86028811 0.30359032
1.00000000 0.84522837 0.45919577
1.00000000 0.83938747 0.58993549
1.00000000 0.83966929 0.67631636
1.00000000 0.84208507 0.72862687
1.00000000 0.84370017 0.75675404
0.21046785 0.81990205 0.12774969
0.21046785 0.81990205 0.12774969
0.21046785 0.81990205 0.12774969
0.23294694 0.82195841 0.10428070
0.26976749 0.83149663 0.09401127
0.32041394 0.84892549 0.09858020
0.38617584 0.87505360 0.11820515
0.46670783 0.90111055 0.14283370
0.55907555 0.92049648 0.16952449
0.66089069 0.93150501 0.19983729
0.76949035 0.93299399 0.23886840
0.87990680 0.92456955 0.29944167
0.97602912 0.90714498 0.40175238
1.00000000 0.89299168 0.57199778
1.00000000 0.88604013 0.68458099
1.00000000 0.88330548 0.75133347
1.00000000 0.88134591 0.78525803
0.25476295 0.85415678 0.10719679
0.25476295 0.85415678 0.10719679
0.25476295 0.85415678 0.10719679
0.27001657 0.85613933 0.09376620
0.29536837 0.86534965 0.09710064
0.33276308 0.88238448 0.11512913
0.38540582 0.90814316 0.14503195
0.44937919 0.93498280 0.16982070
0.52976786 0.95576529 0.20893601
0.62071967 0.96927758 0.25432499
0.71758165 0.97502081 0.30042559
0.81723186 0.97268461 0.34864134
0.91548794 0.96235408 0.41575866
0.98999821 0.94440459 0.54422859
1.00000000 0.93014053 0.68393891
1.00000000 0.92181741 0.76757999
1.00000000 0.91597706 0.80800314
0.29357727 0.88146677 0.09749556
0.29357727 0.88146677 0.09749556
0.29357727 0.88146677 0.09749556
0.30385436 0.88345442 0.09244560
0.32215005 0.89239720 0.10562088
0.35067289 0.90903803 0.13126850
0.39413521 0.93417402 0.16982972
0.45057523 0.96052217 0.20924976
0.52658998 0.98070158 0.27044033
0.61793003 0.99259910 0.34905234
0.70879156 0.99763202 0.42468223
0.79082195 0.99864610 0.48133025
0.86770448 0.99595837 0.52223701
0.94324580 0.98898155 0.55335144
0.99456389 0.97061768 0.68743463
1.00000000 0.95728439 0.78360536
1.00000000 0.94821129 0.82952369
0.32560219 0.90301786 0.09646650
0.32560219 0.90301786 0.09646650
0.32560219 0.90301786 0.09646650
0.33272743 0.90502755 0.09689206
0.34680875 0.91374507 0.11545810
0.37037543 0.92996104 0.14679382
0.41020784 0.95418444 0.19544892
0.46979995 0.97867797 0.25917761
0.56013305 0.99436060 0.35748506
0.65489403 1.00000000 0.45803715
0.73602996 1.00000000 0.54021385
0.80370512 1.00000000 0.60472972
0.86233847 1.00000000 0.65564379
0.91592354 1.00000000 0.69980443
0.96525131 0.99839722 0.75800208
0.99640434 0.98688647 0.81311763
1.00000000 0.97658757 0.85639765
0.35074008 0.91980807 0.09588163
0.35074008 0.91980807 0.09588163
0.35074008 0.91980807 0.09588163
0.35585478 0.92184190 0.09915441
0.36727306 0.93038737 0.12080842
0.38814538 0.94621239 0.15717043
0.42915788 0.96926236 0.21902882
0.50070696 0.99061657 0.31023212
0.60370720 1.00000000 0.43229073
0.69408944 1.00000000 0.53532138
0.76708694 1.00000000 0.61897135
0.82629108 1.00000000 0.68639010
0.87518593 1.00000000 0.74143308
0.91707570 1.00000000 0.78863565
0.95373003 1.00000000 0.83368941
0.98400675 1.00000000 0.87493954
1.00000000 0.99803125 0.89415732
0.36915074 0.93271019 0.08542077
0.36915074 0.93271019 0.08542077
0.36915074 0.93271019 0.08542077
0.37279303 0.93478914 0.08984169
0.38230781 0.94323785 0.11556850
0.40197764 0.95870839 0.15963090
0.44595396 0.98058894 0.23551851
0.53336207 0.99806537 0.35472551
0.63466840 1.00000000 0.47787541
0.71998028 1.00000000 0.58025094
0.78817619 1.00000000 0.66359263
0.84260877 1.00000000 0.73157708
0.88691651 1.00000000 0.78750109
0.92357953 1.00000000 0.83494125
0.95423624 1.00000000 0.87663968
0.97920732 1.00000000 0.91344029
1.00000000 1.00000000 1.00000000
0.00000587 0.00000000 0.00000064
0.00000587 0.00000000 0.00000064
0.00000587 0.00000000 0.00000064
0.14583842 0.06324784 0.07408478
0.28893065 0.08922239 0.12146928
0.42643624 0.09688601 0.15965161
0.56785765 0.09090113 0.19675918
0.68962244 0.05396614 0.22286165
0.78619168 0.00000000 0.23574292
0.86308553 0.00000000 0.23867187
0.92380593 0.00000000 0.23425976
0.96891321 0.11446804 0.22853158
0.99494665 0.20328528 0.23510971
1.00000000 0.27634361 0.25522590
1.00000000 0.32727783 0.27472736
1.00000000 0.36209882 0.28909365
1.00000000 0.38376528 0.29584880
0.00000587 0.00000000 0.00000064
0.00000587 0.00000000 0.00000064
0.00000587 0.00000000 0.00000064
0.14583842 0.06324784 0.07408478
0.28893065 0.08922239 0.12146928
0.42643624 0.09688601 0.15965161
0.56785765 0.09090113 0.19675918
0.68962244 0.05396614 0.22286165
0.78619168 0.00000000 0.23574292
0.86308553 0.00000000 0.23867187
0.92380593 0.00000000 0.23425976
0.96891321 0.11446804 0.22853158
0.99494665 0.20328528 0.23510971
1.00000000 0.27634361 0.25522590
1.00000000 0.32727783 0.27472736
1.00000000 0.36209882 0.28909365
1.00000000 0.38376528 0.29584880
0.00000587 0.00000000 0.00000064
0.00000587 0.00000000 0.00000064
0.00000587 0.00000000 0.00000064
0.14583842 0.06324784 0.07408478
0.28893065 0.08922239 0.12146928
0.42643624 0.09688601 0.15965161
0.56785765 0.09090113 0.19675918
0.68962244 0.05396614 0.22286165
0.78619168 0.00000000 0.23574292
0.86308553 0.00000000 0.23867187
0.92380593 0.00000000 0.23425976
0.96891321 0.11446804 0.22853158
0.99494665 0.20328528 0.23510971
1.00000000 0.27634361 0.25522590
1.00000000 0.32727783 0.27472736
1.00000000 0.36209882 0.28909365
1.00000000 0.38376528 0.29584880
0.08525302 0.12978866 0.09027660
0.08525302 0.12978866 0.09027660
0.08525302 0.12978866 0.09027660
0.14831465 0.15259440 0.09647676
0.26714907 0.18872666 0.00000000
0.41424328 0.20054491 0.00000000
0.56280232 0.19851543 0.00000000
0.69086670 0.17921969 0.04300394
0.79301365 0.14252117 0.11968490
0.87232094 0.10823051 0.15127533
0.93354827 0.10286541 0.16821293
0.97634168 0.15660634 0.18632630
0.99620535 0.23960541 0.22227077
1.00000000 0.30445273 0.25733688
1.00000000 0.35031767 0.28386399
1.00000000 0.38221534 0.30202040
1.00000000 0.40245946 0.31139899
0.12976716 0.24715035 0.14209609
0.12976716 0.24715035 0.14209609
0.12976716 0.24715035 0.14209609
0.18125681 0.25878959 0.10875651
0.27534268 0.28587761 0.13196931
0.38736863 0.31491117 0.12479658
0.53503618 0.33059096 0.00000000
0.67387863 0.32390872 0.00000000
0.78539287 0.30447937 0.00000000
0.87363358 0.28172661 0.11171826
0.93969730 0.26940097 0.16074407
0.97917757 0.29026055 0.21311499
0.99340690 0.33891002 0.26847467
0.99879081 0.38169751 0.30825649
1.00000000 0.41528152 0.33656534
1.00000000 0.44018647 0.35592150
1.00000000 0.45643167 0.36643738
0.15124689 0.36007732 0.17426736
0.15124689 0.36007732 0.17426736
0.15124689 0.36007732 0.17426736
0.19820572 0.36724201 0.12565585
0.28838089 0.38750760 0.10792121
0.39527218 0.41177909 0.13569767
0.51871685 0.43679029 0.14394498
0.65255377 0.44420740 0.10768193
0.77309495 0.43307336 0.11627669
0.87087770 0.41494897 0.16313450
0.94251664 0.40278133 0.21556939
0.97836985 0.41732756 0.28404286
0.99068364 0.44768961 0.34300062
0.99433115 0.47737635 0.38539552
0.99539729 0.50171785 0.41504509
0.99630296 0.52025010 0.43504749
0.99940909 0.53252260 0.44631874
0.15657663 0.47748052 0.19893059
0.15657663 0.47748052 0.19893059
0.15657663 0.47748052 0.19893059
0.20172676 0.48227409 0.14430744
0.29025669 0.49753114 0.10129037
0.39730196 0.51842276 0.09043146
0.51967938 0.54170740 0.12130347
0.64787224 0.55361921 0.12821059
0.77205022 0.54817719 0.13897932
0.87957937 0.53183956 0.18634856
0.99063289 0.49255837 0.13560353
0.98944093 0.53050956 0.35090603
0.99862132 0.55297895 0.42078058
0.99973032 0.57545246 0.46951762
0.99886787 0.59437004 0.50275458
0.99861055 0.60889084 0.52489765
1.00000000 0.61851969 0.53773041
0.14755958 0.57864234 0.20930012
0.14755958 0.57864234 0.20930012
0.14755958 0.57864234 0.20930012
0.18858681 0.58252992 0.15400276
0.27696091 0.59509438 0.10885332
0.38055387 0.61437623 0.07456503
0.49950571 0.63809527 0.08833825
0.62649067 0.65359693 0.09338673
0.75465979 0.65305254 0.08997183
0.87485471 0.63825749 0.14603469
0.96939455 0.61982064 0.24369472
1.00000000 0.62296420 0.37615612
1.00000000 0.63853879 0.46842170
1.00000000 0.65638314 0.53051496
1.00000000 0.67198948 0.57179764
1.00000000 0.68412703 0.59847697
1.00000000 0.69214220 0.61400962
0.14046352 0.65903349 0.20462345
0.14046352 0.65903349 0.20462345
0.14046352 0.65903349 0.20462345
0.17447201 0.66247675 0.15223999
0.25796833 0.67388102 0.11065560
0.35478615 0.69240161 0.07984564
0.46570910 0.71707781 0.08935474
0.58584147 0.73654216 0.09708505
0.71110592 0.74310119 0.09099582
0.83633259 0.73489444 0.12274186
0.94756194 0.71638977 0.21972272
1.00000000 0.70660598 0.36964316
1.00000000 0.71184235 0.48810675
1.00000000 0.72343344 0.56849291
1.00000000 0.73537678 0.62085647
1.00000000 0.74504759 0.65396258
1.00000000 0.75146748 0.67304208
0.14678370 0.72411185 0.18678211
0.14678370 0.72411185 0.18678211
0.14678370 0.72411185 0.18678211
0.17596805 0.72707961 0.14033807
0.24717586 0.73764740 0.10556870
0.33182730 0.75572428 0.08572503
0.43075198 0.78128922 0.09670063
0.54045622 0.80378479 0.11301345
0.65736326 0.81608976 0.12054252
0.77943561 0.81612663 0.14264035
0.89815100 0.80327100 0.20975182
0.99060008 0.78592961 0.33790953
1.00000000 0.78008651 0.48531598
1.00000000 0.78335647 0.58827462
1.00000000 0.79017288 0.65531584
1.00000000 0.79678747 0.69665639
1.00000000 0.80111769 0.71994674
0.17007733 0.77711349 0.15778205
0.17007733 0.77711349 0.15778205
0.17007733 0.77711349 0.15778205
0.19832377 0.77950443 0.12225898
0.25114354 0.78950360 0.09731836
0.31939715 0.80723963 0.08910407
0.40251820 0.83322938 0.10503714
0.49876509 0.85788484 0.12665853
0.60428172 0.87439953 0.14443702
0.71758916 0.88082297 0.16768355
0.83497480 0.87598117 0.21428068
0.94387918 0.86028811 0.30359032
1.00000000 0.84522837 0.45919577
1.00000000 0.83938747 0.58993549
1.00000000 0.83966929 0.67631636
1.00000000 0.84208507 0.72862687
1.00000000 0.84370017 0.75675404
0.21046785 0.81990205 0.12774969
0.21046785 0.81990205 0.12774969
0.21046785 0.81990205 0.12774969
0.23294694 0.82195841 0.10428070
0.26976749 0.83149663 0.09401127
0.32041394 0.84892549 0.09858020
0.38617584 0.87505360 0.11820515
0.46670783 0.90111055 0.14283370
0.55907555 0.92049648 0.16952449
0.66089069 0.93150501 0.19983729
0.76949035 0.93299399 0.23886840
0.87990680 0.92456955 0.29944167
0.97602912 0.90714498 0.40175238
1.00000000 0.89299168 0.57199778
1.00000000 0.88604013 0.68458099
1.00000000 0.88330548 0.75133347
1.00000000 0.88134591 0.78525803
0.25476295 0.85415678 0.10719679
0.25476295 0.85415678 0.10719679
0.25476295 0.85415678 0.10719679
0.27001657 0.85613933 0.09376620
0.29536837 0.86534965 0.09710064
0.33276308 0.88238448 0.11512913
0.38540582 0.90814316 0.14503195
0.44937919 0.93498280 0.16982070
0.52976786 0.95576529 0.20893601
0.62071967 0.96927758 0.25432499
0.71758165 0.97502081 0.30042559
0.81723186 0.97268461 0.34864134
0.91548794 0.96235408 0.41575866
0.98999821 0.94440459 0.54422859
1.00000000 0.93014053 0.68393891
1.00000000 0.92181741 0.76757999
1.00000000 0.91597706 0.80800314
0.29357727 0.88146677 0.09749556
0.29357727 0.88146677 0.09749556
0.29357727 0.88146677 0.09749556
0.30385436 0.88345442 0.09244560
0.32215005 0.89239720 0.10562088
0.35067289 0.90903803 0.13126850
0.39413521 0.93417402 0.16982972
0.45057523 0.96052217 0.20924976
0.52658998 0.98070158 0.27044033
0.61793003 0.99259910 0.34905234
0.70879156 0.99763202 0.42468223
0.79082195 0.99864610 0.48133025
0.86770448 0.99595837 0.52223701
0.94324580 0.98898155 0.55335144
0.99456389 0.97061768 0.68743463
1.00000000 0.95728439 0.78360536
1.00000000 0.94821129 0.82952369
0.32560219 0.90301786 0.09646650
0.32560219 0.90301786 0.09646650
0.32560219 0.90301786 0.09646650
0.33272743 0.90502755 0.09689206
0.34680875 0.91374507 0.11545810
0.37037543 0.92996104 0.14679382
0.41020784 0.95418444 0.19544892
0.46979995 0.97867797 0.25917761
0.56013305 0.99436060 0.35748506
0.65489403 1.00000000 0.45803715
0.73602996 1.00000000 0.54021385
0.80370512 1.00000000 0.60472972
0.86233847 1.00000000 0.65564379
0.91592354 1.00000000 0.69980443
0.96525131 0.99839722 0.75800208
0.99640434 0.98688647 0.81311763
1.00000000 0.97658757 0.85639765
0.35074008 0.91980807 0.09588163
0.35074008 0.91980807 0.09588163
0.35074008 0.91980807 0.09588163
0.35585478 0.92184190 0.09915441
0.36727306 0.93038737 0.12080842
0.38814538 0.94621239 0.15717043
0.42915788 0.96926236 0.21902882
0.50070696 0.99061657 0.31023212
0.60370720 1.00000000 0.43229073
0.69408944 1.00000000 0.53532138
0.76708694 1.00000000 0.61897135
0.82629108 1.00000000 0.68639010
0.87518593 1.00000000 0.74143308
0.91707570 1.00000000 0.78863565
0.95373003 1.00000000 0.83368941
0.98400675 1.00000000 0.87493954
1.00000000 0.99803125 0.89415732
0.36915074 0.93271019 0.08542077
0.36915074 0.93271019 0.08542077
0.36915074 0.93271019 0.08542077
0.37279303 0.93478914 0.08984169
0.38230781 0.94323785 0.11556850
0.40197764 0.95870839 0.15963090
0.44595396 0.98058894 0.23551851
0.53336207 0.99806537 0.35472551
0.63466840 1.00000000 0.47787541
0.71998028 1.00000000 0.58025094
0.78817619 1.00000000 0.66359263
0.84260877 1.00000000 0.73157708
0.88691651 1.00000000 0.78750109
0.92357953 1.00000000 0.83494125
0.95423624 1.00000000 0.87663968
0.97920732 1.00000000 0.91344029
1.00000000 1.00000000 1.00000000
0.00000587 0.00000000 0.00000064
0.00000587 0.00000000 0.00000064
0.00000587 0.00000000 0.00000064
0.14583842 0.06324784 0.07408478
0.28893065 0.08922239 0.12146928
0.42643624 0.09688601 0.15965161
0.56785765 0.09090113 0.19675918
0.68962244 0.05396614 0.22286165
0.78619168 0.00000000 0.23574292
0.86308553 0.00000000 0.23867187
0.92380593 0.00000000 0.23425976
0.96891321 0.11446804 0.22853158
0.99494665 0.20328528 0.23510971
1.00000000 0.27634361 0.25522590
1.00000000 0.32727783 0.27472736
1.00000000 0.36209882 0.28909365
1.00000000 0.38376528 0.29584880
0.00000587 0.00000000 0.00000064
0.00000587 0.00000000 0.00000064
0.00000587 0.00000000 0.00000064
0.14583842 0.06324784 0.07408478
0.28893065 0.08922239 0.12146928
0.42643624 0.09688601 0.15965161
0.56785765 0.09090113 0.19675918
0.68962244 0.05396614 0.22286165
0.78619168 0.00000000 0.23574292
0.86308553 0.00000000 0.23867187
0.92380593 0.00000000 0.23425976
0.96891321 0.11446804 0.22853158
0.99494665 0.20328528 0.23510971
1.00000000 0.27634361 0.25522590
1.00000000 0.32727783 0.27472736
1.00000000 0.36209882 0.28909365
1.00000000 0.38376528 0.29584880
0.00000587 0.00000000 0.00000064
0.00000587 0.00000000 0.00000064
0.00000587 0.00000000 0.00000064
0.14583842 0.06324784 0.07408478
0.28893065 0.08922239 0.12146928
0.42643624 0.09688601 0.15965161
0.56785765 0.09090113 0.19675918
0.68962244 0.05396614 0.22286165
0.78619168 0.00000000 0.23574292
0.86308553 0.00000000 0.23867187
0.92380593 0.00000000 0.23425976
0.96891321 0.11446804 0.22853158
0.99494665 0.20328528 0.23510971
1.00000000 0.27634361 0.25522590
1.00000000 0.32727783 0.27472736
1.00000000 0.36209882 0.28909365
1.00000000 0.38376528 0.29584880
0.08525302 0.12978866 0.09027660
0.08525302 0.12978866 0.09027660
0.08525302 0.12978866 0.09027660
0.14831465 0.15259440 0.09647676
0.26714907 0.18872666 0.00000000
0.41424328 0.20054491 0.00000000
0.56280232 0.19851543 0.00000000
0.69086670 0.17921969 0.04300394
0.79301365 0.14252117 0.11968490
0.87232094 0.10823051 0.15127533
0.93354827 0.10286541 0.16821293
0.97634168 0.15660634 0.18632630
0.99620535 0.23960541 0.22227077
1.00000000 0.30445273 0.25733688
1.00000000 0.35031767 0.28386399
1.00000000 0.38221534 0.30202040
1.00000000 0.40245946 0.31139899
0.12976716 0.24715035 0.14209609
0.12976716 0.24715035 0.14209609
0.12976716 0.24715035 0.14209609
0.18125681 0.25878959 0.10875651
0.27534268 0.28587761 0.13196931
0.38736863 0.31491117 0.12479658
0.53503618 0.33059096 0.00000000
0.67387863 0.32390872 0.00000000
0.78539287 0.30447937 0.00000000
0.87363358 0.28172661 0.11171826
0.93969730 0.26940097 0.16074407
0.97917757 0.29026055 0.21311499
0.99340690 0.33891002 0.26847467
0.99879081 0.38169751 0.30825649
1.00000000 0.41528152 0.33656534
1.00000000 0.44018647 0.35592150
1.00000000 0.45643167 0.36643738
0.15124689 0.36007732 0.17426736
0.15124689 0.36007732 0.17426736
0.15124689 0.36007732 0.17426736
0.19820572 0.36724201 0.12565585
0.28838089 0.38750760 0.10792121
0.39527218 0.41177909 0.13569767
0.51871685 0.43679029 0.14394498
0.65255377 0.44420740 0.10768193
0.77309495 0.43307336 0.11627669
0.87087770 0.41494897 0.16313450
0.94251664 0.40278133 0.21556939
0.97836985 0.41732756 0.28404286
0.99068364 0.44768961 0.34300062
0.99433115 0.47737635 0.38539552
0.99539729 0.50171785 0.41504509
0.99630296 0.52025010 0.43504749
0.99940909 0.53252260 0.44631874
0.15657663 0.47748052 0.19893059
0.15657663 0.47748052 0.19893059
0.15657663 0.47748052 0.19893059
0.20172676 0.48227409 0.14430744
0.29025669 0.49753114 0.10129037
0.39730196 0.51842276 0.09043146
0.51967938 0.54170740 0.12130347
0.64787224 0.55361921 0.12821059
0.77205022 0.54817719 0.13897932
0.87957937 0.53183956 0.18634856
0.99063289 0.49255837 0.13560353
0.98944093 0.53050956 0.35090603
0.99862132 0.55297895 0.42078058
0.99973032 0.57545246 0.46951762
0.99886787 0.59437004 0.50275458
0.99861055 0.60889084 0.52489765
1.00000000 0.61851969 0.53773041
0.14755958 0.57864234 0.20930012
0.14755958 0.57864234 0.20930012
0.14755958 0.57864234 0.20930012
0.18858681 0.58252992 0.15400276
0.27696091 0.59509438 0.10885332
0.38055387 0.61437623 0.07456503
0.49950571 0.63809527 0.08833825
0.62649067 0.65359693 0.09338673
0.75465979 0.65305254 0.08997183
0.87485471 0.63825749 0.14603469
0.96939455 0.61982064 0.24369472
1.00000000 0.62296420 0.37615612
1.00000000 0.63853879 0.46842170
1.00000000 0.65638314 0.53051496
1.00000000 0.67198948 0.57179764
1.00000000 0.68412703 0.59847697
1.00000000 0.69214220 0.61400962
0.14046352 0.65903349 0.20462345
0.14046352 0.65903349 0.20462345
0.14046352 0.65903349 0.20462345
0.17447201 0.66247675 0.15223999
0.25796833 0.67388102 0.11065560
0.35478615 0.69240161 0.07984564
