Luts Download/Canon Luts/3dlut/17grid-3dlut/full-to-full-range/CinemaGamut_CanonLog3-to-BT2020_HLG_17_FF_Ver.2.0.cube
# Gamut : Cinema Gamut to BT.2020
# Gamma : Canon Log 3 to HLG
# Range : Full in / Full out
# Version : 2.0 2019/10/24
# Copyright(c) 2019 Canon Inc. All Rights Reserved.
LUT_3D_SIZE 17
# LUT_3D_INPUT_RANGE 0.0 1.0
0.00000010 0.00000000 0.00000000
0.00000010 0.00000000 0.00000000
0.00000010 0.00000000 0.00000000
0.13601938 0.04983401 0.05537069
0.22900462 0.05536980 0.06912101
0.32532814 0.05081008 0.07786376
0.43086569 0.03865403 0.08677119
0.54647797 0.01017783 0.09821871
0.64582268 0.00000000 0.11270549
0.73230285 0.00000000 0.13105618
0.81082969 0.00000000 0.15646781
0.88289745 0.09406766 0.19516083
0.94632922 0.23217842 0.26330338
0.99006153 0.47178187 0.40467974
1.00000000 0.68896130 0.60351389
1.00000000 0.80687960 0.73913909
1.00000000 0.88299508 0.82910355
0.00000010 0.00000000 0.00000000
0.00000010 0.00000000 0.00000000
0.05041302 0.02709486 0.00000000
0.13601938 0.04983401 0.05537069
0.22900462 0.05536980 0.06912101
0.32532814 0.05081008 0.07786376
0.43086569 0.03865403 0.08677119
0.54647797 0.01017783 0.09821871
0.64582268 0.00000000 0.11270549
0.73230285 0.00000000 0.13105618
0.81082969 0.00000000 0.15646781
0.88289745 0.09406766 0.19516083
0.94632922 0.23217842 0.26330338
0.99006153 0.47178187 0.40467974
1.00000000 0.68896130 0.60351389
1.00000000 0.80687960 0.73913909
1.00000000 0.88299508 0.82910355
0.09216367 0.14617205 0.00000000
0.11363629 0.14266261 0.00000000
0.07524563 0.09056130 0.00000000
0.13601938 0.04983401 0.05537069
0.22900462 0.05536980 0.06912101
0.32532814 0.05081008 0.07786376
0.43086569 0.03865403 0.08677119
0.54647797 0.01017783 0.09821871
0.64582268 0.00000000 0.11270549
0.73230285 0.00000000 0.13105618
0.81082969 0.00000000 0.15646781
0.88289745 0.09406766 0.19516083
0.94632922 0.23217842 0.26330338
0.99006153 0.47178187 0.40467974
1.00000000 0.68896130 0.60351389
1.00000000 0.80687960 0.73913909
1.00000000 0.88299508 0.82910355
0.08233687 0.12911523 0.07001594
0.08233687 0.12911523 0.07001594
0.08233687 0.12911523 0.07001594
0.15149477 0.15796650 0.07016215
0.23279845 0.17011213 0.06625979
0.32596389 0.17403882 0.06279090
0.43179302 0.17221534 0.06307669
0.54891451 0.16580504 0.06842873
0.64928946 0.15443990 0.07867248
0.74512875 0.06378910 0.00000000
0.81539991 0.12719881 0.12174523
0.88739559 0.15118864 0.16589397
0.95021772 0.25766916 0.24300827
0.99162440 0.49489952 0.39996316
1.00000000 0.69810575 0.60547148
1.00000000 0.81204831 0.74235847
1.00000000 0.88701193 0.83287019
0.11300862 0.20811015 0.08252224
0.11300862 0.20811015 0.08252224
0.11300862 0.20811015 0.08252224
0.16578020 0.23246321 0.06965852
0.23665726 0.24863713 0.05829849
0.32356392 0.25891088 0.04971198
0.42671354 0.26405872 0.04581587
0.54435519 0.26423458 0.04798605
0.64686853 0.25913805 0.05528786
0.73598346 0.24840327 0.06840887
0.81673071 0.23485600 0.09275289
0.89049736 0.23421500 0.13583000
0.95384616 0.30514278 0.22047000
0.99296950 0.52901397 0.39642101
1.00000000 0.71113696 0.60934220
1.00000000 0.81974393 0.74772525
1.00000000 0.89266793 0.83837239
0.13837283 0.29006430 0.08086041
0.13837283 0.29006430 0.08086041
0.13837283 0.29006430 0.08086041
0.18243389 0.30984078 0.06287227
0.24430462 0.32666094 0.04831317
0.32384525 0.34095092 0.03751173
0.42163252 0.35186112 0.03180951
0.53745625 0.35878822 0.03207548
0.64140618 0.36085150 0.03906517
0.73216626 0.35747674 0.05280181
0.81461154 0.34973854 0.07671136
0.88988942 0.34754005 0.12194324
0.95483583 0.39268519 0.20960732
0.99372278 0.57659792 0.39898925
1.00000000 0.73105543 0.61843434
1.00000000 0.83157836 0.75702505
1.00000000 0.90076170 0.84659508
0.16569548 0.38060014 0.07148042
0.16569548 0.38060014 0.07148042
0.16569548 0.38060014 0.07148042
0.20443189 0.39629957 0.05427364
0.25851989 0.41227679 0.03892907
0.33010501 0.42838438 0.02629018
0.42101591 0.44353392 0.01811215
0.53201300 0.45626543 0.01836993
0.63532106 0.46542378 0.02695580
0.72680930 0.46982338 0.04309622
0.81044158 0.46977044 0.07040877
0.88709843 0.47186364 0.11839722
0.95343766 0.50704675 0.21075272
0.99376147 0.63314133 0.41004676
1.00000000 0.75775063 0.63333438
1.00000000 0.84771775 0.77065691
1.00000000 0.91199149 0.85852340
0.20012400 0.48404328 0.06003042
0.20012400 0.48404328 0.06003042
0.20012400 0.48404328 0.06003042
0.23433596 0.49667371 0.04558865
0.28149452 0.51081274 0.03201431
0.34502124 0.52612559 0.01786477
0.42779684 0.54159351 0.00377389
0.53160668 0.55622568 0.00000000
0.63104969 0.56857146 0.02006217
0.72147552 0.57793677 0.03976486
0.80542709 0.58413331 0.06975669
0.88302865 0.59050306 0.12201002
0.95073086 0.61312198 0.21963231
0.99320145 0.69289115 0.42803049
1.00000000 0.79065939 0.65482795
1.00000000 0.86872704 0.78990835
1.00000000 0.92699739 0.87525579
0.24472018 0.58944042 0.05088237
0.24472018 0.58944042 0.05088237
0.24472018 0.58944042 0.05088237
0.27454225 0.59677521 0.04145068
0.31526080 0.60566495 0.03148242
0.37086514 0.61630088 0.01991275
0.44496852 0.62829664 0.00909453
0.53893111 0.64100471 0.00908202
0.63122958 0.65354392 0.02283595
0.71808056 0.66458863 0.04351312
0.80077459 0.67391580 0.07589810
0.87855401 0.68289225 0.13114491
0.94734842 0.70026813 0.23533178
0.99221060 0.75358153 0.45618062
1.00000000 0.82883894 0.68345475
1.00000000 0.89468563 0.81590585
1.00000000 0.94624055 0.89803645
0.30204363 0.67992868 0.04993919
0.30204363 0.67992868 0.04993919
0.30204363 0.67992868 0.04993919
0.32750135 0.68437698 0.04568965
0.36225336 0.69023167 0.03948368
0.41038245 0.69751458 0.03636767
0.47565637 0.70659862 0.03227181
0.55662402 0.71708985 0.03232335
0.63805181 0.72849800 0.04004702
0.71890376 0.74011191 0.05830756
0.79816934 0.75080487 0.09139279
0.87466328 0.76138914 0.15022174
0.94385886 0.77656120 0.26098669
0.99099030 0.81392301 0.49869204
1.00000000 0.87116889 0.72195092
1.00000000 0.92513914 0.85005968
1.00000000 0.96971305 0.92801243
0.37632166 0.76221651 0.06767893
0.37632166 0.76221651 0.06767893
0.37632166 0.76221651 0.06767893
0.39764103 0.76501921 0.06733907
0.42690656 0.76882415 0.06637799
0.46787144 0.77395132 0.06514568
0.52337706 0.78053219 0.06591364
0.58661254 0.78879516 0.06787473
0.65456488 0.79850044 0.07509373
0.72615191 0.80929053 0.09244165
0.79996455 0.82070830 0.12630373
0.87303379 0.83193933 0.18795081
0.94114923 0.84590886 0.30694624
0.98986732 0.87315503 0.56001425
1.00000000 0.91574176 0.77185882
1.00000000 0.95863774 0.89303784
1.00000000 1.00000000 1.00000000
0.47671079 0.83926241 0.11642756
0.47671079 0.83926241 0.11642756
0.47671079 0.83926241 0.11642756
0.49406692 0.84105742 0.11763436
0.51757008 0.84354148 0.11900448
0.54793763 0.84704491 0.12024579
0.58581080 0.85172585 0.12332824
0.63148079 0.85792794 0.12888247
0.68461792 0.86568563 0.13999546
0.74435034 0.87495093 0.16157503
0.80912998 0.88556196 0.20014068
0.87672572 0.89751057 0.26823354
0.94111443 0.91030999 0.39716927
0.98967494 0.93034145 0.64572703
1.00000000 0.96035454 0.83734050
1.00000000 0.99300001 0.94373573
1.00000000 1.00000000 1.00000000
0.60412056 0.91153407 0.21947824
0.60412056 0.91153407 0.21947824
0.60412056 0.91153407 0.21947824
0.61346510 0.91267665 0.22147282
0.62607312 0.91427876 0.22410493
0.64335900 0.91657316 0.22777234
0.66651172 0.91981641 0.23297922
0.69681656 0.92419271 0.24372866
0.73511784 0.92994491 0.26280091
0.78151209 0.93706117 0.29935674
0.83416924 0.94579245 0.35684705
0.89098276 0.95637293 0.44582232
0.94875072 0.96942730 0.58544064
0.99362922 0.98290751 0.76806237
1.00000000 1.00000000 0.91976624
1.00000000 1.00000000 1.00000000
1.00000000 1.00000000 1.00000000
0.74324855 0.97538764 0.44097582
0.74324855 0.97538764 0.44097582
0.74324855 0.97538764 0.44097582
0.74768217 0.97607070 0.44401108
0.75382446 0.97703743 0.44823001
0.76256818 0.97843245 0.45445939
0.77494142 0.98041310 0.46415232
0.79253092 0.98329326 0.48091199
0.81724359 0.98667914 0.51595672
0.85188209 0.99004941 0.58284340
0.89168545 0.99419389 0.66298154
0.93360665 0.99997450 0.75053292
0.97467537 1.00000000 0.84359870
1.00000000 1.00000000 1.00000000
1.00000000 1.00000000 1.00000000
1.00000000 1.00000000 1.00000000
1.00000000 1.00000000 1.00000000
0.90365487 1.00000000 0.79283573
0.90365487 1.00000000 0.79283573
0.90365487 1.00000000 0.79283573
0.90548229 1.00000000 0.79513520
0.90802477 1.00000000 0.79831923
0.91169075 1.00000000 0.80296314
0.91705557 1.00000000 0.80995474
0.92498435 1.00000000 0.82079178
0.93621841 1.00000000 0.83738989
0.95155372 1.00000000 0.86284638
0.97049579 1.00000000 0.89583706
1.00000000 1.00000000 1.00000000
1.00000000 1.00000000 1.00000000
1.00000000 1.00000000 1.00000000
1.00000000 1.00000000 1.00000000
1.00000000 1.00000000 1.00000000
1.00000000 1.00000000 1.00000000
1.00000000 1.00000000 1.00000000
1.00000000 1.00000000 1.00000000
1.00000000 1.00000000 1.00000000
1.00000000 1.00000000 1.00000000
1.00000000 1.00000000 1.00000000
1.00000000 1.00000000 1.00000000
1.00000000 1.00000000 1.00000000
1.00000000 1.00000000 1.00000000
1.00000000 1.00000000 1.00000000
1.00000000 1.00000000 1.00000000
1.00000000 1.00000000 1.00000000
1.00000000 1.00000000 1.00000000
1.00000000 1.00000000 1.00000000
1.00000000 1.00000000 1.00000000
1.00000000 1.00000000 1.00000000
1.00000000 1.00000000 1.00000000
1.00000000 1.00000000 1.00000000
1.00000000 1.00000000 1.00000000
1.00000000 1.00000000 1.00000000
1.00000000 1.00000000 1.00000000
1.00000000 1.00000000 1.00000000
1.00000000 1.00000000 1.00000000
1.00000000 1.00000000 1.00000000
1.00000000 1.00000000 1.00000000
1.00000000 1.00000000 1.00000000
1.00000000 1.00000000 1.00000000
1.00000000 1.00000000 1.00000000
1.00000000 1.00000000 1.00000000
1.00000000 1.00000000 1.00000000
1.00000000 1.00000000 1.00000000
1.00000000 1.00000000 1.00000000
1.00000000 1.00000000 1.00000000
1.00000000 1.00000000 1.00000000
1.00000000 1.00000000 1.00000000
0.00000010 0.00000000 0.00000000
0.00000010 0.00000000 0.00000000
0.00000010 0.00000000 0.00000000
0.13601938 0.04983401 0.05537069
0.22900462 0.05536980 0.06912101
0.32532814 0.05081008 0.07786376
0.43086569 0.03865403 0.08677119
0.54647797 0.01017783 0.09821871
0.64582268 0.00000000 0.11270549
0.73230285 0.00000000 0.13105618
0.81082969 0.00000000 0.15646781
0.88289745 0.09406766 0.19516083
0.94632922 0.23217842 0.26330338
0.99006153 0.47178187 0.40467974
1.00000000 0.68896130 0.60351389
1.00000000 0.80687960 0.73913909
1.00000000 0.88299508 0.82910355
0.00000010 0.00000000 0.00000000
0.00000010 0.00000000 0.00000000
0.00000010 0.00000000 0.00000000
0.13601938 0.04983401 0.05537069
0.22900462 0.05536980 0.06912101
0.32532814 0.05081008 0.07786376
0.43086569 0.03865403 0.08677119
0.54647797 0.01017783 0.09821871
0.64582268 0.00000000 0.11270549
0.73230285 0.00000000 0.13105618
0.81082969 0.00000000 0.15646781
0.88289745 0.09406766 0.19516083
0.94632922 0.23217842 0.26330338
0.99006153 0.47178187 0.40467974
1.00000000 0.68896130 0.60351389
1.00000000 0.80687960 0.73913909
1.00000000 0.88299508 0.82910355
0.00000010 0.00000000 0.00000000
0.00000010 0.00000000 0.00000000
0.00000010 0.00000000 0.00000000
0.13601938 0.04983401 0.05537069
0.22900462 0.05536980 0.06912101
0.32532814 0.05081008 0.07786376
0.43086569 0.03865403 0.08677119
0.54647797 0.01017783 0.09821871
0.64582268 0.00000000 0.11270549
0.73230285 0.00000000 0.13105618
0.81082969 0.00000000 0.15646781
0.88289745 0.09406766 0.19516083
0.94632922 0.23217842 0.26330338
0.99006153 0.47178187 0.40467974
1.00000000 0.68896130 0.60351389
1.00000000 0.80687960 0.73913909
1.00000000 0.88299508 0.82910355
0.08233687 0.12911523 0.07001594
0.08233687 0.12911523 0.07001594
0.08233687 0.12911523 0.07001594
0.15149477 0.15796650 0.07016215
0.23279845 0.17011213 0.06625979
0.32596389 0.17403882 0.06279090
0.43179302 0.17221534 0.06307669
0.54891451 0.16580504 0.06842873
0.64928946 0.15443990 0.07867248
0.74512875 0.06378910 0.00000000
0.81539991 0.12719881 0.12174523
0.88739559 0.15118864 0.16589397
0.95021772 0.25766916 0.24300827
0.99162440 0.49489952 0.39996316
1.00000000 0.69810575 0.60547148
1.00000000 0.81204831 0.74235847
1.00000000 0.88701193 0.83287019
0.11300862 0.20811015 0.08252224
0.11300862 0.20811015 0.08252224
0.11300862 0.20811015 0.08252224
0.16578020 0.23246321 0.06965852
0.23665726 0.24863713 0.05829849
0.32356392 0.25891088 0.04971198
0.42671354 0.26405872 0.04581587
0.54435519 0.26423458 0.04798605
0.64686853 0.25913805 0.05528786
0.73598346 0.24840327 0.06840887
0.81673071 0.23485600 0.09275289
0.89049736 0.23421500 0.13583000
0.95384616 0.30514278 0.22047000
0.99296950 0.52901397 0.39642101
1.00000000 0.71113696 0.60934220
1.00000000 0.81974393 0.74772525
1.00000000 0.89266793 0.83837239
0.13837283 0.29006430 0.08086041
0.13837283 0.29006430 0.08086041
0.13837283 0.29006430 0.08086041
0.18243389 0.30984078 0.06287227
0.24430462 0.32666094 0.04831317
0.32384525 0.34095092 0.03751173
0.42163252 0.35186112 0.03180951
0.53745625 0.35878822 0.03207548
0.64140618 0.36085150 0.03906517
0.73216626 0.35747674 0.05280181
0.81461154 0.34973854 0.07671136
0.88988942 0.34754005 0.12194324
0.95483583 0.39268519 0.20960732
0.99372278 0.57659792 0.39898925
1.00000000 0.73105543 0.61843434
1.00000000 0.83157836 0.75702505
1.00000000 0.90076170 0.84659508
0.16569548 0.38060014 0.07148042
0.16569548 0.38060014 0.07148042
0.16569548 0.38060014 0.07148042
0.20443189 0.39629957 0.05427364
0.25851989 0.41227679 0.03892907
0.33010501 0.42838438 0.02629018
0.42101591 0.44353392 0.01811215
0.53201300 0.45626543 0.01836993
0.63532106 0.46542378 0.02695580
0.72680930 0.46982338 0.04309622
0.81044158 0.46977044 0.07040877
0.88709843 0.47186364 0.11839722
0.95343766 0.50704675 0.21075272
0.99376147 0.63314133 0.41004676
1.00000000 0.75775063 0.63333438
1.00000000 0.84771775 0.77065691
1.00000000 0.91199149 0.85852340
0.20012400 0.48404328 0.06003042
0.20012400 0.48404328 0.06003042
0.20012400 0.48404328 0.06003042
0.23433596 0.49667371 0.04558865
0.28149452 0.51081274 0.03201431
0.34502124 0.52612559 0.01786477
0.42779684 0.54159351 0.00377389
0.53160668 0.55622568 0.00000000
0.63104969 0.56857146 0.02006217
0.72147552 0.57793677 0.03976486
0.80542709 0.58413331 0.06975669
0.88302865 0.59050306 0.12201002
0.95073086 0.61312198 0.21963231
0.99320145 0.69289115 0.42803049
1.00000000 0.79065939 0.65482795
1.00000000 0.86872704 0.78990835
1.00000000 0.92699739 0.87525579
0.24472018 0.58944042 0.05088237
0.24472018 0.58944042 0.05088237
0.24472018 0.58944042 0.05088237
0.27454225 0.59677521 0.04145068
0.31526080 0.60566495 0.03148242
0.37086514 0.61630088 0.01991275
0.44496852 0.62829664 0.00909453
0.53893111 0.64100471 0.00908202
0.63122958 0.65354392 0.02283595
0.71808056 0.66458863 0.04351312
0.80077459 0.67391580 0.07589810
0.87855401 0.68289225 0.13114491
0.94734842 0.70026813 0.23533178
0.99221060 0.75358153 0.45618062
1.00000000 0.82883894 0.68345475
1.00000000 0.89468563 0.81590585
1.00000000 0.94624055 0.89803645
0.30204363 0.67992868 0.04993919
0.30204363 0.67992868 0.04993919
0.30204363 0.67992868 0.04993919
0.32750135 0.68437698 0.04568965
0.36225336 0.69023167 0.03948368
0.41038245 0.69751458 0.03636767
0.47565637 0.70659862 0.03227181
0.55662402 0.71708985 0.03232335
0.63805181 0.72849800 0.04004702
0.71890376 0.74011191 0.05830756
0.79816934 0.75080487 0.09139279
0.87466328 0.76138914 0.15022174
0.94385886 0.77656120 0.26098669
0.99099030 0.81392301 0.49869204
1.00000000 0.87116889 0.72195092
1.00000000 0.92513914 0.85005968
1.00000000 0.96971305 0.92801243
0.37632166 0.76221651 0.06767893
0.37632166 0.76221651 0.06767893
0.37632166 0.76221651 0.06767893
0.39764103 0.76501921 0.06733907
0.42690656 0.76882415 0.06637799
0.46787144 0.77395132 0.06514568
0.52337706 0.78053219 0.06591364
0.58661254 0.78879516 0.06787473
0.65456488 0.79850044 0.07509373
0.72615191 0.80929053 0.09244165
0.79996455 0.82070830 0.12630373
0.87303379 0.83193933 0.18795081
0.94114923 0.84590886 0.30694624
0.98986732 0.87315503 0.56001425
1.00000000 0.91574176 0.77185882
1.00000000 0.95863774 0.89303784
1.00000000 1.00000000 1.00000000
0.47671079 0.83926241 0.11642756
0.47671079 0.83926241 0.11642756
0.47671079 0.83926241 0.11642756
0.49406692 0.84105742 0.11763436
0.51757008 0.84354148 0.11900448
0.54793763 0.84704491 0.12024579
0.58581080 0.85172585 0.12332824
0.63148079 0.85792794 0.12888247
0.68461792 0.86568563 0.13999546
0.74435034 0.87495093 0.16157503
0.80912998 0.88556196 0.20014068
0.87672572 0.89751057 0.26823354
0.94111443 0.91030999 0.39716927
0.98967494 0.93034145 0.64572703
1.00000000 0.96035454 0.83734050
1.00000000 0.99300001 0.94373573
1.00000000 1.00000000 1.00000000
0.60412056 0.91153407 0.21947824
0.60412056 0.91153407 0.21947824
0.60412056 0.91153407 0.21947824
0.61346510 0.91267665 0.22147282
0.62607312 0.91427876 0.22410493
0.64335900 0.91657316 0.22777234
0.66651172 0.91981641 0.23297922
0.69681656 0.92419271 0.24372866
0.73511784 0.92994491 0.26280091
0.78151209 0.93706117 0.29935674
0.83416924 0.94579245 0.35684705
0.89098276 0.95637293 0.44582232
0.94875072 0.96942730 0.58544064
0.99362922 0.98290751 0.76806237
1.00000000 1.00000000 0.91976624
1.00000000 1.00000000 1.00000000
1.00000000 1.00000000 1.00000000
0.74324855 0.97538764 0.44097582
0.74324855 0.97538764 0.44097582
0.74324855 0.97538764 0.44097582
0.74768217 0.97607070 0.44401108
0.75382446 0.97703743 0.44823001
0.76256818 0.97843245 0.45445939
0.77494142 0.98041310 0.46415232
0.79253092 0.98329326 0.48091199
0.81724359 0.98667914 0.51595672
0.85188209 0.99004941 0.58284340
0.89168545 0.99419389 0.66298154
0.93360665 0.99997450 0.75053292
0.97467537 1.00000000 0.84359870
1.00000000 1.00000000 1.00000000
1.00000000 1.00000000 1.00000000
1.00000000 1.00000000 1.00000000
1.00000000 1.00000000 1.00000000
0.90365487 1.00000000 0.79283573
0.90365487 1.00000000 0.79283573
0.90365487 1.00000000 0.79283573
0.90548229 1.00000000 0.79513520
0.90802477 1.00000000 0.79831923
0.91169075 1.00000000 0.80296314
0.91705557 1.00000000 0.80995474
0.92498435 1.00000000 0.82079178
0.93621841 1.00000000 0.83738989
0.95155372 1.00000000 0.86284638
0.97049579 1.00000000 0.89583706
1.00000000 1.00000000 1.00000000
1.00000000 1.00000000 1.00000000
1.00000000 1.00000000 1.00000000
1.00000000 1.00000000 1.00000000
1.00000000 1.00000000 1.00000000
1.00000000 1.00000000 1.00000000
1.00000000 1.00000000 1.00000000
1.00000000 1.00000000 1.00000000
1.00000000 1.00000000 1.00000000
1.00000000 1.00000000 1.00000000
1.00000000 1.00000000 1.00000000
1.00000000 1.00000000 1.00000000
1.00000000 1.00000000 1.00000000
1.00000000 1.00000000 1.00000000
1.00000000 1.00000000 1.00000000
1.00000000 1.00000000 1.00000000
1.00000000 1.00000000 1.00000000
1.00000000 1.00000000 1.00000000
1.00000000 1.00000000 1.00000000
1.00000000 1.00000000 1.00000000
1.00000000 1.00000000 1.00000000
1.00000000 1.00000000 1.00000000
1.00000000 1.00000000 1.00000000
1.00000000 1.00000000 1.00000000
1.00000000 1.00000000 1.00000000
1.00000000 1.00000000 1.00000000
1.00000000 1.00000000 1.00000000
1.00000000 1.00000000 1.00000000
1.00000000 1.00000000 1.00000000
1.00000000 1.00000000 1.00000000
1.00000000 1.00000000 1.00000000
1.00000000 1.00000000 1.00000000
1.00000000 1.00000000 1.00000000
1.00000000 1.00000000 1.00000000
1.00000000 1.00000000 1.00000000
1.00000000 1.00000000 1.00000000
1.00000000 1.00000000 1.00000000
1.00000000 1.00000000 1.00000000
1.00000000 1.00000000 1.00000000
1.00000000 1.00000000 1.00000000
0.00000010 0.00000000 0.00000000
0.00000010 0.00000000 0.00000000
0.00000010 0.00000000 0.00000000
0.13601938 0.04983401 0.05537069
0.22900462 0.05536980 0.06912101
0.32532814 0.05081008 0.07786376
0.43086569 0.03865403 0.08677119
0.54647797 0.01017783 0.09821871
0.64582268 0.00000000 0.11270549
0.73230285 0.00000000 0.13105618
0.81082969 0.00000000 0.15646781
0.88289745 0.09406766 0.19516083
0.94632922 0.23217842 0.26330338
0.99006153 0.47178187 0.40467974
1.00000000 0.68896130 0.60351389
1.00000000 0.80687960 0.73913909
1.00000000 0.88299508 0.82910355
0.00000010 0.00000000 0.00000000
0.00000010 0.00000000 0.00000000
0.00000010 0.00000000 0.00000000
0.13601938 0.04983401 0.05537069
0.22900462 0.05536980 0.06912101
0.32532814 0.05081008 0.07786376
0.43086569 0.03865403 0.08677119
0.54647797 0.01017783 0.09821871
0.64582268 0.00000000 0.11270549
0.73230285 0.00000000 0.13105618
0.81082969 0.00000000 0.15646781
0.88289745 0.09406766 0.19516083
0.94632922 0.23217842 0.26330338
0.99006153 0.47178187 0.40467974
1.00000000 0.68896130 0.60351389
1.00000000 0.80687960 0.73913909
1.00000000 0.88299508 0.82910355
0.00000010 0.00000000 0.00000000
0.00000010 0.00000000 0.00000000
0.00000010 0.00000000 0.00000000
0.13601938 0.04983401 0.05537069
0.22900462 0.05536980 0.06912101
0.32532814 0.05081008 0.07786376
0.43086569 0.03865403 0.08677119
0.54647797 0.01017783 0.09821871
0.64582268 0.00000000 0.11270549
0.73230285 0.00000000 0.13105618
0.81082969 0.00000000 0.15646781
0.88289745 0.09406766 0.19516083
0.94632922 0.23217842 0.26330338
0.99006153 0.47178187 0.40467974
1.00000000 0.68896130 0.60351389
1.00000000 0.80687960 0.73913909
1.00000000 0.88299508 0.82910355
0.08233687 0.12911523 0.07001594
0.08233687 0.12911523 0.07001594
0.08233687 0.12911523 0.07001594
0.15149477 0.15796650 0.07016215
0.23279845 0.17011213 0.06625979
0.32596389 0.17403882 0.06279090
0.43179302 0.17221534 0.06307669
0.54891451 0.16580504 0.06842873
0.64928946 0.15443990 0.07867248
0.74512875 0.06378910 0.00000000
0.81539991 0.12719881 0.12174523
0.88739559 0.15118864 0.16589397
0.95021772 0.25766916 0.24300827
0.99162440 0.49489952 0.39996316
1.00000000 0.69810575 0.60547148
1.00000000 0.81204831 0.74235847
1.00000000 0.88701193 0.83287019
0.11300862 0.20811015 0.08252224
0.11300862 0.20811015 0.08252224
0.11300862 0.20811015 0.08252224
0.16578020 0.23246321 0.06965852
0.23665726 0.24863713 0.05829849
0.32356392 0.25891088 0.04971198
0.42671354 0.26405872 0.04581587
0.54435519 0.26423458 0.04798605
0.64686853 0.25913805 0.05528786
0.73598346 0.24840327 0.06840887
0.81673071 0.23485600 0.09275289
0.89049736 0.23421500 0.13583000
0.95384616 0.30514278 0.22047000
0.99296950 0.52901397 0.39642101
1.00000000 0.71113696 0.60934220
1.00000000 0.81974393 0.74772525
1.00000000 0.89266793 0.83837239
0.13837283 0.29006430 0.08086041
0.13837283 0.29006430 0.08086041
0.13837283 0.29006430 0.08086041
0.18243389 0.30984078 0.06287227
0.24430462 0.32666094 0.04831317
0.32384525 0.34095092 0.03751173
0.42163252 0.35186112 0.03180951
0.53745625 0.35878822 0.03207548
0.64140618 0.36085150 0.03906517
0.73216626 0.35747674 0.05280181
0.81461154 0.34973854 0.07671136
0.88988942 0.34754005 0.12194324
0.95483583 0.39268519 0.20960732
0.99372278 0.57659792 0.39898925
1.00000000 0.73105543 0.61843434
1.00000000 0.83157836 0.75702505
1.00000000 0.90076170 0.84659508
0.16569548 0.38060014 0.07148042
0.16569548 0.38060014 0.07148042
0.16569548 0.38060014 0.07148042
0.20443189 0.39629957 0.05427364
0.25851989 0.41227679 0.03892907
0.33010501 0.42838438 0.02629018
0.42101591 0.44353392 0.01811215
0.53201300 0.45626543 0.01836993
0.63532106 0.46542378 0.02695580
0.72680930 0.46982338 0.04309622
0.81044158 0.46977044 0.07040877
0.88709843 0.47186364 0.11839722
0.95343766 0.50704675 0.21075272
0.99376147 0.63314133 0.41004676
1.00000000 0.75775063 0.63333438
1.00000000 0.84771775 0.77065691
1.00000000 0.91199149 0.85852340
0.20012400 0.48404328 0.06003042
0.20012400 0.48404328 0.06003042
0.20012400 0.48404328 0.06003042
0.23433596 0.49667371 0.04558865
0.28149452 0.51081274 0.03201431
0.34502124 0.52612559 0.01786477
0.42779684 0.54159351 0.00377389
0.53160668 0.55622568 0.00000000
0.63104969 0.56857146 0.02006217
0.72147552 0.57793677 0.03976486
0.80542709 0.58413331 0.06975669
0.88302865 0.59050306 0.12201002
0.95073086 0.61312198 0.21963231
0.99320145 0.69289115 0.42803049
1.00000000 0.79065939 0.65482795
1.00000000 0.86872704 0.78990835
1.00000000 0.92699739 0.87525579
0.24472018 0.58944042 0.05088237
0.24472018 0.58944042 0.05088237
0.24472018 0.58944042 0.05088237
0.27454225 0.59677521 0.04145068
0.31526080 0.60566495 0.03148242
0.37086514 0.61630088 0.01991275
