Luts Download/Canon Luts/3dlut/17grid-3dlut/full-to-full-range/CinemaGamut_CanonLog2-to-BT2020_HLGKnee-Vivid_17_FF_Ver.2.0.cube
# Gamut : Cinema Gamut to BT.2020
# Gamma : Canon Log 2 to HLGKnee-Vivid
# Range : Full in / Full out
# Version : 2.0 2019/10/24
# Copyright(c) 2019 Canon Inc. All Rights Reserved.
LUT_3D_SIZE 9
# LUT_3D_INPUT_RANGE 0.0 1.0
0.00000003 0.00000000 0.00000002
0.02636438 0.02636435 0.02636437
0.17704216 0.04286498 0.05475338
0.37856390 0.03241695 0.07847845
0.65815261 0.02883666 0.11718843
0.88605184 0.11228095 0.19006475
0.98658722 0.42082057 0.33482761
1.00000000 0.77416039 0.68237013
1.00000000 0.93492750 0.89069359
0.02636438 0.02636435 0.02636437
0.04127547 0.04174860 0.03584786
0.17707693 0.06418868 0.04158635
0.37872992 0.05213213 0.06113253
0.65886855 0.03643989 0.10476816
0.88664997 0.10824496 0.18265037
0.98682430 0.42071967 0.33260577
1.00000000 0.77429866 0.68224416
1.00000000 0.93500710 0.89077961
0.07322939 0.15214199 0.04426299
0.08078652 0.15622208 0.03898103
0.16637998 0.17503157 0.03128203
0.35169179 0.18810270 0.00000000
0.65151641 0.16726311 0.03352333
0.88859717 0.14482227 0.13311047
0.98812469 0.43089853 0.32012209
1.00000000 0.77663522 0.68281104
1.00000000 0.93602361 0.89207191
0.12649423 0.30948974 0.03753363
0.13262991 0.31034124 0.03368800
0.18803843 0.32185714 0.00998761
0.33185831 0.34978686 0.02742188
0.61631552 0.37818860 0.03119793
0.87872014 0.36383200 0.07218722
0.98814618 0.50656735 0.31160047
1.00000000 0.78813792 0.69114374
1.00000000 0.94030564 0.89800683
0.23162100 0.56856764 0.03289149
0.23578255 0.56869782 0.03235777
0.27080298 0.57235883 0.02677179
0.36909309 0.58841906 0.00000000
0.59968109 0.62307533 0.04191685
0.85030761 0.65993679 0.10694083
0.98575213 0.68074703 0.35322460
1.00000000 0.83211166 0.73514983
1.00000000 0.95595997 0.92032640
0.43993713 0.81421492 0.08080698
0.44230938 0.81419762 0.08128063
0.46261498 0.81461977 0.08414193
0.52275678 0.81781436 0.08592691
0.64900646 0.83133763 0.08887561
0.84159823 0.86273021 0.18434098
0.98808790 0.87235218 0.52254107
1.00000000 0.92654652 0.85088380
1.00000000 1.00000000 1.00000000
0.69490827 0.95510682 0.31177900
0.69539239 0.95509648 0.31209314
0.69985620 0.95521128 0.31526705
0.71435729 0.95625645 0.32596840
0.75705423 0.96192763 0.36144921
0.85876390 0.98157721 0.51131365
0.98661611 1.00000000 0.83717607
1.00000000 1.00000000 1.00000000
1.00000000 1.00000000 1.00000000
0.94811417 1.00000000 0.87012002
0.94817023 1.00000000 0.87022147
0.94881093 1.00000000 0.87143207
0.95131349 1.00000000 0.87625412
0.96033623 1.00000000 0.89370861
1.00000000 1.00000000 1.00000000
1.00000000 1.00000000 1.00000000
1.00000000 1.00000000 1.00000000
1.00000000 1.00000000 1.00000000
1.00000000 1.00000000 1.00000000
1.00000000 1.00000000 1.00000000
1.00000000 1.00000000 1.00000000
1.00000000 1.00000000 1.00000000
1.00000000 1.00000000 1.00000000
1.00000000 1.00000000 1.00000000
1.00000000 1.00000000 1.00000000
1.00000000 1.00000000 1.00000000
1.00000000 1.00000000 1.00000000
0.02636438 0.02636435 0.02636437
0.04482693 0.03116496 0.04615517
0.17705909 0.03652860 0.07585387
0.37870635 0.01072760 0.09943845
0.65859372 0.00660466 0.13097491
0.88565907 0.11677995 0.19729431
0.98634366 0.42162208 0.33743545
1.00000000 0.77413785 0.68266941
1.00000000 0.93489327 0.89069020
0.03341142 0.04712390 0.04674223
0.05426708 0.05426708 0.05426708
0.18671024 0.05021975 0.06176861
0.38329798 0.03315411 0.08065262
0.65942877 0.02782764 0.11678463
0.88629631 0.11248211 0.18999906
0.98658700 0.42148572 0.33520195
1.00000000 0.77427471 0.68254129
1.00000000 0.93495291 0.89075340
0.06729140 0.16482033 0.04880222
0.07744785 0.16772089 0.04091094
0.17042546 0.17936055 0.03067332
0.35793344 0.18402650 0.00000000
0.65379286 0.15958809 0.04551286
0.88863043 0.14318162 0.13991319
0.98793750 0.43135175 0.32255717
1.00000000 0.77660185 0.68309026
1.00000000 0.93596800 0.89204002
0.12261853 0.31441125 0.04013207
0.12930150 0.31513507 0.03576102
0.18693957 0.32587002 0.01186671
0.33338938 0.35143973 0.02685020
0.61833050 0.37646308 0.03166796
0.87937518 0.36025908 0.07558136
0.98810677 0.50594986 0.31318753
1.00000000 0.78802071 0.69128282
1.00000000 0.94024807 0.89796286
0.22920529 0.57027978 0.03461423
0.23344053 0.57039505 0.03373801
0.26893889 0.57395617 0.02760841
0.36837780 0.58967570 0.00000000
0.60013182 0.62352553 0.04159184
0.85079468 0.65944351 0.10712519
0.98578408 0.68050187 0.35438225
1.00000000 0.83202081 0.73524686
1.00000000 0.95590872 0.92028040
0.43848849 0.81458247 0.08123576
0.44086473 0.81456475 0.08163066
0.46124391 0.81498196 0.08433384
0.52179643 0.81815208 0.08610401
0.64875218 0.83159915 0.08905007
0.84169156 0.86282560 0.18458487
0.98811385 0.87234715 0.52341104
1.00000000 0.92652164 0.85097100
1.00000000 1.00000000 1.00000000
0.69481747 0.95520782 0.31229487
0.69529993 0.95519771 0.31259943
0.69976232 0.95531264 0.31574852
0.71427598 0.95635550 0.32642857
0.75701673 0.96201161 0.36189539
0.85879121 0.98162689 0.51186943
0.98664138 1.00000000 0.83753613
1.00000000 1.00000000 1.00000000
1.00000000 1.00000000 1.00000000
0.94820300 1.00000000 0.87038092
0.94825868 1.00000000 0.87048135
0.94889764 1.00000000 0.87168711
0.95139525 1.00000000 0.87649539
0.96040051 1.00000000 0.89390757
1.00000000 1.00000000 1.00000000
1.00000000 1.00000000 1.00000000
1.00000000 1.00000000 1.00000000
1.00000000 1.00000000 1.00000000
1.00000000 1.00000000 1.00000000
1.00000000 1.00000000 1.00000000
1.00000000 1.00000000 1.00000000
1.00000000 1.00000000 1.00000000
1.00000000 1.00000000 1.00000000
1.00000000 1.00000000 1.00000000
1.00000000 1.00000000 1.00000000
1.00000000 1.00000000 1.00000000
1.00000000 1.00000000 1.00000000
0.05098129 0.01901382 0.15793896
0.06031054 0.00000000 0.15788544
0.16577147 0.00000000 0.17674405
0.36246853 0.00000000 0.21530071
0.65174989 0.03051750 0.25034214
0.88500535 0.09272459 0.28262302
0.98526763 0.41859140 0.35410826
1.00000000 0.77310960 0.68407347
1.00000000 0.93437314 0.89035073
0.03642811 0.03303301 0.16519347
0.05230049 0.01416102 0.16873630
0.16918246 0.00000000 0.18126424
0.36839090 0.00000000 0.21058466
0.65362845 0.02376003 0.24156750
0.88562702 0.08842453 0.27571692
0.98547452 0.41869639 0.35203405
1.00000000 0.77326015 0.68396729
1.00000000 0.93443245 0.89041322
0.03839143 0.17184634 0.16827180
0.05021704 0.17277326 0.16943632
0.16895397 0.16895397 0.16895397
0.38210340 0.13872716 0.15883490
0.66000026 0.11307433 0.18057235
0.89002361 0.09434400 0.22056828
0.98691997 0.42821668 0.33920087
1.00000000 0.77558298 0.68447523
1.00000000 0.93526906 0.89147990
0.00000000 0.38460759 0.10677582
0.02130431 0.38525567 0.09918415
0.14467620 0.38794060 0.05030700
0.35493362 0.37240568 0.03112442
0.64415418 0.34941009 0.04149272
0.88537174 0.32217683 0.09882937
0.98787002 0.49722463 0.32461706
1.00000000 0.78688913 0.69224815
1.00000000 0.93954485 0.89732181
0.20900236 0.59215884 0.06282904
0.21327859 0.59221580 0.06007457
0.25207452 0.59465060 0.04286339
0.36356557 0.60598477 0.00000000
0.60646507 0.62976150 0.03593391
0.85557574 0.65485174 0.10737709
0.98625692 0.67758037 0.36282692
1.00000000 0.83088563 0.73555539
1.00000000 0.95528656 0.91964552
0.42803638 0.81917719 0.08967194
0.43035700 0.81915838 0.08954881
0.45087016 0.81952928 0.08944910
0.51425549 0.82243264 0.08899634
0.64738643 0.83496935 0.09009527
0.84300897 0.86415439 0.18685058
0.98846599 0.87245896 0.53126029
1.00000000 0.92627477 0.85166693
1.00000000 1.00000000 1.00000000
0.69498462 0.95649271 0.31869647
0.69545216 0.95648412 0.31894211
0.69983464 0.95660395 0.32172189
0.71433215 0.95762615 0.33195802
0.75727023 0.96312052 0.36715114
0.85942799 0.98231957 0.51799117
0.98700866 1.00000000 0.84142153
1.00000000 1.00000000 1.00000000
1.00000000 1.00000000 1.00000000
0.94928878 1.00000000 0.87330421
0.94934225 1.00000000 0.87339873
0.94996149 1.00000000 0.87455153
0.95240592 1.00000000 0.87921953
0.96122935 1.00000000 0.89620684
1.00000000 1.00000000 1.00000000
1.00000000 1.00000000 1.00000000
1.00000000 1.00000000 1.00000000
1.00000000 1.00000000 1.00000000
1.00000000 1.00000000 1.00000000
1.00000000 1.00000000 1.00000000
1.00000000 1.00000000 1.00000000
1.00000000 1.00000000 1.00000000
1.00000000 1.00000000 1.00000000
1.00000000 1.00000000 1.00000000
1.00000000 1.00000000 1.00000000
1.00000000 1.00000000 1.00000000
1.00000000 1.00000000 1.00000000
0.10169043 0.03079863 0.33516385
0.10867700 0.02740926 0.32908636
0.16009666 0.00000000 0.30411075
0.34423171 0.00000000 0.35668424
0.63506756 0.03946707 0.42590836
0.87506267 0.12768505 0.48245862
0.98435444 0.39917423 0.47700893
1.00000000 0.76673269 0.68638930
1.00000000 0.93193990 0.88827318
0.09347621 0.03641244 0.34296102
0.10206991 0.03010927 0.33840363
0.15611427 0.00000000 0.31000253
0.34568168 0.00000000 0.35862849
0.63670410 0.02873698 0.42373324
0.87579742 0.12306699 0.47761577
0.98448262 0.39977653 0.47507038
1.00000000 0.76690614 0.68620707
1.00000000 0.93200177 0.88833963
0.00000000 0.13102250 0.33233093
0.00000000 0.12521651 0.33884550
0.12904524 0.06415326 0.36131441
0.34505393 0.06776397 0.37127054
0.64412169 0.07150548 0.39893478
0.88030319 0.12887011 0.44402022
0.98572377 0.41029908 0.46102782
1.00000000 0.76921478 0.68566706
1.00000000 0.93284985 0.88939653
0.06748737 0.34386045 0.33628189
0.06776736 0.34447368 0.33704200
0.13139753 0.34625538 0.34031102
0.33601674 0.33601674 0.33601674
0.65578321 0.28589019 0.31915099
0.88941109 0.24907520 0.35123661
0.98816592 0.47061746 0.42940838
1.00000000 0.78067430 0.69193314
1.00000000 0.93659306 0.89448961
0.00000000 0.67132046 0.22530629
0.00000000 0.67118195 0.22174014
0.00000000 0.66977788 0.19570594
0.28136591 0.66367998 0.15247785
0.62717926 0.64629501 0.13559791
0.88168828 0.61702001 0.14682848
0.98983987 0.65882270 0.39007954
1.00000000 0.82557261 0.73409798
1.00000000 0.95266832 0.91685450
0.39157744 0.83814973 0.13575729
0.39385552 0.83812945 0.13455380
0.41485820 0.83842112 0.12567971
0.48577135 0.84046053 0.10874428
0.64339357 0.84926446 0.09361417
0.84877675 0.86992805 0.19200526
0.99027882 0.87297300 0.55429490
1.00000000 0.92518844 0.85312241
1.00000000 1.00000000 1.00000000
0.69837012 0.96189040 0.34563409
0.69879472 0.96188509 0.34573143
0.70287456 0.96201377 0.34740450
0.71698106 0.96296298 0.35568667
0.75997724 0.96783051 0.38962079
0.86304510 0.98522721 0.54383361
0.98865995 1.00000000 0.85556366
1.00000000 1.00000000 1.00000000
1.00000000 1.00000000 1.00000000
0.95357773 1.00000000 0.88412324
0.95362509 1.00000000 0.88420269
0.95418687 1.00000000 0.88521187
0.95645873 1.00000000 0.88945443
0.96467561 1.00000000 0.90506472
1.00000000 1.00000000 1.00000000
1.00000000 1.00000000 1.00000000
1.00000000 1.00000000 1.00000000
1.00000000 1.00000000 1.00000000
1.00000000 1.00000000 1.00000000
1.00000000 1.00000000 1.00000000
1.00000000 1.00000000 1.00000000
1.00000000 1.00000000 1.00000000
1.00000000 1.00000000 1.00000000
1.00000000 1.00000000 1.00000000
1.00000000 1.00000000 1.00000000
1.00000000 1.00000000 1.00000000
1.00000000 1.00000000 1.00000000
0.17687822 0.03843310 0.60969685
0.18141170 0.04338757 0.60513055
0.21443815 0.03129546 0.56956533
0.32267754 0.00000000 0.54050822
0.61985247 0.00000000 0.62512519
0.85874060 0.13071870 0.68967396
0.97931570 0.37291704 0.66062058
1.00000000 0.76553553 0.74469906
1.00000000 0.92958945 0.89042619
0.17211903 0.03613479 0.61420468
0.17698585 0.03990449 0.61017276
0.21106521 0.02567456 0.57494899
0.32092879 0.00000000 0.54309804
0.62024661 0.00000000 0.62568328
0.85914224 0.12817270 0.68913434
0.97944871 0.37296971 0.65970654
1.00000000 0.76573326 0.74462028
1.00000000 0.92964534 0.89046894
0.12041387 0.09499175 0.62236148
0.12667082 0.08893541 0.62277502
0.17211499 0.03583838 0.60649766
0.29391878 0.00000000 0.56208522
0.62318408 0.00000000 0.63126700
0.86381103 0.08235389 0.68418103
0.98114784 0.37327778 0.65216087
1.00000000 0.76830600 0.74478757
1.00000000 0.93039916 0.89124189
0.00000000 0.27436450 0.57930795
0.00000000 0.27178294 0.58319141
0.00000000 0.23233876 0.61613276
0.27044478 0.17092266 0.63892325
0.61468548 0.16659563 0.64613883
0.87257712 0.18691352 0.66537273
0.98370031 0.43659969 0.64206920
1.00000000 0.77959099 0.74858026
1.00000000 0.93367274 0.89509332
0.12975261 0.61316635 0.60319583
0.12829962 0.61342650 0.60352880
0.14052671 0.61515005 0.60591039
0.21864828 0.62115585 0.61391924
0.60391133 0.60391133 0.60391133
0.89065373 0.53418257 0.58244920
0.98609335 0.63531282 0.63512020
1.00000000 0.82076981 0.77205510
1.00000000 0.94598543 0.91135828
0.00000000 0.89973257 0.44106814
0.00000000 0.89973660 0.43934014
0.00000000 0.89978904 0.42551661
0.13038554 0.89959562 0.38946047
0.54582124 0.89543315 0.33466941
0.86520695 0.88226674 0.35451331
1.00000000 0.86418829 0.64122981
1.00000000 0.91806195 0.85488422
1.00000000 0.98993387 0.97120737
0.72196580 0.98167927 0.46974393
0.72228469 0.98168090 0.46953967
0.72546312 0.98183181 0.46859852
0.73747753 0.98265010 0.46997202
0.77976313 0.98551199 0.50142367
0.88420996 0.99421467 0.65884239
0.99547895 1.00000000 0.89264581
1.00000000 1.00000000 1.00000000
1.00000000 1.00000000 1.00000000
0.96808128 1.00000000 0.91719963
0.96811427 1.00000000 0.91724716
0.96852561 1.00000000 0.91790932
0.97028764 1.00000000 0.92096320
0.97530060 1.00000000 0.93125376
1.00000000 1.00000000 1.00000000
1.00000000 1.00000000 1.00000000
1.00000000 1.00000000 1.00000000
1.00000000 1.00000000 1.00000000
1.00000000 1.00000000 1.00000000
1.00000000 1.00000000 1.00000000
1.00000000 1.00000000 1.00000000
1.00000000 1.00000000 1.00000000
1.00000000 1.00000000 1.00000000
1.00000000 1.00000000 1.00000000
1.00000000 1.00000000 1.00000000
1.00000000 1.00000000 1.00000000
1.00000000 1.00000000 1.00000000
0.29504439 0.06689403 0.84077659
0.29761504 0.07271306 0.83907200
0.31806806 0.09741077 0.82485957
0.37745470 0.08714750 0.78801570
0.57241109 0.00000000 0.76342377
0.83966595 0.00000000 0.83772892
0.96705364 0.32855654 0.81465697
1.00000000 0.74847841 0.81648589
1.00000000 0.93315550 0.91802403
0.29244613 0.06244294 0.84237091
0.29507959 0.06854781 0.84074131
0.31572929 0.09425713 0.82661420
0.37563479 0.08459624 0.78966440
0.57180909 0.00000000 0.76410707
0.83976584 0.00000000 0.83786348
0.96714371 0.32836700 0.81452665
1.00000000 0.74855920 0.81637405
1.00000000 0.93317914 0.91802177
0.26736937 0.07061381 0.85047014
0.27033541 0.07184605 0.84941604
0.29351751 0.08089483 0.83833867
0.35846649 0.06180406 0.80314453
0.56346383 0.00000000 0.76909018
0.84067273 0.00000000 0.83928634
0.96826204 0.32534585 0.81358333
1.00000000 0.74950822 0.81554595
1.00000000 0.93381479 0.91848598
0.16947359 0.21685034 0.84916351
0.17311433 0.21360686 0.84960579
0.20378605 0.17987159 0.85176487
0.29032539 0.08673305 0.83684202
0.51859889 0.00000000 0.79054465
0.84466289 0.00000000 0.84851569
0.97337631 0.30891894 0.81075997
1.00000000 0.75380288 0.81366646
1.00000000 0.93780793 0.92219848
0.00000000 0.51445957 0.80576938
0.00000000 0.51341293 0.80680185
0.00000000 0.50150119 0.81582409
0.00000000 0.41654697 0.85264193
0.50579819 0.34416076 0.86881467
0.84695624 0.35041108 0.87258147
0.98107117 0.53193254 0.81273620
1.00000000 0.80178821 0.83254150
1.00000000 0.95354838 0.93827648
0.31188620 0.84960765 0.84088622
0.31107615 0.84968447 0.84098187
0.30961150 0.85034158 0.84180999
0.33493563 0.85218054 0.84423015
0.41788951 0.86050580 0.85429559
0.84569243 0.84569243 0.84569243
0.98247744 0.85164329 0.85413180
1.00000000 0.92165377 0.91132480
1.00000000 1.00000000 1.00000000
0.81991599 0.99998063 0.81897100
0.81999851 0.99999373 0.81887429
0.82103632 1.00000000 0.81829503
0.82621487 1.00000000 0.81787625
0.84941668 1.00000000 0.82352168
0.91992176 1.00000000 0.86402728
1.00000000 1.00000000 1.00000000
1.00000000 1.00000000 1.00000000
1.00000000 1.00000000 1.00000000
1.00000000 1.00000000 1.00000000
1.00000000 1.00000000 1.00000000
1.00000000 1.00000000 1.00000000
1.00000000 1.00000000 1.00000000
1.00000000 1.00000000 1.00000000
1.00000000 1.00000000 1.00000000
1.00000000 1.00000000 1.00000000
1.00000000 1.00000000 1.00000000
1.00000000 1.00000000 1.00000000
1.00000000 1.00000000 1.00000000
1.00000000 1.00000000 1.00000000
1.00000000 1.00000000 1.00000000
1.00000000 1.00000000 1.00000000
1.00000000 1.00000000 1.00000000
1.00000000 1.00000000 1.00000000
1.00000000 1.00000000 1.00000000
1.00000000 1.00000000 1.00000000
1.00000000 1.00000000 1.00000000
0.37717309 0.18301058 0.94532407
0.37830043 0.18441319 0.94469688
0.38741644 0.19324424 0.93919961
0.41475095 0.20166032 0.92344554
0.49141666 0.12130031 0.88805014
0.77517088 0.00000000 0.92950074
0.94384778 0.30566476 0.93368552
1.00000000 0.71749713 0.89417028
1.00000000 0.91728113 0.94018422
0.37607512 0.18220441 0.94589487
0.37721285 0.18356174 0.94528187
0.38636912 0.19240768 0.93979920
0.41378126 0.20102149 0.92401903
0.49064911 0.12072797 0.88853424
0.77505895 0.00000000 0.92969063
0.94386514 0.30560348 0.93370410
1.00000000 0.71755335 0.89414035
1.00000000 0.91730208 0.94017294
0.36655395 0.18204836 0.94988046
0.36774312 0.18302355 0.94935225
0.37732417 0.18965829 0.94441865
0.40550131 0.19712492 0.92899901
0.48439990 0.11803367 0.89289219
0.77376589 0.00000000 0.93134440
0.94409659 0.30417291 0.93396956
1.00000000 0.71818985 0.89391657
1.00000000 0.91758657 0.94013198
0.33382627 0.22121601 0.95678458
0.33512310 0.22088721 0.95649595
0.34588864 0.21766933 0.95341868
0.37837598 0.20973259 0.94186012
0.46463386 0.12688665 0.90686489
0.76888732 0.00000000 0.93783860
0.94524969 0.29605095 0.93532430
1.00000000 0.72110806 0.89325035
1.00000000 0.91893782 0.94021004
0.22706765 0.43243840 0.95036860
0.22835864 0.43128218 0.95059956
0.23867437 0.41949767 0.95243279
0.27487022 0.37597307 0.95605261
0.38586115 0.25341152 0.94018105
0.74741404 0.00000000 0.96195157
0.94972933 0.30327411 0.94286085
1.00000000 0.73957629 0.89221000
1.00000000 0.92774027 0.94398798
0.08021093 0.76052154 0.95932216
0.08132541 0.76051006 0.95953862
0.09900978 0.76077420 0.96128180
0.16807517 0.76288203 0.96596171
0.47460891 0.76143336 0.97365784
0.79182188 0.77542429 0.97410834
0.96244490 0.79499047 0.96367971
1.00000000 0.88951818 0.93951624
1.00000000 0.98438175 0.98808482
0.76629507 0.97912606 0.97174772
0.76640920 0.97913260 0.97175957
0.76803159 0.97922043 0.97190076
0.77574356 0.97954067 0.97242475
0.80694081 0.98063191 0.97427458
0.89675788 0.98548337 0.98168456
1.00000000 1.00000000 1.00000000
1.00000000 1.00000000 1.00000000
1.00000000 1.00000000 1.00000000
1.00000000 1.00000000 1.00000000
1.00000000 1.00000000 1.00000000
1.00000000 1.00000000 1.00000000
1.00000000 1.00000000 1.00000000
1.00000000 1.00000000 1.00000000
1.00000000 1.00000000 1.00000000
1.00000000 1.00000000 1.00000000
1.00000000 1.00000000 1.00000000
1.00000000 1.00000000 1.00000000
1.00000000 1.00000000 1.00000000
1.00000000 1.00000000 1.00000000
1.00000000 1.00000000 1.00000000
1.00000000 1.00000000 1.00000000
1.00000000 1.00000000 1.00000000
1.00000000 1.00000000 1.00000000
1.00000000 1.00000000 1.00000000
1.00000000 1.00000000 1.00000000
1.00000000 1.00000000 1.00000000
0.52248519 0.52489896 0.99779700
0.52288544 0.52486254 0.99766365
0.52601529 0.52401646 0.99642348
0.53493701 0.51875613 0.99267954
0.55856740 0.49190508 0.98133713
0.61109172 0.22244988 0.97705306
0.87332447 0.37670543 0.99484748
0.99033798 0.69835219 0.96936863
1.00000000 0.89555472 0.97045335
0.52212345 0.52509937 0.99787288
0.52252501 0.52505796 0.99774252
0.52566142 0.52420152 0.99650877
0.53460410 0.51893650 0.99276958
0.55827605 0.49207249 0.98143674
0.61087486 0.22293367 0.97711176
0.87326970 0.37681465 0.99484492
0.99032932 0.69838597 0.96935894
1.00000000 0.89556882 0.97044577
0.51927619 0.52780504 0.99828501
0.51968220 0.52773580 0.99817169
0.52286016 0.52668375 0.99706218
0.53196188 0.52118971 0.99349669
0.55596388 0.49401072 0.98239197
0.60931664 0.22891933 0.97767197
0.87281076 0.37667999 0.99495260
0.99024686 0.69872069 0.96926652
1.00000000 0.89575562 0.97037679
0.51125980 0.54151116 0.99775511
0.51167285 0.54136055 0.99769872
0.51492595 0.53970566 0.99703359
0.52438066 0.53311638 0.99440816
0.54914153 0.50448100 0.98470730
0.60484820 0.26088293 0.97804122
0.87112970 0.37577260 0.99521215
0.98982930 0.70032444 0.96880276
1.00000000 0.89665447 0.97008775
0.49623686 0.59662457 0.99275980
0.49656181 0.59638869 0.99277230
0.49908575 0.59388401 0.99277980
0.50678248 0.58462192 0.99193923
0.53091097 0.55420519 0.98566973
0.58651679 0.35581428 0.97438989
0.86392227 0.37821796 0.99420853
0.98710528 0.70902917 0.96583939
1.00000000 0.90094926 0.96866377
0.52089533 0.72868491 0.98700400
0.52105094 0.72857656 0.98703969
0.52196968 0.72739431 0.98731087
0.52450043 0.72287046 0.98761503
0.53482247 0.70426662 0.98439852
0.56992359 0.62298444 0.95764180
0.87322169 0.70720391 0.97972116
0.98591000 0.82493084 0.96690075
1.00000000 0.95035106 0.98767938
0.75450205 0.90718016 0.99201455
0.75461090 0.90719265 0.99202040
0.75598530 0.90744330 0.99209179
0.76195289 0.90867336 0.99225126
0.78533185 0.91395227 0.99231281
0.86191038 0.92952119 0.99556378
0.96108526 0.96203177 1.00000000
1.00000000 1.00000000 1.00000000
1.00000000 1.00000000 1.00000000
1.00000000 1.00000000 1.00000000
1.00000000 1.00000000 1.00000000
1.00000000 1.00000000 1.00000000
1.00000000 1.00000000 1.00000000
1.00000000 1.00000000 1.00000000
1.00000000 1.00000000 1.00000000
1.00000000 1.00000000 1.00000000
1.00000000 1.00000000 1.00000000
1.00000000 1.00000000 1.00000000
1.00000000 1.00000000 1.00000000
1.00000000 1.00000000 1.00000000
1.00000000 1.00000000 1.00000000
1.00000000 1.00000000 1.00000000
1.00000000 1.00000000 1.00000000
1.00000000 1.00000000 1.00000000
1.00000000 1.00000000 1.00000000
1.00000000 1.00000000 1.00000000
1.00000000 1.00000000 1.00000000
0.70864888 0.76878567 1.00000000
0.70871424 0.76876508 1.00000000
0.70919225 0.76849676 1.00000000
0.71043999 0.76728525 1.00000000
0.71324382 0.76196756 1.00000000
0.71722384 0.73739380 1.00000000
0.73042358 0.61138312 1.00000000
0.92248783 0.69246579 1.00000000
1.00000000 0.86844579 1.00000000
0.70861715 0.76884320 1.00000000
0.70866754 0.76880804 1.00000000
0.70914404 0.76853765 1.00000000
0.71039113 0.76732476 1.00000000
0.71319589 0.76200737 1.00000000
0.71717792 0.73744815 1.00000000
0.73037235 0.61153005 1.00000000
0.92246693 0.69247740 1.00000000
1.00000000 0.86845296 1.00000000
0.70847556 0.76948890 1.00000000
0.70852396 0.76945120 1.00000000
0.70885852 0.76903947 1.00000000
0.71008575 0.76779937 1.00000000
0.71288318 0.76246754 1.00000000
0.71686542 0.73796447 1.00000000
0.73012765 0.61290487 1.00000000
0.92226208 0.69254479 1.00000000
1.00000000 0.86854213 1.00000000
0.70858096 0.77218140 1.00000000
0.70862465 0.77213895 1.00000000
0.70891957 0.77168656 1.00000000
0.70964118 0.76995774 1.00000000
0.71234460 0.76454525 1.00000000
0.71623958 0.74020934 1.00000000
0.72982037 0.61870693 1.00000000
0.92143045 0.69289837 1.00000000
1.00000000 0.86898192 1.00000000
0.71097873 0.78228709 1.00000000
0.71101367 0.78224215 1.00000000
0.71122940 0.78176571 1.00000000
0.71173435 0.77998435 1.00000000
0.71262930 0.77323661 1.00000000
0.71581359 0.74964094 1.00000000
0.73047873 0.64196505 1.00000000
0.91770052 0.69530050 0.99663121
1.00000000 0.87117023 1.00000000
0.72914540 0.81611036 1.00000000
0.72916131 0.81607442 1.00000000
0.72919950 0.81567986 1.00000000
0.72913755 0.81414095 1.00000000
0.72837855 0.80807378 1.00000000
0.72382386 0.78372036 1.00000000
0.73066065 0.70236541 0.99085913
0.89956178 0.70861588 0.97546611
1.00000000 0.88118566 0.98764314
0.79275451 0.88566632 1.00000000
0.79275203 0.88564690 1.00000000
0.79265642 0.88542373 1.00000000
0.79217503 0.88452070 1.00000000
0.79009212 0.88083522 1.00000000
0.78052726 0.86392363 0.99386800
0.77093891 0.81554786 0.95373762
0.94639834 0.90006466 0.98255692
1.00000000 1.00000000 1.00000000
0.93841721 0.98091299 1.00000000
0.93841047 0.98090561 1.00000000
0.93832218 0.98081046 1.00000000
0.93798162 0.98039052 1.00000000
0.94043010 0.98092108 1.00000000
0.96574844 0.99504866 1.00000000
1.00000000 1.00000000 1.00000000
1.00000000 1.00000000 1.00000000
1.00000000 1.00000000 1.00000000
1.00000000 1.00000000 1.00000000
1.00000000 1.00000000 1.00000000
1.00000000 1.00000000 1.00000000
1.00000000 1.00000000 1.00000000
1.00000000 1.00000000 1.00000000
1.00000000 1.00000000 1.00000000
1.00000000 1.00000000 1.00000000
1.00000000 1.00000000 1.00000000
1.00000000 1.00000000 1.00000000
