Luts Download/Canon Luts/3dlut/17grid-3dlut/full-to-full-range/CinemaGamut_CanonLog3-to-BT709_WideDR_17_FF_Ver.2.0.cube
# Gamut : Cinema Gamut to BT.709
# Gamma : Canon Log 3 to Wide DR
# Range : Full in / Full out
# Version : 2.0 2019/10/24
# Copyright(c) 2019 Canon Inc. All Rights Reserved.
LUT_3D_SIZE 17
# LUT_3D_INPUT_RANGE 0.0 1.0
0.00000000 0.00000000 0.00000000
0.00000000 0.00000000 0.00000000
0.00000000 0.00000000 0.00000000
0.12747991 0.01108591 0.02119436
0.26387857 0.00697302 0.03669820
0.39929553 0.00000000 0.05280441
0.53619234 0.00000000 0.07200382
0.65945041 0.00000000 0.08868376
0.76101797 0.00000000 0.09858830
0.84714873 0.00000000 0.10177351
0.91770500 0.00000000 0.10018189
0.97064833 0.00000000 0.09839477
1.00000000 0.02541496 0.10502851
1.00000000 0.11140586 0.12617248
1.00000000 0.18102800 0.15289934
1.00000000 0.23706189 0.18322132
1.00000000 0.28388250 0.21405477
0.00000000 0.00000000 0.00000000
0.00000000 0.00000000 0.00000000
0.00000000 0.00000000 0.00000000
0.12747991 0.01108591 0.02119436
0.26387857 0.00697302 0.03669820
0.39929553 0.00000000 0.05280441
0.53619234 0.00000000 0.07200382
0.65945041 0.00000000 0.08868376
0.76101797 0.00000000 0.09858830
0.84714873 0.00000000 0.10177351
0.91770500 0.00000000 0.10018189
0.97064833 0.00000000 0.09839477
1.00000000 0.02541496 0.10502851
1.00000000 0.11140586 0.12617248
1.00000000 0.18102800 0.15289934
1.00000000 0.23706189 0.18322132
1.00000000 0.28388250 0.21405477
0.00000000 0.00000000 0.00000000
0.00000000 0.02023681 0.00000000
0.00000000 0.01041396 0.00000000
0.12747991 0.01108591 0.02119436
0.26387857 0.00697302 0.03669820
0.39929553 0.00000000 0.05280441
0.53619234 0.00000000 0.07200382
0.65945041 0.00000000 0.08868376
0.76101797 0.00000000 0.09858830
0.84714873 0.00000000 0.10177351
0.91770500 0.00000000 0.10018189
0.97064833 0.00000000 0.09839477
1.00000000 0.02541496 0.10502851
1.00000000 0.11140586 0.12617248
1.00000000 0.18102800 0.15289934
1.00000000 0.23706189 0.18322132
1.00000000 0.28388250 0.21405477
0.02474895 0.09228391 0.03470199
0.02474895 0.09228391 0.03470199
0.02474895 0.09228391 0.03470199
0.12304022 0.13138374 0.03360730
0.25690905 0.14032287 0.03111092
0.39880564 0.13322242 0.03160215
0.54524317 0.11127663 0.03783752
0.67832602 0.07546489 0.05045322
0.78479030 0.04710476 0.06986054
0.87286962 0.03224706 0.08705882
0.94130581 0.04028525 0.10311355
0.98459108 0.08808920 0.12633691
1.00000000 0.15605972 0.15695185
1.00000000 0.21546434 0.18765839
1.00000000 0.26497235 0.21665138
1.00000000 0.30811694 0.24544360
1.00000000 0.34661375 0.27351949
0.03204560 0.19171228 0.05861119
0.03204560 0.19171228 0.05861119
0.03204560 0.19171228 0.05861119
0.10420202 0.22707397 0.03775266
0.22942879 0.24525553 0.02266085
0.37067748 0.25165366 0.01500133
0.52297739 0.24567111 0.01350424
0.66750065 0.22498147 0.02368716
0.78974565 0.19653471 0.04401560
0.88986104 0.17136359 0.06984663
0.95832117 0.17384068 0.11245999
0.98930675 0.21585142 0.16753142
1.00000000 0.26323454 0.21297804
1.00000000 0.30737456 0.25066168
1.00000000 0.34577013 0.28220330
1.00000000 0.38073273 0.31114822
1.00000000 0.41338370 0.33803594
0.02991142 0.29162122 0.07928235
0.02991142 0.29162122 0.07928235
0.02991142 0.29162122 0.07928235
0.07922924 0.32221418 0.04285194
0.19724910 0.34336284 0.01945342
0.33506073 0.35789978 0.00734174
0.48704180 0.36325219 0.00103180
0.64114265 0.35265272 0.00349428
0.77824407 0.32936950 0.02621040
0.89072864 0.30555808 0.06874658
0.96462852 0.30185622 0.13858490
0.99317739 0.33055730 0.21645447
1.00000000 0.36711464 0.27637633
1.00000000 0.40154022 0.32113080
0.99913044 0.43226562 0.35623597
1.00000000 0.46103164 0.38629249
1.00000000 0.48914479 0.41304205
0.02155146 0.39577149 0.09687066
0.02155146 0.39577149 0.09687066
0.02155146 0.39577149 0.09687066
0.05192122 0.42164279 0.05177075
0.16136003 0.44316773 0.02049064
0.29584335 0.46182567 0.00422664
0.44519337 0.47534828 0.00000000
0.60290849 0.47414831 0.00000000
0.75564512 0.45575134 0.00000000
0.88698508 0.43033011 0.04540045
0.97492048 0.41808531 0.14692307
1.00000000 0.43661969 0.25592516
1.00000000 0.46513466 0.33444827
1.00000000 0.49336001 0.39035506
1.00000000 0.51909470 0.43142090
1.00000000 0.54386511 0.46468631
1.00000000 0.56928772 0.49334402
0.01277420 0.49173432 0.10553838
0.01277420 0.49173432 0.10553838
0.01277420 0.49173432 0.10553838
0.03158616 0.51393278 0.06176439
0.12128980 0.53538802 0.02446797
0.25052967 0.55631107 0.00657519
0.39306558 0.57552690 0.00000000
0.54654347 0.58429618 0.00000000
0.70444565 0.57535586 0.00000000
0.85511152 0.55236947 0.01062847
0.97263954 0.52885684 0.11412361
1.00000000 0.53276246 0.26491700
1.00000000 0.55197775 0.37037349
1.00000000 0.57466739 0.44293436
1.00000000 0.59662506 0.49414661
1.00000000 0.61863365 0.53315278
1.00000000 0.64241986 0.56548422
0.00900944 0.57384183 0.10289809
0.00900944 0.57384183 0.10289809
0.00900944 0.57384183 0.10289809
0.02052513 0.59334043 0.06431859
0.08663789 0.61416926 0.02825090
0.20571341 0.63656861 0.01060568
0.33780130 0.65971634 0.00448067
0.48080147 0.67580393 0.00000000
0.63297981 0.67824591 0.00000000
0.78852701 0.66473950 0.00459475
0.92980235 0.64044177 0.08033610
1.00000000 0.62664178 0.24562319
1.00000000 0.63227976 0.38169574
1.00000000 0.64707536 0.47644884
1.00000000 0.66453275 0.54140661
1.00000000 0.68349644 0.58850742
1.00000000 0.70548042 0.62559083
0.01088551 0.64617340 0.08994364
0.01088551 0.64617340 0.08994364
0.01088551 0.64617340 0.08994364
0.01936782 0.66353551 0.05815996
0.06797213 0.68335438 0.02859061
0.16984367 0.70645340 0.01300711
0.28813392 0.73200730 0.00892011
0.41809642 0.75296507 0.00890492
0.55854206 0.76340697 0.00859423
0.70893164 0.76138902 0.01785653
0.85863346 0.74431980 0.06667717
0.98112128 0.72109905 0.19933698
1.00000000 0.71233910 0.37012558
1.00000000 0.71639500 0.49257037
1.00000000 0.72736446 0.57607224
1.00000000 0.74243060 0.63379428
1.00000000 0.76181716 0.67651963
0.01867642 0.70914974 0.06751051
0.01867642 0.70914974 0.06751051
0.01867642 0.70914974 0.06751051
0.02773501 0.72478559 0.04479489
0.06767395 0.74344445 0.02515174
0.15124655 0.76636901 0.01602225
0.24966518 0.79344268 0.01257016
0.36388382 0.81770969 0.01639991
0.48988882 0.83371851 0.02232837
0.62801123 0.83985698 0.03501663
0.77484090 0.83376517 0.07305291
0.91458674 0.81365430 0.16607438
1.00000000 0.79300654 0.33450397
1.00000000 0.78487477 0.48914428
1.00000000 0.78721830 0.59701396
1.00000000 0.79682203 0.66932095
1.00000000 0.81269602 0.71876362
0.03482996 0.76237150 0.04208025
0.03482996 0.76237150 0.04208025
0.03482996 0.76237150 0.04208025
0.04751722 0.77657406 0.02915842
0.08516494 0.79408549 0.02045107
0.14946662 0.81647376 0.01830753
0.22741195 0.84423740 0.01850353
0.32328379 0.87069952 0.02640895
0.43297180 0.89056060 0.03972345
0.55582270 0.90253936 0.06101895
0.69010474 0.90443082 0.09810029
0.83038398 0.89453113 0.16114552
0.95637229 0.87195561 0.27040484
1.00000000 0.85272271 0.46206954
1.00000000 0.84524035 0.60276707
1.00000000 0.84792838 0.69488825
1.00000000 0.85909529 0.75292248
0.06781631 0.80558135 0.02403798
0.06781631 0.80558135 0.02403798
0.06781631 0.80558135 0.02403798
0.08606344 0.81859063 0.02066358
0.11607673 0.83533282 0.01898197
0.16342282 0.85715441 0.02363239
0.22555815 0.88480673 0.03271435
0.30206846 0.91253948 0.04662927
0.39611502 0.93447977 0.07451116
0.50349427 0.95003809 0.11349062
0.62182646 0.95750346 0.15730402
0.74771914 0.95529189 0.20699467
0.87569820 0.94268804 0.27929800
0.97922698 0.91922888 0.41641750
1.00000000 0.90168218 0.59555902
1.00000000 0.89657843 0.71291271
1.00000000 0.90245751 0.78156012
0.11409785 0.84026361 0.01745804
0.11409785 0.84026361 0.01745804
0.11409785 0.84026361 0.01745804
0.12930996 0.85255899 0.01914407
0.15195586 0.86859229 0.02301820
0.18855859 0.88984260 0.03465897
0.23953285 0.91700853 0.05518532
0.30622386 0.94433515 0.08820758
0.39113842 0.96620100 0.13987736
0.49029216 0.98191070 0.20157615
0.59896363 0.98992706 0.27375004
0.70466135 0.99217088 0.33335358
0.80823442 0.98861006 0.37904279
0.91271738 0.97756348 0.43716378
0.98753421 0.95509402 0.59406622
1.00000000 0.94238672 0.73255289
1.00000000 0.94349006 0.81214532
0.15482526 0.87050251 0.01755356
0.15482526 0.87050251 0.01755356
0.15482526 0.87050251 0.01755356
0.16787873 0.88221540 0.02294301
0.18768876 0.89750418 0.03267561
0.22074001 0.91784155 0.05448663
0.27006286 0.94364014 0.09505444
0.34002116 0.96845382 0.15504528
0.43394177 0.98617140 0.23824553
0.54044752 0.99625727 0.33644991
0.63887442 1.00000000 0.42396949
0.72561569 1.00000000 0.49645260
0.80365622 1.00000000 0.55577077
0.87751717 1.00000000 0.61145715
0.94749902 0.99457215 0.68481126
0.99413195 0.98251350 0.77637010
1.00000000 0.98091085 0.85790542
0.18847173 0.90297565 0.02071344
0.18847173 0.90297565 0.02071344
0.18847173 0.90297565 0.02071344
0.20093926 0.91405142 0.02964861
0.22117956 0.92837911 0.04673198
0.25742768 0.94715330 0.08533469
0.31824321 0.96967271 0.15262259
0.40934436 0.98830829 0.24794860
0.51589143 0.99894423 0.35758272
0.61537278 1.00000000 0.46012730
0.70166666 1.00000000 0.55035954
0.77530963 1.00000000 0.62727128
0.83805077 1.00000000 0.69259783
0.89320303 1.00000000 0.75145251
0.94321234 1.00000000 0.81263632
0.98690851 1.00000000 0.88177903
1.00000000 1.00000000 1.00000000
0.21417412 0.94809800 0.02091591
0.21417412 0.94809800 0.02091591
0.21417412 0.94809800 0.02091591
0.22666817 0.95841076 0.03281366
0.24933246 0.97146784 0.05845500
0.29619570 0.98758070 0.12049795
0.38965697 1.00000000 0.23201796
0.49667564 1.00000000 0.34935319
0.59764617 1.00000000 0.45934718
0.68778732 1.00000000 0.55983909
0.76549843 1.00000000 0.64895864
0.83092460 1.00000000 0.72636726
0.88572170 1.00000000 0.79298013
0.93179846 1.00000000 0.85190715
1.00000000 1.00000000 1.00000000
1.00000000 1.00000000 1.00000000
1.00000000 1.00000000 1.00000000
0.00000000 0.00000000 0.00000000
0.00000000 0.00000000 0.00000000
0.00000000 0.00000000 0.00000000
0.12747991 0.01108591 0.02119436
0.26387857 0.00697302 0.03669820
0.39929553 0.00000000 0.05280441
0.53619234 0.00000000 0.07200382
0.65945041 0.00000000 0.08868376
0.76101797 0.00000000 0.09858830
0.84714873 0.00000000 0.10177351
0.91770500 0.00000000 0.10018189
0.97064833 0.00000000 0.09839477
1.00000000 0.02541496 0.10502851
1.00000000 0.11140586 0.12617248
1.00000000 0.18102800 0.15289934
1.00000000 0.23706189 0.18322132
1.00000000 0.28388250 0.21405477
0.00000000 0.00000000 0.00000000
0.00000000 0.00000000 0.00000000
0.00000000 0.00000000 0.00000000
0.12747991 0.01108591 0.02119436
0.26387857 0.00697302 0.03669820
0.39929553 0.00000000 0.05280441
0.53619234 0.00000000 0.07200382
0.65945041 0.00000000 0.08868376
0.76101797 0.00000000 0.09858830
0.84714873 0.00000000 0.10177351
0.91770500 0.00000000 0.10018189
0.97064833 0.00000000 0.09839477
1.00000000 0.02541496 0.10502851
1.00000000 0.11140586 0.12617248
1.00000000 0.18102800 0.15289934
1.00000000 0.23706189 0.18322132
1.00000000 0.28388250 0.21405477
0.00000000 0.00000000 0.00000000
0.00000000 0.00000000 0.00000000
0.00000000 0.00000000 0.00000000
0.12747991 0.01108591 0.02119436
0.26387857 0.00697302 0.03669820
0.39929553 0.00000000 0.05280441
0.53619234 0.00000000 0.07200382
0.65945041 0.00000000 0.08868376
0.76101797 0.00000000 0.09858830
0.84714873 0.00000000 0.10177351
0.91770500 0.00000000 0.10018189
0.97064833 0.00000000 0.09839477
1.00000000 0.02541496 0.10502851
1.00000000 0.11140586 0.12617248
1.00000000 0.18102800 0.15289934
1.00000000 0.23706189 0.18322132
1.00000000 0.28388250 0.21405477
0.02474895 0.09228391 0.03470199
0.02474895 0.09228391 0.03470199
0.02474895 0.09228391 0.03470199
0.12304022 0.13138374 0.03360730
0.25690905 0.14032287 0.03111092
0.39880564 0.13322242 0.03160215
0.54524317 0.11127663 0.03783752
0.67832602 0.07546489 0.05045322
0.78479030 0.04710476 0.06986054
0.87286962 0.03224706 0.08705882
0.94130581 0.04028525 0.10311355
0.98459108 0.08808920 0.12633691
1.00000000 0.15605972 0.15695185
1.00000000 0.21546434 0.18765839
1.00000000 0.26497235 0.21665138
1.00000000 0.30811694 0.24544360
1.00000000 0.34661375 0.27351949
0.03204560 0.19171228 0.05861119
0.03204560 0.19171228 0.05861119
0.03204560 0.19171228 0.05861119
0.10420202 0.22707397 0.03775266
0.22942879 0.24525553 0.02266085
0.37067748 0.25165366 0.01500133
0.52297739 0.24567111 0.01350424
0.66750065 0.22498147 0.02368716
0.78974565 0.19653471 0.04401560
0.88986104 0.17136359 0.06984663
0.95832117 0.17384068 0.11245999
0.98930675 0.21585142 0.16753142
1.00000000 0.26323454 0.21297804
1.00000000 0.30737456 0.25066168
1.00000000 0.34577013 0.28220330
1.00000000 0.38073273 0.31114822
1.00000000 0.41338370 0.33803594
0.02991142 0.29162122 0.07928235
0.02991142 0.29162122 0.07928235
0.02991142 0.29162122 0.07928235
0.07922924 0.32221418 0.04285194
0.19724910 0.34336284 0.01945342
0.33506073 0.35789978 0.00734174
0.48704180 0.36325219 0.00103180
0.64114265 0.35265272 0.00349428
0.77824407 0.32936950 0.02621040
0.89072864 0.30555808 0.06874658
0.96462852 0.30185622 0.13858490
0.99317739 0.33055730 0.21645447
1.00000000 0.36711464 0.27637633
1.00000000 0.40154022 0.32113080
0.99913044 0.43226562 0.35623597
1.00000000 0.46103164 0.38629249
1.00000000 0.48914479 0.41304205
0.02155146 0.39577149 0.09687066
0.02155146 0.39577149 0.09687066
0.02155146 0.39577149 0.09687066
0.05192122 0.42164279 0.05177075
0.16136003 0.44316773 0.02049064
0.29584335 0.46182567 0.00422664
0.44519337 0.47534828 0.00000000
0.60290849 0.47414831 0.00000000
0.75564512 0.45575134 0.00000000
0.88698508 0.43033011 0.04540045
0.97492048 0.41808531 0.14692307
1.00000000 0.43661969 0.25592516
1.00000000 0.46513466 0.33444827
1.00000000 0.49336001 0.39035506
1.00000000 0.51909470 0.43142090
1.00000000 0.54386511 0.46468631
1.00000000 0.56928772 0.49334402
0.01277420 0.49173432 0.10553838
0.01277420 0.49173432 0.10553838
0.01277420 0.49173432 0.10553838
0.03158616 0.51393278 0.06176439
0.12128980 0.53538802 0.02446797
0.25052967 0.55631107 0.00657519
0.39306558 0.57552690 0.00000000
0.54654347 0.58429618 0.00000000
0.70444565 0.57535586 0.00000000
0.85511152 0.55236947 0.01062847
0.97263954 0.52885684 0.11412361
1.00000000 0.53276246 0.26491700
1.00000000 0.55197775 0.37037349
1.00000000 0.57466739 0.44293436
1.00000000 0.59662506 0.49414661
1.00000000 0.61863365 0.53315278
1.00000000 0.64241986 0.56548422
0.00900944 0.57384183 0.10289809
0.00900944 0.57384183 0.10289809
0.00900944 0.57384183 0.10289809
0.02052513 0.59334043 0.06431859
0.08663789 0.61416926 0.02825090
0.20571341 0.63656861 0.01060568
0.33780130 0.65971634 0.00448067
0.48080147 0.67580393 0.00000000
0.63297981 0.67824591 0.00000000
0.78852701 0.66473950 0.00459475
0.92980235 0.64044177 0.08033610
1.00000000 0.62664178 0.24562319
1.00000000 0.63227976 0.38169574
1.00000000 0.64707536 0.47644884
1.00000000 0.66453275 0.54140661
1.00000000 0.68349644 0.58850742
1.00000000 0.70548042 0.62559083
0.01088551 0.64617340 0.08994364
0.01088551 0.64617340 0.08994364
0.01088551 0.64617340 0.08994364
0.01936782 0.66353551 0.05815996
0.06797213 0.68335438 0.02859061
0.16984367 0.70645340 0.01300711
0.28813392 0.73200730 0.00892011
0.41809642 0.75296507 0.00890492
0.55854206 0.76340697 0.00859423
0.70893164 0.76138902 0.01785653
0.85863346 0.74431980 0.06667717
0.98112128 0.72109905 0.19933698
1.00000000 0.71233910 0.37012558
1.00000000 0.71639500 0.49257037
1.00000000 0.72736446 0.57607224
1.00000000 0.74243060 0.63379428
1.00000000 0.76181716 0.67651963
0.01867642 0.70914974 0.06751051
0.01867642 0.70914974 0.06751051
0.01867642 0.70914974 0.06751051
0.02773501 0.72478559 0.04479489
0.06767395 0.74344445 0.02515174
0.15124655 0.76636901 0.01602225
0.24966518 0.79344268 0.01257016
0.36388382 0.81770969 0.01639991
0.48988882 0.83371851 0.02232837
0.62801123 0.83985698 0.03501663
0.77484090 0.83376517 0.07305291
0.91458674 0.81365430 0.16607438
1.00000000 0.79300654 0.33450397
1.00000000 0.78487477 0.48914428
1.00000000 0.78721830 0.59701396
1.00000000 0.79682203 0.66932095
1.00000000 0.81269602 0.71876362
0.03482996 0.76237150 0.04208025
0.03482996 0.76237150 0.04208025
0.03482996 0.76237150 0.04208025
0.04751722 0.77657406 0.02915842
0.08516494 0.79408549 0.02045107
0.14946662 0.81647376 0.01830753
0.22741195 0.84423740 0.01850353
0.32328379 0.87069952 0.02640895
0.43297180 0.89056060 0.03972345
0.55582270 0.90253936 0.06101895
0.69010474 0.90443082 0.09810029
0.83038398 0.89453113 0.16114552
0.95637229 0.87195561 0.27040484
1.00000000 0.85272271 0.46206954
1.00000000 0.84524035 0.60276707
1.00000000 0.84792838 0.69488825
1.00000000 0.85909529 0.75292248
0.06781631 0.80558135 0.02403798
0.06781631 0.80558135 0.02403798
0.06781631 0.80558135 0.02403798
0.08606344 0.81859063 0.02066358
0.11607673 0.83533282 0.01898197
0.16342282 0.85715441 0.02363239
0.22555815 0.88480673 0.03271435
0.30206846 0.91253948 0.04662927
0.39611502 0.93447977 0.07451116
0.50349427 0.95003809 0.11349062
0.62182646 0.95750346 0.15730402
0.74771914 0.95529189 0.20699467
0.87569820 0.94268804 0.27929800
0.97922698 0.91922888 0.41641750
1.00000000 0.90168218 0.59555902
1.00000000 0.89657843 0.71291271
1.00000000 0.90245751 0.78156012
0.11409785 0.84026361 0.01745804
0.11409785 0.84026361 0.01745804
0.11409785 0.84026361 0.01745804
0.12930996 0.85255899 0.01914407
0.15195586 0.86859229 0.02301820
0.18855859 0.88984260 0.03465897
0.23953285 0.91700853 0.05518532
0.30622386 0.94433515 0.08820758
0.39113842 0.96620100 0.13987736
0.49029216 0.98191070 0.20157615
0.59896363 0.98992706 0.27375004
0.70466135 0.99217088 0.33335358
0.80823442 0.98861006 0.37904279
0.91271738 0.97756348 0.43716378
0.98753421 0.95509402 0.59406622
1.00000000 0.94238672 0.73255289
1.00000000 0.94349006 0.81214532
0.15482526 0.87050251 0.01755356
0.15482526 0.87050251 0.01755356
0.15482526 0.87050251 0.01755356
0.16787873 0.88221540 0.02294301
0.18768876 0.89750418 0.03267561
0.22074001 0.91784155 0.05448663
0.27006286 0.94364014 0.09505444
0.34002116 0.96845382 0.15504528
0.43394177 0.98617140 0.23824553
0.54044752 0.99625727 0.33644991
0.63887442 1.00000000 0.42396949
0.72561569 1.00000000 0.49645260
0.80365622 1.00000000 0.55577077
0.87751717 1.00000000 0.61145715
0.94749902 0.99457215 0.68481126
0.99413195 0.98251350 0.77637010
1.00000000 0.98091085 0.85790542
0.18847173 0.90297565 0.02071344
0.18847173 0.90297565 0.02071344
0.18847173 0.90297565 0.02071344
0.20093926 0.91405142 0.02964861
0.22117956 0.92837911 0.04673198
0.25742768 0.94715330 0.08533469
0.31824321 0.96967271 0.15262259
0.40934436 0.98830829 0.24794860
0.51589143 0.99894423 0.35758272
0.61537278 1.00000000 0.46012730
0.70166666 1.00000000 0.55035954
0.77530963 1.00000000 0.62727128
0.83805077 1.00000000 0.69259783
0.89320303 1.00000000 0.75145251
0.94321234 1.00000000 0.81263632
0.98690851 1.00000000 0.88177903
1.00000000 1.00000000 1.00000000
0.21417412 0.94809800 0.02091591
0.21417412 0.94809800 0.02091591
0.21417412 0.94809800 0.02091591
0.22666817 0.95841076 0.03281366
0.24933246 0.97146784 0.05845500
0.29619570 0.98758070 0.12049795
0.38965697 1.00000000 0.23201796
0.49667564 1.00000000 0.34935319
0.59764617 1.00000000 0.45934718
0.68778732 1.00000000 0.55983909
0.76549843 1.00000000 0.64895864
0.83092460 1.00000000 0.72636726
0.88572170 1.00000000 0.79298013
0.93179846 1.00000000 0.85190715
1.00000000 1.00000000 1.00000000
1.00000000 1.00000000 1.00000000
1.00000000 1.00000000 1.00000000
0.00000000 0.00000000 0.00000000
0.00000000 0.00000000 0.00000000
0.00000000 0.00000000 0.00000000
0.12747991 0.01108591 0.02119436
0.26387857 0.00697302 0.03669820
0.39929553 0.00000000 0.05280441
0.53619234 0.00000000 0.07200382
0.65945041 0.00000000 0.08868376
0.76101797 0.00000000 0.09858830
0.84714873 0.00000000 0.10177351
0.91770500 0.00000000 0.10018189
0.97064833 0.00000000 0.09839477
1.00000000 0.02541496 0.10502851
1.00000000 0.11140586 0.12617248
1.00000000 0.18102800 0.15289934
1.00000000 0.23706189 0.18322132
1.00000000 0.28388250 0.21405477
0.00000000 0.00000000 0.00000000
0.00000000 0.00000000 0.00000000
0.00000000 0.00000000 0.00000000
0.12747991 0.01108591 0.02119436
0.26387857 0.00697302 0.03669820
0.39929553 0.00000000 0.05280441
0.53619234 0.00000000 0.07200382
0.65945041 0.00000000 0.08868376
0.76101797 0.00000000 0.09858830
0.84714873 0.00000000 0.10177351
0.91770500 0.00000000 0.10018189
0.97064833 0.00000000 0.09839477
1.00000000 0.02541496 0.10502851
1.00000000 0.11140586 0.12617248
1.00000000 0.18102800 0.15289934
1.00000000 0.23706189 0.18322132
1.00000000 0.28388250 0.21405477
0.00000000 0.00000000 0.00000000
0.00000000 0.00000000 0.00000000
0.00000000 0.00000000 0.00000000
0.12747991 0.01108591 0.02119436
0.26387857 0.00697302 0.03669820
0.39929553 0.00000000 0.05280441
0.53619234 0.00000000 0.07200382
0.65945041 0.00000000 0.08868376
0.76101797 0.00000000 0.09858830
0.84714873 0.00000000 0.10177351
0.91770500 0.00000000 0.10018189
0.97064833 0.00000000 0.09839477
1.00000000 0.02541496 0.10502851
1.00000000 0.11140586 0.12617248
1.00000000 0.18102800 0.15289934
1.00000000 0.23706189 0.18322132
1.00000000 0.28388250 0.21405477
0.02474895 0.09228391 0.03470199
0.02474895 0.09228391 0.03470199
0.02474895 0.09228391 0.03470199
0.12304022 0.13138374 0.03360730
0.25690905 0.14032287 0.03111092
0.39880564 0.13322242 0.03160215
0.54524317 0.11127663 0.03783752
0.67832602 0.07546489 0.05045322
0.78479030 0.04710476 0.06986054
0.87286962 0.03224706 0.08705882
0.94130581 0.04028525 0.10311355
0.98459108 0.08808920 0.12633691
1.00000000 0.15605972 0.15695185
1.00000000 0.21546434 0.18765839
1.00000000 0.26497235 0.21665138
1.00000000 0.30811694 0.24544360
1.00000000 0.34661375 0.27351949
0.03204560 0.19171228 0.05861119
0.03204560 0.19171228 0.05861119
0.03204560 0.19171228 0.05861119
0.10420202 0.22707397 0.03775266
0.22942879 0.24525553 0.02266085
0.37067748 0.25165366 0.01500133
0.52297739 0.24567111 0.01350424
0.66750065 0.22498147 0.02368716
0.78974565 0.19653471 0.04401560
0.88986104 0.17136359 0.06984663
0.95832117 0.17384068 0.11245999
0.98930675 0.21585142 0.16753142
1.00000000 0.26323454 0.21297804
1.00000000 0.30737456 0.25066168
1.00000000 0.34577013 0.28220330
1.00000000 0.38073273 0.31114822
1.00000000 0.41338370 0.33803594
0.02991142 0.29162122 0.07928235
0.02991142 0.29162122 0.07928235
0.02991142 0.29162122 0.07928235
0.07922924 0.32221418 0.04285194
0.19724910 0.34336284 0.01945342
0.33506073 0.35789978 0.00734174
0.48704180 0.36325219 0.00103180
0.64114265 0.35265272 0.00349428
0.77824407 0.32936950 0.02621040
0.89072864 0.30555808 0.06874658
0.96462852 0.30185622 0.13858490
0.99317739 0.33055730 0.21645447
1.00000000 0.36711464 0.27637633
1.00000000 0.40154022 0.32113080
0.99913044 0.43226562 0.35623597
1.00000000 0.46103164 0.38629249
1.00000000 0.48914479 0.41304205
0.02155146 0.39577149 0.09687066
0.02155146 0.39577149 0.09687066
0.02155146 0.39577149 0.09687066
0.05192122 0.42164279 0.05177075
0.16136003 0.44316773 0.02049064
0.29584335 0.46182567 0.00422664
0.44519337 0.47534828 0.00000000
0.60290849 0.47414831 0.00000000
0.75564512 0.45575134 0.00000000
0.88698508 0.43033011 0.04540045
0.97492048 0.41808531 0.14692307
1.00000000 0.43661969 0.25592516
1.00000000 0.46513466 0.33444827
1.00000000 0.49336001 0.39035506
1.00000000 0.51909470 0.43142090
1.00000000 0.54386511 0.46468631
1.00000000 0.56928772 0.49334402
0.01277420 0.49173432 0.10553838
0.01277420 0.49173432 0.10553838
0.01277420 0.49173432 0.10553838
0.03158616 0.51393278 0.06176439
0.12128980 0.53538802 0.02446797
0.25052967 0.55631107 0.00657519
0.39306558 0.57552690 0.00000000
0.54654347 0.58429618 0.00000000
0.70444565 0.57535586 0.00000000
0.85511152 0.55236947 0.01062847
0.97263954 0.52885684 0.11412361
1.00000000 0.53276246 0.26491700
1.00000000 0.55197775 0.37037349
1.00000000 0.57466739 0.44293436
1.00000000 0.59662506 0.49414661
1.00000000 0.61863365 0.53315278
1.00000000 0.64241986 0.56548422
0.00900944 0.57384183 0.10289809
0.00900944 0.57384183 0.10289809
0.00900944 0.57384183 0.10289809
0.02052513 0.59334043 0.06431859
0.08663789 0.61416926 0.02825090
0.20571341 0.63656861 0.01060568
