Luts Download/Canon Luts/3dlut/17grid-3dlut/full-to-full-range/CinemaGamut_CanonLog2-to-BT2020_PQ_17_FF_Ver.2.0.cube
# Gamut : Cinema Gamut to BT.2020
# Gamma : Canon Log 2 to PQ
# Range : Full in / Full out
# Version : 2.0 2019/10/24
# Copyright(c) 2019 Canon Inc. All Rights Reserved.
LUT_3D_SIZE 17
# LUT_3D_INPUT_RANGE 0.0 1.0
0.00000000 0.00000000 0.00000000
0.00000000 0.00000000 0.00000000
0.01568134 0.01568134 0.01568134
0.09456466 0.01492696 0.01835687
0.19533471 0.02014717 0.02992958
0.28014720 0.01703354 0.03917665
0.35769045 0.00947866 0.05168379
0.43276776 0.00000000 0.06960236
0.50682349 0.00000000 0.09889747
0.58009689 0.00000000 0.14236220
0.65299715 0.00000000 0.18968179
0.72504368 0.00190967 0.24102584
0.79573916 0.07713620 0.29753322
0.86443205 0.23191436 0.36171744
0.92974610 0.40060754 0.43942451
0.98779887 0.58083526 0.54175109
1.00000000 0.75960648 0.68275203
0.00000000 0.03166044 0.00000000
0.03833987 0.04936455 0.00000000
0.01568134 0.01568134 0.01568134
0.09456466 0.01492696 0.01835687
0.19533471 0.02014717 0.02992958
0.28014720 0.01703354 0.03917665
0.35769045 0.00947866 0.05168379
0.43276776 0.00000000 0.06960236
0.50682349 0.00000000 0.09889747
0.58009689 0.00000000 0.14236220
0.65299715 0.00000000 0.18968179
0.72504368 0.00190967 0.24102584
0.79573916 0.07713620 0.29753322
0.86443205 0.23191436 0.36171744
0.92974610 0.40060754 0.43942451
0.98779887 0.58083526 0.54175109
1.00000000 0.75960648 0.68275203
0.01568134 0.01568134 0.01568134
0.01568134 0.01568134 0.01568134
0.01902628 0.01932448 0.01660056
0.10825209 0.03554403 0.02019156
0.19808629 0.04989317 0.02706779
0.28043869 0.05086423 0.03210001
0.35749741 0.04229799 0.04032745
0.43247180 0.02449363 0.05403854
0.50649929 0.00349154 0.08149025
0.57986704 0.00000000 0.12835318
0.65290857 0.00000000 0.17986494
0.72507900 0.00000000 0.23453600
0.79584843 0.05042740 0.29345703
0.86456637 0.22295341 0.35930689
0.92987277 0.39821109 0.43813012
0.98790188 0.58027958 0.54116963
1.00000000 0.75953280 0.68257332
0.02804055 0.08388076 0.01463677
0.02804055 0.08388076 0.01463677
0.04411146 0.10829754 0.01710643
0.11985383 0.12809370 0.01359773
0.20247383 0.13951962 0.01099053
0.28126691 0.14304225 0.01026989
0.35735833 0.13765401 0.01163893
0.43265402 0.09735288 0.00784719
0.50551183 0.08997416 0.04301758
0.57922578 0.04357906 0.08942787
0.65263523 0.00000000 0.15190116
0.72514773 0.00000000 0.21580735
0.79614233 0.00000000 0.28151464
0.86495006 0.19630407 0.35214638
0.93024517 0.39132954 0.43425206
0.98820806 0.57868786 0.53942798
1.00000000 0.75932790 0.68204124
0.05831747 0.17936221 0.01726355
0.05831747 0.17936221 0.01726355
0.07342546 0.18973427 0.01420917
0.13305351 0.20273722 0.00714090
0.20389401 0.21406088 0.00386822
0.27815261 0.22222264 0.00303364
0.35341603 0.22576111 0.00423770
0.42865719 0.22251663 0.00862636
0.50360720 0.20862771 0.01958377
0.57820259 0.17579826 0.04645986
0.65220757 0.11172125 0.10765476
0.72518438 0.00882302 0.18554543
0.79652979 0.00000000 0.26217991
0.86550819 0.16157732 0.34057253
0.93080955 0.38259765 0.42803849
0.98867247 0.57676439 0.53672251
1.00000000 0.75918748 0.68129581
0.09933233 0.25637709 0.01524973
0.09933233 0.25637709 0.01524973
0.11252723 0.26070920 0.01160269
0.15460182 0.26897620 0.00532167
0.21119460 0.27872602 0.00196439
0.27756294 0.28863165 0.00079097
0.34959221 0.29664178 0.00093061
0.42455367 0.30077342 0.00264044
0.50044416 0.29836509 0.00847790
0.57620427 0.28522795 0.02326586
0.65122991 0.25264484 0.06107196
0.72506189 0.18450774 0.13827114
0.79697226 0.07549158 0.23110104
0.86627123 0.15130828 0.32196927
0.93162628 0.37487391 0.41824556
0.98932812 0.57532673 0.53275315
1.00000000 0.75939041 0.68037812
0.14976262 0.32816386 0.01123342
0.14976262 0.32816386 0.01123342
0.15907937 0.33024744 0.00885917
0.18756797 0.33533593 0.00423904
0.22959436 0.34252341 0.00120164
0.28437919 0.35151940 0.00000046
0.34936515 0.36112109 0.00000000
0.42101571 0.36920201 0.00000314
0.49639878 0.37369128 0.00182891
0.57296226 0.37172111 0.01081480
0.64920778 0.35885943 0.03363346
0.72423050 0.32653332 0.09109186
0.79731349 0.26249825 0.18367780
0.86720784 0.23216228 0.29295444
0.93271601 0.37934782 0.40346067
0.99012233 0.57777926 0.52795016
1.00000000 0.76063320 0.67955518
0.20660074 0.39923690 0.00802861
0.20660074 0.39923690 0.00802861
0.21279820 0.40034589 0.00681493
0.23140532 0.40341643 0.00393894
0.26065028 0.40826215 0.00146625
0.30231767 0.41524038 0.00000000
0.35652532 0.42408349 0.00000000
0.42133544 0.43365985 0.00000000
0.49318906 0.44179185 0.00000000
0.56901682 0.44648235 0.00183031
0.64594038 0.44473486 0.01802777
0.72218228 0.43218531 0.05736755
0.79658808 0.40206311 0.14231441
0.86801541 0.35879417 0.25132272
0.93407126 0.41561329 0.38265772
0.99092298 0.58987077 0.52338943
1.00000000 0.76415358 0.67935309
0.26867570 0.47097766 0.00600520
0.26867570 0.47097766 0.00600520
0.27257990 0.47160255 0.00551193
0.28431370 0.47342571 0.00416415
0.30357292 0.47655476 0.00198994
0.33299239 0.48135223 0.00023298
0.37467444 0.48833355 0.00000000
0.42893846 0.49716761 0.00000000
0.49400335 0.50678380 0.00000000
0.56608528 0.51490103 0.00000000
0.64208680 0.51966098 0.00364925
0.71890548 0.51815002 0.03773266
0.79451867 0.50686192 0.11296384
0.86736514 0.48498469 0.22315570
0.93508006 0.48964890 0.35751945
0.99152376 0.61615099 0.51988698
1.00000000 0.77175701 0.68055678
0.33457449 0.54354535 0.00484970
0.33457449 0.54354535 0.00484970
0.33694622 0.54390358 0.00479349
0.34412685 0.54497647 0.00458474
0.35628768 0.54685621 0.00386448
0.37584989 0.55003751 0.00104938
0.40549672 0.55485680 0.00000000
0.44739346 0.56185671 0.00000000
0.50194297 0.57072153 0.00000000
0.56724307 0.58035995 0.00000000
0.63933407 0.58840825 0.00000000
0.71511089 0.59327355 0.01580045
0.79122674 0.59251471 0.09800026
0.86523536 0.58536449 0.21124850
0.93429846 0.58589884 0.35042560
0.99151382 0.65920725 0.52030315
1.00000000 0.78586593 0.68452134
0.40336439 0.61662576 0.00572265
0.40336439 0.61662576 0.00572265
0.40477132 0.61682971 0.00600463
0.40906006 0.61744911 0.00680095
0.41646636 0.61854453 0.00760241
0.42884645 0.62044492 0.00707692
0.44861996 0.62363977 0.00177340
0.47853601 0.62848738 0.00000000
0.52065900 0.63549490 0.00000000
0.57533215 0.64434937 0.00000000
0.64067138 0.65400334 0.00000000
0.71245703 0.66205420 0.00090706
0.78747904 0.66734030 0.08244325
0.86194716 0.66876353 0.21541662
0.93217886 0.67230056 0.35495233
0.99090257 0.71340647 0.52597531
1.00000000 0.80844841 0.69277710
0.47465108 0.68976646 0.01861917
0.47465108 0.68976646 0.01861917
0.47546803 0.68987999 0.01931006
0.47797366 0.69022783 0.02137928
0.48235652 0.69084689 0.02422379
0.48987234 0.69193727 0.02728363
0.50236484 0.69382381 0.02777432
0.52226549 0.69701475 0.01777786
0.55219638 0.70182206 0.00960138
0.59426365 0.70877843 0.00000000
0.64882295 0.71761124 0.00000000
0.71391229 0.72735342 0.00000000
0.78492493 0.73562094 0.09112457
0.85831908 0.74204859 0.22828532
0.92914372 0.74864283 0.37126450
0.98979728 0.77301777 0.53612924
1.00000000 0.84050688 0.70813792
0.54865141 0.76247751 0.08906771
0.54865141 0.76247751 0.08906771
0.54911188 0.76253851 0.08994766
0.55053227 0.76272652 0.09262464
0.55303815 0.76306309 0.09650426
0.55740819 0.76366232 0.10165748
0.56487680 0.76471847 0.10719078
0.57725513 0.76655039 0.10952249
0.59696723 0.76968222 0.09913532
0.62658312 0.77440564 0.09114209
0.66824055 0.78128493 0.06465073
0.72228755 0.79012661 0.06404984
0.78663224 0.80011638 0.15006373
0.85599403 0.80898171 0.27105550
0.92587178 0.81795034 0.40187778
0.98799043 0.83467664 0.55752061
1.00000000 0.88099935 0.73326438
0.62649439 0.83416077 0.22993825
0.62649439 0.83416077 0.22993825
0.62674442 0.83419224 0.23027105
0.62751981 0.83428960 0.23132350
0.62889558 0.83446501 0.23297144
0.63132084 0.83478016 0.23546510
0.63554178 0.83534331 0.23894821
0.64274303 0.83634040 0.24311497
0.65471120 0.83811061 0.24650907
0.67378198 0.84112798 0.24551948
0.70253007 0.84573562 0.24956243
0.74310711 0.85253029 0.25482434
0.79584406 0.86144483 0.28496752
0.85842212 0.87196906 0.35838632
0.92400028 0.88208501 0.46712646
0.98517849 0.89607399 0.60446615
1.00000000 0.92757178 0.77745764
0.71152712 0.90375205 0.39785631
0.71152712 0.90375205 0.39785631
0.71165464 0.90376741 0.39798403
0.71205248 0.90381488 0.39839760
0.71276106 0.90390110 0.39908133
0.71401881 0.90405745 0.40019864
0.71623427 0.90434032 0.40197063
0.72008960 0.90484988 0.40465355
0.72669693 0.90577842 0.40847485
0.73772277 0.90744720 0.41336226
0.75537538 0.91030614 0.41886898
0.78216618 0.91474529 0.43100154
0.82026007 0.92140808 0.45198554
0.86993052 0.93042556 0.49646228
0.92817043 0.94193122 0.57816974
0.98320941 0.95415281 0.69770236
1.00000000 0.97450462 0.84556287
0.80928531 0.96824081 0.58989453
0.80928531 0.96824081 0.58989453
0.80934437 0.96824718 0.58995434
0.80953003 0.96826658 0.59014950
0.80986147 0.96830234 0.59048566
0.81045247 0.96836810 0.59106404
0.81150119 0.96848901 0.59204825
0.81334812 0.96871112 0.59369703
0.81659061 0.96914271 0.59643398
0.82216237 0.96994291 0.60084457
0.83147427 0.97138143 0.60771396
0.84646533 0.97389046 0.61825595
0.86935958 0.97787273 0.63700218
0.90216016 0.98394628 0.66927526
0.94485786 0.99228116 0.73104711
0.99099618 1.00000000 0.85684646
1.00000000 1.00000000 1.00000000
0.92181755 1.00000000 0.80629626
0.92181755 1.00000000 0.80629626
0.92184301 1.00000000 0.80633583
0.92192348 1.00000000 0.80646313
0.92206729 1.00000000 0.80668787
0.92232445 1.00000000 0.80708548
0.92278269 1.00000000 0.80778564
0.92359476 1.00000000 0.80901044
0.92502242 1.00000000 0.81113525
0.92750196 1.00000000 0.81478135
0.93172647 1.00000000 0.82094305
0.93870690 1.00000000 0.83112374
0.94967502 1.00000000 0.84734622
0.96576597 1.00000000 0.87264485
1.00000000 1.00000000 1.00000000
1.00000000 1.00000000 1.00000000
1.00000000 1.00000000 1.00000000
0.00000000 0.00000000 0.00000000
0.00000000 0.00000000 0.00000000
0.01568134 0.01568134 0.01568134
0.09456466 0.01492696 0.01835687
0.19533471 0.02014717 0.02992958
0.28014720 0.01703354 0.03917665
0.35769045 0.00947866 0.05168379
0.43276776 0.00000000 0.06960236
0.50682349 0.00000000 0.09889747
0.58009689 0.00000000 0.14236220
0.65299715 0.00000000 0.18968179
0.72504368 0.00190967 0.24102584
0.79573916 0.07713620 0.29753322
0.86443205 0.23191436 0.36171744
0.92974610 0.40060754 0.43942451
0.98779887 0.58083526 0.54175109
1.00000000 0.75960648 0.68275203
0.00000000 0.00000000 0.00000000
0.00000000 0.00000000 0.00000000
0.01568134 0.01568134 0.01568134
0.09456466 0.01492696 0.01835687
0.19533471 0.02014717 0.02992958
0.28014720 0.01703354 0.03917665
0.35769045 0.00947866 0.05168379
0.43276776 0.00000000 0.06960236
0.50682349 0.00000000 0.09889747
0.58009689 0.00000000 0.14236220
0.65299715 0.00000000 0.18968179
0.72504368 0.00190967 0.24102584
0.79573916 0.07713620 0.29753322
0.86443205 0.23191436 0.36171744
0.92974610 0.40060754 0.43942451
0.98779887 0.58083526 0.54175109
1.00000000 0.75960648 0.68275203
0.01568134 0.01568134 0.01568134
0.01568134 0.01568134 0.01568134
0.01902628 0.01932448 0.01660056
0.10825209 0.03554403 0.02019156
0.19808629 0.04989317 0.02706779
0.28043869 0.05086423 0.03210001
0.35749741 0.04229799 0.04032745
0.43247180 0.02449363 0.05403854
0.50649929 0.00349154 0.08149025
0.57986704 0.00000000 0.12835318
0.65290857 0.00000000 0.17986494
0.72507900 0.00000000 0.23453600
0.79584843 0.05042740 0.29345703
0.86456637 0.22295341 0.35930689
0.92987277 0.39821109 0.43813012
0.98790188 0.58027958 0.54116963
1.00000000 0.75953280 0.68257332
0.02804055 0.08388076 0.01463677
0.02804055 0.08388076 0.01463677
0.04411146 0.10829754 0.01710643
0.11985383 0.12809370 0.01359773
0.20247383 0.13951962 0.01099053
0.28126691 0.14304225 0.01026989
0.35735833 0.13765401 0.01163893
0.43265402 0.09735288 0.00784719
0.50551183 0.08997416 0.04301758
0.57922578 0.04357906 0.08942787
0.65263523 0.00000000 0.15190116
0.72514773 0.00000000 0.21580735
0.79614233 0.00000000 0.28151464
0.86495006 0.19630407 0.35214638
0.93024517 0.39132954 0.43425206
0.98820806 0.57868786 0.53942798
1.00000000 0.75932790 0.68204124
0.05831747 0.17936221 0.01726355
0.05831747 0.17936221 0.01726355
0.07342546 0.18973427 0.01420917
0.13305351 0.20273722 0.00714090
0.20389401 0.21406088 0.00386822
0.27815261 0.22222264 0.00303364
0.35341603 0.22576111 0.00423770
0.42865719 0.22251663 0.00862636
0.50360720 0.20862771 0.01958377
0.57820259 0.17579826 0.04645986
0.65220757 0.11172125 0.10765476
0.72518438 0.00882302 0.18554543
0.79652979 0.00000000 0.26217991
0.86550819 0.16157732 0.34057253
0.93080955 0.38259765 0.42803849
0.98867247 0.57676439 0.53672251
1.00000000 0.75918748 0.68129581
0.09933233 0.25637709 0.01524973
0.09933233 0.25637709 0.01524973
0.11252723 0.26070920 0.01160269
0.15460182 0.26897620 0.00532167
0.21119460 0.27872602 0.00196439
0.27756294 0.28863165 0.00079097
0.34959221 0.29664178 0.00093061
0.42455367 0.30077342 0.00264044
0.50044416 0.29836509 0.00847790
0.57620427 0.28522795 0.02326586
0.65122991 0.25264484 0.06107196
0.72506189 0.18450774 0.13827114
0.79697226 0.07549158 0.23110104
0.86627123 0.15130828 0.32196927
0.93162628 0.37487391 0.41824556
0.98932812 0.57532673 0.53275315
1.00000000 0.75939041 0.68037812
0.14976262 0.32816386 0.01123342
0.14976262 0.32816386 0.01123342
0.15907937 0.33024744 0.00885917
0.18756797 0.33533593 0.00423904
0.22959436 0.34252341 0.00120164
0.28437919 0.35151940 0.00000046
0.34936515 0.36112109 0.00000000
0.42101571 0.36920201 0.00000314
0.49639878 0.37369128 0.00182891
0.57296226 0.37172111 0.01081480
0.64920778 0.35885943 0.03363346
0.72423050 0.32653332 0.09109186
0.79731349 0.26249825 0.18367780
0.86720784 0.23216228 0.29295444
0.93271601 0.37934782 0.40346067
0.99012233 0.57777926 0.52795016
1.00000000 0.76063320 0.67955518
0.20660074 0.39923690 0.00802861
0.20660074 0.39923690 0.00802861
0.21279820 0.40034589 0.00681493
0.23140532 0.40341643 0.00393894
0.26065028 0.40826215 0.00146625
0.30231767 0.41524038 0.00000000
0.35652532 0.42408349 0.00000000
0.42133544 0.43365985 0.00000000
0.49318906 0.44179185 0.00000000
0.56901682 0.44648235 0.00183031
0.64594038 0.44473486 0.01802777
0.72218228 0.43218531 0.05736755
0.79658808 0.40206311 0.14231441
0.86801541 0.35879417 0.25132272
0.93407126 0.41561329 0.38265772
0.99092298 0.58987077 0.52338943
1.00000000 0.76415358 0.67935309
0.26867570 0.47097766 0.00600520
0.26867570 0.47097766 0.00600520
0.27257990 0.47160255 0.00551193
0.28431370 0.47342571 0.00416415
0.30357292 0.47655476 0.00198994
0.33299239 0.48135223 0.00023298
0.37467444 0.48833355 0.00000000
0.42893846 0.49716761 0.00000000
0.49400335 0.50678380 0.00000000
0.56608528 0.51490103 0.00000000
0.64208680 0.51966098 0.00364925
0.71890548 0.51815002 0.03773266
0.79451867 0.50686192 0.11296384
0.86736514 0.48498469 0.22315570
0.93508006 0.48964890 0.35751945
0.99152376 0.61615099 0.51988698
1.00000000 0.77175701 0.68055678
0.33457449 0.54354535 0.00484970
0.33457449 0.54354535 0.00484970
0.33694622 0.54390358 0.00479349
0.34412685 0.54497647 0.00458474
0.35628768 0.54685621 0.00386448
0.37584989 0.55003751 0.00104938
0.40549672 0.55485680 0.00000000
0.44739346 0.56185671 0.00000000
0.50194297 0.57072153 0.00000000
0.56724307 0.58035995 0.00000000
0.63933407 0.58840825 0.00000000
0.71511089 0.59327355 0.01580045
0.79122674 0.59251471 0.09800026
0.86523536 0.58536449 0.21124850
0.93429846 0.58589884 0.35042560
0.99151382 0.65920725 0.52030315
1.00000000 0.78586593 0.68452134
0.40336439 0.61662576 0.00572265
0.40336439 0.61662576 0.00572265
0.40477132 0.61682971 0.00600463
0.40906006 0.61744911 0.00680095
0.41646636 0.61854453 0.00760241
0.42884645 0.62044492 0.00707692
0.44861996 0.62363977 0.00177340
0.47853601 0.62848738 0.00000000
0.52065900 0.63549490 0.00000000
0.57533215 0.64434937 0.00000000
0.64067138 0.65400334 0.00000000
0.71245703 0.66205420 0.00090706
0.78747904 0.66734030 0.08244325
0.86194716 0.66876353 0.21541662
0.93217886 0.67230056 0.35495233
0.99090257 0.71340647 0.52597531
1.00000000 0.80844841 0.69277710
0.47465108 0.68976646 0.01861917
0.47465108 0.68976646 0.01861917
0.47546803 0.68987999 0.01931006
0.47797366 0.69022783 0.02137928
0.48235652 0.69084689 0.02422379
0.48987234 0.69193727 0.02728363
0.50236484 0.69382381 0.02777432
0.52226549 0.69701475 0.01777786
0.55219638 0.70182206 0.00960138
0.59426365 0.70877843 0.00000000
0.64882295 0.71761124 0.00000000
0.71391229 0.72735342 0.00000000
0.78492493 0.73562094 0.09112457
0.85831908 0.74204859 0.22828532
0.92914372 0.74864283 0.37126450
0.98979728 0.77301777 0.53612924
1.00000000 0.84050688 0.70813792
0.54865141 0.76247751 0.08906771
0.54865141 0.76247751 0.08906771
0.54911188 0.76253851 0.08994766
0.55053227 0.76272652 0.09262464
0.55303815 0.76306309 0.09650426
0.55740819 0.76366232 0.10165748
0.56487680 0.76471847 0.10719078
0.57725513 0.76655039 0.10952249
0.59696723 0.76968222 0.09913532
0.62658312 0.77440564 0.09114209
0.66824055 0.78128493 0.06465073
0.72228755 0.79012661 0.06404984
0.78663224 0.80011638 0.15006373
0.85599403 0.80898171 0.27105550
0.92587178 0.81795034 0.40187778
0.98799043 0.83467664 0.55752061
1.00000000 0.88099935 0.73326438
0.62649439 0.83416077 0.22993825
0.62649439 0.83416077 0.22993825
0.62674442 0.83419224 0.23027105
0.62751981 0.83428960 0.23132350
0.62889558 0.83446501 0.23297144
0.63132084 0.83478016 0.23546510
0.63554178 0.83534331 0.23894821
0.64274303 0.83634040 0.24311497
0.65471120 0.83811061 0.24650907
0.67378198 0.84112798 0.24551948
0.70253007 0.84573562 0.24956243
0.74310711 0.85253029 0.25482434
0.79584406 0.86144483 0.28496752
0.85842212 0.87196906 0.35838632
0.92400028 0.88208501 0.46712646
0.98517849 0.89607399 0.60446615
1.00000000 0.92757178 0.77745764
0.71152712 0.90375205 0.39785631
0.71152712 0.90375205 0.39785631
0.71165464 0.90376741 0.39798403
0.71205248 0.90381488 0.39839760
0.71276106 0.90390110 0.39908133
0.71401881 0.90405745 0.40019864
0.71623427 0.90434032 0.40197063
0.72008960 0.90484988 0.40465355
0.72669693 0.90577842 0.40847485
0.73772277 0.90744720 0.41336226
0.75537538 0.91030614 0.41886898
0.78216618 0.91474529 0.43100154
0.82026007 0.92140808 0.45198554
0.86993052 0.93042556 0.49646228
0.92817043 0.94193122 0.57816974
0.98320941 0.95415281 0.69770236
1.00000000 0.97450462 0.84556287
0.80928531 0.96824081 0.58989453
0.80928531 0.96824081 0.58989453
0.80934437 0.96824718 0.58995434
0.80953003 0.96826658 0.59014950
0.80986147 0.96830234 0.59048566
0.81045247 0.96836810 0.59106404
0.81150119 0.96848901 0.59204825
0.81334812 0.96871112 0.59369703
0.81659061 0.96914271 0.59643398
0.82216237 0.96994291 0.60084457
0.83147427 0.97138143 0.60771396
0.84646533 0.97389046 0.61825595
0.86935958 0.97787273 0.63700218
0.90216016 0.98394628 0.66927526
0.94485786 0.99228116 0.73104711
0.99099618 1.00000000 0.85684646
1.00000000 1.00000000 1.00000000
0.92181755 1.00000000 0.80629626
0.92181755 1.00000000 0.80629626
0.92184301 1.00000000 0.80633583
0.92192348 1.00000000 0.80646313
0.92206729 1.00000000 0.80668787
0.92232445 1.00000000 0.80708548
0.92278269 1.00000000 0.80778564
0.92359476 1.00000000 0.80901044
0.92502242 1.00000000 0.81113525
0.92750196 1.00000000 0.81478135
0.93172647 1.00000000 0.82094305
0.93870690 1.00000000 0.83112374
0.94967502 1.00000000 0.84734622
0.96576597 1.00000000 0.87264485
1.00000000 1.00000000 1.00000000
1.00000000 1.00000000 1.00000000
1.00000000 1.00000000 1.00000000
0.01568134 0.01568134 0.01568134
0.01568134 0.01568134 0.01568134
0.02185453 0.01583477 0.02302086
0.10921311 0.01336537 0.03784409
0.19813631 0.01653456 0.05889769
0.28062906 0.01356185 0.07526747
0.35828638 0.00721469 0.09007782
0.43390417 0.00000000 0.10438276
0.50844719 0.00000000 0.12207358
0.58159139 0.00000000 0.15336349
0.65375222 0.00000000 0.19772052
0.72536558 0.00957628 0.24658615
0.79582542 0.09215781 0.30116000
0.86440599 0.23806037 0.36393170
0.92967841 0.40259764 0.44065415
0.98772495 0.58137138 0.54233327
1.00000000 0.75971635 0.68296580
0.01568134 0.01568134 0.01568134
0.01568134 0.01568134 0.01568134
0.02185453 0.01583477 0.02302086
0.10921311 0.01336537 0.03784409
0.19813631 0.01653456 0.05889769
0.28062906 0.01356185 0.07526747
0.35828638 0.00721469 0.09007782
0.43390417 0.00000000 0.10438276
0.50844719 0.00000000 0.12207358
0.58159139 0.00000000 0.15336349
0.65375222 0.00000000 0.19772052
0.72536558 0.00957628 0.24658615
0.79582542 0.09215781 0.30116000
0.86440599 0.23806037 0.36393170
0.92967841 0.40259764 0.44065415
0.98772495 0.58137138 0.54233327
1.00000000 0.75971635 0.68296580
0.01604706 0.02385506 0.02347693
0.01604706 0.02385506 0.02347693
0.03227769 0.03227769 0.03227769
0.13533061 0.02601190 0.03140941
0.21107469 0.03220425 0.04392483
0.28789674 0.02707958 0.05169915
0.36205096 0.01641275 0.06195243
0.43561556 0.00046802 0.07514482
0.50879711 0.00000000 0.09831148
0.58118347 0.00000000 0.14175692
0.65359774 0.00000000 0.18915011
0.72537847 0.00000000 0.24064417
0.79592735 0.07005160 0.29730285
0.86453789 0.23023776 0.36160062
0.92980429 0.40030372 0.43938396
0.98782791 0.58082203 0.54175624
1.00000000 0.75963335 0.68277782
0.02660626 0.13420291 0.03032222
0.02660626 0.13420291 0.03032222
0.04791549 0.14214631 0.02377539
0.13419249 0.14249026 0.01793462
0.21536512 0.14001797 0.01507866
0.29054590 0.13365912 0.01413894
0.36357916 0.12028906 0.01464691
0.43738660 0.04818087 0.00000000
0.50757995 0.06424529 0.05407748
0.58038935 0.02604518 0.10425182
0.65326047 0.00000000 0.16236087
0.72542696 0.00000000 0.22248046
0.79621651 0.00850924 0.28559473
0.86492108 0.20538926 0.35452511
0.93017707 0.39352467 0.43553003
0.98813475 0.57923162 0.54001745
1.00000000 0.75942567 0.68224344
0.05116132 0.20539377 0.02325036
0.05116132 0.20539377 0.02325036
0.07027510 0.21074600 0.01548884
0.13775843 0.21746528 0.00669048
0.21155718 0.22183422 0.00346870
0.28512431 0.22377580 0.00308608
0.35852147 0.22241133 0.00500771
0.43197588 0.21548650 0.01056139
0.50558284 0.19881622 0.02398586
0.57933748 0.16351210 0.05426229
0.65278699 0.10158369 0.11902445
0.72544930 0.00954944 0.19280507
0.79660417 0.00000000 0.26651001
0.86548265 0.17274486 0.34303428
0.93074449 0.38482047 0.42933358
0.98860169 0.57729089 0.53730824
1.00000000 0.75927929 0.68149297
0.09180356 0.26921654 0.01839429
0.09180356 0.26921654 0.01839429
0.10801013 0.27222965 0.01258409
0.15436437 0.27867274 0.00521343
0.21409700 0.28582545 0.00157968
0.28156692 0.29267865 0.00055622
0.35325439 0.29771738 0.00092799
0.42729769 0.29934738 0.00313073
0.50225680 0.29500409 0.01003731
0.57729435 0.28036676 0.02679049
0.65182966 0.24658167 0.06748056
0.72533129 0.18011163 0.14601933
0.79705702 0.07926904 0.23567410
0.86625578 0.16021041 0.32450115
0.93156894 0.37688117 0.41953828
0.98926395 0.57578769 0.53331658
1.00000000 0.75946839 0.68056310
0.14496216 0.33499651 0.01326146
0.14496216 0.33499651 0.01326146
0.15557036 0.33670171 0.00977425
0.18590277 0.34125408 0.00431978
0.22991425 0.34754461 0.00094328
0.28606892 0.35525363 0.00000000
0.35154517 0.36331954 0.00000000
0.42300512 0.36984975 0.00000000
0.49790090 0.37299850 0.00214028
0.57396043 0.36997246 0.01212141
0.64980540 0.35629159 0.03665409
0.72454683 0.32335527 0.09622138
0.79742161 0.26049761 0.18840262
0.86720689 0.23356251 0.29550817
0.93266759 0.38061941 0.40470267
0.99006881 0.57805057 0.52843202
1.00000000 0.76068478 0.67971613
0.20372076 0.40300564 0.00914141
0.20372076 0.40300564 0.00914141
0.21039432 0.40397430 0.00748985
0.22972458 0.40684527 0.00426775
0.25995452 0.41142658 0.00133062
0.30260401 0.41793827 0.00000000
0.35748847 0.42610994 0.00000000
0.42253847 0.43487034 0.00000000
0.49428163 0.44216629 0.00000000
0.56984191 0.44612473 0.00209143
0.64648835 0.44379364 0.01922548
0.72250686 0.43078810 0.05990657
0.79674980 0.40038190 0.14521881
0.86805023 0.35796058 0.25378417
0.93404608 0.41589198 0.38381629
0.99088426 0.58998151 0.52380526
1.00000000 0.76417715 0.67948794
0.26694291 0.47304756 0.00658669
0.26694291 0.47304756 0.00658669
0.27100559 0.47362699 0.00586752
0.28299828 0.47538441 0.00431189
0.30268626 0.47840943 0.00202139
0.33265039 0.48306909 0.00009108
