Luts Download/Canon Luts/3dlut/17grid-3dlut/full-to-full-range/CinemaGamut_CanonLog2-to-BT2020_HLG-Vivid_17_FF_Ver.2.0.cube
# Gamut : Cinema Gamut to BT.2020
# Gamma : Canon Log 2 to HLG-Vivid
# Range : Full in / Full out
# Version : 2.0 2019/10/24
# Copyright(c) 2019 Canon Inc. All Rights Reserved.
LUT_3D_SIZE 9
# LUT_3D_INPUT_RANGE 0.0 1.0
0.00000004 0.00000000 0.00000003
0.02636438 0.02636435 0.02636437
0.17448818 0.03584898 0.04476786
0.37821650 0.01953699 0.05202159
0.65893144 0.00000000 0.06948187
0.88157897 0.10799972 0.13269126
1.00000000 0.59488191 0.45499182
1.00000000 0.89785567 0.84701955
1.00000000 1.00000000 1.00000000
0.02636438 0.02636435 0.02636437
0.04102507 0.04159222 0.03480652
0.17506708 0.05967016 0.04156369
0.37861695 0.04601718 0.04471154
0.66045851 0.01186779 0.06196591
0.88289544 0.10725755 0.12748662
1.00000000 0.59546263 0.45369659
1.00000000 0.89816618 0.84727035
1.00000000 1.00000000 1.00000000
0.06261657 0.15069104 0.03277956
0.07156924 0.15810665 0.02943728
0.16509037 0.17559586 0.01604928
0.36154315 0.17602295 0.01615686
0.65844523 0.14676190 0.03221133
0.88846023 0.14523168 0.09878782
1.00000000 0.60647640 0.44992932
1.00000000 0.90105864 0.84999691
1.00000000 1.00000000 1.00000000
0.10715759 0.30817898 0.02282627
0.11360200 0.31100387 0.02040608
0.17289918 0.32757241 0.00858917
0.32925236 0.35082554 0.00255065
0.63073518 0.35548163 0.02163944
0.88253920 0.33844764 0.08692123
1.00000000 0.65420352 0.46210287
1.00000000 0.91095241 0.86066412
1.00000000 1.00000000 1.00000000
0.19772112 0.56667775 0.02330813
0.20194615 0.56779502 0.02296091
0.23826834 0.57638834 0.02025069
0.34368236 0.59629008 0.01651145
0.59663744 0.62488271 0.02815792
0.85949385 0.64156000 0.10052267
1.00000000 0.76513532 0.52789673
1.00000000 0.94415915 0.89892734
1.00000000 1.00000000 1.00000000
0.40071350 0.81149196 0.09528035
0.40311335 0.81175167 0.09556499
0.42371112 0.81394231 0.09781575
0.48647176 0.82064863 0.10174699
0.63158555 0.83726356 0.11703216
0.83961483 0.86543963 0.20018804
1.00000000 0.91648376 0.68668795
1.00000000 1.00000000 1.00000000
1.00000000 1.00000000 1.00000000
0.82037478 0.99705358 0.61625618
0.82080457 0.99707411 0.61687028
0.82441317 0.99727385 0.62191021
0.83535657 0.99802757 0.63678464
0.86661588 1.00000000 0.67985342
0.93662027 1.00000000 0.78843572
1.00000000 1.00000000 1.00000000
1.00000000 1.00000000 1.00000000
1.00000000 1.00000000 1.00000000
1.00000000 1.00000000 1.00000000
1.00000000 1.00000000 1.00000000
1.00000000 1.00000000 1.00000000
1.00000000 1.00000000 1.00000000
1.00000000 1.00000000 1.00000000
1.00000000 1.00000000 1.00000000
1.00000000 1.00000000 1.00000000
1.00000000 1.00000000 1.00000000
1.00000000 1.00000000 1.00000000
1.00000000 1.00000000 1.00000000
1.00000000 1.00000000 1.00000000
1.00000000 1.00000000 1.00000000
1.00000000 1.00000000 1.00000000
1.00000000 1.00000000 1.00000000
1.00000000 1.00000000 1.00000000
1.00000000 1.00000000 1.00000000
1.00000000 1.00000000 1.00000000
1.00000000 1.00000000 1.00000000
0.02636438 0.02636435 0.02636437
0.04636943 0.03032525 0.04807543
0.17660115 0.02906128 0.06653621
0.37774823 0.00731116 0.07379348
0.65961990 0.00000000 0.08143388
0.88134063 0.10723625 0.13740741
1.00000000 0.59479590 0.45680703
1.00000000 0.89763668 0.84692181
1.00000000 1.00000000 1.00000000
0.03194821 0.04751761 0.04704388
0.05426708 0.05426708 0.05426708
0.18831839 0.04713885 0.05571369
0.38592405 0.02863067 0.05829522
0.66250503 0.00000000 0.06909303
0.88257974 0.10711571 0.13251037
1.00000000 0.59540425 0.45554827
1.00000000 0.89794883 0.84717450
1.00000000 1.00000000 1.00000000
0.05613078 0.17077046 0.03655168
0.06818916 0.17546934 0.02999023
0.17151378 0.18245837 0.01524809
0.37085548 0.17223024 0.01734770
0.66203214 0.13821185 0.03490674
0.88860812 0.14223360 0.10264640
1.00000000 0.60614868 0.45143008
1.00000000 0.90083902 0.84988315
1.00000000 1.00000000 1.00000000
0.10331856 0.31781196 0.02431397
0.11037827 0.32027416 0.02116311
0.17251663 0.33513009 0.00778994
0.33248605 0.35427685 0.00075233
0.63374003 0.35403355 0.02204934
0.88342337 0.33488529 0.08786091
1.00000000 0.65352608 0.46286631
1.00000000 0.91066411 0.86042874
1.00000000 1.00000000 1.00000000
0.19563142 0.57074457 0.02390080
0.19997215 0.57177482 0.02341779
0.23689984 0.58000907 0.02051673
0.34370539 0.59907307 0.01616841
0.59787951 0.62609181 0.02801688
0.86022149 0.64121228 0.10083314
1.00000000 0.76479478 0.52833735
1.00000000 0.94394359 0.89873306
1.00000000 1.00000000 1.00000000
0.39993747 0.81248208 0.09570739
0.40234877 0.81273613 0.09597196
0.42302793 0.81490075 0.09818288
0.48609198 0.82152663 0.10210598
0.63173416 0.83794449 0.11730681
0.83992773 0.86575151 0.20048462
1.00000000 0.91649782 0.68708993
1.00000000 1.00000000 1.00000000
1.00000000 1.00000000 1.00000000
0.82088987 0.99715791 0.61783371
0.82131428 0.99717894 0.61843231
0.82490168 0.99738028 0.62341175
0.83580256 0.99813232 0.63817008
0.86694597 1.00000000 0.68090987
0.93680054 1.00000000 0.78901284
1.00000000 1.00000000 1.00000000
1.00000000 1.00000000 1.00000000
1.00000000 1.00000000 1.00000000
1.00000000 1.00000000 1.00000000
1.00000000 1.00000000 1.00000000
1.00000000 1.00000000 1.00000000
1.00000000 1.00000000 1.00000000
1.00000000 1.00000000 1.00000000
1.00000000 1.00000000 1.00000000
1.00000000 1.00000000 1.00000000
1.00000000 1.00000000 1.00000000
1.00000000 1.00000000 1.00000000
1.00000000 1.00000000 1.00000000
1.00000000 1.00000000 1.00000000
1.00000000 1.00000000 1.00000000
1.00000000 1.00000000 1.00000000
1.00000000 1.00000000 1.00000000
1.00000000 1.00000000 1.00000000
1.00000000 1.00000000 1.00000000
1.00000000 1.00000000 1.00000000
1.00000000 1.00000000 1.00000000
0.03936113 0.00767043 0.16629221
0.04934161 0.00000000 0.16663695
0.16790321 0.00000000 0.17900830
0.36405672 0.00000000 0.19442006
0.65060438 0.01655252 0.20211105
0.87799502 0.11075291 0.21748671
1.00000000 0.58807208 0.46571333
1.00000000 0.89557589 0.84573501
1.00000000 1.00000000 1.00000000
0.02852393 0.02400551 0.17419735
0.04117491 0.00000000 0.18419149
0.17262397 0.00000000 0.18488869
0.37205574 0.00000000 0.19045786
0.65411121 0.01395014 0.19415960
0.87896467 0.11262148 0.21291293
1.00000000 0.58906183 0.46487600
1.00000000 0.89589999 0.84600684
1.00000000 1.00000000 1.00000000
0.01203603 0.17264594 0.16822576
0.04328526 0.17355339 0.16952904
0.16895397 0.16895397 0.16895397
0.38384890 0.14247351 0.15638019
0.66308268 0.11543823 0.15452945
0.88600020 0.13997327 0.17686370
1.00000000 0.60018942 0.46075249
1.00000000 0.89882648 0.84870070
1.00000000 1.00000000 1.00000000
0.04474547 0.38514917 0.09269370
0.05511883 0.38533902 0.08832338
0.15100548 0.38318017 0.07496315
0.34982645 0.37091590 0.07127970
0.65480408 0.33627009 0.06652791
0.89122351 0.29891296 0.09576892
1.00000000 0.64654395 0.46809517
1.00000000 0.90860747 0.85892401
1.00000000 1.00000000 1.00000000
0.17278516 0.60376106 0.03780648
0.17721199 0.60456090 0.03569831
0.21858360 0.61050956 0.02435225
0.34012664 0.62277529 0.00778942
0.60823278 0.63615878 0.02349247
0.86669445 0.63747621 0.10287249
1.00000000 0.76161768 0.53185875
1.00000000 0.94203355 0.89702696
1.00000000 1.00000000 1.00000000
0.39275363 0.82100462 0.10024134
0.39515016 0.82123673 0.10032332
0.41621349 0.82319472 0.10165664
0.48176034 0.82913525 0.10513563
0.63261580 0.84386469 0.11903966
0.84262660 0.86844019 0.20268598
1.00000000 0.91658117 0.69033142
1.00000000 1.00000000 1.00000000
1.00000000 1.00000000 1.00000000
0.82507641 0.99813171 0.63047347
0.82547599 0.99815569 0.63100198
0.82890507 0.99836577 0.63554093
0.83942256 0.99911706 0.64925108
0.86963914 1.00000000 0.68946079
0.93830855 1.00000000 0.79369728
1.00000000 1.00000000 1.00000000
1.00000000 1.00000000 1.00000000
1.00000000 1.00000000 1.00000000
1.00000000 1.00000000 1.00000000
1.00000000 1.00000000 1.00000000
1.00000000 1.00000000 1.00000000
1.00000000 1.00000000 1.00000000
1.00000000 1.00000000 1.00000000
1.00000000 1.00000000 1.00000000
1.00000000 1.00000000 1.00000000
1.00000000 1.00000000 1.00000000
1.00000000 1.00000000 1.00000000
1.00000000 1.00000000 1.00000000
1.00000000 1.00000000 1.00000000
1.00000000 1.00000000 1.00000000
1.00000000 1.00000000 1.00000000
1.00000000 1.00000000 1.00000000
1.00000000 1.00000000 1.00000000
1.00000000 1.00000000 1.00000000
1.00000000 1.00000000 1.00000000
1.00000000 1.00000000 1.00000000
0.07291886 0.01721113 0.33880432
0.08041891 0.00413100 0.33254202
0.15160463 0.00000000 0.31590337
0.34441535 0.00000000 0.35540514
0.63647983 0.00164542 0.38918365
0.86974131 0.11667384 0.40495196
1.00000000 0.58710340 0.57637927
1.00000000 0.88965893 0.84375162
1.00000000 1.00000000 1.00000000
0.06512095 0.02524922 0.34995023
0.07391011 0.01584162 0.34590402
0.14640883 0.00000000 0.32357910
0.34672690 0.00000000 0.35865837
0.63949738 0.00000000 0.38739396
0.87121110 0.11260616 0.40028546
1.00000000 0.58823748 0.57572327
1.00000000 0.88993404 0.84391621
1.00000000 1.00000000 1.00000000
0.00000000 0.12523140 0.35586358
0.00000000 0.11860801 0.36657816
0.13739417 0.07249520 0.44475271
0.35626142 0.08439720 0.38152053
0.64981811 0.07666818 0.36989353
0.87772261 0.13806601 0.37669571
1.00000000 0.59801318 0.56986268
1.00000000 0.89236221 0.84548229
1.00000000 1.00000000 1.00000000
0.03159104 0.34515980 0.33590028
0.04165510 0.34587942 0.33683655
0.10932335 0.35079372 0.34356257
0.33601674 0.33601674 0.33601674
0.65752962 0.29137426 0.31445690
0.88693834 0.27551467 0.32190185
1.00000000 0.63892289 0.56031230
1.00000000 0.90196722 0.85447329
1.00000000 1.00000000 1.00000000
0.07511821 0.65943784 0.20535581
0.08023186 0.65957614 0.20324236
0.13505582 0.65996165 0.19077118
0.28678687 0.65853061 0.16332719
0.61965985 0.64349255 0.15565178
0.87964378 0.61875393 0.20603790
1.00000000 0.74933025 0.55361349
1.00000000 0.93538584 0.89123264
1.00000000 1.00000000 1.00000000
0.35929660 0.84759716 0.12505052
0.36154887 0.84779819 0.12432700
0.38323430 0.84941971 0.12031943
0.45672583 0.85377646 0.11561687
0.63134414 0.86317001 0.12129298
0.85117677 0.87694619 0.20646515
1.00000000 0.91644372 0.69876132
1.00000000 1.00000000 1.00000000
1.00000000 1.00000000 1.00000000
0.83719700 1.00000000 0.66549954
0.83753664 1.00000000 0.66587311
0.84052716 1.00000000 0.66927890
0.84998984 1.00000000 0.68028344
0.87744804 1.00000000 0.71352481
0.94280769 1.00000000 0.80671591
1.00000000 1.00000000 1.00000000
1.00000000 1.00000000 1.00000000
1.00000000 1.00000000 1.00000000
1.00000000 1.00000000 1.00000000
1.00000000 1.00000000 1.00000000
1.00000000 1.00000000 1.00000000
1.00000000 1.00000000 1.00000000
1.00000000 1.00000000 1.00000000
1.00000000 1.00000000 1.00000000
1.00000000 1.00000000 1.00000000
1.00000000 1.00000000 1.00000000
1.00000000 1.00000000 1.00000000
1.00000000 1.00000000 1.00000000
1.00000000 1.00000000 1.00000000
1.00000000 1.00000000 1.00000000
1.00000000 1.00000000 1.00000000
1.00000000 1.00000000 1.00000000
1.00000000 1.00000000 1.00000000
1.00000000 1.00000000 1.00000000
1.00000000 1.00000000 1.00000000
1.00000000 1.00000000 1.00000000
0.12557921 0.02423525 0.60849190
0.13015832 0.02638287 0.60241218
0.16749242 0.00000000 0.56791701
0.31304829 0.00000000 0.55947372
0.61796697 0.00000000 0.62061177
0.85493212 0.11731595 0.65328702
0.99923531 0.57703133 0.71304649
1.00000000 0.89745279 0.88055981
1.00000000 1.00000000 1.00000000
0.12123118 0.02394876 0.61571534
0.12614807 0.02500682 0.61031397
0.16436196 0.00000000 0.57560519
0.31049419 0.00000000 0.56259779
0.61872951 0.00000000 0.62169862
0.85575884 0.11503334 0.65293813
0.99951244 0.57720213 0.71245547
1.00000000 0.89778764 0.88079638
1.00000000 1.00000000 1.00000000
0.07727853 0.07877325 0.64327153
0.08330880 0.07313641 0.64344995
0.13062429 0.01209280 0.63244115
0.28174615 0.00000000 0.59812262
0.62628694 0.00000000 0.63430419
0.86431847 0.08060848 0.64936090
1.00000000 0.58318912 0.70943628
1.00000000 0.90069877 0.88287941
1.00000000 1.00000000 1.00000000
0.00000000 0.26393997 0.61119035
0.00000000 0.26068461 0.61585977
0.00000000 0.23580401 0.65542922
0.28523242 0.18717552 0.71138344
0.62823916 0.19201993 0.65616838
0.87433485 0.21270049 0.63864675
1.00000000 0.62315679 0.70905932
1.00000000 0.91014783 0.88998207
1.00000000 1.00000000 1.00000000
0.07094390 0.61438914 0.60232565
0.07469265 0.61472748 0.60276540
0.11327027 0.61706798 0.60596950
0.23515024 0.62173389 0.61317045
0.60391133 0.60391133 0.60391133
0.89217316 0.54245403 0.57569736
1.00000000 0.73449867 0.71640565
1.00000000 0.93745075 0.91251290
1.00000000 1.00000000 1.00000000
0.26285623 0.88723990 0.42973294
0.26439041 0.88733397 0.42870715
0.28195495 0.88796090 0.42136432
0.36023260 0.88875651 0.40774397
0.53437067 0.89323755 0.32001526
0.85921101 0.87996592 0.30624378
1.00000000 0.91090642 0.76230576
1.00000000 1.00000000 1.00000000
1.00000000 1.00000000 1.00000000
0.86856201 1.00000000 0.74946352
0.86877025 1.00000000 0.74954269
0.87071931 1.00000000 0.75055662
0.87754584 1.00000000 0.75522837
0.89886486 1.00000000 0.77336572
0.95520261 1.00000000 0.83892949
1.00000000 1.00000000 1.00000000
1.00000000 1.00000000 1.00000000
1.00000000 1.00000000 1.00000000
1.00000000 1.00000000 1.00000000
1.00000000 1.00000000 1.00000000
1.00000000 1.00000000 1.00000000
1.00000000 1.00000000 1.00000000
1.00000000 1.00000000 1.00000000
1.00000000 1.00000000 1.00000000
1.00000000 1.00000000 1.00000000
1.00000000 1.00000000 1.00000000
1.00000000 1.00000000 1.00000000
1.00000000 1.00000000 1.00000000
1.00000000 1.00000000 1.00000000
1.00000000 1.00000000 1.00000000
1.00000000 1.00000000 1.00000000
1.00000000 1.00000000 1.00000000
1.00000000 1.00000000 1.00000000
1.00000000 1.00000000 1.00000000
1.00000000 1.00000000 1.00000000
1.00000000 1.00000000 1.00000000
0.21671222 0.06851179 0.83667192
0.21911247 0.07149682 0.83416867
0.23949404 0.08286777 0.81653111
0.30267476 0.04881043 0.78224890
0.56392810 0.00000000 0.78139858
0.83478738 0.09927680 0.82868364
0.98967414 0.54664188 0.83957113
1.00000000 0.89347671 0.91767676
1.00000000 1.00000000 1.00000000
0.21454238 0.06649847 0.83935621
0.21700466 0.06939473 0.83695627
0.23753857 0.08085747 0.81941237
0.30120730 0.04728013 0.78471796
0.56291218 0.00000000 0.78217336
0.83502614 0.09761830 0.82898382
0.98979602 0.54687787 0.83953200
1.00000000 0.89357623 0.91767405
1.00000000 1.00000000 1.00000000
0.19397397 0.07350635 0.85504249
0.19673329 0.07404065 0.85342370
0.21953686 0.07555774 0.83982285
0.28742212 0.03298229 0.80593307
0.55325201 0.00000000 0.79059270
0.83769106 0.07158047 0.83252661
0.99122901 0.54771245 0.83929461
1.00000000 0.89449358 0.91766148
1.00000000 1.00000000 1.00000000
0.11421235 0.19319678 0.86415219
0.11711862 0.19000046 0.86447480
0.14418235 0.16100471 0.86704613
0.22768734 0.06962759 0.85717157
0.51207406 0.00000000 0.82487932
0.84577697 0.00000000 0.84629481
0.99621114 0.56195237 0.84004576
1.00000000 0.90336169 0.92279590
1.00000000 1.00000000 1.00000000
0.00000000 0.50013650 0.82618831
0.00000000 0.49863263 0.82744693
0.00000000 0.48408184 0.83923119
0.06440820 0.45416434 0.87718053
0.53377646 0.36551577 0.93966153
0.88084515 0.26839244 0.91385559
1.00000000 0.69199571 0.85361336
1.00000000 0.93693068 0.94574710
1.00000000 1.00000000 1.00000000
0.30039377 0.84646120 0.83608349
0.30141124 0.84658192 0.83622952
0.31147308 0.84757172 0.83744090
0.35908189 0.84996335 0.84057004
0.44552614 0.86100280 0.85362670
0.84569243 0.84569243 0.84569243
1.00000000 0.89283050 0.89372936
1.00000000 1.00000000 1.00000000
1.00000000 1.00000000 1.00000000
0.92704079 1.00000000 0.91692931
0.92707199 1.00000000 0.91686498
0.92740153 1.00000000 0.91635930
0.92923041 1.00000000 0.91546565
1.00000000 1.00000000 1.00000000
1.00000000 1.00000000 1.00000000
1.00000000 1.00000000 1.00000000
1.00000000 1.00000000 1.00000000
1.00000000 1.00000000 1.00000000
1.00000000 1.00000000 1.00000000
1.00000000 1.00000000 1.00000000
1.00000000 1.00000000 1.00000000
1.00000000 1.00000000 1.00000000
1.00000000 1.00000000 1.00000000
1.00000000 1.00000000 1.00000000
1.00000000 1.00000000 1.00000000
1.00000000 1.00000000 1.00000000
1.00000000 1.00000000 1.00000000
1.00000000 1.00000000 1.00000000
1.00000000 1.00000000 1.00000000
1.00000000 1.00000000 1.00000000
1.00000000 1.00000000 1.00000000
1.00000000 1.00000000 1.00000000
1.00000000 1.00000000 1.00000000
1.00000000 1.00000000 1.00000000
1.00000000 1.00000000 1.00000000
1.00000000 1.00000000 1.00000000
0.37321884 0.31987067 0.97858910
0.37434808 0.32001268 0.97788188
0.38400843 0.31971833 0.97253281
0.41460996 0.30835065 0.96079760
0.51086745 0.23090503 0.93914707
0.77178704 0.11925087 0.94177767
0.97266485 0.50640957 0.95273438
1.00000000 0.86722398 0.94622156
1.00000000 1.00000000 1.00000000
0.37224598 0.32030190 0.97919293
0.37338325 0.32040954 0.97850664
0.38308122 0.32005786 0.97319541
0.41373850 0.30867551 0.96144427
0.51025651 0.23108566 0.93984280
0.77158546 0.11816400 0.94196531
0.97268519 0.50649322 0.95275281
1.00000000 0.86728800 0.94622283
1.00000000 1.00000000 1.00000000
0.36371191 0.32730051 0.98260515
0.36487491 0.32714770 0.98207056
0.37483425 0.32538429 0.97760064
0.40590707 0.31251488 0.96652059
0.50468908 0.23316188 0.94571946
0.76988387 0.10640824 0.94391443
0.97294158 0.50681561 0.95300625
1.00000000 0.86787086 0.94621844
1.00000000 1.00000000 1.00000000
0.33618872 0.36856964 0.98368421
0.33723199 0.36759280 0.98354234
0.34671672 0.35994403 0.98177389
0.37953165 0.33917112 0.97588973
0.48279926 0.25525928 0.95831928
0.76362236 0.05458027 0.95070716
0.97379197 0.50782347 0.95384859
1.00000000 0.87005434 0.94603487
1.00000000 1.00000000 1.00000000
0.26928013 0.52233433 0.97130106
0.26977121 0.52121915 0.97158326
0.27410427 0.51089792 0.97418269
0.29687612 0.47685253 0.97990011
0.39428696 0.37197790 0.97635223
0.73538659 0.06408786 0.96993327
0.97382213 0.55795933 0.95552166
1.00000000 0.88912126 0.95145928
1.00000000 1.00000000 1.00000000
0.21983584 0.75868966 0.96776474
0.21904692 0.75847303 0.96799923
0.21235479 0.75652889 0.97001026
0.19915286 0.74951576 0.97475874
0.43196392 0.74533494 0.98056193
0.77548321 0.75913181 0.98295347
0.97827973 0.84205291 0.97582118
1.00000000 1.00000000 1.00000000
1.00000000 1.00000000 1.00000000
0.93961819 1.00000000 1.00000000
0.93976325 1.00000000 1.00000000
0.94102785 1.00000000 1.00000000
0.94549998 1.00000000 1.00000000
1.00000000 1.00000000 1.00000000
1.00000000 1.00000000 1.00000000
1.00000000 1.00000000 1.00000000
1.00000000 1.00000000 1.00000000
1.00000000 1.00000000 1.00000000
1.00000000 1.00000000 1.00000000
1.00000000 1.00000000 1.00000000
1.00000000 1.00000000 1.00000000
1.00000000 1.00000000 1.00000000
1.00000000 1.00000000 1.00000000
1.00000000 1.00000000 1.00000000
1.00000000 1.00000000 1.00000000
1.00000000 1.00000000 1.00000000
1.00000000 1.00000000 1.00000000
1.00000000 1.00000000 1.00000000
1.00000000 1.00000000 1.00000000
1.00000000 1.00000000 1.00000000
1.00000000 1.00000000 1.00000000
1.00000000 1.00000000 1.00000000
1.00000000 1.00000000 1.00000000
1.00000000 1.00000000 1.00000000
1.00000000 1.00000000 1.00000000
1.00000000 1.00000000 1.00000000
0.63286218 0.69889757 1.00000000
0.63306456 0.69878972 1.00000000
0.63478616 0.69780782 1.00000000
0.64001871 0.69414117 1.00000000
0.65622529 0.68049254 1.00000000
0.70467833 0.61799411 0.99006038
0.88270744 0.58979847 0.98395012
1.00000000 0.83626251 0.97941296
1.00000000 1.00000000 1.00000000
0.63273797 0.69908896 1.00000000
0.63293960 0.69897976 1.00000000
0.63466034 0.69799476 1.00000000
0.63989693 0.69432838 1.00000000
0.65610346 0.68068122 1.00000000
0.70458473 0.61828309 0.99011575
0.88263017 0.58978948 0.98392685
1.00000000 0.83628116 0.97940269
1.00000000 1.00000000 1.00000000
0.63175776 0.70087471 1.00000000
0.63195304 0.70075730 1.00000000
0.63364160 0.69972499 1.00000000
0.63887258 0.69602519 1.00000000
0.65504383 0.68236533 1.00000000
0.70376460 0.62079435 0.99059328
0.88194158 0.58973618 0.98370407
1.00000000 0.83646629 0.97928193
1.00000000 1.00000000 1.00000000
0.62916814 0.70723024 1.00000000
0.62930328 0.70706090 1.00000000
0.63083760 0.70590197 1.00000000
0.63587510 0.70205574 1.00000000
0.65165519 0.68831735 1.00000000
0.70095517 0.62927558 0.99154246
0.87944631 0.59002765 0.98262046
1.00000000 0.83721410 0.97868829
1.00000000 1.00000000 1.00000000
0.62878831 0.73193219 1.00000000
0.62882604 0.73174085 1.00000000
0.62931138 0.73011718 1.00000000
0.63176929 0.72496462 1.00000000
0.64293366 0.70911972 1.00000000
0.69114819 0.65696495 0.99048922
0.86923768 0.59443467 0.97612626
0.99829872 0.84055206 0.97542248
1.00000000 1.00000000 1.00000000
0.65360924 0.79768898 0.99110628
0.65354641 0.79756059 0.99113373
0.65303536 0.79642988 0.99132735
0.65187767 0.79259367 0.99128502
0.65332190 0.78000762 0.98868782
0.66693948 0.72977890 0.96935767
0.83459960 0.66516468 0.94726250
0.98994791 0.87617776 0.97189409
1.00000000 1.00000000 1.00000000
0.84115210 0.93356551 0.99056030
0.84108920 0.93351712 0.99054265
0.84055563 0.93308722 0.99036956
0.83897850 0.93158463 0.98957579
0.83439971 0.92604140 0.98578586
0.88103592 0.93763806 0.99397089
0.98795231 0.98899789 1.00000000
1.00000000 1.00000000 1.00000000
1.00000000 1.00000000 1.00000000
1.00000000 1.00000000 1.00000000
1.00000000 1.00000000 1.00000000
1.00000000 1.00000000 1.00000000
1.00000000 1.00000000 1.00000000
1.00000000 1.00000000 1.00000000
1.00000000 1.00000000 1.00000000
1.00000000 1.00000000 1.00000000
1.00000000 1.00000000 1.00000000
1.00000000 1.00000000 1.00000000
1.00000000 1.00000000 1.00000000
1.00000000 1.00000000 1.00000000
1.00000000 1.00000000 1.00000000
1.00000000 1.00000000 1.00000000
1.00000000 1.00000000 1.00000000
1.00000000 1.00000000 1.00000000
1.00000000 1.00000000 1.00000000
1.00000000 1.00000000 1.00000000
1.00000000 1.00000000 1.00000000
0.85303921 0.90191063 1.00000000
0.85305235 0.90188066 1.00000000
0.85316725 0.90162072 1.00000000
0.85349556 0.90077986 1.00000000
0.85441462 0.89798425 1.00000000
0.85758304 0.88831349 1.00000000
0.86566944 0.84429855 1.00000000
0.94357207 0.81274693 0.99335455
1.00000000 0.97029379 1.00000000
0.85307016 0.90196814 1.00000000
0.85306188 0.90191888 1.00000000
0.85317493 0.90165932 1.00000000
0.85350226 0.90081927 1.00000000
0.85442103 0.89802509 1.00000000
0.85758578 0.88835586 1.00000000
0.86567118 0.84436435 1.00000000
0.94354499 0.81274556 0.99333219
1.00000000 0.97029721 1.00000000
0.85336757 0.90245703 1.00000000
0.85335712 0.90240894 1.00000000
0.85327182 0.90198502 1.00000000
0.85357944 0.90115417 1.00000000
0.85448761 0.89837611 1.00000000
0.85761305 0.88872354 1.00000000
0.86568136 0.84494077 1.00000000
0.94328458 0.81274566 0.99309997
1.00000000 0.97033104 1.00000000
0.85444808 0.90401120 1.00000000
0.85443326 0.90396570 1.00000000
0.85431350 0.90356273 1.00000000
0.85394809 0.90220598 1.00000000
0.85477757 0.89949195 1.00000000
0.85772952 0.88991394 1.00000000
0.86569144 0.84683982 1.00000000
0.94233123 0.81279133 0.99218835
1.00000000 0.97045422 1.00000000
0.85826079 0.90889794 1.00000000
0.85824052 0.90885691 1.00000000
0.85807150 0.90849359 1.00000000
0.85757174 0.90725487 1.00000000
0.85611327 0.90292264 1.00000000
0.85830334 0.89364211 1.00000000
0.86569323 0.85294946 1.00000000
0.93872356 0.81313155 0.98847284
1.00000000 0.97089986 1.00000000
0.87199936 0.92350848 1.00000000
0.87196706 0.92347148 1.00000000
0.87169150 0.92314397 1.00000000
0.87093134 0.92207334 1.00000000
0.86899048 0.91852707 1.00000000
0.86302001 0.90498334 1.00000000
0.86662414 0.87061375 1.00000000
0.92491637 0.81456040 0.97331723
1.00000000 0.97241813 1.00000000
0.92738214 0.96558690 1.00000000
0.92734287 0.96555985 1.00000000
0.92700482 0.96532002 1.00000000
0.92593218 0.96449560 1.00000000
0.92251407 0.96159825 1.00000000
0.91353159 0.95216400 1.00000000
0.88298311 0.90996240 0.98732078
0.90933783 0.86137205 0.94698735
1.00000000 1.00000000 1.00000000
1.00000000 1.00000000 1.00000000
1.00000000 1.00000000 1.00000000
1.00000000 1.00000000 1.00000000
1.00000000 1.00000000 1.00000000
1.00000000 1.00000000 1.00000000
1.00000000 1.00000000 1.00000000
1.00000000 1.00000000 1.00000000
1.00000000 1.00000000 1.00000000
1.00000000 1.00000000 1.00000000
1.00000000 1.00000000 1.00000000
1.00000000 1.00000000 1.00000000
1.00000000 1.00000000 1.00000000
1.00000000 1.00000000 1.00000000
1.00000000 1.00000000 1.00000000
1.00000000 1.00000000 1.00000000
1.00000000 1.00000000 1.00000000
1.00000000 1.00000000 1.00000000
1.00000000 1.00000000 1.00000000
