Luts Download/Canon Luts/3dlut/17grid-3dlut/full-to-full-range/CinemaGamut_CanonLog3-to-BT709_WideDR_17_FF_Ver.2.0.cube
# Gamut : Cinema Gamut to BT.709
# Gamma : Canon Log 3 to Wide DR
# Range : Full in / Full out
# Version : 2.0 2019/10/24
# Copyright(c) 2019 Canon Inc. All Rights Reserved.
LUT_3D_SIZE 9
# LUT_3D_INPUT_RANGE 0.0 1.0
0.00000000 0.00000000 0.00000000
0.00000000 0.00000000 0.00000000
0.26387857 0.00697302 0.03669820
0.53619234 0.00000000 0.07200382
0.76101797 0.00000000 0.09858830
0.91770500 0.00000000 0.10018189
1.00000000 0.02541496 0.10502851
1.00000000 0.18102800 0.15289934
1.00000000 0.28388250 0.21405477
0.00000000 0.00000000 0.00000000
0.00000000 0.01041396 0.00000000
0.26387857 0.00697302 0.03669820
0.53619234 0.00000000 0.07200382
0.76101797 0.00000000 0.09858830
0.91770500 0.00000000 0.10018189
1.00000000 0.02541496 0.10502851
1.00000000 0.18102800 0.15289934
1.00000000 0.28388250 0.21405477
0.03204560 0.19171228 0.05861119
0.03204560 0.19171228 0.05861119
0.22942879 0.24525553 0.02266085
0.52297739 0.24567111 0.01350424
0.78974565 0.19653471 0.04401560
0.95832117 0.17384068 0.11245999
1.00000000 0.26323454 0.21297804
1.00000000 0.34577013 0.28220330
1.00000000 0.41338370 0.33803594
0.02155146 0.39577149 0.09687066
0.02155146 0.39577149 0.09687066
0.16136003 0.44316773 0.02049064
0.44519337 0.47534828 0.00000000
0.75564512 0.45575134 0.00000000
0.97492048 0.41808531 0.14692307
1.00000000 0.46513466 0.33444827
1.00000000 0.51909470 0.43142090
1.00000000 0.56928772 0.49334402
0.00900944 0.57384183 0.10289809
0.00900944 0.57384183 0.10289809
0.08663789 0.61416926 0.02825090
0.33780130 0.65971634 0.00448067
0.63297981 0.67824591 0.00000000
0.92980235 0.64044177 0.08033610
1.00000000 0.63227976 0.38169574
1.00000000 0.66453275 0.54140661
1.00000000 0.70548042 0.62559083
0.01867642 0.70914974 0.06751051
0.01867642 0.70914974 0.06751051
0.06767395 0.74344445 0.02515174
0.24966518 0.79344268 0.01257016
0.48988882 0.83371851 0.02232837
0.77484090 0.83376517 0.07305291
1.00000000 0.79300654 0.33450397
1.00000000 0.78721830 0.59701396
1.00000000 0.81269602 0.71876362
0.06781631 0.80558135 0.02403798
0.06781631 0.80558135 0.02403798
0.11607673 0.83533282 0.01898197
0.22555815 0.88480673 0.03271435
0.39611502 0.93447977 0.07451116
0.62182646 0.95750346 0.15730402
0.87569820 0.94268804 0.27929800
1.00000000 0.90168218 0.59555902
1.00000000 0.90245751 0.78156012
0.15482526 0.87050251 0.01755356
0.15482526 0.87050251 0.01755356
0.18768876 0.89750418 0.03267561
0.27006286 0.94364014 0.09505444
0.43394177 0.98617140 0.23824553
0.63887442 1.00000000 0.42396949
0.80365622 1.00000000 0.55577077
0.94749902 0.99457215 0.68481126
1.00000000 0.98091085 0.85790542
0.21417412 0.94809800 0.02091591
0.21417412 0.94809800 0.02091591
0.24933246 0.97146784 0.05845500
0.38965697 1.00000000 0.23201796
0.59764617 1.00000000 0.45934718
0.76549843 1.00000000 0.64895864
0.88572170 1.00000000 0.79298013
1.00000000 1.00000000 1.00000000
1.00000000 1.00000000 1.00000000
0.00000000 0.00000000 0.00000000
0.00000000 0.00000000 0.00000000
0.26387857 0.00697302 0.03669820
0.53619234 0.00000000 0.07200382
0.76101797 0.00000000 0.09858830
0.91770500 0.00000000 0.10018189
1.00000000 0.02541496 0.10502851
1.00000000 0.18102800 0.15289934
1.00000000 0.28388250 0.21405477
0.00000000 0.00000000 0.00000000
0.00000000 0.00000000 0.00000000
0.26387857 0.00697302 0.03669820
0.53619234 0.00000000 0.07200382
0.76101797 0.00000000 0.09858830
0.91770500 0.00000000 0.10018189
1.00000000 0.02541496 0.10502851
1.00000000 0.18102800 0.15289934
1.00000000 0.28388250 0.21405477
0.03204560 0.19171228 0.05861119
0.03204560 0.19171228 0.05861119
0.22942879 0.24525553 0.02266085
0.52297739 0.24567111 0.01350424
0.78974565 0.19653471 0.04401560
0.95832117 0.17384068 0.11245999
1.00000000 0.26323454 0.21297804
1.00000000 0.34577013 0.28220330
1.00000000 0.41338370 0.33803594
0.02155146 0.39577149 0.09687066
0.02155146 0.39577149 0.09687066
0.16136003 0.44316773 0.02049064
0.44519337 0.47534828 0.00000000
0.75564512 0.45575134 0.00000000
0.97492048 0.41808531 0.14692307
1.00000000 0.46513466 0.33444827
1.00000000 0.51909470 0.43142090
1.00000000 0.56928772 0.49334402
0.00900944 0.57384183 0.10289809
0.00900944 0.57384183 0.10289809
0.08663789 0.61416926 0.02825090
0.33780130 0.65971634 0.00448067
0.63297981 0.67824591 0.00000000
0.92980235 0.64044177 0.08033610
1.00000000 0.63227976 0.38169574
1.00000000 0.66453275 0.54140661
1.00000000 0.70548042 0.62559083
0.01867642 0.70914974 0.06751051
0.01867642 0.70914974 0.06751051
0.06767395 0.74344445 0.02515174
0.24966518 0.79344268 0.01257016
0.48988882 0.83371851 0.02232837
0.77484090 0.83376517 0.07305291
1.00000000 0.79300654 0.33450397
1.00000000 0.78721830 0.59701396
1.00000000 0.81269602 0.71876362
0.06781631 0.80558135 0.02403798
0.06781631 0.80558135 0.02403798
0.11607673 0.83533282 0.01898197
0.22555815 0.88480673 0.03271435
0.39611502 0.93447977 0.07451116
0.62182646 0.95750346 0.15730402
0.87569820 0.94268804 0.27929800
1.00000000 0.90168218 0.59555902
1.00000000 0.90245751 0.78156012
0.15482526 0.87050251 0.01755356
0.15482526 0.87050251 0.01755356
0.18768876 0.89750418 0.03267561
0.27006286 0.94364014 0.09505444
0.43394177 0.98617140 0.23824553
0.63887442 1.00000000 0.42396949
0.80365622 1.00000000 0.55577077
0.94749902 0.99457215 0.68481126
1.00000000 0.98091085 0.85790542
0.21417412 0.94809800 0.02091591
0.21417412 0.94809800 0.02091591
0.24933246 0.97146784 0.05845500
0.38965697 1.00000000 0.23201796
0.59764617 1.00000000 0.45934718
0.76549843 1.00000000 0.64895864
0.88572170 1.00000000 0.79298013
1.00000000 1.00000000 1.00000000
1.00000000 1.00000000 1.00000000
0.01649120 0.00594423 0.14279560
0.01649120 0.00594423 0.14279560
0.24298369 0.00000000 0.20579473
0.50204497 0.00000000 0.25820175
0.72670682 0.00000000 0.27220195
0.88913609 0.00000000 0.24932998
0.98610819 0.01398572 0.20602576
1.00000000 0.16760118 0.18890450
1.00000000 0.27460289 0.21804324
0.01649120 0.00594423 0.14279560
0.01649120 0.00594423 0.14279560
0.24298369 0.00000000 0.20579473
0.50204497 0.00000000 0.25820175
0.72670682 0.00000000 0.27220195
0.88913609 0.00000000 0.24932998
0.98610819 0.01398572 0.20602576
1.00000000 0.16760118 0.18890450
1.00000000 0.27460289 0.21804324
0.00000000 0.22930943 0.21436452
0.00000000 0.22930943 0.21436452
0.23600832 0.23600832 0.23600832
0.59147180 0.16263850 0.22770322
0.80465848 0.13378195 0.24510914
0.94991808 0.14492280 0.25075080
0.99521833 0.24578147 0.27284037
0.99562956 0.33491829 0.29801746
1.00000000 0.40312954 0.33693093
0.00000000 0.48645727 0.24470723
0.00000000 0.48645727 0.24470723
0.06332208 0.50997780 0.17288540
0.47492971 0.50152557 0.11802726
0.81713129 0.44115350 0.13790000
0.98515809 0.41852520 0.26830209
1.00000000 0.47131670 0.38271455
1.00000000 0.52358684 0.45091132
1.00000000 0.56990730 0.50042265
0.00000000 0.67678729 0.19986778
0.00000000 0.67678729 0.19986778
0.00000000 0.71291325 0.08480538
0.29949657 0.73739166 0.00000000
0.67336919 0.72136593 0.00000000
0.99047390 0.65517460 0.09471522
1.00000000 0.64825664 0.42100318
1.00000000 0.67951472 0.56647092
1.00000000 0.71718120 0.64155440
0.00000000 0.78926790 0.14515554
0.00000000 0.78926790 0.14515554
0.00000000 0.82097959 0.06868016
0.19242615 0.86160091 0.00000000
0.49158417 0.88483034 0.00000000
0.80683014 0.86776854 0.07405508
1.00000000 0.81828035 0.39513879
1.00000000 0.81101300 0.64099830
1.00000000 0.83312317 0.74889961
0.03962578 0.87446147 0.06902756
0.03962578 0.87446147 0.06902756
0.07183517 0.90145315 0.04541087
0.22012072 0.94159041 0.07050309
0.42789692 0.97614322 0.15948427
0.66093173 0.98713642 0.25990154
0.90226719 0.96772865 0.37926673
1.00000000 0.92619088 0.68581769
1.00000000 0.92594874 0.83252677
0.17920681 0.93006971 0.07450561
0.17920681 0.93006971 0.07450561
0.23771026 0.95121329 0.12227856
0.36925870 0.98216549 0.23646412
0.56843357 1.00000000 0.42053727
0.73677521 1.00000000 0.58012428
0.86834525 1.00000000 0.70324983
0.97426400 1.00000000 0.82972481
1.00000000 0.99928732 0.93314237
0.31539194 0.99169517 0.17179794
0.31539194 0.99169517 0.17179794
0.40854359 1.00000000 0.27349224
0.56238569 1.00000000 0.43834543
0.72601655 1.00000000 0.62207315
0.85664945 1.00000000 0.77888269
0.94970081 1.00000000 0.89851552
1.00000000 1.00000000 1.00000000
1.00000000 1.00000000 1.00000000
0.04031663 0.02228420 0.30257680
0.04031663 0.02228420 0.30257680
0.21575082 0.00000000 0.32576811
0.46422890 0.00000000 0.39041657
0.69170460 0.00000000 0.41116498
0.86113735 0.00000000 0.38609273
0.97063999 0.00000000 0.33096498
1.00000000 0.13150624 0.27672572
1.00000000 0.25566909 0.26165343
0.04031663 0.02228420 0.30257680
0.04031663 0.02228420 0.30257680
0.21575082 0.00000000 0.32576811
0.46422890 0.00000000 0.39041657
0.69170460 0.00000000 0.41116498
0.86113735 0.00000000 0.38609273
0.97063999 0.00000000 0.33096498
1.00000000 0.13150624 0.27672572
1.00000000 0.25566909 0.26165343
0.00000000 0.18031614 0.33478296
0.00000000 0.18031614 0.33478296
0.19070143 0.12294883 0.52611367
0.52965584 0.09644954 0.47443979
0.78193364 0.03373901 0.44466516
0.94038338 0.04988947 0.40152886
1.00000000 0.18239709 0.36718881
1.00000000 0.29289076 0.34964727
1.00000000 0.37600632 0.35294764
0.00000000 0.44392009 0.41871703
0.00000000 0.44392009 0.41871703
0.01318160 0.46703978 0.44432988
0.45620114 0.45620114 0.45620114
0.78754742 0.40516936 0.44803394
0.94517659 0.40384058 0.45652034
0.98906399 0.45586138 0.47858301
0.98769425 0.51305888 0.49955757
1.00000000 0.56414457 0.52063977
0.00000000 0.66834962 0.41162965
0.00000000 0.66834962 0.41162965
0.00000000 0.69137253 0.38949024
0.23923125 0.72351065 0.33256093
0.66720820 0.69833883 0.33583092
0.95828871 0.64371660 0.41487986
1.00000000 0.65736983 0.55451558
1.00000000 0.69588350 0.63429852
1.00000000 0.73550860 0.68121675
0.10722463 0.83596371 0.31421838
0.10722463 0.83596371 0.31421838
0.13359468 0.85438415 0.28373152
0.27538785 0.88181001 0.25177935
0.53348839 0.89498492 0.26584311
0.81758807 0.87593858 0.30183631
1.00000000 0.83370007 0.50684000
1.00000000 0.83412633 0.70269174
1.00000000 0.85994585 0.79381915
0.07368780 0.96118310 0.20303464
0.07368780 0.96118310 0.20303464
0.14695361 0.97427083 0.20294761
0.31674178 0.99238927 0.25442556
0.53092884 1.00000000 0.35875091
0.72959603 1.00000000 0.44494383
0.92910380 0.98871839 0.52068926
1.00000000 0.95340871 0.77814234
1.00000000 0.95826527 0.89255348
0.35325323 1.00000000 0.28858023
0.35325323 1.00000000 0.28858023
0.43888037 1.00000000 0.35671029
0.57221537 1.00000000 0.47436811
0.71736869 1.00000000 0.61322642
0.84184090 1.00000000 0.73882884
0.94123856 1.00000000 0.84693212
1.00000000 1.00000000 1.00000000
1.00000000 1.00000000 1.00000000
0.59596924 1.00000000 0.49019704
0.59596924 1.00000000 0.49019704
0.66197097 1.00000000 0.56129808
0.76370162 1.00000000 0.67608945
0.87692913 1.00000000 0.81290958
1.00000000 1.00000000 1.00000000
1.00000000 1.00000000 1.00000000
1.00000000 1.00000000 1.00000000
1.00000000 1.00000000 1.00000000
0.04661029 0.04625752 0.45250260
0.04661029 0.04625752 0.45250260
0.16578861 0.00000000 0.43430838
0.41553130 0.00000000 0.49823388
0.64987263 0.00000000 0.53506221
0.82786109 0.00000000 0.51491974
0.94854243 0.00000000 0.45832761
1.00000000 0.08433859 0.38459528
1.00000000 0.22482942 0.33743948
0.04661029 0.04625752 0.45250260
0.04661029 0.04625752 0.45250260
0.16578861 0.00000000 0.43430838
0.41553130 0.00000000 0.49823388
0.64987263 0.00000000 0.53506221
0.82786109 0.00000000 0.51491974
0.94854243 0.00000000 0.45832761
1.00000000 0.08433859 0.38459528
1.00000000 0.22482942 0.33743948
0.00000000 0.17493900 0.44053057
0.00000000 0.17493900 0.44053057
0.07110260 0.05895735 0.55263383
0.45014972 0.00155012 0.62031701
0.72339355 0.00000000 0.61086413
0.90584643 0.00000000 0.55393967
0.99695252 0.06973022 0.48230115
1.00000000 0.22213040 0.42198986
1.00000000 0.32377807 0.39241841
0.00000000 0.39087107 0.52894805
0.00000000 0.39087107 0.52894805
0.04027903 0.40210104 0.61568848
0.41652015 0.38358023 0.72175723
0.77810776 0.31449097 0.70795248
0.96119902 0.31956976 0.61792833
1.00000000 0.39219648 0.56649555
1.00000000 0.46612155 0.54396061
1.00000000 0.52731725 0.54133696
0.00000000 0.63423224 0.59893231
0.00000000 0.63423224 0.59893231
0.00000000 0.65721895 0.62164357
0.22899856 0.67419202 0.64737017
0.65092930 0.65092930 0.65092930
0.91791224 0.61570828 0.64355804
0.98543028 0.64165329 0.66270514
0.99087496 0.68137139 0.68389390
1.00000000 0.72201592 0.70591634
0.00000000 0.80856564 0.52471437
0.00000000 0.80856564 0.52471437
0.02238034 0.82682614 0.52296302
0.25303033 0.85027270 0.53538188
0.53285036 0.86020198 0.56233376
0.81269251 0.84206292 0.57163316
1.00000000 0.81021605 0.66577013
1.00000000 0.82915603 0.77200101
1.00000000 0.86375994 0.82913674
0.27235926 0.92460099 0.39722138
0.27235926 0.92460099 0.39722138
0.31705986 0.93698802 0.40620696
0.43031748 0.95565273 0.44515444
0.60073935 0.96900248 0.52532280
0.75843661 0.97650434 0.59066227
0.92005597 0.98040609 0.49264377
1.00000000 0.94918693 0.82017969
1.00000000 0.96643224 0.92117836
0.45865178 0.98835104 0.42510520
0.45865178 0.98835104 0.42510520
0.52337725 0.99120700 0.47587296
0.63238776 0.99724463 0.56995434
0.75613292 1.00000000 0.68551098
0.86405890 1.00000000 0.79113010
0.94957333 1.00000000 0.88039863
1.00000000 1.00000000 1.00000000
1.00000000 1.00000000 1.00000000
0.70113316 1.00000000 0.62272790
0.70113316 1.00000000 0.62272790
0.74961751 1.00000000 0.67668443
0.83115023 1.00000000 0.77125128
0.92502075 1.00000000 0.88565294
1.00000000 1.00000000 1.00000000
1.00000000 1.00000000 1.00000000
1.00000000 1.00000000 1.00000000
1.00000000 1.00000000 1.00000000
0.01870828 0.09017527 0.55222022
0.01870828 0.09017527 0.55222022
0.11034895 0.00680702 0.55831091
0.34041862 0.00000000 0.60458135
0.59258513 0.00000000 0.64831138
0.78760395 0.00000000 0.63648768
0.91962265 0.00000000 0.58308147
0.99460315 0.04324028 0.50394512
1.00000000 0.19195988 0.43755890
0.01870828 0.09017527 0.55222022
0.01870828 0.09017527 0.55222022
0.11034895 0.00680702 0.55831091
0.34041862 0.00000000 0.60458135
0.59258513 0.00000000 0.64831138
0.78760395 0.00000000 0.63648768
0.91962265 0.00000000 0.58308147
0.99460315 0.04324028 0.50394512
1.00000000 0.19195988 0.43755890
0.00000000 0.18921697 0.52978211
0.00000000 0.18921697 0.52978211
0.01760813 0.08755985 0.61274260
0.31635469 0.00000000 0.71004364
0.63617680 0.00000000 0.72961814
0.84630692 0.00000000 0.68614190
0.96727981 0.00000000 0.60924909
1.00000000 0.13834362 0.52272372
1.00000000 0.26380206 0.46380017
0.00000000 0.34403365 0.59853373
0.00000000 0.34403365 0.59853373
0.00000000 0.35282832 0.68850858
0.30887058 0.34498541 0.83630095
0.68475519 0.28144074 0.86969687
0.93141210 0.24135949 0.79486685
1.00000000 0.32675415 0.68492739
1.00000000 0.41546409 0.61620757
1.00000000 0.48462929 0.58555339
0.00000000 0.57955884 0.72137929
0.00000000 0.57955884 0.72137929
0.00000000 0.59562669 0.77628131
0.21943140 0.61318858 0.87975794
0.61727509 0.60298930 0.86208990
0.91601737 0.55584433 0.84420216
1.00000000 0.59092388 0.75937379
1.00000000 0.64291741 0.72844689
1.00000000 0.69113750 0.72793050
0.00000000 0.78196371 0.73820749
0.00000000 0.78196371 0.73820749
0.00000000 0.80183492 0.75735896
0.00000000 0.82603009 0.78532705
0.46743030 0.82913126 0.80356737
0.80176386 0.80176386 0.80176386
0.96645350 0.79142970 0.80499900
0.99580800 0.81578661 0.82365985
1.00000000 0.85061067 0.84941167
0.00477268 0.91080993 0.60350155
0.00477268 0.91080993 0.60350155
0.08281067 0.92461322 0.61245109
0.29026921 0.94324078 0.64239657
0.47856250 0.96445730 0.67719192
0.72885860 0.95635572 0.73777618
0.91945584 0.94376280 0.74811161
1.00000000 0.93110520 0.86991172
1.00000000 0.95869663 0.93761562
0.44863706 0.97142099 0.50324705
0.44863706 0.97142099 0.50324705
0.51371643 0.97501421 0.54372920
0.62593859 0.98185243 0.62379426
0.75308705 0.99071509 0.72557044
0.85998459 0.99978760 0.81800268
0.94264478 1.00000000 0.89068429
1.00000000 1.00000000 1.00000000
1.00000000 1.00000000 1.00000000
0.69994400 1.00000000 0.64657191
0.69994400 1.00000000 0.64657191
0.74707587 1.00000000 0.69545844
0.82906663 1.00000000 0.78463641
0.92428465 1.00000000 0.89395026
1.00000000 1.00000000 1.00000000
1.00000000 1.00000000 1.00000000
1.00000000 1.00000000 1.00000000
1.00000000 1.00000000 1.00000000
0.00000000 0.15506125 0.56594182
0.00000000 0.15506125 0.56594182
0.01365131 0.08431096 0.61221376
0.19883618 0.00926438 0.70010005
0.49783649 0.00000000 0.77526533
0.72614569 0.00000000 0.75486590
0.88232225 0.00000000 0.70433586
0.97541066 0.01963848 0.62586199
1.00000000 0.15626467 0.54975318
0.00000000 0.15506125 0.56594182
0.00000000 0.15506125 0.56594182
0.01365131 0.08431096 0.61221376
0.19883618 0.00926438 0.70010005
0.49783649 0.00000000 0.77526533
0.72614569 0.00000000 0.75486590
0.88232225 0.00000000 0.70433586
0.97541066 0.01963848 0.62586199
1.00000000 0.15626467 0.54975318
0.00000000 0.21183055 0.57724227
0.00000000 0.21183055 0.57724227
0.00000000 0.15651025 0.62106429
0.12138329 0.00000000 0.74835195
0.49495848 0.00000000 0.84978425
0.75874071 0.00000000 0.80841558
0.91869922 0.00000000 0.73394870
0.99526471 0.03333792 0.63819889
1.00000000 0.19851934 0.56055673
0.00000000 0.33023631 0.65911344
0.00000000 0.33023631 0.65911344
0.00000000 0.30665808 0.71860083
0.18748411 0.32305901 0.87894979
0.53612427 0.30055923 0.95720042
0.85764150 0.21904497 0.91213291
0.98890478 0.27039459 0.80534867
1.00000000 0.36986409 0.70646521
1.00000000 0.44504578 0.65389050
0.00000000 0.53547276 0.79532530
0.00000000 0.53547276 0.79532530
0.01704870 0.55502663 0.84720730
0.20048468 0.58631354 0.91444519
0.53125421 0.58914631 0.95119385
0.82859227 0.55284643 0.95403100
0.99346734 0.55420697 0.87187144
1.00000000 0.60899994 0.79408571
1.00000000 0.66124922 0.76883171
0.00000000 0.72626120 0.87657792
0.00000000 0.72626120 0.87657792
0.00000000 0.74249654 0.91245533
0.23018578 0.76441430 0.95015960
0.54514634 0.77525723 0.94465922
0.77521455 0.76970301 0.95935628
0.96595853 0.75838029 0.91458101
1.00000000 0.78758132 0.86967711
1.00000000 0.82861752 0.87013766
0.00000000 0.88754420 0.83828185
0.00000000 0.88754420 0.83828185
0.00000000 0.90363016 0.85405635
0.00000000 0.92562778 0.87891935
0.39836943 0.93767380 0.90117840
0.68234438 0.93343426 0.91340846
0.91241619 0.91241619 0.91241619
0.99510271 0.91741172 0.92281806
1.00000000 0.94762931 0.95017730
0.22742253 0.97037772 0.67416264
0.22742253 0.97037772 0.67416264
0.30788935 0.97820969 0.69253727
0.48268561 0.98504981 0.74088283
0.66960656 0.98994912 0.80901922
0.82037789 0.99319141 0.87449648
0.92631132 0.99739642 0.92515921
0.99668518 1.00000000 0.96776334
1.00000000 1.00000000 1.00000000
0.68088232 1.00000000 0.68472842
0.68088232 1.00000000 0.68472842
0.72829280 1.00000000 0.72520748
0.81381547 1.00000000 0.80321960
0.91438617 1.00000000 0.90210240
1.00000000 1.00000000 1.00000000
1.00000000 1.00000000 1.00000000
1.00000000 1.00000000 1.00000000
1.00000000 1.00000000 1.00000000
0.00000000 0.19923409 0.55683453
0.00000000 0.19923409 0.55683453
0.00000000 0.16897107 0.56866311
0.01016590 0.08641639 0.70470474
0.30922015 0.04553708 0.90069369
0.61722731 0.00000000 0.89955010
0.81837633 0.00000000 0.82517658
0.94378044 0.00926790 0.74781081
1.00000000 0.11290061 0.66885035
0.00000000 0.19923409 0.55683453
0.00000000 0.19923409 0.55683453
0.00000000 0.16897107 0.56866311
0.01016590 0.08641639 0.70470474
0.30922015 0.04553708 0.90069369
0.61722731 0.00000000 0.89955010
0.81837633 0.00000000 0.82517658
0.94378044 0.00926790 0.74781081
1.00000000 0.11290061 0.66885035
0.00000000 0.23495902 0.59802008
0.00000000 0.23495902 0.59802008
0.00000000 0.20425733 0.60481529
0.00000000 0.06956614 0.68714743
0.27660961 0.00000000 0.93751845
0.62078023 0.00000000 0.94590109
0.84036869 0.00000000 0.85792763
0.96237410 0.00000000 0.76259874
1.00000000 0.13118597 0.67428580
0.00344763 0.32726408 0.70498554
0.00344763 0.32726408 0.70498554
0.00000000 0.29180973 0.72587779
0.08317378 0.31398859 0.86764917
0.35149018 0.34383813 0.97656482
0.68222521 0.30087015 0.99506324
0.92108251 0.25054730 0.92812688
0.99727137 0.32670604 0.80944852
1.00000000 0.40873882 0.73596003
0.02530022 0.49603996 0.86000620
0.02530022 0.49603996 0.86000620
0.08337081 0.51602323 0.90345693
0.24388965 0.55388644 0.94532126
0.43879465 0.59060690 0.97376141
0.69950889 0.58004773 0.99925915
0.94662650 0.54298340 0.95120283
1.00000000 0.58366181 0.86337832
1.00000000 0.63720961 0.82155677
0.07218630 0.68666995 0.95263393
0.07218630 0.68666995 0.95263393
0.13549622 0.70406267 0.97562315
0.31981982 0.73341329 0.97861009
0.50925798 0.76518492 0.97088704
0.71953971 0.76891627 0.98635599
0.91398480 0.75405024 0.98113019
1.00000000 0.76882836 0.92428771
1.00000000 0.81047347 0.90171660
0.01236301 0.83050911 0.98026903
0.01236301 0.83050911 0.98026903
0.11438628 0.84388635 0.99731651
0.34731486 0.86264460 1.00000000
0.57779912 0.87983325 0.99732005
0.76256985 0.89091456 0.98428517
0.89652071 0.89620843 0.98354092
0.99218882 0.90128583 0.96675625
1.00000000 0.93478011 0.96513346
0.00000000 0.95222608 0.90245580
0.00000000 0.95222608 0.90245580
0.00349762 0.96215905 0.91368264
0.31214774 0.97510087 0.93177742
0.57821128 0.98153992 0.94962988
0.77289124 0.98434970 0.96569439
0.90526096 0.98718206 0.97974549
0.99115111 0.99115111 0.99115111
1.00000000 1.00000000 1.00000000
0.55248694 1.00000000 0.79380721
0.55248694 1.00000000 0.79380721
0.61727110 1.00000000 0.81844961
0.73510880 1.00000000 0.86890001
0.87055003 1.00000000 0.93584880
1.00000000 1.00000000 1.00000000
1.00000000 1.00000000 1.00000000
1.00000000 1.00000000 1.00000000
1.00000000 1.00000000 1.00000000
0.00000000 0.23385199 0.57786671
0.00000000 0.23385199 0.57786671
0.00000000 0.21512579 0.57059469
0.00000000 0.16112290 0.63388149
0.08822441 0.12948886 0.93332444
0.38298024 0.12981018 1.00000000
0.69815854 0.02294481 0.97668926
0.87990682 0.00612125 0.87055552
1.00000000 0.06753759 0.79528838
0.00000000 0.23385199 0.57786671
0.00000000 0.23385199 0.57786671
0.00000000 0.21512579 0.57059469
0.00000000 0.16112290 0.63388149
0.08822441 0.12948886 0.93332444
0.38298024 0.12981018 1.00000000
0.69815854 0.02294481 0.97668926
0.87990682 0.00612125 0.87055552
1.00000000 0.06753759 0.79528838
0.00000000 0.26113597 0.63087262
0.00000000 0.26113597 0.63087262
0.00000000 0.23994897 0.61946873
0.00000000 0.17279679 0.64932492
0.03182577 0.09944677 0.94530827
0.36875764 0.10578580 1.00000000
0.70354486 0.00000000 1.00000000
0.89403641 0.00000000 0.88962120
1.00000000 0.07669908 0.80068495
0.00023783 0.33329375 0.74791945
0.00023783 0.33329375 0.74791945
0.00000000 0.30665118 0.74759462
0.00000000 0.30010471 0.83215660
0.19088492 0.34562688 0.98435385
0.43934370 0.37048688 1.00000000
0.75750086 0.30832738 1.00000000
0.95240456 0.27338225 0.93389476
1.00000000 0.36506148 0.82930401
0.00892224 0.45772131 0.91114504
0.00892224 0.45772131 0.91114504
0.06735383 0.47753885 0.94438998
0.21775113 0.52370039 0.97586442
0.37604434 0.57418832 1.00000000
0.54979976 0.60042356 1.00000000
0.81058963 0.56933708 1.00000000
0.97782539 0.55563802 0.94701670
1.00000000 0.60942904 0.87910693
0.19148803 0.64458776 0.99699760
0.19148803 0.64458776 0.99699760
0.25395894 0.66336397 1.00000000
0.37450924 0.69860247 1.00000000
0.51099685 0.73926689 1.00000000
0.64180541 0.76706777 1.00000000
0.82570032 0.76047474 1.00000000
0.98521207 0.74833400 0.97289246
1.00000000 0.78912491 0.93379245
0.27537090 0.78475103 1.00000000
0.27537090 0.78475103 1.00000000
0.33714023 0.79918119 1.00000000
0.45751667 0.82560886 1.00000000
0.59799469 0.85731463 1.00000000
0.71891899 0.88404127 1.00000000
0.85525228 0.88882508 1.00000000
0.96841754 0.88906645 0.99911992
1.00000000 0.91855800 0.98179756
0.28584929 0.88887915 1.00000000
0.28584929 0.88887915 1.00000000
0.36933772 0.89832812 1.00000000
0.51808163 0.91482815 1.00000000
0.68224155 0.93451270 1.00000000
0.81785669 0.95219984 1.00000000
0.91390189 0.96723954 1.00000000
0.97904129 0.97932576 1.00000000
1.00000000 1.00000000 1.00000000
0.36844870 1.00000000 0.96748101
0.36844870 1.00000000 0.96748101
0.47379520 1.00000000 0.97301862
0.64372109 1.00000000 0.98385239
0.82191052 1.00000000 0.99926890
1.00000000 1.00000000 1.00000000
1.00000000 1.00000000 1.00000000
1.00000000 1.00000000 1.00000000
1.00000000 1.00000000 1.00000000
