Luts Download/Canon Luts/3dlut/17grid-3dlut/full-to-full-range/CinemaGamut_CanonLog3-to-BT709_WideDR_17_FF_Ver.2.0.cube
# Gamut : Cinema Gamut to BT.709
# Gamma : Canon Log 3 to Wide DR
# Range : Full in / Full out
# Version : 2.0 2019/10/24
# Copyright(c) 2019 Canon Inc. All Rights Reserved.
LUT_3D_SIZE 5
# LUT_3D_INPUT_RANGE 0.0 1.0
0.00000000 0.00000000 0.00000000
0.26387857 0.00697302 0.03669820
0.76101797 0.00000000 0.09858830
1.00000000 0.02541496 0.10502851
1.00000000 0.28388250 0.21405477
0.03204560 0.19171228 0.05861119
0.22942879 0.24525553 0.02266085
0.78974565 0.19653471 0.04401560
1.00000000 0.26323454 0.21297804
1.00000000 0.41338370 0.33803594
0.00900944 0.57384183 0.10289809
0.08663789 0.61416926 0.02825090
0.63297981 0.67824591 0.00000000
1.00000000 0.63227976 0.38169574
1.00000000 0.70548042 0.62559083
0.06781631 0.80558135 0.02403798
0.11607673 0.83533282 0.01898197
0.39611502 0.93447977 0.07451116
0.87569820 0.94268804 0.27929800
1.00000000 0.90245751 0.78156012
0.21417412 0.94809800 0.02091591
0.24933246 0.97146784 0.05845500
0.59764617 1.00000000 0.45934718
0.88572170 1.00000000 0.79298013
1.00000000 1.00000000 1.00000000
0.01649120 0.00594423 0.14279560
0.24298369 0.00000000 0.20579473
0.72670682 0.00000000 0.27220195
0.98610819 0.01398572 0.20602576
1.00000000 0.27460289 0.21804324
0.00000000 0.22930943 0.21436452
0.23600832 0.23600832 0.23600832
0.80465848 0.13378195 0.24510914
0.99521833 0.24578147 0.27284037
1.00000000 0.40312954 0.33693093
0.00000000 0.67678729 0.19986778
0.00000000 0.71291325 0.08480538
0.67336919 0.72136593 0.00000000
1.00000000 0.64825664 0.42100318
1.00000000 0.71718120 0.64155440
0.03962578 0.87446147 0.06902756
0.07183517 0.90145315 0.04541087
0.42789692 0.97614322 0.15948427
0.90226719 0.96772865 0.37926673
1.00000000 0.92594874 0.83252677
0.31539194 0.99169517 0.17179794
0.40854359 1.00000000 0.27349224
0.72601655 1.00000000 0.62207315
0.94970081 1.00000000 0.89851552
1.00000000 1.00000000 1.00000000
0.04661029 0.04625752 0.45250260
0.16578861 0.00000000 0.43430838
0.64987263 0.00000000 0.53506221
0.94854243 0.00000000 0.45832761
1.00000000 0.22482942 0.33743948
0.00000000 0.17493900 0.44053057
0.07110260 0.05895735 0.55263383
0.72339355 0.00000000 0.61086413
0.99695252 0.06973022 0.48230115
1.00000000 0.32377807 0.39241841
0.00000000 0.63423224 0.59893231
0.00000000 0.65721895 0.62164357
0.65092930 0.65092930 0.65092930
0.98543028 0.64165329 0.66270514
1.00000000 0.72201592 0.70591634
0.27235926 0.92460099 0.39722138
0.31705986 0.93698802 0.40620696
0.60073935 0.96900248 0.52532280
0.92005597 0.98040609 0.49264377
1.00000000 0.96643224 0.92117836
0.70113316 1.00000000 0.62272790
0.74961751 1.00000000 0.67668443
0.92502075 1.00000000 0.88565294
1.00000000 1.00000000 1.00000000
1.00000000 1.00000000 1.00000000
0.00000000 0.15506125 0.56594182
0.01365131 0.08431096 0.61221376
0.49783649 0.00000000 0.77526533
0.88232225 0.00000000 0.70433586
1.00000000 0.15626467 0.54975318
0.00000000 0.21183055 0.57724227
0.00000000 0.15651025 0.62106429
0.49495848 0.00000000 0.84978425
0.91869922 0.00000000 0.73394870
1.00000000 0.19851934 0.56055673
0.00000000 0.53547276 0.79532530
0.01704870 0.55502663 0.84720730
0.53125421 0.58914631 0.95119385
0.99346734 0.55420697 0.87187144
1.00000000 0.66124922 0.76883171
0.00000000 0.88754420 0.83828185
0.00000000 0.90363016 0.85405635
0.39836943 0.93767380 0.90117840
0.91241619 0.91241619 0.91241619
1.00000000 0.94762931 0.95017730
0.68088232 1.00000000 0.68472842
0.72829280 1.00000000 0.72520748
0.91438617 1.00000000 0.90210240
1.00000000 1.00000000 1.00000000
1.00000000 1.00000000 1.00000000
0.00000000 0.23385199 0.57786671
0.00000000 0.21512579 0.57059469
0.08822441 0.12948886 0.93332444
0.69815854 0.02294481 0.97668926
1.00000000 0.06753759 0.79528838
0.00000000 0.26113597 0.63087262
0.00000000 0.23994897 0.61946873
0.03182577 0.09944677 0.94530827
0.70354486 0.00000000 1.00000000
1.00000000 0.07669908 0.80068495
0.00892224 0.45772131 0.91114504
0.06735383 0.47753885 0.94438998
0.37604434 0.57418832 1.00000000
0.81058963 0.56933708 1.00000000
1.00000000 0.60942904 0.87910693
0.27537090 0.78475103 1.00000000
0.33714023 0.79918119 1.00000000
0.59799469 0.85731463 1.00000000
0.85525228 0.88882508 1.00000000
1.00000000 0.91855800 0.98179756
0.36844870 1.00000000 0.96748101
0.47379520 1.00000000 0.97301862
0.82191052 1.00000000 0.99926890
1.00000000 1.00000000 1.00000000
1.00000000 1.00000000 1.00000000
