Luts Download/Canon Luts/3dlut/17grid-3dlut/full-to-full-range/CinemaGamut_CanonLog2-to-DCIP3_DCI_17_FF_Ver.2.0.cube
# Gamut : Cinema Gamut to DCI-P3
# Gamma : Canon Log 2 to DCI
# Range : Full in / Full out
# Version : 2.0 2019/10/24
# Copyright(c) 2019 Canon Inc. All Rights Reserved.
LUT_3D_SIZE 5
# LUT_3D_INPUT_RANGE 0.0 1.0
0.00000276 0.00000000 0.00000177
0.18002101 0.05199472 0.07179999
0.75079506 0.06782118 0.21164781
1.00000000 0.29043996 0.28257440
1.00000000 0.41237755 0.33887213
0.07391988 0.15386756 0.07607169
0.16923107 0.17662136 0.08099142
0.75158053 0.19479258 0.08641503
1.00000000 0.32431954 0.29045799
0.99937895 0.43645116 0.35957469
0.07239409 0.63634167 0.16203791
0.17559649 0.63947374 0.09337036
0.68306817 0.71406332 0.11403340
1.00000000 0.68979942 0.54382478
1.00000000 0.72748971 0.66097307
0.16954674 0.89988116 0.08310834
0.19527522 0.90273313 0.08114331
0.48997488 0.98425233 0.29359695
0.95401139 0.99354072 0.67737687
1.00000000 0.91724842 0.86482371
0.30097886 0.96296654 0.05970980
0.31595658 0.96514740 0.11211818
0.66639100 1.00000000 0.53489638
0.94292757 1.00000000 0.90009213
1.00000000 1.00000000 1.00000000
0.04667370 0.03941774 0.12934011
0.16894158 0.00000000 0.15232171
0.74016027 0.00000000 0.33237236
1.00000000 0.28136562 0.29108178
1.00000000 0.40264361 0.33149400
0.04387479 0.16696603 0.16190259
0.17241401 0.17241401 0.17241401
0.76722742 0.04293584 0.25732751
1.00000000 0.31240059 0.29596832
1.00000000 0.42516507 0.35033196
0.13710313 0.64945564 0.23630917
0.14634502 0.65430157 0.17566014
0.68827944 0.71965407 0.11314676
1.00000000 0.69123389 0.55222624
1.00000000 0.72889005 0.66294758
0.19567853 0.90643457 0.14072120
0.21411459 0.90931444 0.13714485
0.51550204 0.98547195 0.33375687
0.95655869 0.99378888 0.70763357
1.00000000 0.92023496 0.87154111
0.33950668 0.96671926 0.16344281
0.35777392 0.96833643 0.18950025
0.69655783 1.00000000 0.57303391
0.95196711 1.00000000 0.91636147
1.00000000 1.00000000 1.00000000
0.14250368 0.13464394 0.54906608
0.23915377 0.10631140 0.52035655
0.68388254 0.00000000 0.60602829
0.99754315 0.18121799 0.48432267
1.00000000 0.37399017 0.32770047
0.00000000 0.23256513 0.47852092
0.14872519 0.16754917 0.53277257
0.69754708 0.00000000 0.61921121
1.00000000 0.17691199 0.47738559
0.99903401 0.38165319 0.33201338
0.00000000 0.67570102 0.65293081
0.00000000 0.68200595 0.65884156
0.69019238 0.69019238 0.69019238
0.98747287 0.71441768 0.71131045
0.97948103 0.76328359 0.71697743
0.55117028 0.98930386 0.50790787
0.56453730 0.98893377 0.51480030
0.77230743 1.00000000 0.68738566
0.99758012 1.00000000 0.91931087
1.00000000 1.00000000 1.00000000
0.78053425 1.00000000 0.68133216
0.79201209 1.00000000 0.69682386
0.93613915 1.00000000 0.89638713
1.00000000 1.00000000 1.00000000
1.00000000 1.00000000 1.00000000
0.04652572 0.23200004 0.75518566
0.10790782 0.20526497 0.76830957
0.41972068 0.00000000 0.89879878
0.93014576 0.12611969 0.80832426
1.00000000 0.30568793 0.52606216
0.03444061 0.27034301 0.72510213
0.07488806 0.24171579 0.75001421
0.40885732 0.00000000 0.91466434
0.93351770 0.09304459 0.81135819
1.00000000 0.31153629 0.52675872
0.00000000 0.54124765 0.88306801
0.00000000 0.54083202 0.90025406
0.50931829 0.62659202 0.95489269
0.99415708 0.61983068 0.88849116
1.00000000 0.69127794 0.74393303
0.00000000 0.95936474 0.92579497
0.00000000 0.96084846 0.92738091
0.61466433 0.97737478 0.95469053
0.98320425 0.98320425 0.98320425
1.00000000 1.00000000 1.00000000
0.77326060 0.99638955 0.70870146
0.78129332 0.99551646 0.71806548
0.93232517 1.00000000 0.90628321
1.00000000 1.00000000 1.00000000
1.00000000 1.00000000 1.00000000
0.00000000 0.31293366 0.73458078
0.00000000 0.31246679 0.72871039
0.00000000 0.27487598 0.88354964
0.53687091 0.35525993 1.00000000
0.98822575 0.17214204 0.84962238
0.00000000 0.31433797 0.74415545
0.00000000 0.31356535 0.73877437
0.00000000 0.26942045 0.88633690
0.53607348 0.35396849 1.00000000
0.98833335 0.17803083 0.84971885
0.25168741 0.48775745 0.96211288
0.24875713 0.48425778 0.96392816
0.45484483 0.61303626 0.95989256
0.70458288 0.69211980 1.00000000
0.99774758 0.65495277 0.88951070
0.65556509 0.84865407 1.00000000
0.66000384 0.85051384 1.00000000
0.80441180 0.90931047 1.00000000
0.96151000 0.97604873 1.00000000
1.00000000 0.99438313 1.00000000
0.52542976 0.99944517 0.97160206
0.54800623 0.99843390 0.97131885
0.86336777 0.99986315 0.98852119
1.00000000 1.00000000 1.00000000
1.00000000 1.00000000 1.00000000
