Luts Download/mMatrix/MotionVFX mMatrix - Neo.cube
TITLE "Neo - Created by MotionVFX"
LUT_3D_SIZE 8
DOMAIN_MIN 0.000000 0.000000 0.000000
DOMAIN_MAX 0.903226 0.903226 0.903226
0.000000 0.000000 0.000000
0.059936 0.008986 0.001160
0.140642 0.032109 0.004056
0.221515 0.060747 0.008687
0.313727 0.092084 0.015053
0.415216 0.127119 0.024917
0.520578 0.166289 0.038117
0.628426 0.209803 0.052774
0.014051 0.090031 0.008108
0.073526 0.091676 0.000000
0.155502 0.090444 0.000000
0.240511 0.101478 0.001739
0.333229 0.122998 0.007529
0.432519 0.152454 0.017949
0.535156 0.187916 0.031840
0.641881 0.228942 0.048215
0.041148 0.181657 0.025499
0.080735 0.183691 0.012159
0.154465 0.186370 0.000000
0.258122 0.187255 0.000000
0.362179 0.196318 0.000000
0.466030 0.214503 0.002319
0.567391 0.241839 0.014474
0.674154 0.275821 0.030724
0.076089 0.287841 0.053575
0.106270 0.289982 0.042896
0.169380 0.294911 0.014474
0.266926 0.300027 0.000000
0.386118 0.304510 0.000000
0.500743 0.314566 0.000000
0.608154 0.332445 0.000000
0.717460 0.357574 0.002319
0.119662 0.410692 0.087636
0.146240 0.412571 0.079915
0.205191 0.417587 0.057466
0.293031 0.425505 0.016790
0.406629 0.433404 0.000000
0.529618 0.440512 0.000000
0.646348 0.451131 0.000000
0.761425 0.467764 0.000000
0.176518 0.544552 0.126947
0.200875 0.546149 0.120842
0.255521 0.550228 0.103496
0.337340 0.557237 0.070214
0.439877 0.566154 0.018529
0.554390 0.574756 0.000000
0.676997 0.582728 0.000000
0.801436 0.592933 0.000000
0.244143 0.681011 0.170998
0.266084 0.682333 0.165772
0.316513 0.685796 0.151987
0.392162 0.691955 0.124537
0.485050 0.700537 0.080508
0.588313 0.710295 0.019109
0.705535 0.719656 0.000000
0.833825 0.728401 0.000000
0.319995 0.823380 0.219293
0.339490 0.824548 0.214917
0.385035 0.827542 0.202824
0.453625 0.832924 0.179444
0.537107 0.840728 0.142777
0.631936 0.850539 0.088459
0.741952 0.860915 0.019109
0.865117 0.870839 0.000000
0.000617 0.007491 0.028997
0.048581 0.019433 0.051965
0.149004 0.026888 0.049486
0.250252 0.030617 0.027246
0.336999 0.070629 0.027246
0.432433 0.112318 0.036098
0.533134 0.154574 0.047356
0.638831 0.200290 0.060823
0.004304 0.091267 0.078114
0.072875 0.090856 0.071199
0.138681 0.100722 0.051147
0.220053 0.116082 0.054761
0.314699 0.138267 0.060088
0.418179 0.166042 0.066848
0.524442 0.200083 0.076278
0.632920 0.239767 0.088186
0.039143 0.181884 0.080508
0.087226 0.181884 0.075658
0.157563 0.185481 0.062276
0.253044 0.190321 0.051965
0.352111 0.202964 0.055543
0.455223 0.223240 0.061552
0.558227 0.250781 0.070543
0.665117 0.285538 0.082265
0.065761 0.289839 0.088459
0.113203 0.288842 0.093005
0.176518 0.293512 0.077201
0.269576 0.299753 0.064413
0.385330 0.305586 0.052774
0.497228 0.317540 0.054368
0.602841 0.337166 0.060088
0.711130 0.363344 0.069218
0.098253 0.414159 0.103734
0.153006 0.411914 0.119797
0.212299 0.416664 0.105390
0.298166 0.424695 0.082844
0.408935 0.433229 0.069551
0.529804 0.441111 0.061915
0.645007 0.452785 0.054761
0.759844 0.469724 0.054368
0.151116 0.547921 0.134318
0.207240 0.545597 0.154834
0.262696 0.549501 0.141880
0.342856 0.556524 0.118321
0.443370 0.565690 0.089004
0.556022 0.574643 0.075347
0.677401 0.583117 0.071199
0.801184 0.593853 0.055931
0.222485 0.683695 0.177257
0.271792 0.681981 0.195453
0.322967 0.685271 0.183744
0.397530 0.691394 0.161830
0.488928 0.700072 0.129316
0.590901 0.709963 0.095337
0.706854 0.719615 0.080803
0.834303 0.728600 0.081391
0.301210 0.825648 0.224888
0.344972 0.824215 0.241399
0.390807 0.827110 0.230589
0.458473 0.832464 0.210457
0.540922 0.840274 0.179733
0.634931 0.850124 0.138790
0.743981 0.860664 0.100350
0.866319 0.870808 0.085971
0.001848 0.026888 0.079617
0.021300 0.027633 0.158123
0.113689 0.062916 0.119797
0.217272 0.072588 0.112466
0.337907 0.075458 0.104210
0.459339 0.083201 0.086807
0.566938 0.114384 0.073137
0.667918 0.168250 0.081391
0.000000 0.094900 0.140252
0.055279 0.100342 0.127146
0.130476 0.105923 0.129511
0.240206 0.108089 0.107256
0.353954 0.113355 0.095593
0.456019 0.138557 0.091688
0.554332 0.175425 0.096864
0.658628 0.218344 0.106093
0.012839 0.184364 0.155828
0.058414 0.187475 0.151310
0.154049 0.186148 0.146315
0.237759 0.199668 0.118321
0.328020 0.218344 0.120425
0.430545 0.241839 0.128333
0.536316 0.270977 0.137499
0.645151 0.305854 0.148573
0.070896 0.288842 0.167479
0.102956 0.290833 0.164520
0.181792 0.292528 0.157634
0.275223 0.299067 0.142955
0.381364 0.309584 0.123928
0.484109 0.326651 0.131067
0.587122 0.349510 0.138973
0.694818 0.377514 0.148054
0.115139 0.412289 0.185579
0.140207 0.414624 0.179589
0.221677 0.415553 0.180311
0.310672 0.422797 0.163259
0.413498 0.432966 0.154335
0.529556 0.443158 0.139157
0.638734 0.457694 0.139340
0.749475 0.477448 0.145437
0.157358 0.547799 0.205781
0.181606 0.549744 0.199038
0.272756 0.548712 0.211082
0.356539 0.554915 0.194648
0.452422 0.564469 0.175490
0.559672 0.574472 0.165928
0.678030 0.584115 0.155166
0.797826 0.596761 0.146838
0.208597 0.685752 0.229667
0.231710 0.687321 0.222285
0.333344 0.684571 0.247937
0.410676 0.690055 0.231851
0.498680 0.698799 0.209706
0.597255 0.709091 0.187119
0.710286 0.719412 0.176964
0.835360 0.729239 0.171452
0.267206 0.829562 0.256626
0.295094 0.830256 0.254742
0.400559 0.826479 0.290889
0.470462 0.831377 0.274827
0.550105 0.839201 0.252104
0.642508 0.849102 0.223590
0.749043 0.860036 0.198114
0.869267 0.870654 0.187676
0.004304 0.060197 0.135636
0.014051 0.066593 0.179878
0.092298 0.070134 0.223117
0.181606 0.105558 0.182178
0.295865 0.122998 0.178572
0.430545 0.128365 0.178863
0.558574 0.136513 0.172508
0.686139 0.149767 0.158611
0.001848 0.106649 0.182892
0.050315 0.112664 0.175194
0.100622 0.114725 0.230244
0.196845 0.137100 0.192621
0.315547 0.148952 0.181606
0.446334 0.155100 0.176964
0.570385 0.165052 0.168250
0.697377 0.177989 0.152156
0.000000 0.187696 0.226062
0.046349 0.192053 0.219895
0.122238 0.200083 0.206419
0.233895 0.202760 0.207562
0.359636 0.208612 0.180023
0.479064 0.218534 0.167015
0.578749 0.245929 0.170543
0.684633 0.280283 0.177257
0.029718 0.293652 0.248689
0.071890 0.296026 0.246750
0.141726 0.302210 0.237286
0.268184 0.301802 0.238850
0.364492 0.318951 0.209831
0.464642 0.341339 0.196788
0.563463 0.368466 0.210082
0.668970 0.399372 0.222642
0.105003 0.414252 0.272167
0.131375 0.416387 0.270480
0.199130 0.420432 0.266573
0.310549 0.423883 0.259326
0.417821 0.433492 0.247074
0.526697 0.447715 0.218086
0.626288 0.467370 0.219173
0.731570 0.490748 0.230128
0.170940 0.547067 0.301082
0.196492 0.548591 0.298813
0.255085 0.552398 0.290796
0.362179 0.554915 0.288737
0.467182 0.562718 0.267278
0.565289 0.574529 0.260770
0.678389 0.586489 0.242390
0.791894 0.602091 0.235148
0.233272 0.684133 0.330577
0.254212 0.685708 0.326048
0.303224 0.689752 0.314218
0.419250 0.689665 0.324272
0.515360 0.696799 0.304144
0.607895 0.707926 0.285814
0.715246 0.719412 0.278823
0.836653 0.730752 0.264956
0.291084 0.828172 0.359278
0.310549 0.829496 0.354279
0.356860 0.833089 0.339804
0.480021 0.830883 0.365369
0.566483 0.837280 0.345945
0.655163 0.847533 0.324103
0.757832 0.859061 0.303426
0.873713 0.870623 0.295427
0.007363 0.090444 0.185720
0.014657 0.095297 0.214180
0.052839 0.092084 0.299359
0.162036 0.115065 0.287420
0.263971 0.153518 0.252950
0.385823 0.178220 0.251785
0.526260 0.187916 0.259120
0.661558 0.198627 0.261899
0.005529 0.124915 0.223709
0.046801 0.130519 0.220255
0.078282 0.135629 0.279113
0.171717 0.147035 0.297810
0.277943 0.178220 0.263125
0.402720 0.199044 0.257772
0.540379 0.208612 0.260461
0.673747 0.220429 0.261181
0.000000 0.196318 0.281427
0.049454 0.200083 0.277464
0.121539 0.209605 0.263940
0.192577 0.215662 0.318290
0.311407 0.234860 0.283818
0.441628 0.249453 0.267781
0.575422 0.257964 0.259120
0.703443 0.272044 0.256000
0.000000 0.298103 0.330911
0.049886 0.301393 0.327312
0.114415 0.310508 0.318118
0.229351 0.317925 0.307445
0.366687 0.322637 0.299177
0.501973 0.330486 0.271572
0.610118 0.350888 0.255371
0.715246 0.378666 0.263940
0.054069 0.420797 0.364065
0.091744 0.422797 0.362758
0.150273 0.429169 0.361601
0.265241 0.435849 0.350490
0.410127 0.437325 0.354985
0.509246 0.457451 0.324865
0.609550 0.480637 0.300086
0.718501 0.503863 0.301715
0.145170 0.550711 0.400419
0.168792 0.552639 0.398855
0.228402 0.556821 0.395570
0.330114 0.561604 0.391322
0.460908 0.565283 0.383300
0.567165 0.575776 0.372582
0.677446 0.590923 0.330244
0.788299 0.608605 0.313433
0.232960 0.685184 0.437899
0.255375 0.686494 0.436378
0.308455 0.689795 0.432657
0.396864 0.694533 0.423241
0.514448 0.698119 0.418743
0.620068 0.706925 0.394996
0.722479 0.719656 0.385355
0.841227 0.732894 0.350411
0.312264 0.827110 0.476889
0.333114 0.828172 0.474912
0.380365 0.831180 0.468375
0.448213 0.837182 0.450761
0.559384 0.840209 0.448432
0.664471 0.847725 0.423444
0.766373 0.859470 0.400632
0.879722 0.871487 0.394637
0.011017 0.119417 0.234470
0.017681 0.123960 0.256731
0.043090 0.129292 0.318979
0.124555 0.122998 0.409211
0.245944 0.165300 0.363989
0.358465 0.207414 0.334558
0.483674 0.239593 0.335794
0.625040 0.254888 0.350728
0.010409 0.148133 0.268182
0.046349 0.153518 0.267077
0.069554 0.160529 0.317341
0.132495 0.155886 0.417029
0.256245 0.190321 0.375136
0.371239 0.228214 0.344579
0.497713 0.256997 0.343129
0.638151 0.271892 0.353571
0.003691 0.211185 0.331160
0.050315 0.215277 0.327900
0.117294 0.224910 0.319151
0.168203 0.232368 0.388129
0.279159 0.248785 0.399638
0.402157 0.277615 0.367279
0.531226 0.300574 0.358812
0.670294 0.314046 0.358656
0.000000 0.306256 0.399709
0.046349 0.309716 0.398072
0.123631 0.316767 0.392117
0.218256 0.330240 0.374461
0.313483 0.338484 0.436113
0.455064 0.355550 0.399709
0.583037 0.373396 0.376482
0.722603 0.383126 0.359976
0.000000 0.426761 0.462077
0.058414 0.429169 0.459665
0.130476 0.436110 0.452887
0.211126 0.449386 0.445117
0.367415 0.455085 0.435384
0.512747 0.461167 0.428641
0.652762 0.468863 0.383741
0.769763 0.486623 0.365445
0.082839 0.557771 0.505879
0.117294 0.559427 0.504880
0.181792 0.564061 0.503350
0.266225 0.573791 0.490360
0.413498 0.578144 0.489214
0.559268 0.580275 0.495996
0.657600 0.600393 0.462393
0.817422 0.604362 0.378790
0.190959 0.690271 0.552833
0.212633 0.691782 0.552560
0.265100 0.695945 0.547691
0.356431 0.701425 0.543228
0.478842 0.706508 0.539902
0.610272 0.710668 0.530892
0.720535 0.722008 0.521065
0.867714 0.731626 0.394493
0.298166 0.829694 0.598149
0.316996 0.831015 0.597128
0.364911 0.833975 0.594312
0.442956 0.838616 0.589163
0.534360 0.846088 0.572695
0.610736 0.862793 0.503762
0.757638 0.867652 0.458138
0.887127 0.875972 0.443680
0.016472 0.150578 0.287232
0.021902 0.154574 0.305575
0.042127 0.162049 0.356004
0.088938 0.160529 0.461507
0.217107 0.174248 0.495399
0.341738 0.221745 0.454685
0.461768 0.268056 0.430117
0.584294 0.307059 0.433789
0.015868 0.174720 0.317514
0.048140 0.179832 0.317859
0.066463 0.187696 0.361987
0.109025 0.191621 0.452308
0.225378 0.199875 0.505703
0.351894 0.242525 0.465990
0.472955 0.285827 0.440140
0.596618 0.322005 0.442372
0.011017 0.231292 0.381161
0.053252 0.235214 0.379459
0.113931 0.245252 0.374986
0.153424 0.254888 0.441978
0.245195 0.259088 0.529425
0.375832 0.292950 0.492765
0.500332 0.329624 0.464100
0.625939 0.359917 0.460682
0.000000 0.319973 0.463784
0.052008 0.322890 0.462013
0.124325 0.330731 0.455966
0.216778 0.344283 0.443026
0.291214 0.354533 0.521637
0.412227 0.374351 0.534825
0.543985 0.400639 0.499981
0.673158 0.423883 0.485277
0.000000 0.434978 0.546372
0.042610 0.438189 0.545821
0.122704 0.445360 0.538623
0.227609 0.454594 0.537117
0.340728 0.471129 0.514503
0.460830 0.478286 0.580533
0.605714 0.492281 0.539846
0.742748 0.506380 0.512242
0.009192 0.564119 0.620410
0.071229 0.565864 0.618278
0.149850 0.570823 0.613547
0.236836 0.581001 0.605813
0.339828 0.595363 0.594055
0.519299 0.597832 0.589732
0.661697 0.604046 0.581788
0.864205 0.586379 0.531173
0.115859 0.697864 0.671448
0.149004 0.699224 0.670659
0.216284 0.702943 0.668986
0.296890 0.710502 0.668475
0.416656 0.720224 0.648257
0.566199 0.724229 0.651924
0.712141 0.726920 0.660477
0.877842 0.731983 0.545050
0.241878 0.835941 0.726923
0.261843 0.837247 0.727140
0.310057 0.840760 0.726054
0.388373 0.847051 0.716613
0.488071 0.854609 0.713002
0.561169 0.870777 0.693453
0.738432 0.871548 0.664182
0.887536 0.877012 0.630685
0.023106 0.183466 0.344418
0.028517 0.187255 0.360673
0.044972 0.195260 0.404095
0.080127 0.201940 0.490541
0.159199 0.185926 0.642075
0.319397 0.232010 0.597996
0.446743 0.284814 0.561709
0.566938 0.334876 0.541512
0.023106 0.204999 0.372507
0.052008 0.209605 0.373560
0.067505 0.217581 0.413308
0.100099 0.226017 0.491624
0.172877 0.217390 0.633706
0.327904 0.253254 0.609389
0.456178 0.302888 0.573012
0.576423 0.350430 0.551251
0.019492 0.256188 0.435649
0.056470 0.259888 0.435118
0.112717 0.269751 0.433723
0.145170 0.280577 0.498022
0.211797 0.285538 0.606872
0.348505 0.304645 0.636668
0.478842 0.346966 0.600696
0.600004 0.388738 0.574650
0.005529 0.338484 0.526367
0.055678 0.341576 0.524775
0.126163 0.349395 0.520320
0.213966 0.363344 0.512301
0.274266 0.375726 0.593028
0.381762 0.385996 0.678373
0.512418 0.419425 0.643277
0.639220 0.451959 0.611496
0.000000 0.447547 0.626228
0.047697 0.450218 0.627406
0.129800 0.456474 0.623670
0.231082 0.467449 0.614096
0.338812 0.482595 0.609339
0.433544 0.491916 0.700602
0.556429 0.511080 0.711059
0.698587 0.532106 0.665024
0.000000 0.571738 0.720384
0.044507 0.574188 0.720691
0.131824 0.579771 0.714193
0.226017 0.590161 0.703775
0.346522 0.599648 0.718062
0.462313 0.610426 0.759966
0.608361 0.610996 0.834763
0.789329 0.616248 0.758919
0.033238 0.704498 0.801858
0.088370 0.706006 0.800213
0.171910 0.709963 0.796232
0.268463 0.717700 0.790208
0.350695 0.731268 0.790127
0.406722 0.750016 0.829554
0.624090 0.748444 0.845561
0.843350 0.740164 0.792719
0.154881 0.843995 0.859548
0.187147 0.845187 0.858867
0.254503 0.848270 0.857160
0.339602 0.854419 0.855869
0.419962 0.865601 0.854348
0.472126 0.884786 0.856249
0.651864 0.889688 0.852901
0.873360 0.879817 0.846826
