Luts Download/mMatrix/MotionVFX mMatrix - Morpheus.cube
TITLE "Morpheus - Created by MotionVFX"
LUT_3D_SIZE 32
0.000000 0.000000 0.000000
0.009801 0.001406 0.000000
0.020697 0.002811 0.000326
0.036536 0.005615 0.000326
0.053252 0.008413 0.000652
0.069891 0.012601 0.000652
0.088085 0.017476 0.000979
0.107026 0.023735 0.001306
0.126849 0.030690 0.001961
0.145598 0.038263 0.002290
0.163442 0.045148 0.002619
0.182165 0.051974 0.003278
0.201222 0.058762 0.003608
0.221190 0.065996 0.004270
0.241878 0.073165 0.004935
0.262980 0.080705 0.005601
0.285043 0.088887 0.006606
0.307712 0.096483 0.007616
0.330693 0.104581 0.008633
0.354278 0.113077 0.009656
0.378257 0.121603 0.011030
0.402626 0.130149 0.012418
0.427432 0.138954 0.013820
0.452261 0.147969 0.015237
0.477214 0.157152 0.017030
0.502110 0.166893 0.019144
0.526821 0.176298 0.021160
0.551636 0.186169 0.023097
0.576811 0.196430 0.025275
0.602632 0.206677 0.027377
0.628922 0.217389 0.029701
0.655680 0.228188 0.032232
0.003077 0.018172 0.000000
0.014657 0.018172 0.000000
0.029718 0.017476 0.000000
0.046349 0.017476 0.000000
0.062168 0.018867 0.000000
0.077034 0.020258 0.000326
0.093124 0.023735 0.000652
0.110264 0.027907 0.001306
0.127988 0.032083 0.001633
0.145598 0.038263 0.002290
0.163642 0.045148 0.002619
0.182165 0.051974 0.003278
0.201222 0.058762 0.003608
0.221353 0.065996 0.004270
0.241878 0.073165 0.004935
0.263263 0.081110 0.005935
0.285175 0.088511 0.006606
0.307712 0.096483 0.007616
0.330808 0.104906 0.008633
0.354278 0.113077 0.009656
0.378458 0.121603 0.011030
0.402813 0.130149 0.012418
0.427432 0.138954 0.013820
0.452341 0.148205 0.015593
0.477214 0.157152 0.017030
0.502110 0.166682 0.019144
0.526884 0.176497 0.021160
0.551754 0.186357 0.023097
0.576978 0.196430 0.025275
0.602737 0.206677 0.027377
0.628922 0.217389 0.029701
0.655680 0.228188 0.032232
0.006752 0.039568 0.000000
0.017077 0.040211 0.000000
0.030919 0.039568 0.000000
0.049886 0.038263 0.000000
0.068193 0.038263 0.000000
0.084906 0.038919 0.000000
0.102440 0.040848 0.000000
0.119427 0.042724 0.000326
0.135825 0.045742 0.000652
0.151537 0.048638 0.001306
0.167810 0.051974 0.002290
0.184760 0.055698 0.002948
0.202436 0.059760 0.003608
0.221353 0.065996 0.004270
0.242181 0.073597 0.004935
0.263405 0.081110 0.005935
0.285440 0.088887 0.006606
0.307712 0.096483 0.007616
0.330924 0.104906 0.008633
0.354494 0.113077 0.009656
0.378559 0.121603 0.011030
0.402907 0.130149 0.012418
0.427432 0.138954 0.013820
0.452422 0.147969 0.015237
0.477363 0.157375 0.017030
0.502246 0.166682 0.019144
0.526884 0.176497 0.021160
0.551754 0.186357 0.023097
0.577089 0.196430 0.025275
0.602737 0.206677 0.027377
0.629071 0.217389 0.029701
0.655774 0.228188 0.032232
0.011625 0.064121 0.000000
0.021902 0.065063 0.000000
0.034359 0.065063 0.000000
0.052008 0.065063 0.000000
0.071560 0.064121 0.000000
0.090068 0.062690 0.000000
0.107778 0.061724 0.000000
0.124555 0.061724 0.000000
0.141076 0.062208 0.000000
0.158178 0.063169 0.000326
0.174991 0.065530 0.000652
0.192397 0.068290 0.001633
0.209780 0.071418 0.002290
0.228085 0.075310 0.003278
0.246691 0.079482 0.004270
0.265944 0.084291 0.005601
0.285969 0.089261 0.006606
0.307960 0.096832 0.007616
0.331040 0.104906 0.008633
0.354494 0.113077 0.009656
0.378660 0.121603 0.011030
0.403000 0.130416 0.012418
0.427606 0.138954 0.013820
0.452422 0.147969 0.015237
0.477437 0.157375 0.017391
0.502246 0.166682 0.019144
0.526946 0.176497 0.021160
0.551871 0.186357 0.023097
0.577089 0.196430 0.025275
0.602841 0.206846 0.027377
0.629170 0.217389 0.029701
0.655914 0.228188 0.032232
0.018888 0.089633 0.000000
0.028517 0.089633 0.000000
0.039143 0.090005 0.000000
0.053252 0.089261 0.000000
0.070562 0.088135 0.000000
0.089504 0.086231 0.000000
0.108528 0.084291 0.000000
0.126849 0.082713 0.000000
0.144956 0.082315 0.000000
0.163241 0.082315 0.000000
0.181606 0.083110 0.000000
0.200004 0.084291 0.000000
0.218256 0.086614 0.000979
0.236836 0.089633 0.001633
0.255956 0.092932 0.002619
0.275087 0.096832 0.003608
0.294837 0.101275 0.004935
0.315184 0.105878 0.006270
0.335861 0.110930 0.007954
0.357289 0.116081 0.009314
0.378861 0.121603 0.011030
0.403281 0.130416 0.012418
0.427779 0.139205 0.013820
0.452582 0.148205 0.015237
0.477511 0.157598 0.017391
0.502382 0.166893 0.019144
0.527133 0.176497 0.021160
0.551871 0.186357 0.023097
0.577200 0.196430 0.025275
0.602998 0.206846 0.027377
0.629170 0.217389 0.029701
0.656008 0.228341 0.032232
0.026114 0.111239 0.000000
0.034912 0.111239 0.000000
0.043565 0.111239 0.000000
0.055678 0.110930 0.000000
0.070227 0.110310 0.000000
0.087513 0.109373 0.000000
0.107277 0.107479 0.000000
0.127306 0.105878 0.000000
0.147305 0.104254 0.000000
0.167416 0.103599 0.000000
0.186781 0.103599 0.000000
0.206217 0.103927 0.000000
0.225858 0.105231 0.000000
0.245794 0.106841 0.000000
0.265241 0.109060 0.000979
0.285175 0.112161 0.001633
0.305351 0.115486 0.002619
0.325679 0.119596 0.003939
0.346412 0.123861 0.005601
0.367519 0.128536 0.007279
0.388861 0.133580 0.008973
0.410768 0.138954 0.010685
0.432775 0.144863 0.012767
0.454904 0.150781 0.014881
0.477733 0.157598 0.017391
0.502586 0.166893 0.019144
0.527258 0.176696 0.021160
0.552165 0.186545 0.023414
0.577366 0.196608 0.025275
0.603103 0.206846 0.027672
0.629417 0.217550 0.029987
0.656149 0.228341 0.032232
0.034359 0.132796 0.000000
0.041640 0.132796 0.000000
0.049454 0.132796 0.000000
0.059936 0.132796 0.000000
0.072548 0.132796 0.000000
0.087799 0.132270 0.000000
0.106017 0.131213 0.000000
0.126621 0.129613 0.000000
0.148156 0.127994 0.000000
0.169966 0.126904 0.000000
0.191139 0.125805 0.000000
0.212132 0.125805 0.000000
0.232648 0.126081 0.000000
0.253336 0.126904 0.000000
0.274129 0.128265 0.000000
0.295094 0.130149 0.000000
0.315910 0.132796 0.000652
0.336772 0.135908 0.001961
0.357824 0.139455 0.002948
0.379062 0.143407 0.004270
0.400371 0.147969 0.006270
0.422177 0.152857 0.007954
0.444031 0.158042 0.010341
0.465876 0.163495 0.012418
0.487928 0.169396 0.014881
0.510042 0.175500 0.017391
0.531965 0.181977 0.020162
0.553981 0.188602 0.022779
0.577588 0.196608 0.025275
0.603365 0.207015 0.027672
0.629566 0.217550 0.029987
0.656243 0.228341 0.032232
0.043090 0.155132 0.000000
0.049454 0.155132 0.000000
0.056470 0.155358 0.000000
0.065408 0.155358 0.000000
0.076720 0.155358 0.000000
0.090348 0.155358 0.000000
0.106774 0.154906 0.000000
0.126163 0.153999 0.000000
0.148156 0.152628 0.000000
0.171329 0.151245 0.000000
0.194185 0.149849 0.000000
0.216778 0.149147 0.000000
0.238832 0.148912 0.000000
0.260560 0.149147 0.000000
0.282248 0.149849 0.000000
0.303976 0.151013 0.000000
0.325797 0.152857 0.000000
0.347735 0.154906 0.000000
0.369591 0.157598 0.000652
0.391098 0.160900 0.001961
0.412772 0.164564 0.003278
0.434735 0.168774 0.004935
0.456416 0.173489 0.006606
0.478103 0.178474 0.008973
0.499920 0.183895 0.011376
0.521660 0.189529 0.014173
0.543327 0.195536 0.017030
0.565289 0.201880 0.020162
0.587718 0.208530 0.023097
0.610633 0.215453 0.026184
0.634098 0.222622 0.029127
0.657927 0.230012 0.031955
0.052425 0.178277 0.000000
0.058029 0.178277 0.000000
0.063983 0.178474 0.000000
0.072220 0.178670 0.000000
0.082242 0.178866 0.000000
0.095035 0.179062 0.000000
0.109769 0.178866 0.000000
0.127533 0.178474 0.000000
0.148368 0.177686 0.000000
0.171717 0.176497 0.000000
0.195961 0.175300 0.000000
0.220053 0.174095 0.000000
0.243842 0.173287 0.000000
0.267066 0.172882 0.000000
0.290041 0.173287 0.000000
0.312630 0.173893 0.000000
0.335177 0.174899 0.000000
0.357824 0.176696 0.000000
0.380265 0.178474 0.000000
0.403000 0.181011 0.000000
0.425340 0.183895 0.000652
0.447316 0.187483 0.001961
0.469246 0.191370 0.003608
0.491132 0.195715 0.005268
0.512878 0.200488 0.007279
0.534238 0.205659 0.009998
0.555848 0.211360 0.012767
0.577864 0.217228 0.015951
0.600373 0.223404 0.019144
0.623188 0.230012 0.022779
0.646492 0.236867 0.025883
0.670066 0.243945 0.029127
0.061800 0.202227 0.000000
0.066811 0.202400 0.000000
0.072220 0.202400 0.000000
0.079822 0.202745 0.000000
0.089222 0.203090 0.000000
0.100883 0.203263 0.000000
0.114657 0.203435 0.000000
0.131151 0.203435 0.000000
0.150484 0.203090 0.000000
0.172877 0.202400 0.000000
0.197374 0.201533 0.000000
0.222485 0.200314 0.000000
0.247734 0.199262 0.000000
0.272618 0.198558 0.000000
0.297145 0.198205 0.000000
0.320830 0.198381 0.000000
0.344528 0.199086 0.000000
0.367830 0.199964 0.000000
0.391001 0.201533 0.000000
0.414042 0.203435 0.000000
0.437106 0.205829 0.000000
0.459889 0.208530 0.000000
0.482510 0.211526 0.000326
0.504418 0.215453 0.001961
0.525947 0.219625 0.003939
0.547561 0.224339 0.005935
0.569483 0.229254 0.008293
0.591653 0.234655 0.010685
0.614072 0.240362 0.014173
0.637080 0.246632 0.017749
0.660165 0.253010 0.021488
0.683613 0.259621 0.024969
0.071890 0.227271 0.000000
0.076405 0.227271 0.000000
0.081340 0.227577 0.000000
0.088370 0.227730 0.000000
0.097188 0.228036 0.000000
0.108028 0.228341 0.000000
0.121071 0.228646 0.000000
0.136707 0.228950 0.000000
0.154881 0.228950 0.000000
0.175756 0.228798 0.000000
0.199305 0.228188 0.000000
0.224577 0.227271 0.000000
0.250695 0.226349 0.000000
0.276994 0.225578 0.000000
0.302848 0.224804 0.000000
0.328370 0.224649 0.000000
0.353305 0.224804 0.000000
0.377552 0.225269 0.000000
0.401500 0.226349 0.000000
0.425252 0.227730 0.000000
0.448783 0.229709 0.000000
0.471900 0.231971 0.000000
0.494721 0.234655 0.000000
0.517240 0.237600 0.000000
0.539533 0.240939 0.000000
0.561514 0.245080 0.001961
0.583529 0.249565 0.003939
0.606026 0.254374 0.006270
0.628724 0.259621 0.008973
0.651675 0.265147 0.011723
0.674787 0.271060 0.015237
0.698112 0.277333 0.019486
0.082541 0.253284 0.000000
0.086650 0.253420 0.000000
0.091187 0.253557 0.000000
0.097721 0.253830 0.000000
0.106017 0.254102 0.000000
0.116578 0.254510 0.000000
0.128896 0.254918 0.000000
0.143668 0.255325 0.000000
0.161026 0.255731 0.000000
0.180858 0.255731 0.000000
0.202955 0.255731 0.000000
0.227451 0.255189 0.000000
0.253774 0.254510 0.000000
0.280774 0.253693 0.000000
0.307960 0.252873 0.000000
0.334719 0.252325 0.000000
0.361016 0.252051 0.000000
0.386708 0.252188 0.000000
0.411680 0.252873 0.000000
0.436261 0.253966 0.000000
0.460282 0.255325 0.000000
0.483819 0.257214 0.000000
0.507043 0.259488 0.000000
0.529618 0.262004 0.000000
0.552224 0.265017 0.000000
0.575033 0.268378 0.000000
0.598103 0.272074 0.000000
0.620875 0.276340 0.001961
0.643663 0.281024 0.004270
0.666680 0.286105 0.006942
0.689926 0.291442 0.009656
0.713444 0.297135 0.013117
0.093946 0.280413 0.000000
0.097721 0.280535 0.000000
0.101923 0.280658 0.000000
0.108028 0.280902 0.000000
0.116099 0.281268 0.000000
0.126163 0.281756 0.000000
0.138024 0.282121 0.000000
0.152377 0.282608 0.000000
0.168792 0.283093 0.000000
0.187512 0.283456 0.000000
0.208597 0.283698 0.000000
0.231866 0.283698 0.000000
0.257546 0.283456 0.000000
0.284645 0.282729 0.000000
0.312508 0.282121 0.000000
0.340391 0.281512 0.000000
0.367934 0.281024 0.000000
0.395049 0.281024 0.000000
0.421204 0.281146 0.000000
0.446825 0.281756 0.000000
0.471522 0.282729 0.000000
0.495629 0.284181 0.000000
0.519235 0.286105 0.000000
0.542186 0.288253 0.000000
0.565232 0.290855 0.000000
0.588367 0.293780 0.000000
0.611611 0.297135 0.000000
0.635078 0.300676 0.000000
0.658674 0.304507 0.000000
0.682100 0.308948 0.001633
0.705407 0.313753 0.004270
0.728965 0.318904 0.007279
0.105764 0.308617 0.000000
0.109522 0.308728 0.000000
0.113689 0.308948 0.000000
0.119427 0.309168 0.000000
0.127078 0.309498 0.000000
0.136927 0.310047 0.000000
0.148580 0.310486 0.000000
0.162438 0.311142 0.000000
0.178036 0.311688 0.000000
0.196138 0.312124 0.000000
0.216119 0.312668 0.000000
0.238372 0.312994 0.000000
0.262838 0.313103 0.000000
0.289388 0.312777 0.000000
0.317357 0.312451 0.000000
0.345859 0.311906 0.000000
0.374410 0.311361 0.000000
0.402532 0.311142 0.000000
0.429942 0.311033 0.000000
0.456654 0.311361 0.000000
0.482437 0.311906 0.000000
0.507244 0.313103 0.000000
0.531164 0.314510 0.000000
0.554740 0.316340 0.000000
0.578307 0.318478 0.000000
0.601793 0.321024 0.000000
0.625390 0.323860 0.000000
0.648971 0.326981 0.000000
0.672840 0.330477 0.000000
0.696771 0.334236 0.000000
0.720908 0.338248 0.000000
0.745013 0.342699 0.000979
0.118718 0.338049 0.000000
0.122238 0.338148 0.000000
0.126163 0.338347 0.000000
0.131824 0.338646 0.000000
0.139336 0.339044 0.000000
0.148792 0.339441 0.000000
0.160216 0.339937 0.000000
0.173648 0.340630 0.000000
0.188969 0.341222 0.000000
0.206046 0.342010 0.000000
0.225378 0.342600 0.000000
0.246840 0.343189 0.000000
0.270131 0.343581 0.000000
0.295608 0.343777 0.000000
0.322967 0.343679 0.000000
0.351567 0.343385 0.000000
0.380665 0.343091 0.000000
0.409669 0.342699 0.000000
0.438116 0.342502 0.000000
0.465722 0.342600 0.000000
0.492474 0.342895 0.000000
0.518078 0.343581 0.000000
0.542727 0.344558 0.000000
0.566994 0.346019 0.000000
0.591009 0.347666 0.000000
0.615145 0.349784 0.000000
0.639122 0.352270 0.000000
0.663086 0.354924 0.000000
0.687110 0.357931 0.000000
0.711299 0.361280 0.000000
0.735577 0.364961 0.000000
0.760114 0.368872 0.000000
0.132718 0.368691 0.000000
0.136046 0.368872 0.000000
0.139989 0.369052 0.000000
0.145598 0.369233 0.000000
0.153006 0.369684 0.000000
0.162036 0.370225 0.000000
0.173263 0.370765 0.000000
0.186231 0.371393 0.000000
0.201049 0.372110 0.000000
0.217600 0.372915 0.000000
0.236219 0.373628 0.000000
0.256824 0.374429 0.000000
0.279294 0.375051 0.000000
0.303726 0.375583 0.000000
0.330114 0.375849 0.000000
0.358144 0.375849 0.000000
0.387199 0.375760 0.000000
0.416566 0.375494 0.000000
0.445678 0.375228 0.000000
0.474082 0.375140 0.000000
0.501495 0.375228 0.000000
0.527818 0.375494 0.000000
0.553455 0.376202 0.000000
0.578639 0.377085 0.000000
0.603417 0.378406 0.000000
0.628029 0.380070 0.000000
0.652526 0.382074 0.000000
0.676997 0.384412 0.000000
0.701429 0.387076 0.000000
0.725896 0.389975 0.000000
0.750497 0.393185 0.000000
0.775205 0.396783 0.000000
0.147943 0.400591 0.000000
0.151116 0.400838 0.000000
0.155088 0.401002 0.000000
0.160419 0.401249 0.000000
0.167613 0.401659 0.000000
0.176518 0.402151 0.000000
0.187329 0.402807 0.000000
0.200004 0.403379 0.000000
0.214298 0.404195 0.000000
0.230454 0.404927 0.000000
0.248328 0.405821 0.000000
0.268323 0.406712 0.000000
0.289911 0.407439 0.000000
0.313605 0.408165 0.000000
0.338812 0.408810 0.000000
0.365748 0.409131 0.000000
0.394281 0.409212 0.000000
0.423586 0.409212 0.000000
0.452904 0.408970 0.000000
0.481853 0.408810 0.000000
0.509910 0.408729 0.000000
0.536803 0.408810 0.000000
0.563291 0.409212 0.000000
0.589339 0.409693 0.000000
0.615145 0.410655 0.000000
0.640528 0.411853 0.000000
0.665623 0.413445 0.000000
0.690584 0.415346 0.000000
0.715539 0.417629 0.000000
0.740435 0.420133 0.000000
0.765303 0.423006 0.000000
0.790283 0.426087 0.000000
0.164242 0.433755 0.000000
0.167416 0.433980 0.000000
0.171135 0.434131 0.000000
0.176327 0.434431 0.000000
0.183280 0.434806 0.000000
0.192038 0.435255 0.000000
0.202436 0.435853 0.000000
0.214630 0.436525 0.000000
0.228719 0.437271 0.000000
0.244294 0.438014 0.000000
0.261843 0.438905 0.000000
0.280909 0.439867 0.000000
0.301967 0.440754 0.000000
0.324503 0.441564 0.000000
0.348944 0.442373 0.000000
0.374919 0.443034 0.000000
0.402251 0.443327 0.000000
0.430975 0.443473 0.000000
0.460203 0.443547 0.000000
0.489142 0.443400 0.000000
0.517562 0.443254 0.000000
0.545181 0.443254 0.000000
0.572351 0.443400 0.000000
0.599318 0.443693 0.000000
0.625939 0.444205 0.000000
0.652101 0.445082 0.000000
0.678210 0.446174 0.000000
0.703828 0.447771 0.000000
0.729291 0.449577 0.000000
0.754644 0.451734 0.000000
0.779963 0.454164 0.000000
0.805275 0.456933 0.000000
0.181419 0.467819 0.000000
0.184390 0.467957 0.000000
0.188059 0.468094 0.000000
0.193114 0.468438 0.000000
0.199829 0.468781 0.000000
0.208259 0.469262 0.000000
0.218420 0.469810 0.000000
0.230297 0.470426 0.000000
0.243993 0.471178 0.000000
0.259272 0.472064 0.000000
0.276178 0.472948 0.000000
0.294708 0.473899 0.000000
0.314941 0.474847 0.000000
0.336886 0.475725 0.000000
0.360274 0.476669 0.000000
0.385330 0.477477 0.000000
0.411589 0.478081 0.000000
0.439291 0.478550 0.000000
0.467795 0.478684 0.000000
0.496534 0.478751 0.000000
0.525007 0.478751 0.000000
0.552986 0.478684 0.000000
0.580898 0.478684 0.000000
0.608516 0.478751 0.000000
0.635860 0.479153 0.000000
0.662994 0.479622 0.000000
0.689839 0.480423 0.000000
0.716375 0.481556 0.000000
0.742549 0.482951 0.000000
0.768470 0.484737 0.000000
0.794339 0.486779 0.000000
0.820081 0.489203 0.000000
0.199305 0.502701 0.000000
0.202436 0.502890 0.000000
0.205875 0.503017 0.000000
0.210790 0.503333 0.000000
0.217272 0.503648 0.000000
0.225378 0.504090 0.000000
0.235291 0.504657 0.000000
0.246691 0.505223 0.000000
0.259988 0.505977 0.000000
0.274950 0.506793 0.000000
0.291344 0.507731 0.000000
0.309319 0.508668 0.000000
0.328836 0.509727 0.000000
0.350149 0.510722 0.000000
0.372777 0.511652 0.000000
0.396864 0.512518 0.000000
0.422177 0.513383 0.000000
0.448702 0.514061 0.000000
0.476174 0.514554 0.000000
0.504350 0.514800 0.000000
0.532335 0.514861 0.000000
0.560594 0.514923 0.000000
0.588907 0.514861 0.000000
0.617232 0.514861 0.000000
0.645343 0.515046 0.000000
0.673113 0.515353 0.000000
0.700742 0.515905 0.000000
0.728025 0.516641 0.000000
0.754995 0.517742 0.000000
0.781825 0.519023 0.000000
0.808237 0.520725 0.000000
0.834644 0.522783 0.000000
0.218092 0.538320 0.000000
0.221028 0.538495 0.000000
0.224257 0.538728 0.000000
0.229035 0.538903 0.000000
0.235446 0.539252 0.000000
0.243390 0.539658 0.000000
0.252897 0.540239 0.000000
0.263971 0.540877 0.000000
0.276858 0.541513 0.000000
0.291344 0.542380 0.000000
0.307465 0.543303 0.000000
0.324856 0.544224 0.000000
0.343860 0.545315 0.000000
0.364178 0.546403 0.000000
0.386217 0.547375 0.000000
0.409394 0.548345 0.000000
0.433799 0.549312 0.000000
0.459261 0.550164 0.000000
0.485628 0.550845 0.000000
0.512615 0.551354 0.000000
0.540259 0.551637 0.000000
0.568297 0.551807 0.000000
0.596778 0.551863 0.000000
0.625490 0.551863 0.000000
0.654176 0.551920 0.000000
0.682724 0.552089 0.000000
0.710919 0.552428 0.000000
0.738954 0.552936 0.000000
0.766793 0.553669 0.000000
0.794303 0.554681 0.000000
0.821616 0.555916 0.000000
0.848611 0.557482 0.000000
0.237451 0.574748 0.000000
0.240206 0.574855 0.000000
0.243541 0.575070 0.000000
0.248180 0.575339 0.000000
0.254212 0.575608 0.000000
0.261986 0.576091 0.000000
0.271239 0.576574 0.000000
0.282114 0.577217 0.000000
0.294451 0.577859 0.000000
0.308578 0.578660 0.000000
0.324149 0.579567 0.000000
0.341177 0.580578 0.000000
0.359636 0.581534 0.000000
0.379262 0.582700 0.000000
0.400465 0.583758 0.000000
0.422882 0.584760 0.000000
0.446334 0.585918 0.000000
0.470841 0.586759 0.000000
0.496116 0.587755 0.000000
0.521978 0.588436 0.000000
0.548628 0.588959 0.000000
0.576367 0.589220 0.000000
0.604776 0.589481 0.000000
0.633509 0.589533 0.000000
0.662577 0.589585 0.000000
0.691635 0.589637 0.000000
0.720618 0.589846 0.000000
0.749239 0.590159 0.000000
0.777795 0.590732 0.000000
0.805990 0.591357 0.000000
0.834064 0.592344 0.000000
0.861790 0.593536 0.000000
0.257546 0.611885 0.000000
0.260274 0.612035 0.000000
0.263263 0.612135 0.000000
0.267765 0.612434 0.000000
0.273718 0.612783 0.000000
0.281177 0.613131 0.000000
0.290302 0.613629 0.000000
0.300705 0.614226 0.000000
0.312752 0.614971 0.000000
0.326501 0.615764 0.000000
0.341626 0.616655 0.000000
0.358144 0.617544 0.000000
0.375934 0.618580 0.000000
0.395144 0.619614 0.000000
0.415306 0.620793 0.000000
0.436937 0.621871 0.000000
0.459654 0.623045 0.000000
0.483165 0.624119 0.000000
0.507512 0.625093 0.000000
0.532273 0.625968 0.000000
0.558054 0.626793 0.000000
0.585057 0.627327 0.000000
0.613099 0.627617 0.000000
0.641784 0.627908 0.000000
0.670886 0.627956 0.000000
0.700311 0.628102 0.000000
0.729699 0.628150 0.000000
0.759109 0.628343 0.000000
0.788189 0.628682 0.000000
0.817106 0.629261 0.000000
0.845869 0.629937 0.000000
0.874387 0.630804 0.000000
0.278214 0.649771 0.000000
0.280774 0.649864 0.000000
0.283848 0.650050 0.000000
0.288077 0.650329 0.000000
0.293806 0.650654 0.000000
0.301084 0.651025 0.000000
0.309811 0.651488 0.000000
0.320114 0.652090 0.000000
0.331733 0.652784 0.000000
0.344972 0.653570 0.000000
0.359636 0.654354 0.000000
0.375630 0.655321 0.000000
0.392935 0.656333 0.000000
0.411498 0.657434 0.000000
0.431061 0.658580 0.000000
0.451697 0.659768 0.000000
0.473707 0.660908 0.000000
0.496256 0.662046 0.000000
0.519491 0.663091 0.000000
0.543506 0.664134 0.000000
0.568467 0.665040 0.000000
0.594543 0.665899 0.000000
0.621983 0.666440 0.000000
0.650396 0.666756 0.000000
0.679420 0.667072 0.000000
0.708806 0.667162 0.000000
0.738513 0.667297 0.000000
0.768318 0.667477 0.000000
0.798115 0.667702 0.000000
0.827578 0.667973 0.000000
0.856933 0.668467 0.000000
0.886119 0.669186 0.000000
0.299438 0.688488 0.000000
0.301967 0.688575 0.000000
0.304852 0.688705 0.000000
0.308949 0.688965 0.000000
0.314456 0.689226 0.000000
0.321544 0.689616 0.000000
0.329998 0.690180 0.000000
0.339940 0.690700 0.000000
0.351240 0.691392 0.000000
0.363968 0.692126 0.000000
0.378257 0.692990 0.000000
0.393705 0.693895 0.000000
0.410493 0.694884 0.000000
0.428386 0.695958 0.000000
0.447398 0.697158 0.000000
0.467182 0.698314 0.000000
0.488071 0.699467 0.000000
0.509910 0.700703 0.000000
0.532089 0.701894 0.000000
0.555382 0.702998 0.000000
0.579742 0.704057 0.000000
0.605193 0.704946 0.000000
0.631689 0.705791 0.000000
0.659420 0.706340 0.000000
0.688168 0.706720 0.000000
0.717501 0.707057 0.000000
0.747229 0.707225 0.000000
0.777270 0.707394 0.000000
0.807418 0.707520 0.000000
0.837571 0.707689 0.000000
0.867520 0.708025 0.000000
0.897246 0.708572 0.000000
0.321068 0.727904 0.000000
0.323559 0.728067 0.000000
0.326266 0.728189 0.000000
0.330345 0.728434 0.000000
0.335747 0.728760 0.000000
0.342409 0.729085 0.000000
0.350586 0.729614 0.000000
0.360167 0.730143 0.000000
0.371136 0.730752 0.000000
0.383452 0.731523 0.000000
0.397245 0.732374 0.000000
0.412227 0.733264 0.000000
0.428386 0.734234 0.000000
0.445678 0.735323 0.000000
0.464022 0.736491 0.000000
0.483165 0.737657 0.000000
0.502995 0.738941 0.000000
0.523938 0.740142 0.000000
0.545479 0.741342 0.000000
0.568071 0.742619 0.000000
0.591814 0.743654 0.000000
0.616571 0.744808 0.000000
0.642556 0.745761 0.000000
0.669336 0.746594 0.000000
0.697421 0.747108 0.000000
0.726511 0.747584 0.000000
0.756085 0.747900 0.000000
0.786125 0.748058 0.000000
0.816580 0.748295 0.000000
0.847074 0.748453 0.000000
0.877491 0.748651 0.000000
0.907889 0.748928 0.000000
0.343191 0.768201 0.000000
0.345526 0.768354 0.000000
0.348175 0.768508 0.000000
0.352111 0.768776 0.000000
0.357289 0.769083 0.000000
0.363758 0.769428 0.000000
0.371650 0.769811 0.000000
0.380865 0.770386 0.000000
0.391485 0.771036 0.000000
0.403374 0.771762 0.000000
0.416566 0.772602 0.000000
0.431147 0.773479 0.000000
0.446743 0.774469 0.000000
0.463324 0.775496 0.000000
0.480975 0.776673 0.000000
0.499438 0.777810 0.000000
0.518528 0.779097 0.000000
0.538322 0.780381 0.000000
0.559441 0.781626 0.000000
0.581503 0.782906 0.000000
0.604515 0.784146 0.000000
0.628823 0.785346 0.000000
0.653893 0.786395 0.000000
0.680271 0.787405 0.000000
0.707449 0.788226 0.000000
0.735899 0.788823 0.000000
0.765303 0.789271 0.000000
0.795249 0.789644 0.000000
0.825643 0.789904 0.000000
0.856340 0.790016 0.000000
0.887158 0.790202 0.000000
0.918009 0.790500 0.000000
0.365644 0.809495 0.000000
0.367830 0.809604 0.000000
0.370416 0.809785 0.000000
0.374206 0.809966 0.000000
0.379162 0.810184 0.000000
0.385429 0.810619 0.000000
0.393031 0.811017 0.000000
0.401970 0.811632 0.000000
0.412136 0.812175 0.000000
0.423586 0.812933 0.000000
0.436261 0.813728 0.000000
0.450244 0.814557 0.000000
0.465259 0.815601 0.000000
0.481268 0.816573 0.000000
0.498128 0.817722 0.000000
0.515880 0.818941 0.000000
0.534238 0.820159 0.000000
0.553455 0.821517 0.000000
0.573917 0.822837 0.000000
0.595555 0.824084 0.000000
0.618044 0.825436 0.000000
0.641591 0.826679 0.000000
