Luts Download/mMatrix/MotionVFX mMatrix - Neo.cube
TITLE "Neo - Created by MotionVFX"
LUT_3D_SIZE 32
0.000000 0.000000 0.000000
0.011625 0.001500 0.000000
0.024911 0.003000 0.000580
0.041640 0.005246 0.000580
0.059936 0.008986 0.001160
0.078592 0.012720 0.001739
0.097721 0.017942 0.002319
0.118954 0.024651 0.003477
0.140642 0.032109 0.004056
0.160419 0.038822 0.005214
0.179920 0.045758 0.006372
0.200178 0.053300 0.006951
0.221515 0.060747 0.008687
0.243541 0.068126 0.009844
0.266084 0.075929 0.011580
0.289649 0.084078 0.013316
0.313727 0.092084 0.015053
0.338247 0.100722 0.017370
0.363443 0.109159 0.019689
0.389251 0.118093 0.022010
0.415216 0.127119 0.024917
0.441545 0.136513 0.027830
0.467948 0.146207 0.031285
0.494441 0.156147 0.034538
0.520578 0.166289 0.038117
0.546848 0.176828 0.041499
0.573470 0.187475 0.045161
0.600689 0.198418 0.049065
0.628426 0.209803 0.052774
0.656805 0.221370 0.056702
0.685564 0.233083 0.060823
0.714702 0.245083 0.065116
0.002463 0.017942 0.001160
0.015262 0.018687 0.000000
0.032668 0.018687 0.000000
0.050742 0.020179 0.000000
0.068876 0.022415 0.000000
0.087226 0.026142 0.000580
0.106774 0.030617 0.001160
0.126849 0.037337 0.001739
0.146026 0.043065 0.002898
0.164641 0.048355 0.003477
0.184021 0.054490 0.004635
0.204161 0.060747 0.005793
0.225378 0.067618 0.007529
0.247287 0.074985 0.008687
0.269715 0.081873 0.010423
0.293031 0.089616 0.012159
0.316996 0.097651 0.013895
0.341626 0.105558 0.016211
0.366687 0.114042 0.018529
0.392259 0.122676 0.020849
0.418090 0.131737 0.023753
0.444279 0.140862 0.026664
0.470614 0.150308 0.030157
0.496950 0.160019 0.033475
0.522991 0.169949 0.037116
0.549160 0.180290 0.040550
0.575756 0.190972 0.044264
0.602946 0.201734 0.048215
0.630654 0.212948 0.051965
0.658954 0.224355 0.056317
0.687683 0.236096 0.060088
0.716876 0.248116 0.064413
0.004917 0.038822 0.002898
0.017077 0.040266 0.000580
0.033238 0.040976 0.000000
0.053252 0.040976 0.000000
0.073201 0.042376 0.000000
0.092849 0.044424 0.000000
0.112473 0.047714 0.000000
0.131375 0.050866 0.000580
0.150062 0.055078 0.001160
0.168988 0.059085 0.002319
0.188605 0.063982 0.003477
0.208767 0.069635 0.004635
0.229824 0.075458 0.005793
0.251431 0.081873 0.007529
0.273992 0.088781 0.008687
0.297273 0.096087 0.011001
0.320830 0.103349 0.012737
0.345415 0.111273 0.015053
0.370313 0.119417 0.017370
0.395814 0.127743 0.019689
0.421558 0.136513 0.022591
0.447561 0.145653 0.025499
0.473707 0.154838 0.028997
0.499851 0.164306 0.032390
0.525759 0.174248 0.036098
0.551871 0.184364 0.040071
0.578418 0.194835 0.043811
0.605557 0.205605 0.047356
0.633215 0.216624 0.051557
0.661512 0.228032 0.055543
0.690146 0.239593 0.059718
0.719166 0.251443 0.063706
0.008583 0.063982 0.005214
0.020697 0.065035 0.002319
0.035458 0.066076 0.000580
0.054069 0.067107 0.000000
0.074816 0.067107 0.000000
0.095576 0.067107 0.000000
0.114898 0.068126 0.000000
0.134054 0.069135 0.000000
0.153215 0.070629 0.000000
0.172877 0.073553 0.000580
0.192935 0.077329 0.001739
0.213800 0.081873 0.002898
0.235291 0.086668 0.004056
0.257113 0.092084 0.005214
0.279564 0.098426 0.006951
0.302596 0.104826 0.008687
0.326266 0.111970 0.010423
0.350695 0.119417 0.012737
0.375427 0.127119 0.015053
0.400842 0.135036 0.017949
0.426388 0.143416 0.020849
0.452341 0.152188 0.023753
0.478103 0.161037 0.027246
0.504080 0.170432 0.030724
0.529866 0.180061 0.034538
0.555789 0.190104 0.038117
0.582325 0.200497 0.041967
0.609395 0.210988 0.046047
0.636934 0.221932 0.050321
0.665024 0.233261 0.054368
0.693643 0.244743 0.058599
0.722562 0.256350 0.062635
0.014051 0.090031 0.008108
0.026114 0.090856 0.005793
0.039143 0.091267 0.002898
0.055279 0.092084 0.000580
0.073526 0.091676 0.000000
0.093673 0.090444 0.000000
0.114415 0.089616 0.000000
0.134719 0.089616 0.000000
0.155502 0.090444 0.000000
0.176518 0.091676 0.000000
0.197726 0.094102 0.000000
0.218911 0.097262 0.000580
0.240511 0.101478 0.001739
0.262980 0.105923 0.002898
0.285705 0.111273 0.004635
0.309195 0.116755 0.005793
0.333229 0.122998 0.007529
0.357503 0.129907 0.009844
0.382161 0.137100 0.012159
0.407184 0.144538 0.015053
0.432519 0.152454 0.017949
0.458236 0.160783 0.020849
0.483964 0.169465 0.024335
0.509710 0.178682 0.027830
0.535156 0.187916 0.031840
0.561054 0.197790 0.036098
0.587393 0.207814 0.040071
0.614379 0.218154 0.043811
0.641881 0.228942 0.048215
0.669975 0.239940 0.052370
0.698372 0.251278 0.056702
0.727289 0.262745 0.061188
0.019492 0.112664 0.011580
0.030919 0.113010 0.009265
0.042610 0.113355 0.006372
0.056470 0.114042 0.002898
0.072548 0.114042 0.000580
0.091466 0.113699 0.000000
0.112229 0.113010 0.000000
0.134054 0.112318 0.000000
0.156329 0.111970 0.000000
0.178602 0.112664 0.000000
0.200875 0.114042 0.000000
0.223614 0.116419 0.000000
0.246243 0.119087 0.000000
0.269298 0.122676 0.000580
0.292253 0.127119 0.001739
0.315910 0.132040 0.003477
0.340053 0.137392 0.005214
0.364702 0.143416 0.006951
0.389641 0.149767 0.009265
0.414946 0.156408 0.011580
0.440128 0.164057 0.014474
0.465645 0.171872 0.017370
0.491061 0.180061 0.020849
0.516528 0.188794 0.024335
0.541765 0.197790 0.028413
0.567618 0.207414 0.032935
0.593849 0.217007 0.037116
0.620774 0.227301 0.041026
0.648210 0.237676 0.045606
0.676141 0.248451 0.049905
0.704383 0.259568 0.054368
0.733152 0.270824 0.058599
0.025512 0.134739 0.015632
0.036536 0.135036 0.012737
0.046349 0.135333 0.009844
0.059179 0.135924 0.006372
0.073850 0.136513 0.002898
0.090908 0.136807 0.000580
0.110511 0.136807 0.000000
0.132495 0.136219 0.000000
0.155916 0.135629 0.000000
0.179920 0.135924 0.000000
0.203472 0.136513 0.000000
0.227133 0.137684 0.000000
0.250842 0.139714 0.000000
0.274950 0.142286 0.000000
0.299184 0.145653 0.000000
0.323322 0.149496 0.000580
0.347515 0.154311 0.002319
0.372367 0.159763 0.004056
0.397340 0.165300 0.006372
0.422794 0.171633 0.008108
0.448295 0.178220 0.010423
0.473932 0.185481 0.013316
0.499438 0.193128 0.016211
0.524442 0.201322 0.019689
0.549692 0.210001 0.023753
0.575367 0.218915 0.028413
0.601635 0.228396 0.032935
0.628476 0.238375 0.037116
0.655774 0.248451 0.041967
0.683480 0.258928 0.046486
0.711678 0.269751 0.051147
0.740195 0.280725 0.055543
0.033238 0.157706 0.020269
0.042610 0.158223 0.017949
0.051589 0.158481 0.015053
0.063262 0.158995 0.011001
0.076720 0.159763 0.006951
0.092298 0.160529 0.002898
0.110511 0.160783 0.000580
0.131375 0.161037 0.000000
0.154881 0.160783 0.000000
0.179920 0.160529 0.000000
0.205019 0.160529 0.000000
0.229982 0.161291 0.000000
0.254794 0.162553 0.000000
0.279833 0.164555 0.000000
0.304727 0.167027 0.000000
0.330229 0.170191 0.000000
0.355464 0.174012 0.000000
0.380765 0.178220 0.000580
0.405795 0.183466 0.002319
0.431319 0.189231 0.004635
0.456733 0.195260 0.006951
0.482364 0.201940 0.009844
0.507712 0.209010 0.012159
0.532950 0.216624 0.015632
0.558343 0.224540 0.018529
0.584403 0.232904 0.022591
0.610530 0.241839 0.027246
0.637324 0.251443 0.031840
0.664471 0.261162 0.037116
0.692116 0.271282 0.041967
0.720037 0.281753 0.046486
0.748373 0.292387 0.051557
0.041148 0.181657 0.025499
0.049454 0.181884 0.023172
0.057642 0.182337 0.020269
0.068193 0.183015 0.016790
0.080735 0.183691 0.012159
0.095306 0.184588 0.006951
0.112473 0.185481 0.002898
0.132047 0.186148 0.000000
0.154465 0.186370 0.000000
0.179356 0.186148 0.000000
0.205362 0.186148 0.000000
0.231866 0.186591 0.000000
0.258122 0.187255 0.000000
0.284114 0.188575 0.000000
0.310180 0.190756 0.000000
0.336203 0.193128 0.000000
0.362179 0.196318 0.000000
0.388568 0.199875 0.000000
0.414494 0.203984 0.000000
0.440462 0.208811 0.000000
0.466030 0.214503 0.002319
0.491344 0.220617 0.005214
0.516658 0.227301 0.008108
0.541826 0.234328 0.011001
0.567391 0.241839 0.014474
0.593314 0.249619 0.017949
0.619916 0.258125 0.022010
0.646922 0.266817 0.026081
0.674154 0.275821 0.030724
0.701687 0.285538 0.035583
0.729577 0.295608 0.041026
0.757754 0.305854 0.046486
0.049454 0.206612 0.032390
0.056470 0.207014 0.030157
0.063983 0.207414 0.027246
0.073850 0.208014 0.023172
0.085781 0.208811 0.017949
0.099836 0.209803 0.012737
0.115859 0.210791 0.006951
0.134498 0.211774 0.002898
0.155916 0.212362 0.000000
0.179920 0.212948 0.000000
0.205875 0.213143 0.000000
0.232804 0.213338 0.000000
0.260417 0.213727 0.000000
0.287814 0.214697 0.000000
0.315062 0.216048 0.000000
0.342074 0.217963 0.000000
0.368867 0.220617 0.000000
0.395623 0.223612 0.000000
0.422353 0.227301 0.000000
0.449108 0.231471 0.000000
0.475204 0.236273 0.000000
0.501222 0.241495 0.000000
0.526385 0.247613 0.002319
0.551519 0.254236 0.005793
0.577089 0.261162 0.008687
0.603260 0.268674 0.012737
0.629764 0.276570 0.016211
0.656711 0.284959 0.020269
0.683968 0.293512 0.024917
0.711678 0.302481 0.029581
0.739635 0.311693 0.034538
0.768051 0.321245 0.039588
0.058029 0.232726 0.039101
0.064342 0.233083 0.037116
0.071229 0.233439 0.034538
0.080431 0.233973 0.030724
0.091744 0.234860 0.025499
0.105257 0.235744 0.019689
0.120603 0.236800 0.013316
0.138243 0.238026 0.006951
0.158995 0.239072 0.002319
0.181792 0.239940 0.000000
0.207069 0.240632 0.000000
0.234050 0.241150 0.000000
0.262128 0.241667 0.000000
0.290824 0.242182 0.000000
0.319277 0.243210 0.000000
0.347405 0.244743 0.000000
0.375224 0.246941 0.000000
0.402720 0.249453 0.000000
0.430028 0.252597 0.000000
0.457050 0.256350 0.000000
0.483819 0.260366 0.000000
0.510373 0.264946 0.000000
0.536011 0.270365 0.000000
0.561916 0.276121 0.000000
0.587664 0.282631 0.002319
0.613867 0.289839 0.006372
0.640334 0.297135 0.009844
0.667277 0.304914 0.013895
0.694471 0.313133 0.018529
0.722107 0.321625 0.023172
0.750026 0.330363 0.028413
0.778319 0.339439 0.034009
0.066811 0.259728 0.046047
0.072875 0.260047 0.044264
0.079208 0.260366 0.042433
0.087799 0.261003 0.039101
0.098518 0.261796 0.034009
0.111494 0.262745 0.028413
0.126621 0.264005 0.021430
0.143668 0.265258 0.013895
0.163442 0.266506 0.007529
0.185496 0.267747 0.002319
0.209612 0.268828 0.000000
0.236065 0.269751 0.000000
0.264112 0.270518 0.000000
0.293160 0.271129 0.000000
0.322612 0.272044 0.000000
0.352002 0.273107 0.000000
0.380865 0.274920 0.000000
0.409577 0.277019 0.000000
0.437611 0.279692 0.000000
0.465105 0.282923 0.000000
0.492474 0.286548 0.000000
0.518785 0.290833 0.000000
0.545121 0.295469 0.000000
0.571734 0.300574 0.000000
0.598208 0.306524 0.000000
0.624940 0.312741 0.000000
0.651675 0.319590 0.002319
0.678524 0.326900 0.006951
0.705578 0.334512 0.011001
0.733152 0.342520 0.015632
0.761040 0.350774 0.020849
0.789329 0.359472 0.026081
0.076089 0.287841 0.053575
0.081642 0.288270 0.051965
0.087799 0.288556 0.049905
0.096116 0.289127 0.047356
0.106270 0.289982 0.042896
0.118954 0.290975 0.037618
0.133387 0.291964 0.030724
0.150273 0.293372 0.022591
0.169380 0.294911 0.014474
0.190779 0.296304 0.007529
0.214132 0.297689 0.002319
0.239596 0.298929 0.000000
0.266926 0.300027 0.000000
0.295865 0.300984 0.000000
0.325797 0.301938 0.000000
0.356002 0.303024 0.000000
0.386118 0.304510 0.000000
0.415667 0.306122 0.000000
0.444773 0.308390 0.000000
0.473031 0.311298 0.000000
0.500743 0.314566 0.000000
0.527694 0.318439 0.000000
0.554448 0.322637 0.000000
0.581118 0.327521 0.000000
0.608154 0.332445 0.000000
0.635518 0.338006 0.000000
0.662577 0.344049 0.000000
0.690014 0.350544 0.000000
0.717460 0.357574 0.002319
0.744973 0.365097 0.006951
0.772717 0.372970 0.012159
0.800896 0.381059 0.017370
0.086071 0.317154 0.061552
0.091187 0.317411 0.060088
0.096921 0.317668 0.058223
0.105003 0.318310 0.055543
0.114898 0.319079 0.051965
0.127078 0.319973 0.046922
0.141509 0.321245 0.040550
0.158178 0.322637 0.032935
0.176708 0.324149 0.023753
0.197197 0.325778 0.015053
0.220053 0.327397 0.007529
0.244744 0.329007 0.002319
0.271239 0.330486 0.000000
0.299565 0.331712 0.000000
0.329417 0.332933 0.000000
0.359955 0.334027 0.000000
0.390710 0.335359 0.000000
0.421381 0.336926 0.000000
0.451536 0.338843 0.000000
0.480608 0.341339 0.000000
0.508913 0.344283 0.000000
0.536376 0.347662 0.000000
0.563463 0.351461 0.000000
0.590740 0.355550 0.000000
0.617993 0.360362 0.000000
0.645343 0.365316 0.000000
0.673158 0.370726 0.000000
0.701085 0.376463 0.000000
0.728842 0.382817 0.000000
0.756939 0.389546 0.000000
0.785090 0.396624 0.001739
0.813200 0.404315 0.007529
0.096653 0.347315 0.069883
0.101404 0.347662 0.068547
0.107026 0.348010 0.066848
0.114657 0.348472 0.064413
0.124555 0.349280 0.060823
0.136487 0.350315 0.056317
0.150484 0.351346 0.050321
0.167021 0.352716 0.043355
0.185128 0.354306 0.035063
0.205191 0.356113 0.024917
0.227133 0.357910 0.015053
0.251284 0.359584 0.007529
0.277129 0.361359 0.002319
0.304727 0.363014 0.000000
0.333918 0.364550 0.000000
0.364388 0.365861 0.000000
0.395432 0.367383 0.000000
0.426649 0.368898 0.000000
0.457525 0.370619 0.000000
0.487713 0.372757 0.000000
0.516399 0.375304 0.000000
0.544703 0.378143 0.000000
0.572295 0.381577 0.000000
0.600004 0.385179 0.000000
0.627681 0.389445 0.000000
0.655633 0.393852 0.000000
0.683391 0.398981 0.000000
0.711467 0.404219 0.000000
0.739875 0.409843 0.000000
0.768432 0.415739 0.000000
0.796811 0.422344 0.000000
0.825539 0.429080 0.000000
0.107778 0.378561 0.078416
0.112473 0.378874 0.077201
0.117770 0.379292 0.075658
0.125246 0.379813 0.073456
0.134941 0.380541 0.070214
0.146666 0.381474 0.066159
0.160621 0.382611 0.060456
0.176708 0.383949 0.053972
0.194719 0.385587 0.046486
0.214298 0.387319 0.037116
0.235756 0.389243 0.026664
0.259128 0.391155 0.015632
0.284380 0.393155 0.007529
0.311407 0.395043 0.001739
0.339828 0.396920 0.000000
0.369900 0.398589 0.000000
0.400748 0.400153 0.000000
0.432091 0.401805 0.000000
0.463247 0.403545 0.000000
0.493880 0.405371 0.000000
0.523434 0.407472 0.000000
0.552224 0.410032 0.000000
0.580733 0.412851 0.000000
0.609034 0.416202 0.000000
0.637177 0.419883 0.000000
0.665393 0.423883 0.000000
0.693730 0.428368 0.000000
0.722273 0.433054 0.000000
0.750497 0.438448 0.000000
0.779328 0.443922 0.000000
0.808308 0.449553 0.000000
0.837469 0.455740 0.000000
0.119662 0.410692 0.087636
0.124325 0.410974 0.086250
0.129349 0.411351 0.084845
0.136707 0.411914 0.082844
0.146240 0.412571 0.079915
0.157973 0.413506 0.075969
0.171717 0.414717 0.070871
0.187512 0.416109 0.064765
0.205191 0.417587 0.057466
0.224577 0.419334 0.049065
0.245644 0.421344 0.039101
0.268463 0.423431 0.027830
0.293031 0.425505 0.016790
0.319397 0.427566 0.007529
0.347184 0.429613 0.001739
0.376339 0.431558 0.000000
0.406629 0.433404 0.000000
0.437780 0.435153 0.000000
0.468941 0.436805 0.000000
0.499713 0.438621 0.000000
0.529618 0.440512 0.000000
0.559095 0.442732 0.000000
0.588583 0.445022 0.000000
0.617333 0.448050 0.000000
0.646348 0.451131 0.000000
0.675013 0.454840 0.000000
0.703828 0.458748 0.000000
0.732463 0.463168 0.000000
0.761425 0.467764 0.000000
0.790429 0.472759 0.000000
0.819313 0.478286 0.000000
0.848811 0.483869 0.000000
0.132495 0.443752 0.096864
0.137147 0.444091 0.095848
0.142158 0.444430 0.094565
0.149428 0.445022 0.092480
0.158791 0.445613 0.089817
0.170356 0.446540 0.086250
0.183836 0.447631 0.081683
0.199305 0.448969 0.075658
0.216778 0.450468 0.068883
0.235756 0.452207 0.060823
0.256535 0.454102 0.051557
0.278889 0.456229 0.041026
0.302722 0.458343 0.028413
0.328487 0.460524 0.017370
0.355572 0.462609 0.008108
0.384046 0.464760 0.001739
0.413589 0.466740 0.000000
0.444031 0.468707 0.000000
0.474831 0.470427 0.000000
0.505498 0.472216 0.000000
0.535522 0.474073 0.000000
0.565517 0.476072 0.000000
0.595449 0.478286 0.000000
0.625390 0.480712 0.000000
0.654646 0.483569 0.000000
0.684367 0.486623 0.000000
0.713486 0.490162 0.000000
0.742669 0.494096 0.000000
0.771961 0.498196 0.000000
0.801292 0.502808 0.000000
0.830812 0.507492 0.000000
0.860317 0.512791 0.000000
0.146453 0.477295 0.106792
0.150906 0.477601 0.105625
0.155916 0.477906 0.104210
0.162840 0.478362 0.102537
0.172104 0.479046 0.099859
0.183465 0.479880 0.096611
0.196845 0.480939 0.092217
0.211964 0.482219 0.086807
0.228877 0.483644 0.080508
0.247734 0.485286 0.073137
0.268184 0.487142 0.064413
0.290041 0.489134 0.053972
0.313483 0.491260 0.042896
0.338360 0.493516 0.029581
0.365016 0.495685 0.017949
0.392742 0.497910 0.008108
0.421469 0.500049 0.001160
0.451052 0.502032 0.000000
0.481268 0.504073 0.000000
0.511563 0.505892 0.000000
0.541525 0.507770 0.000000
0.571734 0.509705 0.000000
0.602055 0.511697 0.000000
0.632576 0.513881 0.000000
0.662762 0.516319 0.000000
0.692946 0.519006 0.000000
0.722686 0.522135 0.000000
0.752653 0.525429 0.000000
0.782235 0.529271 0.000000
0.812175 0.533259 0.000000
0.841700 0.537700 0.000000
0.871687 0.542326 0.000000
0.161026 0.511012 0.116614
0.165437 0.511217 0.115751
0.170356 0.511560 0.114447
0.177278 0.512039 0.112687
0.186231 0.512586 0.110227
0.197197 0.513404 0.107256
0.210286 0.514424 0.103257
0.225218 0.515644 0.098122
0.241878 0.516993 0.091953
0.260560 0.518605 0.085128
0.280506 0.520341 0.076894
0.302219 0.522267 0.067532
0.324974 0.524378 0.056317
0.349383 0.526541 0.044264
0.375122 0.528818 0.030724
0.402251 0.530950 0.017949
0.430287 0.533195 0.008108
0.459103 0.535424 0.000580
0.488429 0.537448 0.000000
0.518078 0.539521 0.000000
0.547798 0.541394 0.000000
0.577975 0.543317 0.000000
0.608516 0.545229 0.000000
0.639220 0.547250 0.000000
0.670112 0.549441 0.000000
0.700785 0.551797 0.000000
0.731692 0.554377 0.000000
0.761695 0.557593 0.000000
0.792369 0.560664 0.000000
0.822416 0.564352 0.000000
0.852570 0.568351 0.000000
0.882928 0.572538 0.000000
0.176518 0.544552 0.126947
0.180671 0.544798 0.125948
0.185496 0.545106 0.124942
0.192038 0.545475 0.123112
0.200875 0.546149 0.120842
0.211797 0.546884 0.117896
0.224577 0.547799 0.114229
0.239291 0.548895 0.109548
0.255521 0.550228 0.103496
0.273855 0.551737 0.096864
0.293548 0.553359 0.089276
0.314820 0.555214 0.080508
0.337340 0.557237 0.070214
0.361227 0.559368 0.058599
0.386217 0.561604 0.046047
0.412500 0.563886 0.031840
0.439877 0.566154 0.018529
0.467948 0.568351 0.008108
0.496464 0.570651 0.000580
0.525258 0.572709 0.000000
0.554390 0.574756 0.000000
0.584457 0.576680 0.000000
0.614991 0.578650 0.000000
0.645918 0.580666 0.000000
0.676997 0.582728 0.000000
0.708297 0.584945 0.000000
0.739394 0.587369 0.000000
0.770711 0.589942 0.000000
0.801436 0.592933 0.000000
0.832354 0.596170 0.000000
0.863162 0.599648 0.000000
0.893703 0.603571 0.000000
0.192577 0.578144 0.137684
0.196668 0.578369 0.136571
0.201222 0.578650 0.135636
0.207750 0.579099 0.133939
0.216284 0.579603 0.131646
0.226974 0.580331 0.128923
0.239444 0.581225 0.125345
0.253920 0.582339 0.121050
0.269993 0.583561 0.115535
0.287814 0.585000 0.109093
0.307217 0.586599 0.101813
0.328137 0.588411 0.093528
0.350367 0.590379 0.083992
0.373594 0.592445 0.072816
0.398100 0.594716 0.060823
0.423498 0.596975 0.046922
0.450163 0.599275 0.032935
0.477511 0.601614 0.018529
0.505296 0.603888 0.007529
0.533134 0.606148 0.000000
0.561859 0.608345 0.000000
0.591331 0.610426 0.000000
0.621681 0.612444 0.000000
0.652620 0.614453 0.000000
0.683879 0.616555 0.000000
0.715414 0.618646 0.000000
0.747031 0.620878 0.000000
0.778805 0.623300 0.000000
0.810369 0.625908 0.000000
0.841835 0.628749 0.000000
0.872910 0.632113 0.000000
0.904523 0.635401 0.000000
0.209105 0.612031 0.148400
0.213133 0.612289 0.147534
0.217600 0.612599 0.146489
0.223935 0.612960 0.144909
0.232336 0.613527 0.142777
0.242635 0.614196 0.140070
0.254939 0.615018 0.136757
0.269159 0.616043 0.132606
0.284910 0.617270 0.127543
0.302345 0.618697 0.121258
0.321425 0.620220 0.114447
0.341962 0.621940 0.106559
0.363758 0.623803 0.097620
0.386708 0.625908 0.087361
0.410493 0.628053 0.075347
0.435499 0.630384 0.062635
0.461065 0.632753 0.048215
0.487713 0.635059 0.034009
0.514644 0.637401 0.018529
0.541946 0.639780 0.007529
0.569878 0.642097 0.000000
0.599001 0.644306 0.000000
0.628823 0.646456 0.000000
0.659653 0.648548 0.000000
0.690803 0.650583 0.000000
0.722479 0.652702 0.000000
0.754332 0.654858 0.000000
0.786383 0.657144 0.000000
0.818543 0.659510 0.000000
0.850510 0.662185 0.000000
0.882707 0.664890 0.000000
0.914027 0.668261 0.000000
0.226496 0.646408 0.159583
0.230297 0.646599 0.158774
0.234672 0.646837 0.157634
0.240815 0.647265 0.156157
0.248921 0.647741 0.154168
0.258985 0.648405 0.151648
0.271101 0.649211 0.148400
0.284910 0.650205 0.144378
0.300452 0.651337 0.139705
0.317598 0.652749 0.133750
0.336317 0.654250 0.127146
0.356431 0.655886 0.119587
0.377753 0.657748 0.110903
0.400276 0.659695 0.101327
0.423586 0.661863 0.090355
0.447806 0.664113 0.078114
0.472805 0.666488 0.064765
0.498404 0.668941 0.049486
0.524631 0.671291 0.035063
0.551342 0.673718 0.019109
0.578804 0.676132 0.006951
0.607273 0.678490 0.000000
0.636739 0.680702 0.000000
0.666910 0.682861 0.000000
0.698026 0.685009 0.000000
0.729617 0.687104 0.000000
0.761579 0.689276 0.000000
0.793866 0.691481 0.000000
0.826231 0.693804 0.000000
0.858874 0.696202 0.000000
0.891205 0.698842 0.000000
0.923880 0.701594 0.000000
0.244143 0.681011 0.170998
0.247882 0.681232 0.170087
0.252165 0.681496 0.169171
0.258122 0.681893 0.167788
0.266084 0.682333 0.165772
0.275905 0.682993 0.163259
0.287683 0.683783 0.160228
0.301336 0.684703 0.156487
0.316513 0.685796 0.151987
0.333344 0.687104 0.146315
0.351458 0.688582 0.139887
0.371239 0.690228 0.132606
0.392162 0.691955 0.124537
0.414223 0.693890 0.115318
0.437106 0.695945 0.104919
0.460673 0.698247 0.093005
0.485050 0.700537 0.080508
0.509777 0.703027 0.066159
0.535034 0.705420 0.051147
0.561284 0.707843 0.035583
0.588313 0.710295 0.019109
0.616317 0.712735 0.006372
0.645103 0.715162 0.000000
0.674968 0.717414 0.000000
0.705535 0.719656 0.000000
0.737026 0.721846 0.000000
0.768889 0.723987 0.000000
0.801256 0.726159 0.000000
0.833825 0.728401 0.000000
0.866644 0.730752 0.000000
0.899567 0.733171 0.000000
0.932507 0.735815 0.000000
0.262554 0.716064 0.182607
0.266084 0.716269 0.181892
0.270270 0.716515 0.180888
0.276041 0.716883 0.179589
0.283848 0.717332 0.177697
0.293418 0.717945 0.175342
0.304852 0.718719 0.172357
0.318078 0.719615 0.168711
0.332999 0.720671 0.164363
0.349492 0.721927 0.159098
0.367311 0.723342 0.152829
0.386610 0.724913 0.145789
0.407092 0.726600 0.138054
0.428560 0.728520 0.129316
0.450971 0.730513 0.119587
0.474082 0.732736 0.108407
0.497574 0.735066 0.095848
0.521724 0.737465 0.082844
0.546075 0.739969 0.067532
0.571846 0.742383 0.052370
0.598473 0.744901 0.036098
0.625989 0.747369 0.019689
0.654270 0.749863 0.005793
0.683568 0.752268 0.000000
0.713738 0.754587 0.000000
0.744696 0.756895 0.000000
0.776445 0.759080 0.000000
0.808735 0.761294 0.000000
0.841396 0.763498 0.000000
0.874419 0.765767 0.000000
0.907584 0.768100 0.000000
0.940943 0.770607 0.000000
0.281311 0.751429 0.194648
0.284778 0.751620 0.193839
0.288733 0.751887 0.192892
0.294451 0.752230 0.191669
0.301967 0.752687 0.189888
0.311285 0.753258 0.187537
0.322493 0.753980 0.184593
0.335405 0.754890 0.181175
0.349930 0.755875 0.176964
0.366061 0.757084 0.172056
0.383551 0.758441 0.166084
0.402251 0.759982 0.159260
0.422265 0.761630 0.151648
0.443370 0.763460 0.143312
0.465105 0.765432 0.133750
0.487641 0.767545 0.123521
0.510506 0.769834 0.111575
0.533870 0.772259 0.098869
0.557880 0.774673 0.084845
0.582818 0.777222 0.068883
0.609085 0.779686 0.053575
0.636153 0.782247 0.036609
0.664149 0.784760 0.019689
0.692858 0.787332 0.005214
0.722438 0.789751 0.000000
0.753083 0.792123 0.000000
0.784312 0.794415 0.000000
0.816475 0.796662 0.000000
0.849045 0.798900 0.000000
0.882136 0.801164 0.000000
0.915417 0.803488 0.000000
0.949079 0.805871 0.000000
0.300452 0.787261 0.206800
0.303851 0.787475 0.206164
0.307712 0.787688 0.205270
0.313240 0.787973 0.203986
0.320591 0.788472 0.202176
0.329650 0.789040 0.199958
0.340503 0.789680 0.197187
0.353088 0.790531 0.193839
0.367311 0.791557 0.189888
0.383055 0.792688 0.185016
0.400088 0.793992 0.179444
0.418268 0.795504 0.172658
0.437864 0.797117 0.165460
0.458315 0.798865 0.157471
0.479579 0.800816 0.148400
0.501495 0.802899 0.138422
0.523749 0.805078 0.127344
0.546432 0.807454 0.114447
0.570103 0.809855 0.101570
0.594703 0.812449 0.086807
0.620169 0.814998 0.070214
0.646969 0.817536 0.054761
0.674380 0.820129 0.036609
