Luts Download/mMatrix/MotionVFX mMatrix - Trinity.cube
TITLE "Trinity - Created by MotionVFX"
LUT_3D_SIZE 8
DOMAIN_MIN 0.000000 0.000000 0.000000
DOMAIN_MAX 0.903226 0.903226 0.903226
0.000789 0.000789 0.025234
0.129666 0.000000 0.020503
0.275267 0.000000 0.016560
0.422559 0.000000 0.012617
0.569405 0.000000 0.007886
0.717674 0.000000 0.004731
0.867006 0.000000 0.003154
0.978305 0.000000 0.001577
0.003154 0.124646 0.022869
0.128739 0.123360 0.021292
0.274584 0.120087 0.017349
0.421663 0.115355 0.012617
0.568677 0.110791 0.007886
0.716761 0.105669 0.003943
0.865871 0.099916 0.002366
0.978277 0.094262 0.001577
0.005520 0.255933 0.025234
0.130586 0.254892 0.023657
0.276084 0.251132 0.019714
0.423453 0.246844 0.014983
0.570299 0.241994 0.010251
0.718379 0.236868 0.005520
0.867686 0.231447 0.002366
0.978277 0.225707 0.001577
0.008674 0.385854 0.027600
0.133009 0.384577 0.026023
0.278652 0.380992 0.022080
0.425960 0.376710 0.017349
0.572803 0.371892 0.012617
0.720860 0.366706 0.007886
0.870109 0.361232 0.003154
0.978333 0.355555 0.001577
0.011040 0.513814 0.029966
0.135977 0.512602 0.028389
0.281459 0.508878 0.024446
0.428849 0.504534 0.020503
0.575734 0.499746 0.015771
0.723823 0.494565 0.011040
0.873069 0.489180 0.005520
0.978305 0.483513 0.001577
0.013406 0.641683 0.033120
0.139456 0.640387 0.030754
0.284890 0.636718 0.026812
0.432268 0.632387 0.022869
0.579139 0.627623 0.018137
0.727218 0.622513 0.013406
0.876432 0.617046 0.008674
0.978388 0.611311 0.003154
0.016560 0.769456 0.036274
0.143129 0.768090 0.033909
0.288660 0.764433 0.029966
0.435967 0.760021 0.026023
0.582845 0.755188 0.021292
0.730958 0.750196 0.016560
0.880127 0.744726 0.011829
0.978333 0.739083 0.006309
0.018926 0.897096 0.039429
0.146981 0.895669 0.037063
0.292627 0.892028 0.033120
0.439860 0.887707 0.029177
0.586843 0.882884 0.024446
0.734955 0.877836 0.019714
0.884085 0.872395 0.014194
0.978333 0.866682 0.009463
0.002366 0.001577 0.119088
0.131196 0.000000 0.115010
0.277439 0.000000 0.111859
0.424426 0.000000 0.107524
0.571358 0.000000 0.103021
0.719621 0.000000 0.097930
0.868785 0.000000 0.093011
0.978222 0.000000 0.087851
0.004731 0.126551 0.118081
0.130586 0.124965 0.116042
0.276356 0.121406 0.112567
0.423615 0.117066 0.107892
0.570633 0.112567 0.103403
0.718628 0.107156 0.098729
0.867912 0.101867 0.093429
0.978277 0.096315 0.088291
0.007097 0.257707 0.120087
0.132407 0.256526 0.118081
0.277844 0.252945 0.114317
0.425315 0.248539 0.110072
0.572192 0.243727 0.105295
0.720282 0.238644 0.100700
0.869593 0.233105 0.095499
0.978250 0.227412 0.090032
0.010251 0.387579 0.122387
0.134798 0.386309 0.120748
0.280394 0.382652 0.116726
0.427728 0.378206 0.112567
0.574796 0.373601 0.107892
0.722837 0.368444 0.103021
0.871977 0.363002 0.097930
0.978305 0.357359 0.092590
0.012617 0.515594 0.124965
0.137728 0.514260 0.123360
0.283444 0.510616 0.119422
0.430841 0.506290 0.115010
0.577660 0.501392 0.110432
0.725830 0.496433 0.105669
0.875089 0.490938 0.100700
0.978415 0.485365 0.095088
0.014983 0.643503 0.128118
0.141164 0.642163 0.126235
0.286977 0.638507 0.122387
0.434162 0.633998 0.118081
0.581050 0.629348 0.113270
0.729173 0.624156 0.108623
0.878377 0.618758 0.103403
0.978333 0.613095 0.097930
0.018137 0.771196 0.131196
0.145068 0.769759 0.129357
0.290587 0.766150 0.125284
0.437841 0.761828 0.121078
0.584794 0.757165 0.116385
0.732859 0.751956 0.111504
0.882156 0.746542 0.106415
0.978333 0.740678 0.101090
0.020503 0.898952 0.134501
0.149137 0.897529 0.132407
0.294524 0.893866 0.128429
0.441867 0.889464 0.124326
0.588669 0.884654 0.119755
0.736883 0.879491 0.114664
0.886041 0.874064 0.109712
0.978333 0.868430 0.104163
0.003943 0.003154 0.214975
0.133308 0.000000 0.213158
0.279056 0.000000 0.209098
0.426121 0.000000 0.204759
0.573191 0.000000 0.200315
0.721355 0.000000 0.195359
0.870592 0.000000 0.190262
0.978360 0.000000 0.185012
0.006309 0.128118 0.215517
0.132708 0.126866 0.213705
0.278249 0.123036 0.209657
0.425396 0.118753 0.205331
0.572247 0.113969 0.200706
0.720324 0.108987 0.195761
0.869690 0.103403 0.190675
0.978305 0.097529 0.185438
0.008674 0.259320 0.217312
0.134204 0.258001 0.215336
0.279859 0.254444 0.211692
0.427006 0.250068 0.207224
0.573966 0.245291 0.202647
0.722220 0.240246 0.197755
0.871269 0.234585 0.192727
0.978333 0.228934 0.187342
0.011829 0.389204 0.219621
0.136563 0.387941 0.217847
0.282255 0.384303 0.214069
0.429487 0.379881 0.209657
0.576505 0.375112 0.205140
0.724561 0.369981 0.200120
0.873775 0.364470 0.195158
0.978333 0.358855 0.189848
0.014194 0.517240 0.222426
0.139456 0.515975 0.220502
0.285152 0.512282 0.216775
0.432584 0.507910 0.212426
0.579467 0.503032 0.207600
0.727504 0.497894 0.202840
0.876751 0.492487 0.197755
0.978415 0.486732 0.192319
0.016560 0.645077 0.225192
0.143129 0.643741 0.223468
0.288660 0.640050 0.219621
0.435889 0.635700 0.215156
0.582791 0.630919 0.210770
0.730958 0.625843 0.205711
0.880222 0.620514 0.200706
0.978305 0.614618 0.195158
0.019714 0.772743 0.228428
0.146710 0.771347 0.226391
0.292373 0.767634 0.222600
0.439627 0.763362 0.218381
0.586520 0.758710 0.213705
0.734633 0.753477 0.208725
0.883770 0.748117 0.203610
0.978333 0.742309 0.198349
0.022080 0.900494 0.231613
0.150733 0.899075 0.229607
0.296406 0.895359 0.225878
0.443634 0.891060 0.221554
0.590434 0.886292 0.216954
0.738604 0.881174 0.212059
0.887833 0.875664 0.206847
0.978333 0.869980 0.201485
0.005520 0.004731 0.315668
0.135093 0.000789 0.314038
0.280661 0.000000 0.310394
0.427889 0.000000 0.306097
0.574962 0.000000 0.301604
0.722878 0.000000 0.296656
0.872395 0.000000 0.291609
0.978360 0.000000 0.286327
0.007886 0.129666 0.316132
0.134204 0.128118 0.314505
0.279993 0.124965 0.310985
0.427086 0.120418 0.306457
0.574132 0.115699 0.301971
0.722179 0.110432 0.297031
0.871333 0.104919 0.291864
0.978360 0.099126 0.286457
0.010251 0.260922 0.318209
0.135977 0.259758 0.316595
0.281459 0.255933 0.312751
0.428849 0.251738 0.308373
0.575734 0.246844 0.303799
0.723782 0.241677 0.298895
0.873101 0.236381 0.293767
0.978305 0.230613 0.288402
0.013406 0.390731 0.320611
0.138306 0.389564 0.318897
0.283971 0.385763 0.315087
0.431317 0.381546 0.310985
0.578208 0.376710 0.306217
0.726361 0.371701 0.301359
0.875505 0.366027 0.296156
0.978388 0.360541 0.290715
0.015771 0.518691 0.323331
0.141446 0.517430 0.321634
0.286977 0.513878 0.317864
0.434319 0.509458 0.313571
0.581159 0.504730 0.308850
0.729254 0.499548 0.304042
0.878505 0.494164 0.298895
0.978333 0.488298 0.293387
0.018926 0.646599 0.326247
0.144793 0.645315 0.324569
0.290331 0.641683 0.320725
0.437685 0.637348 0.316479
0.584578 0.632534 0.311811
0.732657 0.627376 0.306938
0.881871 0.621864 0.301726
0.978333 0.616238 0.296406
0.021292 0.774436 0.329463
0.148333 0.773045 0.327583
0.294019 0.769380 0.323894
0.441405 0.765006 0.319584
0.588294 0.760214 0.314971
0.736321 0.755071 0.310038
0.885568 0.749687 0.304890
0.978333 0.743935 0.299266
0.023657 0.902065 0.332751
0.152574 0.900679 0.330893
0.298151 0.896972 0.327138
0.445391 0.892683 0.322880
0.592298 0.887864 0.318209
0.740280 0.882726 0.313337
0.889526 0.877325 0.308135
0.978333 0.871591 0.302826
0.007097 0.006309 0.423128
0.136855 0.003154 0.421173
0.282388 0.000000 0.417558
0.429647 0.000000 0.413319
0.576505 0.000000 0.408687
0.724848 0.000000 0.403903
0.874128 0.000000 0.398786
0.978360 0.000000 0.393409
0.009463 0.131196 0.423291
0.135977 0.129973 0.421826
0.281592 0.126235 0.417888
0.428929 0.122061 0.413737
0.575844 0.117405 0.409026
0.723946 0.112214 0.404161
0.873230 0.106786 0.398961
0.978333 0.100700 0.393587
0.012617 0.262513 0.425315
0.137728 0.261357 0.423615
0.283313 0.257707 0.419863
0.430602 0.253396 0.415653
0.577495 0.248539 0.410969
0.725584 0.243256 0.406047
0.874801 0.237839 0.400877
0.978415 0.232111 0.395447
0.014983 0.392430 0.427728
0.140312 0.391179 0.425960
0.285675 0.387579 0.422233
0.433058 0.383111 0.418053
0.580069 0.378486 0.413403
0.728196 0.373317 0.408517
0.877293 0.367770 0.403300
0.978388 0.362118 0.397823
0.018137 0.520450 0.430443
0.143129 0.519194 0.428689
0.288789 0.515658 0.425073
0.436123 0.511129 0.420682
0.582953 0.506290 0.416068
0.731080 0.501195 0.411137
0.880285 0.495700 0.405962
0.978333 0.490060 0.400616
0.020503 0.648354 0.433374
0.146437 0.646932 0.431634
0.292118 0.643311 0.427889
0.439550 0.638942 0.423615
0.586305 0.634241 0.419041
0.734472 0.629003 0.414155
0.883706 0.623609 0.408857
0.978333 0.617953 0.403559
0.022869 0.776012 0.436593
0.150203 0.774662 0.434791
0.295906 0.771083 0.431079
0.443174 0.766645 0.426765
0.590060 0.761905 0.422152
0.738164 0.756778 0.417227
0.887362 0.751370 0.412062
0.978333 0.745556 0.406730
0.026023 0.903754 0.439860
0.154392 0.902403 0.438074
0.299883 0.898674 0.434319
0.447140 0.894302 0.430125
0.593997 0.889526 0.425396
0.742190 0.884527 0.420518
0.891341 0.878950 0.415321
0.978333 0.873294 0.409872
0.009463 0.008674 0.531399
0.138595 0.004731 0.529195
0.284234 0.000000 0.525434
0.431396 0.000000 0.521013
0.578318 0.000000 0.516418
0.726647 0.000000 0.511642
0.875920 0.000000 0.506485
0.978277 0.000000 0.501064
0.011829 0.132708 0.531154
0.137728 0.131499 0.529563
0.283444 0.128118 0.525867
0.430761 0.123683 0.521451
0.577714 0.118753 0.516924
0.725707 0.113620 0.511898
0.874929 0.108258 0.506745
0.978360 0.102637 0.501327
0.014194 0.264236 0.533105
0.139456 0.262945 0.531276
0.285152 0.259466 0.527658
0.432347 0.254892 0.523323
0.579249 0.250220 0.518691
0.727463 0.245135 0.513814
0.876687 0.239606 0.508620
0.978415 0.233929 0.503228
0.017349 0.394031 0.535409
0.142009 0.392786 0.533712
0.287496 0.389204 0.530053
0.434869 0.384851 0.525744
0.581704 0.379973 0.521076
0.729823 0.374830 0.516165
0.879046 0.369502 0.511001
0.978333 0.363590 0.505511
0.019714 0.522014 0.538121
0.145068 0.520700 0.536436
0.290587 0.517177 0.532800
0.437841 0.512666 0.528458
0.584740 0.507975 0.523759
0.732859 0.502835 0.518942
0.882093 0.497430 0.513687
0.978333 0.491680 0.508298
0.022080 0.649913 0.541175
0.148333 0.648543 0.539441
0.293893 0.644934 0.535711
0.441328 0.640579 0.531399
0.588133 0.635894 0.526733
0.736241 0.630674 0.521764
0.885505 0.625248 0.516608
0.978333 0.619612 0.511258
0.025234 0.777659 0.544325
0.152050 0.776237 0.542545
0.297654 0.772630 0.538782
0.444934 0.768318 0.534501
0.591873 0.763553 0.529931
0.739921 0.758363 0.524938
0.889182 0.752931 0.519822
0.978333 0.747251 0.514387
0.027600 0.905347 0.547687
0.155933 0.903938 0.545862
0.301726 0.900186 0.542128
0.448881 0.895980 0.537761
0.595741 0.891216 0.533105
0.743895 0.886103 0.528212
0.893119 0.880539 0.523074
0.978333 0.874929 0.517619
0.011040 0.010251 0.638990
0.140312 0.006309 0.637348
0.286066 0.001577 0.633510
0.433137 0.000000 0.629052
0.580123 0.000000 0.624554
0.728278 0.000000 0.619662
0.877453 0.000000 0.614466
0.978388 0.000000 0.609213
0.013406 0.134501 0.639183
0.139456 0.133308 0.637444
0.285152 0.129666 0.633803
0.432505 0.125284 0.629544
0.579413 0.120418 0.624852
0.727422 0.115355 0.619862
0.876623 0.109712 0.614770
0.978333 0.104163 0.609316
0.016560 0.265804 0.641299
0.141164 0.264522 0.639472
0.286847 0.260922 0.635797
0.434004 0.256526 0.631360
0.580996 0.251889 0.626783
0.729132 0.246689 0.621764
0.878282 0.241201 0.616642
0.978388 0.235403 0.611311
0.018926 0.395712 0.643598
0.143686 0.394385 0.641827
0.289304 0.390821 0.638169
0.436593 0.386400 0.633803
0.583496 0.381731 0.629151
0.731606 0.376522 0.624206
0.880793 0.370938 0.619009
0.978333 0.365249 0.613705
0.021292 0.523634 0.646219
0.146710 0.522513 0.644553
0.292246 0.518754 0.640819
0.439627 0.514323 0.636524
0.586467 0.509587 0.631898
0.734633 0.504469 0.626981
0.883833 0.498953 0.621764
0.978333 0.493293 0.616339
0.024446 0.651562 0.649252
0.149937 0.650290 0.647454
0.295655 0.646599 0.643741
0.443020 0.642306 0.639424
0.589846 0.637444 0.634825
0.737964 0.632241 0.629888
0.887204 0.626932 0.624703
0.978333 0.621165 0.619361
0.026812 0.779264 0.652361
0.153875 0.777846 0.650573
0.299389 0.774211 0.646837
0.446685 0.769948 0.642594
0.593573 0.765158 0.637928
0.741673 0.759983 0.632973
0.890872 0.754566 0.627771
0.978333 0.748941 0.622413
0.029177 0.906998 0.655683
0.157710 0.905592 0.653955
0.303435 0.902003 0.650196
0.450613 0.897529 0.645839
0.597532 0.892807 0.641299
0.745674 0.887644 0.636282
0.894893 0.882283 0.631115
0.978333 0.876463 0.625794
0.012617 0.011829 0.747684
0.142009 0.007886 0.745398
0.287755 0.003154 0.741951
0.434948 0.000000 0.737403
0.581813 0.000000 0.732778
0.730025 0.000000 0.728033
0.879237 0.000000 0.722837
0.978360 0.000000 0.717467
0.014983 0.135977 0.747605
0.141164 0.134798 0.745793
0.286847 0.131196 0.742031
0.434240 0.126866 0.737844
0.581105 0.122061 0.733263
0.729213 0.117066 0.728359
0.878377 0.111504 0.723125
0.978305 0.105669 0.717633
0.018137 0.267361 0.749491
0.142850 0.266230 0.747881
0.288531 0.262513 0.744133
0.435889 0.258148 0.739762
0.582736 0.253396 0.735076
0.730837 0.248231 0.730228
0.880095 0.242941 0.725052
0.978360 0.237030 0.719704
0.020503 0.397296 0.751917
0.145343 0.395977 0.750118
0.290971 0.392430 0.746424
0.438386 0.388031 0.742150
0.585227 0.383203 0.737484
0.733384 0.378113 0.732617
0.882568 0.372653 0.727422
0.978333 0.366900 0.722055
0.023657 0.525310 0.754605
0.148333 0.524007 0.752892
0.294019 0.520324 0.749177
0.441328 0.516101 0.744924
0.588240 0.511129 0.740240
0.736321 0.506031 0.735277
0.885568 0.500603 0.730107
0.978333 0.494900 0.724725
0.026023 0.653111 0.757551
0.151788 0.651844 0.755770
0.297405 0.648259 0.752112
0.444628 0.643837 0.747723
0.591660 0.638990 0.743182
0.739602 0.633851 0.738204
0.888868 0.628412 0.733021
0.978333 0.622812 0.727667
0.028389 0.780901 0.760714
0.155421 0.779524 0.758903
0.301114 0.775900 0.755188
0.448352 0.771423 0.750940
0.595266 0.766759 0.746266
0.743380 0.761598 0.741315
0.892620 0.756274 0.736201
0.978333 0.750549 0.730837
0.031543 0.908492 0.764050
0.159468 0.907059 0.762289
0.305132 0.903447 0.758556
0.452412 0.899106 0.754216
0.599211 0.894333 0.749608
0.747330 0.889119 0.744647
0.896538 0.883770 0.739443
0.978333 0.878122 0.734150
