Luts Download/mMatrix/MotionVFX mMatrix - Trinity.cube
TITLE "Trinity - Created by MotionVFX"
LUT_3D_SIZE 5
DOMAIN_MIN 0.000000 0.000000 0.000000
DOMAIN_MAX 0.903226 0.903226 0.903226
0.000789 0.000789 0.025234
0.238322 0.000000 0.017349
0.495767 0.000000 0.010251
0.754877 0.000000 0.003943
0.978305 0.000000 0.001577
0.004731 0.223295 0.024446
0.238805 0.219621 0.019714
0.496300 0.211692 0.012617
0.755071 0.202647 0.003943
0.978222 0.192931 0.001577
0.009463 0.449936 0.029177
0.243256 0.445924 0.024446
0.500669 0.438230 0.016560
0.759559 0.429328 0.007886
0.978360 0.419534 0.001577
0.014194 0.673605 0.033909
0.249152 0.669716 0.029177
0.506485 0.661988 0.021292
0.765349 0.653158 0.013406
0.978333 0.643264 0.003943
0.018926 0.897096 0.039429
0.255933 0.893119 0.034697
0.513240 0.885316 0.026812
0.772027 0.876463 0.018137
0.978333 0.866682 0.009463
0.003154 0.003154 0.189433
0.241835 0.000000 0.185438
0.499020 0.000000 0.178048
0.758054 0.000000 0.169613
0.978305 0.000000 0.160463
0.007886 0.226220 0.192319
0.241994 0.222252 0.187552
0.499416 0.214613 0.180036
0.758363 0.205711 0.171474
0.978250 0.195761 0.162434
0.012617 0.452860 0.196561
0.246534 0.448805 0.191909
0.503881 0.441096 0.184157
0.762787 0.432347 0.175811
0.978388 0.422396 0.166543
0.017349 0.676570 0.201485
0.252342 0.672568 0.196761
0.509780 0.664929 0.189225
0.768622 0.656056 0.180693
0.978333 0.646219 0.171474
0.022080 0.900155 0.207224
0.259174 0.896104 0.202261
0.516545 0.888304 0.194755
0.775412 0.879459 0.186287
0.978305 0.869625 0.177156
0.006309 0.005520 0.369502
0.244979 0.000000 0.365055
0.502246 0.000000 0.357459
0.761098 0.000000 0.348943
0.978360 0.000000 0.339638
0.011040 0.229103 0.371225
0.245291 0.225192 0.366803
0.502573 0.217490 0.359153
0.761367 0.208351 0.350585
0.978360 0.198744 0.341227
0.015771 0.455612 0.375395
0.249610 0.451738 0.370843
0.506939 0.443940 0.363296
0.765845 0.435026 0.354749
0.978333 0.425234 0.345424
0.020503 0.679429 0.380529
0.255487 0.675449 0.376053
0.512857 0.667670 0.368444
0.771687 0.658892 0.359848
0.978333 0.649016 0.350482
0.025234 0.902894 0.386218
0.262225 0.898797 0.381638
0.519508 0.891122 0.374074
0.778443 0.882220 0.365541
0.978333 0.872459 0.356258
0.009463 0.008674 0.558021
0.247924 0.001577 0.553117
0.505250 0.000000 0.545862
0.764203 0.000000 0.537279
0.978333 0.000000 0.528089
0.014194 0.231945 0.559568
0.248385 0.228090 0.555143
0.505706 0.220326 0.547628
0.764547 0.211508 0.538962
0.978388 0.201485 0.529686
0.018926 0.458491 0.563721
0.252794 0.454499 0.559396
0.510102 0.446837 0.551780
0.768925 0.437997 0.543198
0.978333 0.428129 0.533894
0.023657 0.682272 0.568901
0.258588 0.678180 0.564457
0.515911 0.670578 0.556872
0.774774 0.661620 0.548274
0.978333 0.651891 0.539022
0.028389 0.905837 0.574630
0.265377 0.901726 0.570075
0.522700 0.894053 0.562474
0.781607 0.885127 0.553871
0.978333 0.875281 0.544621
0.012617 0.011829 0.747684
0.250981 0.004731 0.742944
0.508298 0.000000 0.735277
0.767216 0.000000 0.726810
0.978360 0.000000 0.717467
0.017349 0.234749 0.749059
0.251284 0.230780 0.744568
0.508685 0.223121 0.737003
0.767596 0.214250 0.728400
0.978388 0.204377 0.719083
0.022080 0.461347 0.753204
0.255636 0.457313 0.748784
0.513113 0.449635 0.741196
0.771989 0.440710 0.732617
0.978333 0.431000 0.723330
0.026812 0.685057 0.758286
0.261502 0.681075 0.753827
0.518942 0.673470 0.746306
0.777846 0.664516 0.737724
0.978333 0.654750 0.728441
0.031543 0.908492 0.764050
0.268487 0.904490 0.759520
0.525682 0.896724 0.751956
0.784496 0.887833 0.743420
0.978333 0.878122 0.734150
