Luts Download/mMatrix/MotionVFX mMatrix - Morpheus.cube
TITLE "Morpheus - Created by MotionVFX"
LUT_3D_SIZE 5
DOMAIN_MIN 0.000000 0.000000 0.000000
DOMAIN_MAX 0.903226 0.903226 0.903226
0.000000 0.000000 0.000000
0.107026 0.023735 0.001306
0.241878 0.073165 0.004935
0.402626 0.130149 0.012418
0.576811 0.196430 0.025275
0.043090 0.155132 0.000000
0.126163 0.153999 0.000000
0.282248 0.149849 0.000000
0.434735 0.168774 0.004935
0.587718 0.208530 0.023097
0.118718 0.338049 0.000000
0.173648 0.340630 0.000000
0.322967 0.343679 0.000000
0.518078 0.343581 0.000000
0.687110 0.357931 0.000000
0.237451 0.574748 0.000000
0.282114 0.577217 0.000000
0.400465 0.583758 0.000000
0.576367 0.589220 0.000000
0.777795 0.590732 0.000000
0.388275 0.851584 0.000000
0.423234 0.853714 0.000000
0.515555 0.859799 0.000000
0.655022 0.868889 0.000000
0.844292 0.875483 0.000000
0.009801 0.024431 0.043219
0.094219 0.049766 0.073788
0.269576 0.056731 0.051843
0.430545 0.111239 0.024661
0.581283 0.194458 0.027672
0.037593 0.153771 0.088020
0.119662 0.155583 0.073396
0.235291 0.171250 0.058991
0.409027 0.185035 0.049517
0.584730 0.209199 0.029701
0.075454 0.344949 0.019144
0.178225 0.340827 0.049517
0.320949 0.344363 0.050919
0.513009 0.345338 0.030554
0.687287 0.356431 0.000000
0.227609 0.576467 0.005601
0.274266 0.578767 0.000000
0.398859 0.584127 0.000000
0.577698 0.587965 0.000000
0.778506 0.589376 0.000000
0.390030 0.850689 0.000000
0.424727 0.852718 0.000000
0.516787 0.858845 0.000000
0.656055 0.867910 0.000000
0.845333 0.874510 0.000000
0.039143 0.081513 0.122877
0.075135 0.085459 0.192349
0.211462 0.121319 0.181384
0.415126 0.145345 0.175642
0.639122 0.153543 0.142666
0.068535 0.156706 0.175255
0.105257 0.164564 0.180497
0.229666 0.173692 0.205011
0.434735 0.175300 0.171761
0.643134 0.157820 0.137922
0.108528 0.338447 0.246645
0.157358 0.342797 0.241307
0.309688 0.348919 0.215212
0.425340 0.382682 0.165061
0.607740 0.403134 0.190015
0.138462 0.587650 0.181131
0.201743 0.590003 0.172411
0.421912 0.582170 0.218237
0.565004 0.594673 0.196235
0.744299 0.604848 0.200065
0.284247 0.866083 0.076116
0.381463 0.861978 0.137197
0.523371 0.860991 0.175770
0.657553 0.870373 0.165459
0.841801 0.876655 0.180497
0.070896 0.134878 0.211814
0.090908 0.142429 0.257766
0.194007 0.159807 0.333697
0.367727 0.206338 0.331562
0.578086 0.247053 0.341260
0.095576 0.177488 0.238083
0.113689 0.182747 0.271310
0.205875 0.188043 0.356756
0.375122 0.217710 0.337859
0.579687 0.246632 0.339967
0.147731 0.340827 0.383491
0.182909 0.346892 0.378094
0.270547 0.363861 0.377190
0.447152 0.373717 0.426563
0.670340 0.382248 0.339401
0.218747 0.577645 0.488007
0.261701 0.580950 0.483068
0.357182 0.592136 0.479665
0.558632 0.599096 0.434601
0.699450 0.631382 0.326763
0.273306 0.866997 0.447968
0.323322 0.869092 0.443161
0.408291 0.881164 0.394650
0.611302 0.888466 0.307484
0.835530 0.887440 0.320737
0.107778 0.194097 0.319471
0.122936 0.201186 0.354953
0.185128 0.211029 0.484009
0.355464 0.250535 0.518902
0.546670 0.308507 0.530082
0.117055 0.207858 0.330738
0.130926 0.212515 0.363447
0.188969 0.215291 0.486636
0.356968 0.250811 0.518254
0.547798 0.308728 0.529274
0.193114 0.356807 0.484072
0.220703 0.362942 0.482502
0.284645 0.377878 0.519313
0.413136 0.387504 0.644405
0.600478 0.419665 0.607864
0.269993 0.579780 0.672280
0.301841 0.584074 0.667527
0.363022 0.596787 0.687668
0.491768 0.607171 0.778421
0.730879 0.604949 0.793587
0.361016 0.856796 0.791474
0.395910 0.859493 0.787154
0.453865 0.871047 0.788610
0.555498 0.889259 0.802286
0.850344 0.876186 0.785404
