Luts Download/mMatrix/MotionVFX mMatrix - Trinity.cube
TITLE "Trinity - Created by MotionVFX"
LUT_3D_SIZE 32
0.000789 0.000789 0.025234
0.024446 0.000000 0.022869
0.059868 0.000000 0.022080
0.094676 0.000000 0.021292
0.129666 0.000000 0.020503
0.165345 0.000000 0.019714
0.201873 0.000000 0.018926
0.238322 0.000000 0.017349
0.275267 0.000000 0.016560
0.312164 0.000000 0.015771
0.348841 0.000000 0.014194
0.385763 0.000000 0.013406
0.422559 0.000000 0.012617
0.459299 0.000000 0.011040
0.495767 0.000000 0.010251
0.532679 0.000000 0.008674
0.569405 0.000000 0.007886
0.606333 0.000000 0.006309
0.643455 0.000000 0.005520
0.680497 0.000000 0.005520
0.717674 0.000000 0.004731
0.754877 0.000000 0.003943
0.792204 0.000000 0.003943
0.829493 0.000000 0.003154
0.867006 0.000000 0.003154
0.904336 0.000000 0.002366
0.942615 0.000000 0.002366
0.967985 0.000000 0.001577
0.978305 0.000000 0.001577
0.985562 0.000000 0.001577
0.992856 0.000000 0.000789
0.999946 0.000000 0.000789
0.000789 0.026023 0.022869
0.022869 0.026023 0.022869
0.058053 0.026023 0.022080
0.092590 0.025234 0.020503
0.128739 0.025234 0.019714
0.164381 0.024446 0.018926
0.200706 0.023657 0.018137
0.237839 0.022869 0.017349
0.274174 0.022080 0.016560
0.311221 0.020503 0.014983
0.347913 0.019714 0.014194
0.384851 0.018926 0.013406
0.421744 0.018137 0.011829
0.458123 0.016560 0.011040
0.495033 0.015771 0.009463
0.531643 0.014983 0.008674
0.568509 0.013406 0.007097
0.605455 0.012617 0.006309
0.642402 0.011829 0.005520
0.679563 0.011040 0.004731
0.716761 0.009463 0.003943
0.753827 0.008674 0.003943
0.790999 0.007886 0.003154
0.828565 0.007886 0.003154
0.865806 0.007886 0.002366
0.903355 0.007886 0.002366
0.941569 0.007886 0.002366
0.967481 0.007886 0.001577
0.978222 0.007097 0.001577
0.985589 0.007097 0.001577
0.992748 0.007097 0.000789
1.000000 0.007097 0.000789
0.001577 0.058662 0.022080
0.022869 0.059267 0.022869
0.057439 0.058662 0.022080
0.092590 0.058053 0.021292
0.128739 0.057439 0.020503
0.164623 0.056820 0.019714
0.200706 0.055568 0.018137
0.237354 0.054934 0.017349
0.274448 0.053651 0.016560
0.310985 0.053002 0.015771
0.347913 0.051686 0.014194
0.384577 0.050348 0.013406
0.421581 0.049669 0.011829
0.458123 0.048294 0.011040
0.494766 0.046892 0.010251
0.531521 0.046181 0.008674
0.568453 0.044738 0.007886
0.605248 0.043264 0.006309
0.642306 0.041759 0.005520
0.679251 0.040994 0.003943
0.716345 0.039429 0.003943
0.753671 0.037852 0.003154
0.790963 0.037063 0.003154
0.828187 0.035486 0.003154
0.865611 0.033909 0.002366
0.903048 0.033120 0.002366
0.941424 0.031543 0.001577
0.967228 0.030754 0.001577
0.978250 0.029177 0.001577
0.985589 0.028389 0.000789
0.992856 0.027600 0.000789
1.000000 0.026812 0.000789
0.002366 0.091745 0.022869
0.022869 0.092168 0.022869
0.057439 0.091745 0.022080
0.093011 0.090892 0.021292
0.128429 0.090463 0.020503
0.164623 0.089600 0.019714
0.200901 0.088729 0.018926
0.237677 0.087851 0.018137
0.274037 0.086965 0.016560
0.310867 0.085622 0.015771
0.347706 0.084717 0.014983
0.384577 0.083803 0.013406
0.421663 0.082416 0.012617
0.458418 0.081481 0.011040
0.494966 0.080060 0.010251
0.531582 0.079102 0.008674
0.568341 0.077646 0.007886
0.605300 0.076662 0.006309
0.642259 0.075168 0.005520
0.679384 0.074158 0.003943
0.716595 0.072622 0.003943
0.753671 0.071060 0.003154
0.791036 0.070003 0.003154
0.828359 0.068394 0.003154
0.865741 0.067305 0.002366
0.903140 0.065646 0.002366
0.941453 0.063953 0.001577
0.967228 0.062806 0.001577
0.978195 0.061056 0.001577
0.985507 0.059868 0.000789
0.992802 0.059267 0.000789
1.000000 0.058662 0.001577
0.003154 0.124646 0.022869
0.022869 0.125284 0.023657
0.058053 0.124646 0.022869
0.093011 0.124326 0.022080
0.128739 0.123360 0.021292
0.164623 0.122387 0.020503
0.201096 0.121734 0.019714
0.237677 0.120748 0.018137
0.274584 0.120087 0.017349
0.311221 0.118753 0.015771
0.348119 0.117744 0.014983
0.384851 0.116726 0.014194
0.421663 0.115355 0.012617
0.458565 0.114317 0.011829
0.495167 0.113270 0.010251
0.531704 0.111859 0.009463
0.568677 0.110791 0.007886
0.605559 0.109350 0.007097
0.642594 0.108258 0.006309
0.679652 0.106786 0.004731
0.716761 0.105669 0.003943
0.753905 0.104163 0.003154
0.791292 0.102637 0.003154
0.828565 0.101479 0.002366
0.865871 0.099916 0.002366
0.903478 0.098729 0.002366
0.941628 0.097126 0.001577
0.967200 0.095908 0.001577
0.978277 0.094262 0.001577
0.985534 0.093011 0.000789
0.992802 0.092168 0.000789
1.000000 0.090892 0.000000
0.003943 0.157710 0.023657
0.022869 0.157963 0.023657
0.058053 0.157963 0.023657
0.093429 0.156951 0.022080
0.129049 0.156443 0.021292
0.165105 0.155677 0.020503
0.201485 0.154650 0.019714
0.237839 0.153615 0.018926
0.274584 0.152574 0.018137
0.311457 0.151525 0.016560
0.348222 0.150468 0.015771
0.385216 0.149404 0.014194
0.422070 0.148333 0.013406
0.458859 0.147253 0.011829
0.495434 0.145891 0.011040
0.532070 0.144793 0.010251
0.568957 0.143408 0.008674
0.605920 0.142290 0.007886
0.642929 0.140880 0.006309
0.679874 0.139742 0.005520
0.717093 0.138595 0.003943
0.754216 0.137147 0.003154
0.791547 0.135683 0.003154
0.828771 0.134204 0.002366
0.866163 0.133009 0.002366
0.903631 0.131499 0.002366
0.942005 0.129973 0.001577
0.967397 0.128739 0.001577
0.978167 0.127180 0.001577
0.985507 0.125919 0.000789
0.992802 0.124965 0.000789
1.000000 0.124326 0.001577
0.004731 0.190262 0.023657
0.023657 0.190882 0.024446
0.058662 0.190469 0.023657
0.093846 0.189848 0.022869
0.129357 0.189016 0.022080
0.165586 0.188390 0.021292
0.201873 0.187552 0.020503
0.238322 0.186709 0.019714
0.275267 0.185650 0.018137
0.311928 0.184585 0.017349
0.348738 0.183513 0.016560
0.385490 0.182434 0.014983
0.422478 0.181348 0.014194
0.459226 0.180036 0.012617
0.495700 0.178934 0.011829
0.532496 0.177603 0.010251
0.569349 0.176260 0.009463
0.606230 0.175134 0.007886
0.643311 0.173999 0.007097
0.680230 0.172627 0.005520
0.717508 0.171243 0.004731
0.754760 0.169847 0.003154
0.791839 0.168439 0.003154
0.829218 0.167256 0.002366
0.866584 0.165825 0.002366
0.904152 0.164381 0.002366
0.942441 0.162923 0.001577
0.967453 0.161452 0.001577
0.978305 0.160215 0.001577
0.985507 0.158968 0.000789
0.992775 0.157963 0.000789
1.000000 0.156951 0.000789
0.004731 0.223295 0.024446
0.024446 0.223987 0.025234
0.058662 0.223295 0.024446
0.094262 0.222774 0.023657
0.129973 0.221903 0.022869
0.166065 0.221204 0.022080
0.202261 0.220326 0.020503
0.238805 0.219621 0.019714
0.275404 0.218381 0.018926
0.312281 0.217490 0.018137
0.349252 0.216237 0.016560
0.385854 0.215156 0.015771
0.422803 0.214069 0.014194
0.459666 0.212975 0.013406
0.496300 0.211692 0.012617
0.533044 0.210585 0.011040
0.569796 0.209285 0.010251
0.606694 0.207788 0.008674
0.643646 0.206658 0.007886
0.680675 0.205521 0.006309
0.717882 0.203994 0.004731
0.755071 0.202647 0.003943
0.792387 0.201485 0.003154
0.829665 0.200120 0.002366
0.867038 0.198547 0.002366
0.904673 0.197159 0.002366
0.942934 0.195761 0.001577
0.967621 0.194352 0.001577
0.978222 0.192931 0.001577
0.985534 0.191704 0.000789
0.992748 0.190675 0.000789
1.000000 0.189848 0.000789
0.005520 0.255933 0.025234
0.024446 0.256526 0.025234
0.059267 0.256081 0.024446
0.094676 0.255636 0.024446
0.130586 0.254892 0.023657
0.166304 0.253995 0.022080
0.202647 0.253095 0.021292
0.239286 0.252191 0.020503
0.276084 0.251132 0.019714
0.312986 0.250220 0.018137
0.349663 0.249152 0.017349
0.386581 0.247924 0.016560
0.423453 0.246844 0.014983
0.460251 0.245602 0.014194
0.496766 0.244510 0.012617
0.533469 0.243256 0.011829
0.570299 0.241994 0.010251
0.607209 0.240883 0.009463
0.644123 0.239446 0.007886
0.681252 0.238161 0.007097
0.718379 0.236868 0.005520
0.755615 0.235567 0.003943
0.792970 0.234257 0.003154
0.830248 0.232774 0.002366
0.867686 0.231447 0.002366
0.905102 0.230111 0.002366
0.943543 0.228597 0.001577
0.967929 0.227072 0.001577
0.978277 0.225707 0.001577
0.985534 0.224504 0.000789
0.992802 0.223468 0.000789
1.000000 0.222600 0.000789
0.006309 0.288531 0.026023
0.025234 0.289175 0.026023
0.059868 0.288789 0.025234
0.095499 0.288143 0.024446
0.130891 0.287366 0.023657
0.167019 0.286587 0.022869
0.203418 0.285544 0.022080
0.239926 0.284759 0.021292
0.276627 0.283839 0.019714
0.313337 0.282785 0.018926
0.350175 0.281592 0.018137
0.387126 0.280527 0.016560
0.424102 0.279458 0.015771
0.460763 0.278249 0.014194
0.497231 0.277034 0.013406
0.534076 0.275812 0.011829
0.570745 0.274448 0.011040
0.607775 0.273350 0.010251
0.644744 0.272109 0.008674
0.681829 0.270862 0.007097
0.719042 0.269468 0.006309
0.756158 0.268066 0.004731
0.793407 0.266796 0.003943
0.830728 0.265520 0.002366
0.868139 0.263950 0.002366
0.905622 0.262657 0.002366
0.944064 0.261357 0.001577
0.968125 0.259758 0.001577
0.978222 0.258295 0.001577
0.985479 0.256969 0.000789
0.992802 0.256230 0.000789
1.000000 0.255190 0.000789
0.007097 0.321066 0.026023
0.026023 0.321748 0.026812
0.060464 0.321407 0.026023
0.095908 0.320611 0.025234
0.131499 0.319927 0.024446
0.167731 0.319126 0.023657
0.203994 0.318323 0.022869
0.240564 0.317287 0.021292
0.277304 0.316363 0.020503
0.313922 0.315203 0.019714
0.350789 0.314155 0.018137
0.387760 0.313103 0.017349
0.424507 0.311811 0.016560
0.461347 0.310867 0.014983
0.497894 0.309564 0.014194
0.534683 0.308373 0.012617
0.571525 0.307178 0.011829
0.608392 0.305976 0.010251
0.645363 0.304648 0.009463
0.682405 0.303313 0.007886
0.719580 0.301971 0.007097
0.756816 0.300622 0.005520
0.794062 0.299266 0.003943
0.831345 0.297778 0.003154
0.868818 0.296531 0.002366
0.906173 0.295153 0.002366
0.944614 0.293767 0.001577
0.968349 0.292246 0.001577
0.978250 0.290715 0.001577
0.985562 0.289561 0.000789
0.992775 0.288660 0.000789
1.000000 0.287755 0.000789
0.007886 0.353536 0.026812
0.026023 0.354143 0.026812
0.061056 0.353840 0.026812
0.096721 0.353131 0.026023
0.132105 0.352319 0.025234
0.168203 0.351606 0.024446
0.204568 0.350585 0.022869
0.241201 0.349765 0.022080
0.277844 0.348738 0.021292
0.314738 0.347603 0.020503
0.351504 0.346464 0.018926
0.388302 0.345528 0.018137
0.425234 0.344381 0.016560
0.462003 0.343229 0.015771
0.498557 0.342072 0.014983
0.535167 0.340910 0.013406
0.572136 0.339638 0.012617
0.609008 0.338359 0.011040
0.645982 0.337075 0.009463
0.683069 0.335785 0.008674
0.720241 0.334380 0.007097
0.757435 0.333078 0.006309
0.794788 0.331878 0.004731
0.831995 0.330344 0.003943
0.869431 0.329022 0.002366
0.906937 0.327583 0.002366
0.945366 0.326136 0.001577
0.968629 0.324793 0.001577
0.978250 0.323331 0.001577
0.985562 0.322088 0.000789
0.992829 0.320953 0.000789
1.000000 0.320269 0.000789
0.008674 0.385854 0.027600
0.026812 0.386490 0.027600
0.061643 0.386036 0.026812
0.097126 0.385307 0.026812
0.133009 0.384577 0.026023
0.168910 0.383845 0.024446
0.205331 0.382927 0.023657
0.241835 0.382007 0.022869
0.278652 0.380992 0.022080
0.315320 0.379881 0.020503
0.352115 0.378858 0.019714
0.389024 0.377833 0.018926
0.425960 0.376710 0.017349
0.462658 0.375395 0.016560
0.499152 0.374263 0.014983
0.535953 0.373032 0.014194
0.572803 0.371892 0.012617
0.609726 0.370651 0.011829
0.646694 0.369310 0.010251
0.683777 0.367963 0.009463
0.720860 0.366706 0.007886
0.758131 0.365249 0.007097
0.795369 0.363981 0.005520
0.832679 0.362610 0.003943
0.870109 0.361232 0.003154
0.907577 0.359848 0.002366
0.946059 0.358357 0.001577
0.968853 0.356959 0.001577
0.978333 0.355555 0.001577
0.985589 0.354345 0.000789
0.992802 0.353232 0.000789
1.000000 0.352420 0.000789
0.009463 0.418053 0.028389
0.027600 0.418465 0.028389
0.062806 0.417971 0.027600
0.097930 0.417393 0.026812
0.133608 0.416565 0.026023
0.169613 0.415902 0.025234
0.205901 0.414905 0.024446
0.242468 0.413904 0.023657
0.279190 0.412901 0.022080
0.316016 0.411894 0.021292
0.352827 0.410801 0.020503
0.389654 0.409788 0.018926
0.426604 0.408687 0.018137
0.463312 0.407412 0.017349
0.499944 0.406304 0.015771
0.536677 0.405020 0.014983
0.573468 0.403817 0.013406
0.610340 0.402523 0.012617
0.647406 0.401311 0.011040
0.684439 0.400007 0.010251
0.721561 0.398611 0.008674
0.758749 0.397384 0.007097
0.796131 0.396065 0.006309
0.833396 0.394563 0.004731
0.870818 0.393231 0.003154
0.908248 0.391805 0.002366
0.946752 0.390462 0.002366
0.969161 0.388934 0.001577
0.978333 0.387579 0.001577
0.985589 0.386309 0.001577
0.992829 0.385307 0.000789
1.000000 0.384485 0.000789
0.009463 0.449936 0.029177
0.028389 0.450538 0.029177
0.063382 0.449936 0.028389
0.098729 0.449334 0.027600
0.134204 0.448654 0.026812
0.170314 0.447898 0.026023
0.206658 0.446913 0.025234
0.243256 0.445924 0.024446
0.279859 0.444934 0.022869
0.316710 0.443863 0.022080
0.353536 0.442790 0.021292
0.390373 0.441713 0.019714
0.427327 0.440633 0.018926
0.464037 0.439395 0.017349
0.500669 0.438230 0.016560
0.537460 0.437061 0.015771
0.574188 0.435810 0.014194
0.611158 0.434555 0.012617
0.648117 0.433216 0.011829
0.685145 0.431951 0.010251
0.722343 0.430682 0.009463
0.759559 0.429328 0.007886
0.796710 0.427969 0.007097
0.834146 0.426524 0.005520
0.871494 0.425234 0.003943
0.909010 0.423859 0.003154
0.947415 0.422315 0.002366
0.969413 0.421009 0.001577
0.978360 0.419534 0.001577
0.985562 0.418383 0.001577
0.992802 0.417393 0.000789
1.000000 0.416483 0.001577
0.010251 0.481858 0.029177
0.029177 0.482410 0.029966
0.063953 0.481927 0.029177
0.099522 0.481374 0.028389
0.135093 0.480682 0.027600
0.171243 0.479780 0.026812
0.207412 0.478876 0.026023
0.244041 0.477970 0.025234
0.280661 0.476921 0.023657
0.317518 0.476011 0.022869
0.354244 0.474746 0.022080
0.391179 0.473759 0.020503
0.427969 0.472487 0.019714
0.464760 0.471352 0.018137
0.501392 0.470214 0.017349
0.538181 0.469001 0.015771
0.575017 0.467784 0.014983
0.611872 0.466563 0.013406
0.648874 0.465194 0.012617
0.685937 0.463892 0.011040
0.723084 0.462658 0.010251
0.760175 0.461201 0.008674
0.797506 0.459885 0.007097
0.834828 0.458565 0.006309
0.872298 0.457239 0.004731
0.909679 0.455835 0.003154
0.948250 0.454276 0.002366
0.969664 0.452860 0.002366
0.978305 0.451514 0.001577
0.985534 0.450388 0.001577
0.992775 0.449258 0.001577
1.000000 0.448428 0.000789
0.011040 0.513814 0.029966
0.029966 0.514387 0.030754
0.065085 0.513878 0.029966
0.100309 0.513368 0.029177
0.135977 0.512602 0.028389
0.171936 0.511706 0.027600
0.208164 0.510809 0.026812
0.244823 0.509973 0.025234
0.281459 0.508878 0.024446
0.318323 0.507845 0.023657
0.355152 0.506809 0.022080
0.391984 0.505706 0.021292
0.428849 0.504534 0.020503
0.465555 0.503293 0.018926
0.502180 0.502180 0.018137
0.538902 0.500998 0.016560
0.575734 0.499746 0.015771
0.612637 0.498490 0.014194
0.649630 0.497164 0.013406
0.686773 0.495900 0.011829
0.723823 0.494565 0.011040
0.761021 0.493293 0.009463
0.798337 0.491949 0.007886
0.835746 0.490533 0.007097
0.873069 0.489180 0.005520
0.910560 0.487890 0.003943
0.949085 0.486322 0.003154
0.969999 0.484817 0.002366
0.978305 0.483513 0.001577
0.985507 0.482272 0.001577
0.992775 0.481236 0.001577
1.000000 0.480405 0.000789
0.011829 0.545803 0.030754
0.030754 0.546275 0.030754
0.065646 0.545921 0.030754
0.101090 0.545389 0.029966
0.136855 0.544562 0.029177
0.172627 0.543792 0.028389
0.209098 0.542782 0.026812
0.245602 0.541890 0.026023
0.282388 0.540817 0.025234
0.319126 0.539860 0.024446
0.355957 0.538782 0.022869
0.392786 0.537640 0.022080
0.429727 0.536496 0.020503
0.466419 0.535348 0.019714
0.503032 0.534198 0.018926
0.539741 0.532922 0.017349
0.576560 0.531704 0.016560
0.613451 0.530482 0.014983
0.650432 0.529134 0.014194
0.687519 0.527842 0.012617
0.724643 0.526547 0.011040
0.761905 0.525310 0.010251
0.799239 0.524007 0.008674
0.836460 0.522513 0.007886
0.873903 0.521201 0.006309
0.911350 0.519759 0.004731
0.949918 0.518313 0.003943
0.970167 0.516861 0.002366
0.978305 0.515531 0.001577
0.985562 0.514323 0.001577
0.992802 0.513368 0.001577
1.000000 0.512410 0.001577
0.012617 0.577769 0.031543
0.031543 0.578373 0.031543
0.066756 0.577824 0.031543
0.101867 0.577330 0.030754
0.137728 0.576505 0.029966
0.173543 0.575679 0.029177
0.210029 0.574685 0.027600
0.246379 0.573856 0.026812
0.283181 0.572803 0.026023
0.319927 0.571803 0.024446
0.356759 0.570633 0.023657
0.393676 0.569628 0.022869
0.430523 0.568509 0.021292
0.467210 0.567275 0.020503
0.503816 0.566150 0.018926
0.540578 0.564966 0.018137
0.577385 0.563665 0.017349
0.614314 0.562474 0.015771
0.651327 0.561279 0.014194
0.688396 0.559968 0.013406
0.725462 0.558537 0.011829
0.762672 0.557160 0.011040
0.799960 0.555778 0.009463
0.837376 0.554507 0.008674
0.874672 0.553117 0.007097
0.912229 0.551780 0.005520
0.950665 0.550265 0.004731
0.970418 0.548861 0.003154
0.978388 0.547511 0.002366
0.985534 0.546334 0.001577
0.992802 0.545330 0.001577
1.000000 0.544384 0.001577
0.013406 0.609777 0.032332
0.032332 0.610289 0.032332
0.067305 0.609828 0.032332
0.102637 0.609213 0.031543
0.138595 0.608495 0.030754
0.174454 0.607673 0.029966
0.210770 0.606797 0.028389
0.247307 0.605817 0.027600
0.283971 0.604783 0.026812
0.320839 0.603746 0.025234
0.357559 0.602656 0.024446
0.394385 0.601510 0.022869
0.431317 0.600467 0.022080
0.468071 0.599316 0.021292
0.504730 0.598162 0.019714
0.541473 0.596953 0.018926
0.578263 0.595689 0.017349
0.615125 0.594473 0.016560
0.652126 0.593201 0.014983
0.689271 0.591979 0.014194
0.726402 0.590541 0.012617
0.763553 0.589204 0.011829
0.800860 0.587864 0.010251
0.838190 0.586467 0.008674
0.875569 0.585065 0.007886
0.913107 0.583767 0.006309
0.951209 0.582302 0.004731
0.970502 0.580723 0.003943
0.978388 0.579413 0.002366
0.985534 0.578263 0.002366
0.992802 0.577220 0.001577
1.000000 0.576285 0.001577
0.013406 0.641683 0.033120
0.033120 0.642115 0.033120
0.068394 0.641779 0.032332
0.103403 0.641203 0.032332
0.139456 0.640387 0.030754
0.175360 0.639520 0.029966
0.211692 0.638749 0.029177
0.248231 0.637783 0.028389
0.284890 0.636718 0.026812
0.321634 0.635748 0.026023
0.358457 0.634582 0.025234
0.395359 0.633510 0.023657
0.432268 0.632387 0.022869
0.469001 0.631311 0.021292
0.505576 0.630134 0.020503
0.542366 0.628856 0.019714
0.579139 0.627623 0.018137
0.615985 0.626437 0.017349
0.653018 0.625100 0.015771
0.690101 0.623808 0.014983
0.727218 0.622513 0.013406
0.764395 0.621165 0.012617
0.801722 0.619812 0.011040
0.839070 0.618406 0.009463
0.876432 0.617046 0.008674
0.913954 0.615682 0.007097
0.951725 0.614263 0.005520
0.970530 0.612739 0.004731
0.978388 0.611311 0.003154
0.985507 0.610084 0.002366
0.992775 0.609162 0.001577
1.000000 0.608187 0.000789
0.014194 0.673605 0.033909
0.034697 0.674146 0.033909
0.069470 0.673650 0.033120
0.104542 0.673109 0.033120
0.140312 0.672297 0.031543
0.176260 0.671484 0.030754
0.212609 0.670714 0.029966
0.249152 0.669716 0.029177
0.285805 0.668626 0.027600
0.322541 0.667579 0.026812
0.359352 0.666529 0.026023
0.396241 0.665432 0.024446
0.433058 0.664287 0.023657
0.469858 0.663185 0.022080
0.506485 0.661988 0.021292
0.543198 0.660789 0.020503
0.580123 0.659633 0.018926
0.616894 0.658335 0.018137
0.653908 0.656988 0.016560
0.691017 0.655777 0.015771
0.728156 0.654422 0.014194
0.765349 0.653158 0.013406
0.802619 0.651750 0.011829
0.839915 0.650479 0.010251
0.877325 0.648874 0.009463
0.914860 0.647596 0.007886
0.952212 0.646124 0.006309
0.970586 0.644791 0.005520
0.978333 0.643264 0.003943
0.985507 0.642067 0.003154
0.992775 0.641155 0.002366
1.000000 0.640290 0.002366
0.014983 0.705550 0.034697
0.035486 0.706059 0.034697
0.070003 0.705635 0.033909
0.105295 0.704998 0.033120
0.141164 0.704233 0.032332
0.177156 0.703339 0.031543
0.213523 0.702572 0.030754
0.250068 0.701633 0.029966
0.286717 0.700564 0.028389
0.323557 0.699492 0.027600
0.360343 0.698419 0.026812
0.397209 0.697386 0.025234
0.434083 0.696222 0.024446
0.470784 0.695055 0.022869
0.507392 0.693929 0.022080
0.544147 0.692758 0.020503
0.580941 0.691540 0.019714
0.617852 0.690145 0.018137
0.654890 0.688921 0.017349
0.691888 0.687651 0.015771
0.729051 0.686333 0.014983
0.766302 0.685012 0.013406
0.803479 0.683644 0.012617
0.840894 0.682317 0.011040
0.878250 0.680941 0.010251
0.915825 0.679429 0.008674
0.952785 0.678135 0.007097
0.970586 0.676704 0.006309
0.978333 0.675180 0.004731
0.985534 0.674010 0.003943
0.992775 0.673064 0.003154
1.000000 0.672207 0.003154
0.015771 0.737524 0.035486
0.036274 0.738044 0.035486
0.071060 0.737524 0.034697
0.106415 0.736883 0.034697
0.142009 0.736120 0.033120
0.178048 0.735478 0.032332
0.214432 0.734512 0.031543
0.250981 0.733585 0.030754
0.287626 0.732617 0.029177
0.324344 0.731404 0.028389
0.361232 0.730391 0.027600
0.398173 0.729335 0.026023
0.435026 0.728115 0.025234
0.471707 0.727055 0.023657
0.508298 0.725912 0.022869
0.545035 0.724643 0.021292
0.581813 0.723330 0.020503
0.618758 0.722138 0.018926
0.655730 0.720819 0.018137
0.692801 0.719539 0.016560
0.729985 0.718255 0.015771
0.767178 0.716969 0.014194
0.804445 0.715596 0.013406
0.841804 0.714261 0.011829
0.879237 0.712840 0.011040
0.916789 0.711541 0.009463
0.953328 0.709986 0.007886
0.970642 0.708554 0.007097
0.978333 0.707202 0.005520
0.985534 0.706059 0.004731
0.992775 0.705083 0.003943
1.000000 0.704191 0.003154
0.016560 0.769456 0.036274
0.037063 0.769948 0.036274
0.072104 0.769456 0.035486
0.107156 0.768773 0.034697
0.143129 0.768090 0.033909
0.178934 0.767406 0.033120
0.215336 0.766340 0.032332
0.251889 0.765426 0.031543
0.288660 0.764433 0.029966
0.325465 0.763438 0.029177
0.362217 0.762404 0.028389
0.399135 0.761175 0.026812
0.435967 0.760021 0.026023
0.472628 0.758903 0.024446
0.509265 0.757667 0.023657
0.545980 0.756429 0.022080
0.582845 0.755188 0.021292
0.619762 0.754022 0.019714
0.656709 0.752736 0.018926
0.693799 0.751409 0.017349
0.730958 0.750196 0.016560
0.768166 0.748824 0.014983
0.805374 0.747527 0.014194
0.842780 0.746148 0.012617
0.880127 0.744726 0.011829
0.917782 0.743340 0.010251
0.953814 0.741872 0.008674
0.970725 0.740479 0.007886
0.978333 0.739083 0.006309
0.985562 0.737884 0.005520
0.992802 0.737003 0.003943
1.000000 0.736080 0.002366
0.017349 0.801399 0.037063
0.037852 0.801938 0.037063
0.073137 0.801327 0.036274
0.108258 0.800752 0.035486
0.143964 0.799996 0.034697
0.180036 0.799312 0.033909
0.216416 0.798265 0.033120
0.252794 0.797326 0.032332
0.289690 0.796348 0.030754
0.326359 0.795297 0.029966
0.363198 0.794171 0.029177
0.400007 0.793115 0.027600
0.436905 0.791949 0.026812
0.473618 0.790963 0.025234
0.510295 0.789756 0.024446
0.546981 0.788509 0.022869
0.583821 0.787297 0.022080
0.620664 0.786008 0.020503
0.657732 0.784680 0.019714
0.694839 0.783497 0.018137
0.731849 0.782164 0.017349
0.769039 0.780753 0.015771
0.806337 0.779413 0.014194
0.843687 0.778144 0.013406
0.881079 0.776612 0.011829
0.918743 0.775337 0.011040
0.954328 0.773985 0.009463
0.970697 0.772442 0.008674
0.978333 0.771045 0.007097
0.985534 0.769721 0.006309
0.992802 0.768925 0.005520
1.000000 0.767976 0.003943
0.017349 0.833328 0.037852
0.039429 0.833737 0.037852
0.074158 0.833259 0.037063
0.109350 0.832644 0.036274
0.145068 0.831927 0.035486
0.181130 0.831208 0.034697
0.217312 0.830145 0.033909
0.253846 0.829253 0.032332
0.290715 0.828256 0.031543
0.327360 0.827223 0.030754
0.364177 0.826119 0.029966
0.400964 0.824978 0.028389
0.437841 0.823905 0.027600
0.474605 0.822830 0.026023
0.511194 0.821684 0.025234
0.547922 0.820396 0.023657
0.584848 0.819141 0.022869
0.621714 0.817953 0.021292
0.658707 0.816587 0.020503
0.695790 0.815359 0.018926
0.732940 0.814023 0.018137
0.770100 0.812684 0.016560
0.807370 0.811236 0.015771
0.844661 0.809855 0.014194
0.882061 0.808578 0.012617
0.919823 0.807263 0.011829
0.954870 0.805766 0.010251
0.970781 0.804338 0.009463
0.978305 0.802906 0.007886
0.985534 0.801758 0.007097
0.992802 0.800788 0.006309
1.000000 0.799780 0.003943
0.018137 0.865254 0.038640
0.040217 0.865676 0.038640
0.075168 0.865156 0.037852
0.110432 0.864539 0.037063
0.145891 0.863855 0.036274
0.182000 0.862943 0.035486
0.218381 0.862062 0.034697
0.254892 0.861213 0.033909
0.291609 0.860166 0.032332
0.328359 0.858987 0.031543
0.365152 0.858002 0.030754
0.402004 0.856983 0.029177
0.438929 0.855764 0.028389
0.475660 0.854643 0.026812
0.512154 0.853519 0.026023
0.548919 0.852228 0.025234
0.585820 0.851000 0.023657
0.622712 0.849871 0.022080
0.659679 0.848505 0.021292
0.696696 0.847237 0.019714
0.733827 0.845934 0.018926
0.771083 0.844560 0.017349
