Luts Download/mMatrix/MotionVFX mMatrix - Neo.cube
TITLE "Neo - Created by MotionVFX"
LUT_3D_SIZE 5
DOMAIN_MIN 0.000000 0.000000 0.000000
DOMAIN_MAX 0.903226 0.903226 0.903226
0.000000 0.000000 0.000000
0.118954 0.024651 0.003477
0.266084 0.075929 0.011580
0.441545 0.136513 0.027830
0.628426 0.209803 0.052774
0.033238 0.157706 0.020269
0.131375 0.161037 0.000000
0.304727 0.167027 0.000000
0.482364 0.201940 0.009844
0.664471 0.261162 0.037116
0.096653 0.347315 0.069883
0.167021 0.352716 0.043355
0.333918 0.364550 0.000000
0.544703 0.378143 0.000000
0.739875 0.409843 0.000000
0.192577 0.578144 0.137684
0.253920 0.582339 0.121050
0.398100 0.594716 0.060823
0.591331 0.610426 0.000000
0.810369 0.625908 0.000000
0.319995 0.823380 0.219293
0.371136 0.826546 0.206673
0.494231 0.836529 0.162943
0.658114 0.853150 0.071849
0.865117 0.870839 0.000000
0.001233 0.020924 0.066159
0.098518 0.052698 0.104683
0.285969 0.062379 0.089547
0.485845 0.089616 0.058974
0.658394 0.179602 0.074721
0.009801 0.159763 0.135261
0.130926 0.160783 0.126348
0.274403 0.185926 0.101570
0.452582 0.227118 0.114009
0.641350 0.286116 0.131646
0.093399 0.348357 0.155662
0.180671 0.350774 0.150459
0.339940 0.364003 0.127939
0.537897 0.383949 0.114229
0.726142 0.421252 0.126348
0.164242 0.582172 0.189199
0.268184 0.581113 0.203470
0.410768 0.593095 0.171905
0.595502 0.610218 0.145261
0.809410 0.627953 0.125747
0.262838 0.829793 0.234470
0.384442 0.825681 0.276197
0.505633 0.835319 0.244906
0.665577 0.852100 0.192485
0.868394 0.870654 0.161989
0.005529 0.075929 0.162149
0.044972 0.075929 0.264347
0.221028 0.128983 0.216263
0.444526 0.155100 0.217237
0.675510 0.172588 0.212946
0.000000 0.168980 0.243049
0.102956 0.180061 0.226647
0.259702 0.199252 0.240626
0.487928 0.215277 0.215407
0.706003 0.238201 0.202306
0.041640 0.354985 0.303066
0.121772 0.362133 0.300448
0.336317 0.367383 0.293582
0.512550 0.403545 0.247182
0.687110 0.452372 0.263329
0.183094 0.581559 0.358112
0.246989 0.585607 0.353650
0.424727 0.592391 0.342158
0.605922 0.610270 0.314740
0.802443 0.635743 0.280754
0.305351 0.827243 0.417373
0.354602 0.831048 0.406274
0.524127 0.833942 0.410395
0.687419 0.849390 0.372733
0.876629 0.870592 0.352152
0.012232 0.127119 0.247398
0.033802 0.136513 0.307445
0.180296 0.145375 0.417441
0.383749 0.222120 0.357098
0.614430 0.268982 0.372206
0.007973 0.197371 0.325626
0.095846 0.208811 0.318721
0.202436 0.218725 0.442241
0.417015 0.274920 0.383226
0.648971 0.313655 0.383005
0.000000 0.366079 0.450373
0.099574 0.374986 0.442896
0.276041 0.396328 0.422018
0.508913 0.413319 0.440469
0.741912 0.436805 0.393342
0.090629 0.592282 0.545160
0.171910 0.596761 0.543007
0.338473 0.611307 0.525799
0.596671 0.616401 0.535049
0.840822 0.632802 0.403250
0.288733 0.830949 0.629414
0.340053 0.834467 0.626572
0.483383 0.842865 0.618576
0.636690 0.866410 0.535273
0.888416 0.876798 0.472990
0.023106 0.183466 0.344418
0.039651 0.192913 0.389874
0.110017 0.199044 0.558151
0.353088 0.244743 0.588129
0.566938 0.334876 0.541512
0.020697 0.240286 0.416755
0.094219 0.251443 0.416411
0.159402 0.267437 0.546372
0.376845 0.299204 0.618923
0.592511 0.376989 0.567437
0.000000 0.390251 0.576389
0.107778 0.398001 0.572642
0.276586 0.421070 0.554791
0.437106 0.442051 0.695843
0.664656 0.491625 0.633512
0.000000 0.604098 0.742721
0.116578 0.609750 0.738316
0.281579 0.628152 0.721172
0.494581 0.644401 0.794861
0.813553 0.640118 0.781941
0.154881 0.843995 0.859548
0.234827 0.847244 0.857653
0.382459 0.859061 0.856097
0.492051 0.889777 0.855337
0.873360 0.879817 0.846826
