Luts Download/mMatrix/MotionVFX mMatrix - Morpheus.cube
TITLE "Morpheus - Created by MotionVFX"
LUT_3D_SIZE 8
DOMAIN_MIN 0.000000 0.000000 0.000000
DOMAIN_MAX 0.903226 0.903226 0.903226
0.000000 0.000000 0.000000
0.053252 0.008413 0.000652
0.126849 0.030690 0.001961
0.201222 0.058762 0.003608
0.285043 0.088887 0.006606
0.378257 0.121603 0.011030
0.477214 0.157152 0.017030
0.576811 0.196430 0.025275
0.018888 0.089633 0.000000
0.070562 0.088135 0.000000
0.144956 0.082315 0.000000
0.218256 0.086614 0.000979
0.294837 0.101275 0.004935
0.378861 0.121603 0.011030
0.477511 0.157598 0.017391
0.577200 0.196430 0.025275
0.052425 0.178277 0.000000
0.082242 0.178866 0.000000
0.148368 0.177686 0.000000
0.243842 0.173287 0.000000
0.335177 0.174899 0.000000
0.425340 0.183895 0.000652
0.512878 0.200488 0.007279
0.600373 0.223404 0.019144
0.093946 0.280413 0.000000
0.116099 0.281268 0.000000
0.168792 0.283093 0.000000
0.257546 0.283456 0.000000
0.367934 0.281024 0.000000
0.471522 0.282729 0.000000
0.565232 0.290855 0.000000
0.658674 0.304507 0.000000
0.147943 0.400591 0.000000
0.167613 0.401659 0.000000
0.214298 0.404195 0.000000
0.289911 0.407439 0.000000
0.394281 0.409212 0.000000
0.509910 0.408729 0.000000
0.615145 0.410655 0.000000
0.715539 0.417629 0.000000
0.218092 0.538320 0.000000
0.235446 0.539252 0.000000
0.276858 0.541513 0.000000
0.343860 0.545315 0.000000
0.433799 0.549312 0.000000
0.540259 0.551637 0.000000
0.654176 0.551920 0.000000
0.766793 0.553669 0.000000
0.299438 0.688488 0.000000
0.314456 0.689226 0.000000
0.351240 0.691392 0.000000
0.410493 0.694884 0.000000
0.488071 0.699467 0.000000
0.579742 0.704057 0.000000
0.688168 0.706720 0.000000
0.807418 0.707520 0.000000
0.388275 0.851584 0.000000
0.401312 0.852374 0.000000
0.432946 0.854262 0.000000
0.484037 0.857582 0.000000
0.550341 0.862216 0.000000
0.632133 0.867504 0.000000
0.730106 0.872494 0.000000
0.844292 0.875483 0.000000
0.003691 0.009112 0.017391
0.045434 0.018172 0.032232
0.139554 0.025126 0.027377
0.223292 0.042104 0.009656
0.292772 0.083899 0.008973
0.378760 0.121603 0.011030
0.477659 0.157375 0.017030
0.577255 0.196608 0.025275
0.015868 0.088511 0.044707
0.066113 0.088887 0.036026
0.116578 0.095782 0.026783
0.198604 0.098562 0.022459
0.287420 0.105878 0.014526
0.379262 0.121888 0.011030
0.477955 0.157598 0.017391
0.577588 0.196608 0.025275
0.020697 0.182939 0.007279
0.085198 0.178474 0.020829
0.146666 0.178277 0.021488
0.238372 0.175300 0.014526
0.335062 0.174498 0.000652
0.425340 0.183130 0.000652
0.512681 0.199789 0.007616
0.600162 0.222779 0.019486
0.086071 0.281878 0.002619
0.113446 0.282121 0.004602
0.167219 0.283698 0.000652
0.257978 0.282972 0.003278
0.368556 0.280290 0.000000
0.471825 0.282121 0.000000
0.565289 0.290265 0.000000
0.658628 0.303947 0.000000
0.146453 0.400673 0.000000
0.167021 0.401577 0.000000
0.214796 0.403705 0.000000
0.290693 0.406955 0.000000
0.395049 0.408649 0.000000
0.510373 0.408085 0.000000
0.615349 0.410014 0.000000
0.715581 0.417001 0.000000
0.218911 0.537854 0.000000
0.236219 0.538844 0.000000
0.277672 0.541166 0.000000
0.344528 0.544856 0.000000
0.434395 0.548857 0.000000
0.540681 0.551184 0.000000
0.654552 0.551411 0.000000
0.767022 0.553218 0.000000
0.300072 0.688053 0.000000
0.315184 0.688922 0.000000
0.351894 0.690959 0.000000
0.411042 0.694540 0.000000
0.488643 0.699125 0.000000
0.580183 0.703591 0.000000
0.688652 0.706340 0.000000
0.807809 0.707099 0.000000
0.388861 0.851308 0.000000
0.401876 0.852031 0.000000
0.433544 0.853919 0.000000
0.484544 0.857274 0.000000
0.550813 0.861808 0.000000
0.632477 0.867166 0.000000
0.730473 0.872158 0.000000
0.844628 0.875114 0.000000
0.013445 0.032083 0.053444
0.038631 0.038263 0.091760
0.108528 0.059263 0.086756
0.202263 0.068743 0.078412
0.318319 0.068290 0.061356
0.427084 0.082713 0.033878
0.505700 0.137439 0.031677
0.591116 0.187670 0.033333
0.030919 0.088511 0.087660
0.056075 0.092932 0.087299
0.114657 0.094722 0.096637
0.213300 0.091478 0.073983
0.323677 0.079482 0.056581
0.426388 0.084682 0.033333
0.505161 0.138198 0.031398
0.590847 0.188230 0.033059
0.046349 0.177092 0.105397
0.073201 0.178866 0.101903
0.140642 0.179649 0.088379
0.190598 0.193555 0.063260
0.282248 0.199086 0.072413
0.384145 0.207015 0.068416
0.487068 0.218350 0.061356
0.587122 0.233019 0.051613
0.054878 0.286105 0.071026
0.085781 0.286943 0.066991
0.179733 0.281512 0.082912
0.249809 0.286105 0.071026
0.344861 0.288965 0.072807
0.453144 0.291325 0.057463
0.551460 0.298511 0.048097
0.650775 0.308507 0.031677
0.097188 0.408488 0.024969
0.148368 0.405740 0.049282
0.219564 0.404520 0.062629
0.291734 0.408085 0.059208
0.392162 0.410014 0.064515
0.502110 0.411055 0.060501
0.610118 0.412252 0.037082
0.715790 0.416292 0.000000
0.190418 0.542899 0.014881
0.230611 0.540819 0.042719
0.274540 0.542842 0.039935
0.341626 0.546518 0.031118
0.433458 0.549880 0.029987
0.540500 0.551241 0.038128
0.653705 0.551071 0.027965
0.767747 0.551976 0.000000
0.286498 0.690613 0.000979
0.302973 0.691349 0.000000
0.342856 0.693033 0.000000
0.405610 0.695958 0.000000
0.486708 0.699851 0.000000
0.580458 0.703422 0.000000
0.689707 0.705242 0.000000
0.808735 0.706045 0.000000
0.384145 0.851928 0.000000
0.397815 0.852581 0.000000
0.430889 0.854297 0.000000
0.483674 0.857172 0.000000
0.551519 0.861127 0.000000
0.633509 0.866354 0.000000
0.731448 0.871216 0.000000
0.845601 0.874141 0.000000
0.030318 0.066459 0.100219
0.044507 0.070977 0.128487
0.096653 0.078659 0.156321
0.173455 0.099587 0.146067
0.275905 0.115486 0.140519
0.403000 0.119885 0.132803
0.529308 0.122454 0.110779
0.648829 0.132007 0.071424
0.045434 0.096832 0.115880
0.058798 0.099927 0.129685
0.101664 0.099927 0.168230
0.178414 0.111854 0.150404
0.278214 0.116969 0.140232
0.404121 0.119307 0.132064
0.530052 0.121888 0.109486
0.648495 0.133057 0.071026
0.063983 0.176298 0.166517
0.082541 0.179258 0.162263
0.119662 0.186169 0.158765
0.201570 0.186733 0.176797
0.321068 0.186357 0.131025
0.432861 0.185035 0.113980
0.532642 0.190451 0.102740
0.630060 0.201880 0.089275
0.085490 0.280045 0.192472
0.106270 0.281634 0.189397
0.147943 0.285985 0.186912
0.245944 0.287301 0.165459
0.313727 0.300789 0.141236
0.386315 0.319117 0.133098
0.496534 0.328528 0.143235
0.600689 0.341518 0.140663
0.101144 0.407359 0.167967
0.126163 0.408327 0.165459
0.183836 0.410655 0.156730
0.309934 0.404439 0.179607
0.379162 0.415425 0.143520
0.474007 0.422774 0.141523
0.575923 0.428838 0.145079
0.682100 0.436077 0.129685
0.103470 0.552598 0.093690
0.133609 0.553274 0.091053
0.254066 0.547147 0.137342
0.358038 0.545143 0.148593
0.436599 0.550845 0.139800
0.533625 0.554737 0.147754
0.636348 0.558709 0.146912
0.747031 0.562094 0.135301
0.212132 0.700447 0.055693
0.255521 0.698570 0.081051
0.344083 0.694626 0.125924
0.418000 0.695829 0.131471
0.491698 0.700703 0.124100
0.580788 0.705115 0.126227
0.685829 0.707773 0.135008
0.799345 0.709916 0.132212
0.335177 0.859833 0.043966
0.368038 0.858504 0.069022
0.433202 0.856044 0.112065
0.482801 0.859527 0.101903
0.548569 0.864219 0.090166
0.631147 0.869024 0.084753
0.730554 0.873032 0.088738
0.844426 0.875114 0.100725
0.047697 0.096133 0.145926
0.057253 0.099927 0.166517
0.087226 0.101275 0.228750
0.161834 0.120173 0.227672
0.252458 0.144137 0.220347
0.360910 0.166050 0.217567
0.493810 0.174699 0.218460
0.622787 0.181784 0.207682
0.056075 0.110310 0.153033
0.064342 0.112467 0.170979
0.091466 0.111547 0.228319
0.163442 0.122171 0.228535
0.253336 0.144137 0.219904
0.361862 0.165838 0.217120
0.494581 0.174296 0.217902
0.623489 0.181398 0.206872
0.082242 0.181398 0.210787
0.096653 0.184466 0.208260
0.124555 0.190819 0.218348
0.179920 0.191918 0.274148
0.275905 0.203263 0.249485
0.392645 0.209533 0.225721
0.515100 0.207689 0.214987
0.635274 0.201186 0.200895
0.104749 0.279554 0.271215
0.120603 0.281756 0.268067
0.154673 0.287658 0.261883
0.209443 0.296444 0.261980
0.325327 0.295058 0.278367
0.448376 0.300789 0.217232
0.541826 0.313103 0.203841
0.642170 0.324174 0.196957
0.135383 0.401987 0.307397
0.154465 0.403460 0.304785
0.195252 0.407359 0.301453
0.274540 0.411135 0.296316
0.379363 0.415741 0.271025
0.472126 0.424010 0.268737
0.513271 0.456933 0.211814
0.614174 0.469605 0.235565
0.163442 0.545946 0.292016
0.180296 0.547261 0.291655
0.230297 0.549540 0.288216
0.313970 0.552767 0.274808
0.453785 0.546690 0.298538
0.522928 0.560376 0.250392
0.608413 0.571778 0.229180
0.701386 0.582912 0.244500
0.175946 0.703973 0.230254
0.198604 0.704819 0.227888
0.252311 0.706846 0.219904
0.387395 0.701936 0.254298
0.511563 0.697843 0.276966
0.582106 0.707268 0.243268
0.675329 0.713179 0.251699
0.779141 0.719284 0.251398
0.199130 0.873906 0.118859
0.252165 0.872192 0.140376
0.355464 0.867977 0.188778
0.473557 0.862929 0.237351
0.547621 0.866997 0.212269
0.632871 0.871216 0.216784
0.730432 0.875181 0.233981
0.837435 0.878963 0.253001
0.066113 0.126904 0.197797
0.073201 0.130149 0.214761
0.094492 0.135394 0.261980
0.153006 0.143163 0.310339
0.242030 0.166261 0.310856
0.343414 0.193374 0.307658
0.454904 0.221208 0.307918
0.587339 0.234507 0.316249
0.066463 0.127178 0.198635
0.073526 0.130149 0.215550
0.094764 0.135394 0.262759
0.153841 0.143407 0.310080
0.242635 0.166261 0.310253
0.344083 0.193192 0.307137
0.455701 0.221050 0.307571
0.587934 0.234210 0.315738
0.098518 0.192101 0.248473
0.109769 0.195357 0.247154
0.129122 0.200139 0.273583
0.171910 0.201186 0.339725
0.262128 0.211029 0.342711
0.361439 0.227271 0.326763
0.472654 0.240795 0.316419
0.595182 0.242947 0.315994
0.126392 0.283819 0.328920
0.139772 0.286105 0.327012
0.172491 0.291911 0.322922
0.216943 0.301469 0.329830
0.282114 0.306736 0.391641
0.395910 0.316126 0.379749
0.527071 0.322288 0.337697
0.648067 0.324904 0.314715
0.158995 0.401905 0.402436
0.174224 0.403787 0.400190
0.207580 0.408649 0.395090
0.254794 0.417865 0.388616
0.330577 0.427694 0.389208
0.458473 0.427694 0.408265
0.575645 0.437940 0.330655
0.662994 0.455587 0.312232
0.200701 0.540877 0.448842
0.217600 0.542207 0.446754
0.256245 0.545430 0.442548
0.310917 0.551524 0.440433
0.423586 0.553781 0.427608
0.523307 0.560765 0.398810
0.613663 0.569879 0.399028
0.675961 0.598840 0.306441
0.239291 0.697073 0.438860
0.254066 0.698185 0.437900
0.289126 0.701086 0.437420
0.364073 0.704142 0.432393
0.460517 0.708446 0.411838
0.597043 0.702404 0.439134
0.678030 0.713638 0.405465
0.772150 0.727904 0.313004
0.259128 0.868720 0.386690
0.278754 0.869497 0.384758
0.325092 0.871384 0.379373
0.385823 0.876220 0.359956
0.460673 0.883959 0.317693
0.594276 0.884557 0.277153
0.712183 0.885950 0.279205
0.836177 0.885453 0.305657
0.085781 0.159587 0.255788
0.091744 0.162419 0.270073
0.108777 0.168358 0.308697
0.147305 0.171864 0.388246
0.234672 0.190451 0.405681
0.334491 0.217389 0.408695
0.443618 0.248033 0.410268
0.552752 0.281756 0.414681
0.086071 0.159368 0.256383
0.092021 0.162419 0.270645
0.109274 0.168566 0.309476
0.147731 0.171660 0.389208
0.235291 0.190451 0.405249
0.335177 0.217550 0.408409
0.444114 0.248033 0.409840
0.553337 0.281634 0.414327
0.115139 0.207352 0.286485
0.120837 0.209366 0.296761
0.136266 0.213499 0.327428
0.170940 0.216262 0.390241
0.249218 0.221366 0.433774
0.347515 0.238912 0.425517
0.451375 0.259088 0.417018
0.554682 0.281512 0.413403
0.149216 0.292614 0.379073
0.160621 0.295058 0.378170
0.187695 0.301469 0.374847
0.223774 0.309608 0.400263
0.280237 0.314294 0.473496
0.382061 0.323442 0.494008
0.489854 0.340728 0.472343
0.606806 0.352745 0.450252
0.185864 0.405983 0.477575
0.198429 0.408004 0.475540
0.227927 0.413127 0.471573
0.277129 0.421766 0.465370
0.334376 0.433980 0.471958
0.405424 0.443400 0.531407
0.536864 0.447118 0.533762
0.669245 0.453665 0.473880
0.227292 0.540877 0.560495
0.240967 0.542438 0.558627
0.272894 0.546403 0.554211
0.319636 0.553725 0.548479
0.374104 0.565564 0.542635
0.480315 0.572536 0.539295
0.580623 0.580152 0.553990
0.759883 0.568790 0.475157
0.276994 0.692299 0.611124
0.291864 0.693378 0.609445
0.327203 0.696172 0.605460
0.380064 0.701341 0.601607
0.440044 0.709664 0.601504
0.571285 0.710377 0.575238
0.667735 0.718705 0.548199
0.777270 0.731563 0.430732
0.324031 0.861468 0.606484
0.336999 0.862522 0.605358
0.368142 0.865169 0.603254
0.408751 0.870879 0.600886
0.443205 0.883095 0.576844
0.524631 0.895184 0.522886
0.701944 0.889126 0.489870
0.829644 0.894396 0.385873
0.107778 0.194097 0.319471
0.112960 0.196786 0.332056
0.127761 0.202918 0.365992
0.159199 0.210033 0.432669
0.228402 0.218350 0.505090
0.329185 0.243376 0.516722
0.436684 0.274592 0.523820
0.546670 0.308507 0.530082
0.108028 0.194097 0.320146
0.113203 0.196786 0.332713
0.127988 0.202918 0.366454
0.159606 0.209867 0.433291
0.229035 0.218350 0.504789
0.329766 0.243376 0.516427
0.437190 0.274717 0.523528
0.547146 0.308617 0.529794
0.127761 0.224649 0.342389
0.132718 0.226503 0.353458
0.146453 0.230466 0.383043
0.175374 0.234507 0.442139
0.236990 0.235099 0.522653
0.335633 0.252188 0.524577
0.438284 0.274717 0.522594
0.548095 0.308617 0.528928
0.171329 0.306292 0.426772
0.180858 0.308728 0.426424
0.204161 0.315265 0.425238
0.231239 0.321656 0.469643
0.279968 0.326774 0.544214
0.370519 0.332413 0.601504
0.477585 0.351029 0.588237
0.580018 0.372110 0.574380
0.214630 0.414000 0.541449
0.225858 0.415898 0.540996
0.252605 0.420989 0.538954
0.290302 0.428991 0.548591
0.339038 0.436749 0.597214
0.412954 0.441196 0.675371
0.519939 0.451519 0.688404
0.622686 0.472268 0.648040
0.258410 0.544454 0.647992
0.270131 0.546060 0.646006
0.298039 0.550221 0.642264
0.333803 0.557538 0.649441
0.380865 0.565344 0.687714
0.460517 0.570477 0.746225
0.568636 0.567480 0.835069
0.710159 0.574317 0.769914
0.305102 0.692213 0.736488
0.317477 0.693550 0.734695
0.346743 0.696987 0.730704
0.381962 0.703464 0.733513
0.414313 0.713471 0.758008
0.469398 0.724511 0.794083
0.595821 0.725535 0.832066
0.786309 0.712804 0.805773
0.361016 0.856796 0.791474
0.374206 0.857821 0.789939
0.405610 0.860344 0.785821
0.442459 0.866015 0.785071
0.468330 0.876923 0.792427
0.520514 0.889027 0.801053
0.654975 0.890315 0.808759
0.850344 0.876186 0.785404
