Luts Download/Canon Luts/1dlut/canonlog-to-gamma-1dlut/full-to-linear-range/CanonLog_16-to-Linear_FL_Ver.2.0.cube
# Gamma : Canon Log to Linear
# Range : Full in / Linear out
# Version : 2.0 2016/10/27
# Copyright(c) 2016 Canon Inc. All Rights Reserved.

LUT_1D_SIZE 65536
-0.087467 -0.087467 -0.087467
-0.087452 -0.087452 -0.087452
-0.087438 -0.087438 -0.087438
-0.087424 -0.087424 -0.087424
-0.087409 -0.087409 -0.087409
-0.087395 -0.087395 -0.087395
-0.087380 -0.087380 -0.087380
-0.087366 -0.087366 -0.087366
-0.087352 -0.087352 -0.087352
-0.087337 -0.087337 -0.087337
-0.087323 -0.087323 -0.087323
-0.087308 -0.087308 -0.087308
-0.087294 -0.087294 -0.087294
-0.087280 -0.087280 -0.087280
-0.087265 -0.087265 -0.087265
-0.087251 -0.087251 -0.087251
-0.087236 -0.087236 -0.087236
-0.087222 -0.087222 -0.087222
-0.087208 -0.087208 -0.087208
-0.087193 -0.087193 -0.087193
-0.087179 -0.087179 -0.087179
-0.087164 -0.087164 -0.087164
-0.087150 -0.087150 -0.087150
-0.087136 -0.087136 -0.087136
-0.087121 -0.087121 -0.087121
-0.087107 -0.087107 -0.087107
-0.087092 -0.087092 -0.087092
-0.087078 -0.087078 -0.087078
-0.087064 -0.087064 -0.087064
-0.087049 -0.087049 -0.087049
-0.087035 -0.087035 -0.087035
-0.087021 -0.087021 -0.087021
-0.087006 -0.087006 -0.087006
-0.086992 -0.086992 -0.086992
-0.086977 -0.086977 -0.086977
-0.086963 -0.086963 -0.086963
-0.086949 -0.086949 -0.086949
-0.086934 -0.086934 -0.086934
-0.086920 -0.086920 -0.086920
-0.086906 -0.086906 -0.086906
-0.086891 -0.086891 -0.086891
-0.086877 -0.086877 -0.086877
-0.086862 -0.086862 -0.086862
-0.086848 -0.086848 -0.086848
-0.086834 -0.086834 -0.086834
-0.086819 -0.086819 -0.086819
-0.086805 -0.086805 -0.086805
-0.086791 -0.086791 -0.086791
-0.086776 -0.086776 -0.086776
-0.086762 -0.086762 -0.086762
-0.086748 -0.086748 -0.086748
-0.086733 -0.086733 -0.086733
-0.086719 -0.086719 -0.086719
-0.086704 -0.086704 -0.086704
-0.086690 -0.086690 -0.086690
-0.086676 -0.086676 -0.086676
-0.086661 -0.086661 -0.086661
-0.086647 -0.086647 -0.086647
-0.086633 -0.086633 -0.086633
-0.086618 -0.086618 -0.086618
-0.086604 -0.086604 -0.086604
-0.086590 -0.086590 -0.086590
-0.086575 -0.086575 -0.086575
-0.086561 -0.086561 -0.086561
-0.086547 -0.086547 -0.086547
-0.086532 -0.086532 -0.086532
-0.086518 -0.086518 -0.086518
-0.086504 -0.086504 -0.086504
-0.086489 -0.086489 -0.086489
-0.086475 -0.086475 -0.086475
-0.086461 -0.086461 -0.086461
-0.086446 -0.086446 -0.086446
-0.086432 -0.086432 -0.086432
-0.086418 -0.086418 -0.086418
-0.086403 -0.086403 -0.086403
-0.086389 -0.086389 -0.086389
-0.086375 -0.086375 -0.086375
-0.086360 -0.086360 -0.086360
-0.086346 -0.086346 -0.086346
-0.086332 -0.086332 -0.086332
-0.086317 -0.086317 -0.086317
-0.086303 -0.086303 -0.086303
-0.086289 -0.086289 -0.086289
-0.086274 -0.086274 -0.086274
-0.086260 -0.086260 -0.086260
-0.086246 -0.086246 -0.086246
-0.086231 -0.086231 -0.086231
-0.086217 -0.086217 -0.086217
-0.086203 -0.086203 -0.086203
-0.086188 -0.086188 -0.086188
-0.086174 -0.086174 -0.086174
-0.086160 -0.086160 -0.086160
-0.086145 -0.086145 -0.086145
-0.086131 -0.086131 -0.086131
-0.086117 -0.086117 -0.086117
-0.086102 -0.086102 -0.086102
-0.086088 -0.086088 -0.086088
-0.086074 -0.086074 -0.086074
-0.086060 -0.086060 -0.086060
-0.086045 -0.086045 -0.086045
-0.086031 -0.086031 -0.086031
-0.086017 -0.086017 -0.086017
-0.086002 -0.086002 -0.086002
-0.085988 -0.085988 -0.085988
-0.085974 -0.085974 -0.085974
-0.085959 -0.085959 -0.085959
-0.085945 -0.085945 -0.085945
-0.085931 -0.085931 -0.085931
-0.085917 -0.085917 -0.085917
-0.085902 -0.085902 -0.085902
-0.085888 -0.085888 -0.085888
-0.085874 -0.085874 -0.085874
-0.085859 -0.085859 -0.085859
-0.085845 -0.085845 -0.085845
-0.085831 -0.085831 -0.085831
-0.085817 -0.085817 -0.085817
-0.085802 -0.085802 -0.085802
-0.085788 -0.085788 -0.085788
-0.085774 -0.085774 -0.085774
-0.085759 -0.085759 -0.085759
-0.085745 -0.085745 -0.085745
-0.085731 -0.085731 -0.085731
-0.085717 -0.085717 -0.085717
-0.085702 -0.085702 -0.085702
-0.085688 -0.085688 -0.085688
-0.085674 -0.085674 -0.085674
-0.085659 -0.085659 -0.085659
-0.085645 -0.085645 -0.085645
-0.085631 -0.085631 -0.085631
-0.085617 -0.085617 -0.085617
-0.085602 -0.085602 -0.085602
-0.085588 -0.085588 -0.085588
-0.085574 -0.085574 -0.085574
-0.085560 -0.085560 -0.085560
-0.085545 -0.085545 -0.085545
-0.085531 -0.085531 -0.085531
-0.085517 -0.085517 -0.085517
-0.085502 -0.085502 -0.085502
-0.085488 -0.085488 -0.085488
-0.085474 -0.085474 -0.085474
-0.085460 -0.085460 -0.085460
-0.085445 -0.085445 -0.085445
-0.085431 -0.085431 -0.085431
-0.085417 -0.085417 -0.085417
-0.085403 -0.085403 -0.085403
-0.085388 -0.085388 -0.085388
-0.085374 -0.085374 -0.085374
-0.085360 -0.085360 -0.085360
-0.085346 -0.085346 -0.085346
-0.085331 -0.085331 -0.085331
-0.085317 -0.085317 -0.085317
-0.085303 -0.085303 -0.085303
-0.085289 -0.085289 -0.085289
-0.085274 -0.085274 -0.085274
-0.085260 -0.085260 -0.085260
-0.085246 -0.085246 -0.085246
-0.085232 -0.085232 -0.085232
-0.085217 -0.085217 -0.085217
-0.085203 -0.085203 -0.085203
-0.085189 -0.085189 -0.085189
-0.085175 -0.085175 -0.085175
-0.085160 -0.085160 -0.085160
-0.085146 -0.085146 -0.085146
-0.085132 -0.085132 -0.085132
-0.085118 -0.085118 -0.085118
-0.085104 -0.085104 -0.085104
-0.085089 -0.085089 -0.085089
-0.085075 -0.085075 -0.085075
-0.085061 -0.085061 -0.085061
-0.085047 -0.085047 -0.085047
-0.085032 -0.085032 -0.085032
-0.085018 -0.085018 -0.085018
-0.085004 -0.085004 -0.085004
-0.084990 -0.084990 -0.084990
-0.084975 -0.084975 -0.084975
-0.084961 -0.084961 -0.084961
-0.084947 -0.084947 -0.084947
-0.084933 -0.084933 -0.084933
-0.084919 -0.084919 -0.084919
-0.084904 -0.084904 -0.084904
-0.084890 -0.084890 -0.084890
-0.084876 -0.084876 -0.084876
-0.084862 -0.084862 -0.084862
-0.084848 -0.084848 -0.084848
-0.084833 -0.084833 -0.084833
-0.084819 -0.084819 -0.084819
-0.084805 -0.084805 -0.084805
-0.084791 -0.084791 -0.084791
-0.084776 -0.084776 -0.084776
-0.084762 -0.084762 -0.084762
-0.084748 -0.084748 -0.084748
-0.084734 -0.084734 -0.084734
-0.084720 -0.084720 -0.084720
-0.084705 -0.084705 -0.084705
-0.084691 -0.084691 -0.084691
-0.084677 -0.084677 -0.084677
-0.084663 -0.084663 -0.084663
-0.084649 -0.084649 -0.084649
-0.084634 -0.084634 -0.084634
-0.084620 -0.084620 -0.084620
-0.084606 -0.084606 -0.084606
-0.084592 -0.084592 -0.084592
-0.084578 -0.084578 -0.084578
-0.084564 -0.084564 -0.084564
-0.084549 -0.084549 -0.084549
-0.084535 -0.084535 -0.084535
-0.084521 -0.084521 -0.084521
-0.084507 -0.084507 -0.084507
-0.084493 -0.084493 -0.084493
-0.084478 -0.084478 -0.084478
-0.084464 -0.084464 -0.084464
-0.084450 -0.084450 -0.084450
-0.084436 -0.084436 -0.084436
-0.084422 -0.084422 -0.084422
-0.084407 -0.084407 -0.084407
-0.084393 -0.084393 -0.084393
-0.084379 -0.084379 -0.084379
-0.084365 -0.084365 -0.084365
-0.084351 -0.084351 -0.084351
-0.084337 -0.084337 -0.084337
-0.084322 -0.084322 -0.084322
-0.084308 -0.084308 -0.084308
-0.084294 -0.084294 -0.084294
-0.084280 -0.084280 -0.084280
-0.084266 -0.084266 -0.084266
-0.084252 -0.084252 -0.084252
-0.084237 -0.084237 -0.084237
-0.084223 -0.084223 -0.084223
-0.084209 -0.084209 -0.084209
-0.084195 -0.084195 -0.084195
-0.084181 -0.084181 -0.084181
-0.084167 -0.084167 -0.084167
-0.084152 -0.084152 -0.084152
-0.084138 -0.084138 -0.084138
-0.084124 -0.084124 -0.084124
-0.084110 -0.084110 -0.084110
-0.084096 -0.084096 -0.084096
-0.084082 -0.084082 -0.084082
-0.084068 -0.084068 -0.084068
-0.084053 -0.084053 -0.084053
-0.084039 -0.084039 -0.084039
-0.084025 -0.084025 -0.084025
-0.084011 -0.084011 -0.084011
-0.083997 -0.083997 -0.083997
-0.083983 -0.083983 -0.083983
-0.083969 -0.083969 -0.083969
-0.083954 -0.083954 -0.083954
-0.083940 -0.083940 -0.083940
-0.083926 -0.083926 -0.083926
-0.083912 -0.083912 -0.083912
-0.083898 -0.083898 -0.083898
-0.083884 -0.083884 -0.083884
-0.083870 -0.083870 -0.083870
-0.083855 -0.083855 -0.083855
-0.083841 -0.083841 -0.083841
-0.083827 -0.083827 -0.083827
-0.083813 -0.083813 -0.083813
-0.083799 -0.083799 -0.083799
-0.083785 -0.083785 -0.083785
-0.083771 -0.083771 -0.083771
-0.083756 -0.083756 -0.083756
-0.083742 -0.083742 -0.083742
-0.083728 -0.083728 -0.083728
-0.083714 -0.083714 -0.083714
-0.083700 -0.083700 -0.083700
-0.083686 -0.083686 -0.083686
-0.083672 -0.083672 -0.083672
-0.083658 -0.083658 -0.083658
-0.083643 -0.083643 -0.083643
-0.083629 -0.083629 -0.083629
-0.083615 -0.083615 -0.083615
-0.083601 -0.083601 -0.083601
-0.083587 -0.083587 -0.083587
-0.083573 -0.083573 -0.083573
-0.083559 -0.083559 -0.083559
-0.083545 -0.083545 -0.083545
-0.083531 -0.083531 -0.083531
-0.083516 -0.083516 -0.083516
-0.083502 -0.083502 -0.083502
-0.083488 -0.083488 -0.083488
-0.083474 -0.083474 -0.083474
-0.083460 -0.083460 -0.083460
-0.083446 -0.083446 -0.083446
-0.083432 -0.083432 -0.083432
-0.083418 -0.083418 -0.083418
-0.083404 -0.083404 -0.083404
-0.083390 -0.083390 -0.083390
-0.083375 -0.083375 -0.083375
-0.083361 -0.083361 -0.083361
-0.083347 -0.083347 -0.083347
-0.083333 -0.083333 -0.083333
-0.083319 -0.083319 -0.083319
-0.083305 -0.083305 -0.083305
-0.083291 -0.083291 -0.083291
-0.083277 -0.083277 -0.083277
-0.083263 -0.083263 -0.083263
-0.083249 -0.083249 -0.083249
-0.083235 -0.083235 -0.083235
-0.083220 -0.083220 -0.083220
-0.083206 -0.083206 -0.083206
-0.083192 -0.083192 -0.083192
-0.083178 -0.083178 -0.083178
-0.083164 -0.083164 -0.083164
-0.083150 -0.083150 -0.083150
-0.083136 -0.083136 -0.083136
-0.083122 -0.083122 -0.083122
-0.083108 -0.083108 -0.083108
-0.083094 -0.083094 -0.083094
-0.083080 -0.083080 -0.083080
-0.083066 -0.083066 -0.083066
-0.083051 -0.083051 -0.083051
-0.083037 -0.083037 -0.083037
-0.083023 -0.083023 -0.083023
-0.083009 -0.083009 -0.083009
-0.082995 -0.082995 -0.082995
-0.082981 -0.082981 -0.082981
-0.082967 -0.082967 -0.082967
-0.082953 -0.082953 -0.082953
-0.082939 -0.082939 -0.082939
-0.082925 -0.082925 -0.082925
-0.082911 -0.082911 -0.082911
-0.082897 -0.082897 -0.082897
-0.082883 -0.082883 -0.082883
-0.082869 -0.082869 -0.082869
-0.082855 -0.082855 -0.082855
-0.082841 -0.082841 -0.082841
-0.082826 -0.082826 -0.082826
-0.082812 -0.082812 -0.082812
-0.082798 -0.082798 -0.082798
-0.082784 -0.082784 -0.082784
-0.082770 -0.082770 -0.082770
-0.082756 -0.082756 -0.082756
-0.082742 -0.082742 -0.082742
-0.082728 -0.082728 -0.082728
-0.082714 -0.082714 -0.082714
-0.082700 -0.082700 -0.082700
-0.082686 -0.082686 -0.082686
-0.082672 -0.082672 -0.082672
-0.082658 -0.082658 -0.082658
-0.082644 -0.082644 -0.082644
-0.082630 -0.082630 -0.082630
-0.082616 -0.082616 -0.082616
-0.082602 -0.082602 -0.082602
-0.082588 -0.082588 -0.082588
-0.082574 -0.082574 -0.082574
-0.082560 -0.082560 -0.082560
-0.082546 -0.082546 -0.082546
-0.082532 -0.082532 -0.082532
-0.082518 -0.082518 -0.082518
-0.082503 -0.082503 -0.082503
-0.082489 -0.082489 -0.082489
-0.082475 -0.082475 -0.082475
-0.082461 -0.082461 -0.082461
-0.082447 -0.082447 -0.082447
-0.082433 -0.082433 -0.082433
-0.082419 -0.082419 -0.082419
-0.082405 -0.082405 -0.082405
-0.082391 -0.082391 -0.082391
-0.082377 -0.082377 -0.082377
-0.082363 -0.082363 -0.082363
-0.082349 -0.082349 -0.082349
-0.082335 -0.082335 -0.082335
-0.082321 -0.082321 -0.082321
-0.082307 -0.082307 -0.082307
-0.082293 -0.082293 -0.082293
-0.082279 -0.082279 -0.082279
-0.082265 -0.082265 -0.082265
-0.082251 -0.082251 -0.082251
-0.082237 -0.082237 -0.082237
-0.082223 -0.082223 -0.082223
-0.082209 -0.082209 -0.082209
-0.082195 -0.082195 -0.082195
-0.082181 -0.082181 -0.082181
-0.082167 -0.082167 -0.082167
-0.082153 -0.082153 -0.082153
-0.082139 -0.082139 -0.082139
-0.082125 -0.082125 -0.082125
-0.082111 -0.082111 -0.082111
-0.082097 -0.082097 -0.082097
-0.082083 -0.082083 -0.082083
-0.082069 -0.082069 -0.082069
-0.082055 -0.082055 -0.082055
-0.082041 -0.082041 -0.082041
-0.082027 -0.082027 -0.082027
-0.082013 -0.082013 -0.082013
-0.081999 -0.081999 -0.081999
-0.081985 -0.081985 -0.081985
-0.081971 -0.081971 -0.081971
-0.081957 -0.081957 -0.081957
-0.081943 -0.081943 -0.081943
-0.081929 -0.081929 -0.081929
-0.081915 -0.081915 -0.081915
-0.081901 -0.081901 -0.081901
-0.081887 -0.081887 -0.081887
-0.081873 -0.081873 -0.081873
-0.081859 -0.081859 -0.081859
-0.081845 -0.081845 -0.081845
-0.081831 -0.081831 -0.081831
-0.081817 -0.081817 -0.081817
-0.081803 -0.081803 -0.081803
-0.081789 -0.081789 -0.081789
-0.081775 -0.081775 -0.081775
-0.081761 -0.081761 -0.081761
-0.081747 -0.081747 -0.081747
-0.081733 -0.081733 -0.081733
-0.081719 -0.081719 -0.081719
-0.081706 -0.081706 -0.081706
-0.081692 -0.081692 -0.081692
-0.081678 -0.081678 -0.081678
-0.081664 -0.081664 -0.081664
-0.081650 -0.081650 -0.081650
-0.081636 -0.081636 -0.081636
-0.081622 -0.081622 -0.081622
-0.081608 -0.081608 -0.081608
-0.081594 -0.081594 -0.081594
-0.081580 -0.081580 -0.081580
-0.081566 -0.081566 -0.081566
-0.081552 -0.081552 -0.081552
-0.081538 -0.081538 -0.081538
-0.081524 -0.081524 -0.081524
-0.081510 -0.081510 -0.081510
-0.081496 -0.081496 -0.081496
-0.081482 -0.081482 -0.081482
-0.081468 -0.081468 -0.081468
-0.081454 -0.081454 -0.081454
-0.081440 -0.081440 -0.081440
-0.081426 -0.081426 -0.081426
-0.081412 -0.081412 -0.081412
-0.081398 -0.081398 -0.081398
-0.081385 -0.081385 -0.081385
-0.081371 -0.081371 -0.081371
-0.081357 -0.081357 -0.081357
-0.081343 -0.081343 -0.081343
-0.081329 -0.081329 -0.081329
-0.081315 -0.081315 -0.081315
-0.081301 -0.081301 -0.081301
-0.081287 -0.081287 -0.081287
-0.081273 -0.081273 -0.081273
-0.081259 -0.081259 -0.081259
-0.081245 -0.081245 -0.081245
-0.081231 -0.081231 -0.081231
-0.081217 -0.081217 -0.081217
-0.081203 -0.081203 -0.081203
-0.081189 -0.081189 -0.081189
-0.081176 -0.081176 -0.081176
-0.081162 -0.081162 -0.081162
-0.081148 -0.081148 -0.081148
-0.081134 -0.081134 -0.081134
-0.081120 -0.081120 -0.081120
-0.081106 -0.081106 -0.081106
-0.081092 -0.081092 -0.081092
-0.081078 -0.081078 -0.081078
-0.081064 -0.081064 -0.081064
-0.081050 -0.081050 -0.081050
-0.081036 -0.081036 -0.081036
-0.081022 -0.081022 -0.081022
-0.081008 -0.081008 -0.081008
-0.080995 -0.080995 -0.080995
-0.080981 -0.080981 -0.080981
-0.080967 -0.080967 -0.080967
-0.080953 -0.080953 -0.080953
-0.080939 -0.080939 -0.080939
-0.080925 -0.080925 -0.080925
-0.080911 -0.080911 -0.080911
-0.080897 -0.080897 -0.080897
-0.080883 -0.080883 -0.080883
-0.080869 -0.080869 -0.080869
-0.080855 -0.080855 -0.080855
-0.080842 -0.080842 -0.080842
-0.080828 -0.080828 -0.080828
-0.080814 -0.080814 -0.080814
-0.080800 -0.080800 -0.080800
-0.080786 -0.080786 -0.080786
-0.080772 -0.080772 -0.080772
-0.080758 -0.080758 -0.080758
-0.080744 -0.080744 -0.080744
-0.080730 -0.080730 -0.080730
-0.080716 -0.080716 -0.080716
-0.080703 -0.080703 -0.080703
-0.080689 -0.080689 -0.080689
-0.080675 -0.080675 -0.080675
-0.080661 -0.080661 -0.080661
-0.080647 -0.080647 -0.080647
-0.080633 -0.080633 -0.080633
-0.080619 -0.080619 -0.080619
-0.080605 -0.080605 -0.080605
-0.080592 -0.080592 -0.080592
-0.080578 -0.080578 -0.080578
-0.080564 -0.080564 -0.080564
-0.080550 -0.080550 -0.080550
-0.080536 -0.080536 -0.080536
-0.080522 -0.080522 -0.080522
-0.080508 -0.080508 -0.080508
-0.080494 -0.080494 -0.080494
-0.080480 -0.080480 -0.080480
-0.080467 -0.080467 -0.080467
-0.080453 -0.080453 -0.080453
-0.080439 -0.080439 -0.080439
-0.080425 -0.080425 -0.080425
-0.080411 -0.080411 -0.080411
-0.080397 -0.080397 -0.080397
-0.080383 -0.080383 -0.080383
-0.080370 -0.080370 -0.080370
-0.080356 -0.080356 -0.080356
-0.080342 -0.080342 -0.080342
-0.080328 -0.080328 -0.080328
-0.080314 -0.080314 -0.080314
-0.080300 -0.080300 -0.080300
-0.080286 -0.080286 -0.080286
-0.080273 -0.080273 -0.080273
-0.080259 -0.080259 -0.080259
-0.080245 -0.080245 -0.080245
-0.080231 -0.080231 -0.080231
-0.080217 -0.080217 -0.080217
-0.080203 -0.080203 -0.080203
-0.080189 -0.080189 -0.080189
-0.080176 -0.080176 -0.080176
-0.080162 -0.080162 -0.080162
-0.080148 -0.080148 -0.080148
-0.080134 -0.080134 -0.080134
-0.080120 -0.080120 -0.080120
-0.080106 -0.080106 -0.080106
-0.080092 -0.080092 -0.080092
-0.080079 -0.080079 -0.080079
-0.080065 -0.080065 -0.080065
-0.080051 -0.080051 -0.080051
-0.080037 -0.080037 -0.080037
-0.080023 -0.080023 -0.080023
-0.080009 -0.080009 -0.080009
-0.079996 -0.079996 -0.079996
-0.079982 -0.079982 -0.079982
-0.079968 -0.079968 -0.079968
-0.079954 -0.079954 -0.079954
-0.079940 -0.079940 -0.079940
-0.079926 -0.079926 -0.079926
-0.079913 -0.079913 -0.079913
-0.079899 -0.079899 -0.079899
-0.079885 -0.079885 -0.079885
-0.079871 -0.079871 -0.079871
-0.079857 -0.079857 -0.079857
-0.079843 -0.079843 -0.079843
-0.079830 -0.079830 -0.079830
-0.079816 -0.079816 -0.079816
-0.079802 -0.079802 -0.079802
-0.079788 -0.079788 -0.079788
-0.079774 -0.079774 -0.079774
-0.079761 -0.079761 -0.079761
-0.079747 -0.079747 -0.079747
-0.079733 -0.079733 -0.079733
-0.079719 -0.079719 -0.079719
-0.079705 -0.079705 -0.079705
-0.079691 -0.079691 -0.079691
-0.079678 -0.079678 -0.079678
-0.079664 -0.079664 -0.079664
-0.079650 -0.079650 -0.079650
-0.079636 -0.079636 -0.079636
-0.079622 -0.079622 -0.079622
-0.079609 -0.079609 -0.079609
-0.079595 -0.079595 -0.079595
-0.079581 -0.079581 -0.079581
-0.079567 -0.079567 -0.079567
-0.079553 -0.079553 -0.079553
-0.079540 -0.079540 -0.079540
-0.079526 -0.079526 -0.079526
-0.079512 -0.079512 -0.079512
-0.079498 -0.079498 -0.079498
-0.079484 -0.079484 -0.079484
-0.079471 -0.079471 -0.079471
-0.079457 -0.079457 -0.079457
-0.079443 -0.079443 -0.079443
-0.079429 -0.079429 -0.079429
-0.079415 -0.079415 -0.079415
-0.079402 -0.079402 -0.079402
-0.079388 -0.079388 -0.079388
-0.079374 -0.079374 -0.079374
-0.079360 -0.079360 -0.079360
-0.079346 -0.079346 -0.079346
-0.079333 -0.079333 -0.079333
-0.079319 -0.079319 -0.079319
-0.079305 -0.079305 -0.079305
-0.079291 -0.079291 -0.079291
-0.079278 -0.079278 -0.079278
-0.079264 -0.079264 -0.079264
-0.079250 -0.079250 -0.079250
-0.079236 -0.079236 -0.079236
-0.079222 -0.079222 -0.079222
-0.079209 -0.079209 -0.079209
-0.079195 -0.079195 -0.079195
-0.079181 -0.079181 -0.079181
-0.079167 -0.079167 -0.079167
-0.079154 -0.079154 -0.079154
-0.079140 -0.079140 -0.079140
-0.079126 -0.079126 -0.079126
-0.079112 -0.079112 -0.079112
-0.079099 -0.079099 -0.079099
-0.079085 -0.079085 -0.079085
-0.079071 -0.079071 -0.079071
-0.079057 -0.079057 -0.079057
-0.079043 -0.079043 -0.079043
-0.079030 -0.079030 -0.079030
-0.079016 -0.079016 -0.079016
-0.079002 -0.079002 -0.079002
-0.078988 -0.078988 -0.078988
-0.078975 -0.078975 -0.078975
-0.078961 -0.078961 -0.078961
-0.078947 -0.078947 -0.078947
-0.078933 -0.078933 -0.078933
-0.078920 -0.078920 -0.078920
-0.078906 -0.078906 -0.078906
-0.078892 -0.078892 -0.078892
-0.078878 -0.078878 -0.078878
-0.078865 -0.078865 -0.078865
-0.078851 -0.078851 -0.078851
-0.078837 -0.078837 -0.078837
-0.078823 -0.078823 -0.078823
-0.078810 -0.078810 -0.078810
-0.078796 -0.078796 -0.078796
-0.078782 -0.078782 -0.078782
-0.078768 -0.078768 -0.078768
-0.078755 -0.078755 -0.078755
-0.078741 -0.078741 -0.078741
-0.078727 -0.078727 -0.078727
-0.078713 -0.078713 -0.078713
-0.078700 -0.078700 -0.078700
-0.078686 -0.078686 -0.078686
-0.078672 -0.078672 -0.078672
-0.078659 -0.078659 -0.078659
-0.078645 -0.078645 -0.078645
-0.078631 -0.078631 -0.078631
-0.078617 -0.078617 -0.078617
-0.078604 -0.078604 -0.078604
-0.078590 -0.078590 -0.078590
-0.078576 -0.078576 -0.078576
-0.078562 -0.078562 -0.078562
-0.078549 -0.078549 -0.078549
-0.078535 -0.078535 -0.078535
-0.078521 -0.078521 -0.078521
-0.078508 -0.078508 -0.078508
-0.078494 -0.078494 -0.078494
-0.078480 -0.078480 -0.078480
-0.078466 -0.078466 -0.078466
-0.078453 -0.078453 -0.078453
-0.078439 -0.078439 -0.078439
-0.078425 -0.078425 -0.078425
-0.078412 -0.078412 -0.078412
-0.078398 -0.078398 -0.078398
-0.078384 -0.078384 -0.078384
-0.078370 -0.078370 -0.078370
-0.078357 -0.078357 -0.078357
-0.078343 -0.078343 -0.078343
-0.078329 -0.078329 -0.078329
-0.078316 -0.078316 -0.078316
-0.078302 -0.078302 -0.078302
-0.078288 -0.078288 -0.078288
-0.078274 -0.078274 -0.078274
-0.078261 -0.078261 -0.078261
-0.078247 -0.078247 -0.078247
-0.078233 -0.078233 -0.078233
-0.078220 -0.078220 -0.078220
-0.078206 -0.078206 -0.078206
-0.078192 -0.078192 -0.078192
-0.078179 -0.078179 -0.078179
-0.078165 -0.078165 -0.078165
-0.078151 -0.078151 -0.078151
-0.078138 -0.078138 -0.078138
-0.078124 -0.078124 -0.078124
-0.078110 -0.078110 -0.078110
-0.078096 -0.078096 -0.078096
-0.078083 -0.078083 -0.078083
-0.078069 -0.078069 -0.078069
-0.078055 -0.078055 -0.078055
-0.078042 -0.078042 -0.078042
-0.078028 -0.078028 -0.078028
-0.078014 -0.078014 -0.078014
-0.078001 -0.078001 -0.078001
-0.077987 -0.077987 -0.077987
-0.077973 -0.077973 -0.077973
-0.077960 -0.077960 -0.077960
-0.077946 -0.077946 -0.077946
-0.077932 -0.077932 -0.077932
-0.077919 -0.077919 -0.077919
-0.077905 -0.077905 -0.077905
-0.077891 -0.077891 -0.077891
-0.077878 -0.077878 -0.077878
-0.077864 -0.077864 -0.077864
-0.077850 -0.077850 -0.077850
-0.077837 -0.077837 -0.077837
-0.077823 -0.077823 -0.077823
-0.077809 -0.077809 -0.077809
-0.077796 -0.077796 -0.077796
-0.077782 -0.077782 -0.077782
-0.077768 -0.077768 -0.077768
-0.077755 -0.077755 -0.077755
-0.077741 -0.077741 -0.077741
-0.077727 -0.077727 -0.077727
-0.077714 -0.077714 -0.077714
-0.077700 -0.077700 -0.077700
-0.077686 -0.077686 -0.077686
-0.077673 -0.077673 -0.077673
-0.077659 -0.077659 -0.077659
-0.077645 -0.077645 -0.077645
-0.077632 -0.077632 -0.077632
-0.077618 -0.077618 -0.077618
-0.077604 -0.077604 -0.077604
-0.077591 -0.077591 -0.077591
-0.077577 -0.077577 -0.077577
-0.077563 -0.077563 -0.077563
-0.077550 -0.077550 -0.077550
-0.077536 -0.077536 -0.077536
-0.077522 -0.077522 -0.077522
-0.077509 -0.077509 -0.077509
-0.077495 -0.077495 -0.077495
-0.077482 -0.077482 -0.077482
-0.077468 -0.077468 -0.077468
-0.077454 -0.077454 -0.077454
-0.077441 -0.077441 -0.077441
-0.077427 -0.077427 -0.077427
-0.077413 -0.077413 -0.077413
-0.077400 -0.077400 -0.077400
-0.077386 -0.077386 -0.077386
-0.077372 -0.077372 -0.077372
-0.077359 -0.077359 -0.077359
-0.077345 -0.077345 -0.077345
-0.077332 -0.077332 -0.077332
-0.077318 -0.077318 -0.077318
-0.077304 -0.077304 -0.077304
-0.077291 -0.077291 -0.077291
-0.077277 -0.077277 -0.077277
-0.077263 -0.077263 -0.077263
-0.077250 -0.077250 -0.077250
-0.077236 -0.077236 -0.077236
-0.077223 -0.077223 -0.077223
-0.077209 -0.077209 -0.077209
-0.077195 -0.077195 -0.077195
-0.077182 -0.077182 -0.077182
-0.077168 -0.077168 -0.077168
-0.077154 -0.077154 -0.077154
-0.077141 -0.077141 -0.077141
-0.077127 -0.077127 -0.077127
-0.077114 -0.077114 -0.077114
-0.077100 -0.077100 -0.077100
-0.077086 -0.077086 -0.077086
-0.077073 -0.077073 -0.077073
-0.077059 -0.077059 -0.077059
-0.077046 -0.077046 -0.077046
-0.077032 -0.077032 -0.077032
-0.077018 -0.077018 -0.077018
-0.077005 -0.077005 -0.077005
-0.076991 -0.076991 -0.076991
-0.076978 -0.076978 -0.076978
-0.076964 -0.076964 -0.076964
-0.076950 -0.076950 -0.076950
-0.076937 -0.076937 -0.076937
-0.076923 -0.076923 -0.076923
-0.076910 -0.076910 -0.076910
-0.076896 -0.076896 -0.076896
-0.076882 -0.076882 -0.076882
-0.076869 -0.076869 -0.076869
-0.076855 -0.076855 -0.076855
-0.076842 -0.076842 -0.076842
-0.076828 -0.076828 -0.076828
-0.076814 -0.076814 -0.076814
-0.076801 -0.076801 -0.076801
-0.076787 -0.076787 -0.076787
-0.076774 -0.076774 -0.076774
-0.076760 -0.076760 -0.076760
-0.076746 -0.076746 -0.076746
-0.076733 -0.076733 -0.076733
-0.076719 -0.076719 -0.076719
-0.076706 -0.076706 -0.076706
-0.076692 -0.076692 -0.076692
-0.076679 -0.076679 -0.076679
-0.076665 -0.076665 -0.076665
-0.076651 -0.076651 -0.076651
-0.076638 -0.076638 -0.076638
-0.076624 -0.076624 -0.076624
-0.076611 -0.076611 -0.076611
-0.076597 -0.076597 -0.076597
-0.076584 -0.076584 -0.076584
-0.076570 -0.076570 -0.076570
-0.076556 -0.076556 -0.076556
-0.076543 -0.076543 -0.076543
-0.076529 -0.076529 -0.076529
-0.076516 -0.076516 -0.076516
-0.076502 -0.076502 -0.076502
-0.076489 -0.076489 -0.076489
-0.076475 -0.076475 -0.076475
-0.076461 -0.076461 -0.076461
-0.076448 -0.076448 -0.076448
-0.076434 -0.076434 -0.076434
-0.076421 -0.076421 -0.076421
-0.076407 -0.076407 -0.076407
-0.076394 -0.076394 -0.076394
-0.076380 -0.076380 -0.076380
