Luts Download/Canon Luts/1dlut/canonlog-to-gamma-1dlut/full-to-linear-range/CanonLog_12-to-Linear_FL_Ver.2.0.cube
# Gamma : Canon Log to Linear
# Range : Full in / Linear out
# Version : 2.0 2016/10/27
# Copyright(c) 2016 Canon Inc. All Rights Reserved.

LUT_1D_SIZE 4096
-0.087467 -0.087467 -0.087467
-0.087236 -0.087236 -0.087236
-0.087006 -0.087006 -0.087006
-0.086776 -0.086776 -0.086776
-0.086546 -0.086546 -0.086546
-0.086317 -0.086317 -0.086317
-0.086088 -0.086088 -0.086088
-0.085859 -0.085859 -0.085859
-0.085630 -0.085630 -0.085630
-0.085402 -0.085402 -0.085402
-0.085174 -0.085174 -0.085174
-0.084946 -0.084946 -0.084946
-0.084719 -0.084719 -0.084719
-0.084492 -0.084492 -0.084492
-0.084265 -0.084265 -0.084265
-0.084038 -0.084038 -0.084038
-0.083812 -0.083812 -0.083812
-0.083586 -0.083586 -0.083586
-0.083360 -0.083360 -0.083360
-0.083135 -0.083135 -0.083135
-0.082910 -0.082910 -0.082910
-0.082685 -0.082685 -0.082685
-0.082460 -0.082460 -0.082460
-0.082236 -0.082236 -0.082236
-0.082012 -0.082012 -0.082012
-0.081788 -0.081788 -0.081788
-0.081565 -0.081565 -0.081565
-0.081341 -0.081341 -0.081341
-0.081118 -0.081118 -0.081118
-0.080896 -0.080896 -0.080896
-0.080673 -0.080673 -0.080673
-0.080451 -0.080451 -0.080451
-0.080229 -0.080229 -0.080229
-0.080008 -0.080008 -0.080008
-0.079786 -0.079786 -0.079786
-0.079565 -0.079565 -0.079565
-0.079345 -0.079345 -0.079345
-0.079124 -0.079124 -0.079124
-0.078904 -0.078904 -0.078904
-0.078684 -0.078684 -0.078684
-0.078464 -0.078464 -0.078464
-0.078245 -0.078245 -0.078245
-0.078026 -0.078026 -0.078026
-0.077807 -0.077807 -0.077807
-0.077588 -0.077588 -0.077588
-0.077370 -0.077370 -0.077370
-0.077152 -0.077152 -0.077152
-0.076934 -0.076934 -0.076934
-0.076717 -0.076717 -0.076717
-0.076500 -0.076500 -0.076500
-0.076283 -0.076283 -0.076283
-0.076066 -0.076066 -0.076066
-0.075850 -0.075850 -0.075850
-0.075634 -0.075634 -0.075634
-0.075418 -0.075418 -0.075418
-0.075202 -0.075202 -0.075202
-0.074987 -0.074987 -0.074987
-0.074772 -0.074772 -0.074772
-0.074557 -0.074557 -0.074557
-0.074342 -0.074342 -0.074342
-0.074128 -0.074128 -0.074128
-0.073914 -0.073914 -0.073914
-0.073700 -0.073700 -0.073700
-0.073487 -0.073487 -0.073487
-0.073274 -0.073274 -0.073274
-0.073061 -0.073061 -0.073061
-0.072848 -0.072848 -0.072848
-0.072636 -0.072636 -0.072636
-0.072423 -0.072423 -0.072423
-0.072211 -0.072211 -0.072211
-0.072000 -0.072000 -0.072000
-0.071788 -0.071788 -0.071788
-0.071577 -0.071577 -0.071577
-0.071367 -0.071367 -0.071367
-0.071156 -0.071156 -0.071156
-0.070946 -0.070946 -0.070946
-0.070736 -0.070736 -0.070736
-0.070526 -0.070526 -0.070526
-0.070316 -0.070316 -0.070316
-0.070107 -0.070107 -0.070107
-0.069898 -0.069898 -0.069898
-0.069689 -0.069689 -0.069689
-0.069481 -0.069481 -0.069481
-0.069272 -0.069272 -0.069272
-0.069064 -0.069064 -0.069064
-0.068857 -0.068857 -0.068857
-0.068649 -0.068649 -0.068649
-0.068442 -0.068442 -0.068442
-0.068235 -0.068235 -0.068235
-0.068028 -0.068028 -0.068028
-0.067822 -0.067822 -0.067822
-0.067616 -0.067616 -0.067616
-0.067410 -0.067410 -0.067410
-0.067204 -0.067204 -0.067204
-0.066999 -0.066999 -0.066999
-0.066794 -0.066794 -0.066794
-0.066589 -0.066589 -0.066589
-0.066384 -0.066384 -0.066384
-0.066180 -0.066180 -0.066180
-0.065975 -0.065975 -0.065975
-0.065772 -0.065772 -0.065772
-0.065568 -0.065568 -0.065568
-0.065364 -0.065364 -0.065364
-0.065161 -0.065161 -0.065161
-0.064958 -0.064958 -0.064958
-0.064756 -0.064756 -0.064756
-0.064553 -0.064553 -0.064553
-0.064351 -0.064351 -0.064351
-0.064149 -0.064149 -0.064149
-0.063948 -0.063948 -0.063948
-0.063746 -0.063746 -0.063746
-0.063545 -0.063545 -0.063545
-0.063344 -0.063344 -0.063344
-0.063144 -0.063144 -0.063144
-0.062943 -0.062943 -0.062943
-0.062743 -0.062743 -0.062743
-0.062543 -0.062543 -0.062543
-0.062344 -0.062344 -0.062344
-0.062144 -0.062144 -0.062144
-0.061945 -0.061945 -0.061945
-0.061746 -0.061746 -0.061746
-0.061548 -0.061548 -0.061548
-0.061349 -0.061349 -0.061349
-0.061151 -0.061151 -0.061151
-0.060953 -0.060953 -0.060953
-0.060755 -0.060755 -0.060755
-0.060558 -0.060558 -0.060558
-0.060361 -0.060361 -0.060361
-0.060164 -0.060164 -0.060164
-0.059967 -0.059967 -0.059967
-0.059771 -0.059771 -0.059771
-0.059575 -0.059575 -0.059575
-0.059379 -0.059379 -0.059379
-0.059183 -0.059183 -0.059183
-0.058987 -0.058987 -0.058987
-0.058792 -0.058792 -0.058792
-0.058597 -0.058597 -0.058597
-0.058402 -0.058402 -0.058402
-0.058208 -0.058208 -0.058208
-0.058014 -0.058014 -0.058014
-0.057820 -0.057820 -0.057820
-0.057626 -0.057626 -0.057626
-0.057432 -0.057432 -0.057432
-0.057239 -0.057239 -0.057239
-0.057046 -0.057046 -0.057046
-0.056853 -0.056853 -0.056853
-0.056661 -0.056661 -0.056661
-0.056468 -0.056468 -0.056468
-0.056276 -0.056276 -0.056276
-0.056084 -0.056084 -0.056084
-0.055893 -0.055893 -0.055893
-0.055701 -0.055701 -0.055701
-0.055510 -0.055510 -0.055510
-0.055319 -0.055319 -0.055319
-0.055129 -0.055129 -0.055129
-0.054938 -0.054938 -0.054938
-0.054748 -0.054748 -0.054748
-0.054558 -0.054558 -0.054558
-0.054368 -0.054368 -0.054368
-0.054179 -0.054179 -0.054179
-0.053989 -0.053989 -0.053989
-0.053800 -0.053800 -0.053800
-0.053612 -0.053612 -0.053612
-0.053423 -0.053423 -0.053423
-0.053235 -0.053235 -0.053235
-0.053047 -0.053047 -0.053047
-0.052859 -0.052859 -0.052859
-0.052671 -0.052671 -0.052671
-0.052484 -0.052484 -0.052484
-0.052297 -0.052297 -0.052297
-0.052110 -0.052110 -0.052110
-0.051923 -0.051923 -0.051923
-0.051736 -0.051736 -0.051736
-0.051550 -0.051550 -0.051550
-0.051364 -0.051364 -0.051364
-0.051178 -0.051178 -0.051178
-0.050993 -0.050993 -0.050993
-0.050808 -0.050808 -0.050808
-0.050622 -0.050622 -0.050622
-0.050438 -0.050438 -0.050438
-0.050253 -0.050253 -0.050253
-0.050069 -0.050069 -0.050069
-0.049884 -0.049884 -0.049884
-0.049700 -0.049700 -0.049700
-0.049517 -0.049517 -0.049517
-0.049333 -0.049333 -0.049333
-0.049150 -0.049150 -0.049150
-0.048967 -0.048967 -0.048967
-0.048784 -0.048784 -0.048784
-0.048602 -0.048602 -0.048602
-0.048419 -0.048419 -0.048419
-0.048237 -0.048237 -0.048237
-0.048055 -0.048055 -0.048055
-0.047874 -0.047874 -0.047874
-0.047692 -0.047692 -0.047692
-0.047511 -0.047511 -0.047511
-0.047330 -0.047330 -0.047330
-0.047149 -0.047149 -0.047149
-0.046969 -0.046969 -0.046969
-0.046788 -0.046788 -0.046788
-0.046608 -0.046608 -0.046608
-0.046428 -0.046428 -0.046428
-0.046249 -0.046249 -0.046249
-0.046069 -0.046069 -0.046069
-0.045890 -0.045890 -0.045890
-0.045711 -0.045711 -0.045711
-0.045532 -0.045532 -0.045532
-0.045354 -0.045354 -0.045354
-0.045175 -0.045175 -0.045175
-0.044997 -0.044997 -0.044997
-0.044819 -0.044819 -0.044819
-0.044642 -0.044642 -0.044642
-0.044464 -0.044464 -0.044464
-0.044287 -0.044287 -0.044287
-0.044110 -0.044110 -0.044110
-0.043933 -0.043933 -0.043933
-0.043757 -0.043757 -0.043757
-0.043580 -0.043580 -0.043580
-0.043404 -0.043404 -0.043404
-0.043228 -0.043228 -0.043228
-0.043053 -0.043053 -0.043053
-0.042877 -0.042877 -0.042877
-0.042702 -0.042702 -0.042702
-0.042527 -0.042527 -0.042527
-0.042352 -0.042352 -0.042352
-0.042178 -0.042178 -0.042178
-0.042003 -0.042003 -0.042003
-0.041829 -0.041829 -0.041829
-0.041655 -0.041655 -0.041655
-0.041481 -0.041481 -0.041481
-0.041308 -0.041308 -0.041308
-0.041134 -0.041134 -0.041134
-0.040961 -0.040961 -0.040961
-0.040788 -0.040788 -0.040788
-0.040616 -0.040616 -0.040616
-0.040443 -0.040443 -0.040443
-0.040271 -0.040271 -0.040271
-0.040099 -0.040099 -0.040099
-0.039927 -0.039927 -0.039927
-0.039756 -0.039756 -0.039756
-0.039584 -0.039584 -0.039584
-0.039413 -0.039413 -0.039413
-0.039242 -0.039242 -0.039242
-0.039071 -0.039071 -0.039071
-0.038901 -0.038901 -0.038901
-0.038731 -0.038731 -0.038731
-0.038561 -0.038561 -0.038561
-0.038391 -0.038391 -0.038391
-0.038221 -0.038221 -0.038221
-0.038051 -0.038051 -0.038051
-0.037882 -0.037882 -0.037882
-0.037713 -0.037713 -0.037713
-0.037544 -0.037544 -0.037544
-0.037376 -0.037376 -0.037376
-0.037207 -0.037207 -0.037207
-0.037039 -0.037039 -0.037039
-0.036871 -0.036871 -0.036871
-0.036703 -0.036703 -0.036703
-0.036536 -0.036536 -0.036536
-0.036368 -0.036368 -0.036368
-0.036201 -0.036201 -0.036201
-0.036034 -0.036034 -0.036034
-0.035867 -0.035867 -0.035867
-0.035701 -0.035701 -0.035701
-0.035534 -0.035534 -0.035534
-0.035368 -0.035368 -0.035368
-0.035202 -0.035202 -0.035202
-0.035037 -0.035037 -0.035037
-0.034871 -0.034871 -0.034871
-0.034706 -0.034706 -0.034706
-0.034541 -0.034541 -0.034541
-0.034376 -0.034376 -0.034376
-0.034211 -0.034211 -0.034211
-0.034047 -0.034047 -0.034047
-0.033882 -0.033882 -0.033882
-0.033718 -0.033718 -0.033718
-0.033554 -0.033554 -0.033554
-0.033391 -0.033391 -0.033391
-0.033227 -0.033227 -0.033227
-0.033064 -0.033064 -0.033064
-0.032901 -0.032901 -0.032901
-0.032738 -0.032738 -0.032738
-0.032575 -0.032575 -0.032575
-0.032413 -0.032413 -0.032413
-0.032250 -0.032250 -0.032250
-0.032088 -0.032088 -0.032088
-0.031926 -0.031926 -0.031926
-0.031765 -0.031765 -0.031765
-0.031603 -0.031603 -0.031603
-0.031442 -0.031442 -0.031442
-0.031281 -0.031281 -0.031281
-0.031120 -0.031120 -0.031120
-0.030959 -0.030959 -0.030959
-0.030799 -0.030799 -0.030799
-0.030639 -0.030639 -0.030639
-0.030479 -0.030479 -0.030479
-0.030319 -0.030319 -0.030319
-0.030159 -0.030159 -0.030159
-0.030000 -0.030000 -0.030000
-0.029840 -0.029840 -0.029840
-0.029681 -0.029681 -0.029681
-0.029522 -0.029522 -0.029522
-0.029364 -0.029364 -0.029364
-0.029205 -0.029205 -0.029205
-0.029047 -0.029047 -0.029047
-0.028889 -0.028889 -0.028889
-0.028731 -0.028731 -0.028731
-0.028573 -0.028573 -0.028573
-0.028416 -0.028416 -0.028416
-0.028258 -0.028258 -0.028258
-0.028101 -0.028101 -0.028101
-0.027944 -0.027944 -0.027944
-0.027788 -0.027788 -0.027788
-0.027631 -0.027631 -0.027631
-0.027475 -0.027475 -0.027475
-0.027319 -0.027319 -0.027319
-0.027163 -0.027163 -0.027163
-0.027007 -0.027007 -0.027007
-0.026851 -0.026851 -0.026851
-0.026696 -0.026696 -0.026696
-0.026541 -0.026541 -0.026541
-0.026386 -0.026386 -0.026386
-0.026231 -0.026231 -0.026231
-0.026076 -0.026076 -0.026076
-0.025922 -0.025922 -0.025922
-0.025768 -0.025768 -0.025768
-0.025614 -0.025614 -0.025614
-0.025460 -0.025460 -0.025460
-0.025306 -0.025306 -0.025306
-0.025153 -0.025153 -0.025153
-0.024999 -0.024999 -0.024999
-0.024846 -0.024846 -0.024846
-0.024694 -0.024694 -0.024694
-0.024541 -0.024541 -0.024541
-0.024388 -0.024388 -0.024388
-0.024236 -0.024236 -0.024236
-0.024084 -0.024084 -0.024084
-0.023932 -0.023932 -0.023932
-0.023780 -0.023780 -0.023780
-0.023629 -0.023629 -0.023629
-0.023477 -0.023477 -0.023477
-0.023326 -0.023326 -0.023326
-0.023175 -0.023175 -0.023175
-0.023024 -0.023024 -0.023024
-0.022874 -0.022874 -0.022874
-0.022723 -0.022723 -0.022723
-0.022573 -0.022573 -0.022573
-0.022423 -0.022423 -0.022423
-0.022273 -0.022273 -0.022273
-0.022123 -0.022123 -0.022123
-0.021974 -0.021974 -0.021974
-0.021824 -0.021824 -0.021824
-0.021675 -0.021675 -0.021675
-0.021526 -0.021526 -0.021526
-0.021378 -0.021378 -0.021378
-0.021229 -0.021229 -0.021229
-0.021081 -0.021081 -0.021081
-0.020932 -0.020932 -0.020932
-0.020784 -0.020784 -0.020784
-0.020636 -0.020636 -0.020636
-0.020489 -0.020489 -0.020489
-0.020341 -0.020341 -0.020341
-0.020194 -0.020194 -0.020194
-0.020047 -0.020047 -0.020047
-0.019900 -0.019900 -0.019900
-0.019753 -0.019753 -0.019753
-0.019607 -0.019607 -0.019607
-0.019460 -0.019460 -0.019460
-0.019314 -0.019314 -0.019314
-0.019168 -0.019168 -0.019168
-0.019022 -0.019022 -0.019022
-0.018876 -0.018876 -0.018876
-0.018731 -0.018731 -0.018731
-0.018586 -0.018586 -0.018586
-0.018441 -0.018441 -0.018441
-0.018296 -0.018296 -0.018296
-0.018151 -0.018151 -0.018151
-0.018006 -0.018006 -0.018006
-0.017862 -0.017862 -0.017862
-0.017718 -0.017718 -0.017718
-0.017574 -0.017574 -0.017574
-0.017430 -0.017430 -0.017430
-0.017286 -0.017286 -0.017286
-0.017143 -0.017143 -0.017143
-0.016999 -0.016999 -0.016999
-0.016856 -0.016856 -0.016856
-0.016713 -0.016713 -0.016713
-0.016570 -0.016570 -0.016570
-0.016428 -0.016428 -0.016428
-0.016285 -0.016285 -0.016285
-0.016143 -0.016143 -0.016143
-0.016001 -0.016001 -0.016001
-0.015859 -0.015859 -0.015859
-0.015717 -0.015717 -0.015717
-0.015576 -0.015576 -0.015576
-0.015434 -0.015434 -0.015434
-0.015293 -0.015293 -0.015293
-0.015152 -0.015152 -0.015152
-0.015011 -0.015011 -0.015011
-0.014870 -0.014870 -0.014870
-0.014730 -0.014730 -0.014730
-0.014590 -0.014590 -0.014590
-0.014449 -0.014449 -0.014449
-0.014309 -0.014309 -0.014309
-0.014170 -0.014170 -0.014170
-0.014030 -0.014030 -0.014030
-0.013890 -0.013890 -0.013890
-0.013751 -0.013751 -0.013751
-0.013612 -0.013612 -0.013612
-0.013473 -0.013473 -0.013473
-0.013334 -0.013334 -0.013334
-0.013196 -0.013196 -0.013196
-0.013057 -0.013057 -0.013057
-0.012919 -0.012919 -0.012919
-0.012781 -0.012781 -0.012781
-0.012643 -0.012643 -0.012643
-0.012505 -0.012505 -0.012505
-0.012368 -0.012368 -0.012368
-0.012230 -0.012230 -0.012230
-0.012093 -0.012093 -0.012093
-0.011956 -0.011956 -0.011956
-0.011819 -0.011819 -0.011819
-0.011682 -0.011682 -0.011682
-0.011546 -0.011546 -0.011546
-0.011409 -0.011409 -0.011409
-0.011273 -0.011273 -0.011273
-0.011137 -0.011137 -0.011137
-0.011001 -0.011001 -0.011001
-0.010865 -0.010865 -0.010865
-0.010730 -0.010730 -0.010730
-0.010595 -0.010595 -0.010595
-0.010459 -0.010459 -0.010459
-0.010324 -0.010324 -0.010324
-0.010189 -0.010189 -0.010189
-0.010055 -0.010055 -0.010055
-0.009920 -0.009920 -0.009920
-0.009786 -0.009786 -0.009786
-0.009652 -0.009652 -0.009652
-0.009517 -0.009517 -0.009517
-0.009384 -0.009384 -0.009384
-0.009250 -0.009250 -0.009250
-0.009116 -0.009116 -0.009116
-0.008983 -0.008983 -0.008983
-0.008850 -0.008850 -0.008850
-0.008717 -0.008717 -0.008717
-0.008584 -0.008584 -0.008584
-0.008451 -0.008451 -0.008451
-0.008319 -0.008319 -0.008319
-0.008186 -0.008186 -0.008186
-0.008054 -0.008054 -0.008054
-0.007922 -0.007922 -0.007922
-0.007790 -0.007790 -0.007790
-0.007658 -0.007658 -0.007658
-0.007527 -0.007527 -0.007527
-0.007395 -0.007395 -0.007395
-0.007264 -0.007264 -0.007264
-0.007133 -0.007133 -0.007133
-0.007002 -0.007002 -0.007002
-0.006871 -0.006871 -0.006871
-0.006741 -0.006741 -0.006741
-0.006610 -0.006610 -0.006610
-0.006480 -0.006480 -0.006480
-0.006350 -0.006350 -0.006350
-0.006220 -0.006220 -0.006220
-0.006090 -0.006090 -0.006090
-0.005960 -0.005960 -0.005960
-0.005831 -0.005831 -0.005831
-0.005702 -0.005702 -0.005702
-0.005573 -0.005573 -0.005573
-0.005444 -0.005444 -0.005444
-0.005315 -0.005315 -0.005315
-0.005186 -0.005186 -0.005186
-0.005058 -0.005058 -0.005058
-0.004929 -0.004929 -0.004929
-0.004801 -0.004801 -0.004801
-0.004673 -0.004673 -0.004673
-0.004545 -0.004545 -0.004545
-0.004417 -0.004417 -0.004417
-0.004290 -0.004290 -0.004290
-0.004163 -0.004163 -0.004163
-0.004035 -0.004035 -0.004035
-0.003908 -0.003908 -0.003908
-0.003781 -0.003781 -0.003781
-0.003655 -0.003655 -0.003655
-0.003528 -0.003528 -0.003528
-0.003401 -0.003401 -0.003401
-0.003275 -0.003275 -0.003275
-0.003149 -0.003149 -0.003149
-0.003023 -0.003023 -0.003023
-0.002897 -0.002897 -0.002897
-0.002772 -0.002772 -0.002772
-0.002646 -0.002646 -0.002646
-0.002521 -0.002521 -0.002521
-0.002396 -0.002396 -0.002396
-0.002270 -0.002270 -0.002270
-0.002146 -0.002146 -0.002146
-0.002021 -0.002021 -0.002021
-0.001896 -0.001896 -0.001896
-0.001772 -0.001772 -0.001772
-0.001648 -0.001648 -0.001648
-0.001523 -0.001523 -0.001523
-0.001399 -0.001399 -0.001399
-0.001276 -0.001276 -0.001276
-0.001152 -0.001152 -0.001152
-0.001029 -0.001029 -0.001029
-0.000905 -0.000905 -0.000905
-0.000782 -0.000782 -0.000782
-0.000659 -0.000659 -0.000659
-0.000536 -0.000536 -0.000536
-0.000413 -0.000413 -0.000413
-0.000291 -0.000291 -0.000291
-0.000168 -0.000168 -0.000168
-0.000046 -0.000046 -0.000046
0.000076 0.000076 0.000076
0.000199 0.000199 0.000199
0.000321 0.000321 0.000321
0.000444 0.000444 0.000444
0.000566 0.000566 0.000566
0.000689 0.000689 0.000689
0.000812 0.000812 0.000812
0.000936 0.000936 0.000936
0.001059 0.001059 0.001059
0.001183 0.001183 0.001183
0.001306 0.001306 0.001306
0.001430 0.001430 0.001430
0.001554 0.001554 0.001554
0.001678 0.001678 0.001678
0.001803 0.001803 0.001803
0.001927 0.001927 0.001927
0.002052 0.002052 0.002052
0.002176 0.002176 0.002176
0.002301 0.002301 0.002301
0.002426 0.002426 0.002426
0.002552 0.002552 0.002552
0.002677 0.002677 0.002677
0.002803 0.002803 0.002803
0.002928 0.002928 0.002928
0.003054 0.003054 0.003054
0.003180 0.003180 0.003180
0.003306 0.003306 0.003306
0.003433 0.003433 0.003433
0.003559 0.003559 0.003559
0.003686 0.003686 0.003686
0.003813 0.003813 0.003813
0.003940 0.003940 0.003940
0.004067 0.004067 0.004067
0.004194 0.004194 0.004194
0.004321 0.004321 0.004321
0.004449 0.004449 0.004449
0.004577 0.004577 0.004577
0.004705 0.004705 0.004705
0.004833 0.004833 0.004833
0.004961 0.004961 0.004961
0.005089 0.005089 0.005089
0.005218 0.005218 0.005218
0.005347 0.005347 0.005347
0.005475 0.005475 0.005475
0.005604 0.005604 0.005604
0.005734 0.005734 0.005734
0.005863 0.005863 0.005863
0.005992 0.005992 0.005992
0.006122 0.006122 0.006122
0.006252 0.006252 0.006252
0.006382 0.006382 0.006382
0.006512 0.006512 0.006512
0.006642 0.006642 0.006642
0.006773 0.006773 0.006773
0.006904 0.006904 0.006904
0.007034 0.007034 0.007034
0.007165 0.007165 0.007165
0.007296 0.007296 0.007296
0.007428 0.007428 0.007428
0.007559 0.007559 0.007559
0.007691 0.007691 0.007691
0.007823 0.007823 0.007823
0.007954 0.007954 0.007954
0.008087 0.008087 0.008087
0.008219 0.008219 0.008219
0.008351 0.008351 0.008351
0.008484 0.008484 0.008484
0.008617 0.008617 0.008617
0.008750 0.008750 0.008750
0.008883 0.008883 0.008883
0.009016 0.009016 0.009016
0.009149 0.009149 0.009149
0.009283 0.009283 0.009283
0.009417 0.009417 0.009417
0.009551 0.009551 0.009551
0.009685 0.009685 0.009685
0.009819 0.009819 0.009819
0.009953 0.009953 0.009953
0.010088 0.010088 0.010088
0.010223 0.010223 0.010223
0.010358 0.010358 0.010358
0.010493 0.010493 0.010493
0.010628 0.010628 0.010628
0.010763 0.010763 0.010763
0.010899 0.010899 0.010899
0.011035 0.011035 0.011035
0.011171 0.011171 0.011171
0.011307 0.011307 0.011307
0.011443 0.011443 0.011443
0.011579 0.011579 0.011579
0.011716 0.011716 0.011716
0.011853 0.011853 0.011853
0.011990 0.011990 0.011990
0.012127 0.012127 0.012127
0.012264 0.012264 0.012264
0.012402 0.012402 0.012402
0.012539 0.012539 0.012539
0.012677 0.012677 0.012677
0.012815 0.012815 0.012815
0.012953 0.012953 0.012953
0.013091 0.013091 0.013091
0.013230 0.013230 0.013230
0.013369 0.013369 0.013369
0.013507 0.013507 0.013507
0.013646 0.013646 0.013646
0.013786 0.013786 0.013786
0.013925 0.013925 0.013925
0.014064 0.014064 0.014064
0.014204 0.014204 0.014204
0.014344 0.014344 0.014344
0.014484 0.014484 0.014484
0.014624 0.014624 0.014624
0.014765 0.014765 0.014765
0.014905 0.014905 0.014905
0.015046 0.015046 0.015046
0.015187 0.015187 0.015187
0.015328 0.015328 0.015328
0.015469 0.015469 0.015469
0.015611 0.015611 0.015611
0.015752 0.015752 0.015752
0.015894 0.015894 0.015894
0.016036 0.016036 0.016036
0.016178 0.016178 0.016178
0.016320 0.016320 0.016320
0.016463 0.016463 0.016463
0.016606 0.016606 0.016606
0.016748 0.016748 0.016748
0.016891 0.016891 0.016891
0.017035 0.017035 0.017035
0.017178 0.017178 0.017178
0.017322 0.017322 0.017322
0.017465 0.017465 0.017465
0.017609 0.017609 0.017609
0.017753 0.017753 0.017753
0.017898 0.017898 0.017898
0.018042 0.018042 0.018042
0.018187 0.018187 0.018187
0.018331 0.018331 0.018331
0.018476 0.018476 0.018476
0.018622 0.018622 0.018622
0.018767 0.018767 0.018767
0.018912 0.018912 0.018912
0.019058 0.019058 0.019058
0.019204 0.019204 0.019204
0.019350 0.019350 0.019350
0.019496 0.019496 0.019496
0.019643 0.019643 0.019643
0.019789 0.019789 0.019789
0.019936 0.019936 0.019936
0.020083 0.020083 0.020083
0.020230 0.020230 0.020230
0.020378 0.020378 0.020378
0.020525 0.020525 0.020525
0.020673 0.020673 0.020673
0.020821 0.020821 0.020821
0.020969 0.020969 0.020969
0.021117 0.021117 0.021117
0.021266 0.021266 0.021266
0.021414 0.021414 0.021414
0.021563 0.021563 0.021563
0.021712 0.021712 0.021712
0.021861 0.021861 0.021861
0.022011 0.022011 0.022011
0.022160 0.022160 0.022160
0.022310 0.022310 0.022310
0.022460 0.022460 0.022460
0.022610 0.022610 0.022610
0.022760 0.022760 0.022760
0.022911 0.022911 0.022911
0.023061 0.023061 0.023061
0.023212 0.023212 0.023212
0.023363 0.023363 0.023363
0.023515 0.023515 0.023515
0.023666 0.023666 0.023666
0.023818 0.023818 0.023818
0.023969 0.023969 0.023969
0.024121 0.024121 0.024121
0.024274 0.024274 0.024274
0.024426 0.024426 0.024426
0.024579 0.024579 0.024579
0.024731 0.024731 0.024731
0.024884 0.024884 0.024884
0.025037 0.025037 0.025037
0.025191 0.025191 0.025191
0.025344 0.025344 0.025344
0.025498 0.025498 0.025498
0.025652 0.025652 0.025652
0.025806 0.025806 0.025806
0.025960 0.025960 0.025960
0.026115 0.026115 0.026115
0.026269 0.026269 0.026269
0.026424 0.026424 0.026424
0.026579 0.026579 0.026579
0.026734 0.026734 0.026734
0.026890 0.026890 0.026890
0.027045 0.027045 0.027045
0.027201 0.027201 0.027201
0.027357 0.027357 0.027357
0.027513 0.027513 0.027513
0.027670 0.027670 0.027670
0.027826 0.027826 0.027826
0.027983 0.027983 0.027983
0.028140 0.028140 0.028140
0.028297 0.028297 0.028297
0.028455 0.028455 0.028455
0.028612 0.028612 0.028612
0.028770 0.028770 0.028770
0.028928 0.028928 0.028928
0.029086 0.029086 0.029086
0.029244 0.029244 0.029244
0.029403 0.029403 0.029403
0.029562 0.029562 0.029562
0.029721 0.029721 0.029721
0.029880 0.029880 0.029880
0.030039 0.030039 0.030039
0.030199 0.030199 0.030199
0.030358 0.030358 0.030358
0.030518 0.030518 0.030518
0.030678 0.030678 0.030678
0.030839 0.030839 0.030839
0.030999 0.030999 0.030999
0.031160 0.031160 0.031160
0.031321 0.031321 0.031321
0.031482 0.031482 0.031482
0.031643 0.031643 0.031643
0.031805 0.031805 0.031805
0.031966 0.031966 0.031966
0.032128 0.032128 0.032128
0.032290 0.032290 0.032290
0.032453 0.032453 0.032453
0.032615 0.032615 0.032615
0.032778 0.032778 0.032778
0.032941 0.032941 0.032941
0.033104 0.033104 0.033104
0.033267 0.033267 0.033267
0.033431 0.033431 0.033431
0.033595 0.033595 0.033595
0.033759 0.033759 0.033759
0.033923 0.033923 0.033923
0.034087 0.034087 0.034087
0.034252 0.034252 0.034252
0.034416 0.034416 0.034416
0.034581 0.034581 0.034581
0.034747 0.034747 0.034747
0.034912 0.034912 0.034912
0.035078 0.035078 0.035078
0.035243 0.035243 0.035243
0.035409 0.035409 0.035409
0.035575 0.035575 0.035575
0.035742 0.035742 0.035742
0.035908 0.035908 0.035908
0.036075 0.036075 0.036075
0.036242 0.036242 0.036242
0.036410 0.036410 0.036410
0.036577 0.036577 0.036577
0.036745 0.036745 0.036745
0.036912 0.036912 0.036912
0.037081 0.037081 0.037081
0.037249 0.037249 0.037249
0.037417 0.037417 0.037417
0.037586 0.037586 0.037586
0.037755 0.037755 0.037755
0.037924 0.037924 0.037924
0.038093 0.038093 0.038093
0.038263 0.038263 0.038263
0.038433 0.038433 0.038433
0.038603 0.038603 0.038603
0.038773 0.038773 0.038773
0.038943 0.038943 0.038943
0.039114 0.039114 0.039114
0.039284 0.039284 0.039284
0.039455 0.039455 0.039455
0.039627 0.039627 0.039627
0.039798 0.039798 0.039798
0.039970 0.039970 0.039970
0.040142 0.040142 0.040142
0.040314 0.040314 0.040314
0.040486 0.040486 0.040486
0.040658 0.040658 0.040658
0.040831 0.040831 0.040831
0.041004 0.041004 0.041004
0.041177 0.041177 0.041177
0.041351 0.041351 0.041351
0.041524 0.041524 0.041524
0.041698 0.041698 0.041698
0.041872 0.041872 0.041872
0.042046 0.042046 0.042046
0.042221 0.042221 0.042221
0.042395 0.042395 0.042395
0.042570 0.042570 0.042570
0.042745 0.042745 0.042745
0.042921 0.042921 0.042921
0.043096 0.043096 0.043096
0.043272 0.043272 0.043272
0.043448 0.043448 0.043448
0.043624 0.043624 0.043624
0.043800 0.043800 0.043800
0.043977 0.043977 0.043977
0.044154 0.044154 0.044154
0.044331 0.044331 0.044331
0.044508 0.044508 0.044508
0.044686 0.044686 0.044686
0.044863 0.044863 0.044863
0.045041 0.045041 0.045041
0.045219 0.045219 0.045219
0.045398 0.045398 0.045398
0.045576 0.045576 0.045576
0.045755 0.045755 0.045755
0.045934 0.045934 0.045934
0.046113 0.046113 0.046113
0.046293 0.046293 0.046293
0.046473 0.046473 0.046473
0.046653 0.046653 0.046653
