Luts Download/Canon Luts/1dlut/canonlog3-to-gamma-1dlut/full-to-full-range/CanonLog3_10-to-WideDR_FF_Ver.2.0.cube
# Gamma : Canon Log 3 to Wide DR
# Range : Full in / Full out
# Version : 2.0 2016/10/27
# Copyright(c) 2016 Canon Inc. All Rights Reserved.

LUT_1D_SIZE 1024
0.000000 0.000000 0.000000
0.000000 0.000000 0.000000
0.000000 0.000000 0.000000
0.000000 0.000000 0.000000
0.000000 0.000000 0.000000
0.000000 0.000000 0.000000
0.000000 0.000000 0.000000
0.000000 0.000000 0.000000
0.000000 0.000000 0.000000
0.000000 0.000000 0.000000
0.000000 0.000000 0.000000
0.000000 0.000000 0.000000
0.000000 0.000000 0.000000
0.000000 0.000000 0.000000
0.000000 0.000000 0.000000
0.000000 0.000000 0.000000
0.000000 0.000000 0.000000
0.000000 0.000000 0.000000
0.000000 0.000000 0.000000
0.000000 0.000000 0.000000
0.000000 0.000000 0.000000
0.000000 0.000000 0.000000
0.000000 0.000000 0.000000
0.000000 0.000000 0.000000
0.000000 0.000000 0.000000
0.000000 0.000000 0.000000
0.000000 0.000000 0.000000
0.000000 0.000000 0.000000
0.000000 0.000000 0.000000
0.000000 0.000000 0.000000
0.000000 0.000000 0.000000
0.000000 0.000000 0.000000
0.000000 0.000000 0.000000
0.000000 0.000000 0.000000
0.000000 0.000000 0.000000
0.000000 0.000000 0.000000
0.000000 0.000000 0.000000
0.000000 0.000000 0.000000
0.000000 0.000000 0.000000
0.000000 0.000000 0.000000
0.000000 0.000000 0.000000
0.000000 0.000000 0.000000
0.000000 0.000000 0.000000
0.000000 0.000000 0.000000
0.000000 0.000000 0.000000
0.000000 0.000000 0.000000
0.000000 0.000000 0.000000
0.000000 0.000000 0.000000
0.000000 0.000000 0.000000
0.000000 0.000000 0.000000
0.000000 0.000000 0.000000
0.000000 0.000000 0.000000
0.000000 0.000000 0.000000
0.000000 0.000000 0.000000
0.000000 0.000000 0.000000
0.000000 0.000000 0.000000
0.000000 0.000000 0.000000
0.000000 0.000000 0.000000
0.000000 0.000000 0.000000
0.000000 0.000000 0.000000
0.000000 0.000000 0.000000
0.000000 0.000000 0.000000
0.000000 0.000000 0.000000
0.000000 0.000000 0.000000
0.000000 0.000000 0.000000
0.000000 0.000000 0.000000
0.000000 0.000000 0.000000
0.000000 0.000000 0.000000
0.000000 0.000000 0.000000
0.000000 0.000000 0.000000
0.000000 0.000000 0.000000
0.000000 0.000000 0.000000
0.000000 0.000000 0.000000
0.000000 0.000000 0.000000
0.000000 0.000000 0.000000
0.000000 0.000000 0.000000
0.000000 0.000000 0.000000
0.000000 0.000000 0.000000
0.000000 0.000000 0.000000
0.000000 0.000000 0.000000
0.000000 0.000000 0.000000
0.000000 0.000000 0.000000
0.000000 0.000000 0.000000
0.000000 0.000000 0.000000
0.000000 0.000000 0.000000
0.000000 0.000000 0.000000
0.000000 0.000000 0.000000
0.000000 0.000000 0.000000
0.000000 0.000000 0.000000
0.000000 0.000000 0.000000
0.000000 0.000000 0.000000
0.000000 0.000000 0.000000
0.000000 0.000000 0.000000
0.000000 0.000000 0.000000
0.000000 0.000000 0.000000
0.000000 0.000000 0.000000
0.000000 0.000000 0.000000
0.000000 0.000000 0.000000
0.000000 0.000000 0.000000
0.000000 0.000000 0.000000
0.000000 0.000000 0.000000
0.000000 0.000000 0.000000
0.000000 0.000000 0.000000
0.000000 0.000000 0.000000
0.000000 0.000000 0.000000
0.000000 0.000000 0.000000
0.000000 0.000000 0.000000
0.000000 0.000000 0.000000
0.000000 0.000000 0.000000
0.000000 0.000000 0.000000
0.000000 0.000000 0.000000
0.000000 0.000000 0.000000
0.000000 0.000000 0.000000
0.000000 0.000000 0.000000
0.000000 0.000000 0.000000
0.000000 0.000000 0.000000
0.000000 0.000000 0.000000
0.000000 0.000000 0.000000
0.000000 0.000000 0.000000
0.000000 0.000000 0.000000
0.000000 0.000000 0.000000
0.000000 0.000000 0.000000
0.000000 0.000000 0.000000
0.000000 0.000000 0.000000
0.000000 0.000000 0.000000
0.000000 0.000000 0.000000
0.000000 0.000000 0.000000
0.000000 0.000000 0.000000
0.000000 0.000000 0.000000
0.002308 0.002308 0.002308
0.004612 0.004612 0.004612
0.006910 0.006910 0.006910
0.009198 0.009198 0.009198
0.011474 0.011474 0.011474
0.013737 0.013737 0.013737
0.015986 0.015986 0.015986
0.018221 0.018221 0.018221
0.020440 0.020440 0.020440
0.022644 0.022644 0.022644
0.024833 0.024833 0.024833
0.027007 0.027007 0.027007
0.029166 0.029166 0.029166
0.031310 0.031310 0.031310
0.033440 0.033440 0.033440
0.035555 0.035555 0.035555
0.037656 0.037656 0.037656
0.039744 0.039744 0.039744
0.041819 0.041819 0.041819
0.043881 0.043881 0.043881
0.045930 0.045930 0.045930
0.047967 0.047967 0.047967
0.049992 0.049992 0.049992
0.052005 0.052005 0.052005
0.054007 0.054007 0.054007
0.055999 0.055999 0.055999
0.057980 0.057980 0.057980
0.059950 0.059950 0.059950
0.061913 0.061913 0.061913
0.063878 0.063878 0.063878
0.065846 0.065846 0.065846
0.067816 0.067816 0.067816
0.069788 0.069788 0.069788
0.071764 0.071764 0.071764
0.073742 0.073742 0.073742
0.075724 0.075724 0.075724
0.077818 0.077818 0.077818
0.079786 0.079786 0.079786
0.081741 0.081741 0.081741
0.083684 0.083684 0.083684
0.085616 0.085616 0.085616
0.087536 0.087536 0.087536
0.089446 0.089446 0.089446
0.091346 0.091346 0.091346
0.093236 0.093236 0.093236
0.095116 0.095116 0.095116
0.096987 0.096987 0.096987
0.098850 0.098850 0.098850
0.100704 0.100704 0.100704
0.102550 0.102550 0.102550
0.104388 0.104388 0.104388
0.106218 0.106218 0.106218
0.108042 0.108042 0.108042
0.109858 0.109858 0.109858
0.111668 0.111668 0.111668
0.113471 0.113471 0.113471
0.115268 0.115268 0.115268
0.117059 0.117059 0.117059
0.118844 0.118844 0.118844
0.120624 0.120624 0.120624
0.122398 0.122398 0.122398
0.124167 0.124167 0.124167
0.125931 0.125931 0.125931
0.127691 0.127691 0.127691
0.129445 0.129445 0.129445
0.131195 0.131195 0.131195
0.132941 0.132941 0.132941
0.134683 0.134683 0.134683
0.136420 0.136420 0.136420
0.138154 0.138154 0.138154
0.139884 0.139884 0.139884
0.141610 0.141610 0.141610
0.143333 0.143333 0.143333
0.145052 0.145052 0.145052
0.146769 0.146769 0.146769
0.148482 0.148482 0.148482
0.150192 0.150192 0.150192
0.151899 0.151899 0.151899
0.153604 0.153604 0.153604
0.155305 0.155305 0.155305
0.157005 0.157005 0.157005
0.158701 0.158701 0.158701
0.160396 0.160396 0.160396
0.162088 0.162088 0.162088
0.163778 0.163778 0.163778
0.165466 0.165466 0.165466
0.167151 0.167151 0.167151
0.168835 0.168835 0.168835
0.170517 0.170517 0.170517
0.172197 0.172197 0.172197
0.173876 0.173876 0.173876
0.175553 0.175553 0.175553
0.177228 0.177228 0.177228
0.178902 0.178902 0.178902
0.180574 0.180574 0.180574
0.182245 0.182245 0.182245
0.183915 0.183915 0.183915
0.185584 0.185584 0.185584
0.187251 0.187251 0.187251
0.188917 0.188917 0.188917
0.190583 0.190583 0.190583
0.192247 0.192247 0.192247
0.193910 0.193910 0.193910
0.195573 0.195573 0.195573
0.197234 0.197234 0.197234
0.198895 0.198895 0.198895
0.200555 0.200555 0.200555
0.202215 0.202215 0.202215
0.203873 0.203873 0.203873
0.205532 0.205532 0.205532
0.207189 0.207189 0.207189
0.208847 0.208847 0.208847
0.210503 0.210503 0.210503
0.212160 0.212160 0.212160
0.213816 0.213816 0.213816
0.215471 0.215471 0.215471
0.217127 0.217127 0.217127
0.218782 0.218782 0.218782
0.220437 0.220437 0.220437
0.222092 0.222092 0.222092
0.223746 0.223746 0.223746
0.225401 0.225401 0.225401
0.227055 0.227055 0.227055
0.228710 0.228710 0.228710
0.230364 0.230364 0.230364
0.232019 0.232019 0.232019
0.233673 0.233673 0.233673
0.235328 0.235328 0.235328
0.236983 0.236983 0.236983
0.238638 0.238638 0.238638
0.240293 0.240293 0.240293
0.241949 0.241949 0.241949
0.243604 0.243604 0.243604
0.245260 0.245260 0.245260
0.246916 0.246916 0.246916
0.248573 0.248573 0.248573
0.250230 0.250230 0.250230
0.251887 0.251887 0.251887
0.253545 0.253545 0.253545
0.255203 0.255203 0.255203
0.256862 0.256862 0.256862
0.258521 0.258521 0.258521
0.260181 0.260181 0.260181
0.261841 0.261841 0.261841
0.263502 0.263502 0.263502
0.265163 0.265163 0.265163
0.266825 0.266825 0.266825
0.268487 0.268487 0.268487
0.270150 0.270150 0.270150
0.271814 0.271814 0.271814
0.273479 0.273479 0.273479
0.275144 0.275144 0.275144
0.276810 0.276810 0.276810
0.278476 0.278476 0.278476
0.280144 0.280144 0.280144
0.281812 0.281812 0.281812
0.283481 0.283481 0.283481
0.285151 0.285151 0.285151
0.286821 0.286821 0.286821
0.288493 0.288493 0.288493
0.290165 0.290165 0.290165
0.291838 0.291838 0.291838
0.293512 0.293512 0.293512
0.295187 0.295187 0.295187
0.296863 0.296863 0.296863
0.298540 0.298540 0.298540
0.300218 0.300218 0.300218
0.301896 0.301896 0.301896
0.303576 0.303576 0.303576
0.305257 0.305257 0.305257
0.306939 0.306939 0.306939
0.308621 0.308621 0.308621
0.310305 0.310305 0.310305
0.311990 0.311990 0.311990
0.313676 0.313676 0.313676
0.315363 0.315363 0.315363
0.317051 0.317051 0.317051
0.318740 0.318740 0.318740
0.320430 0.320430 0.320430
0.322122 0.322122 0.322122
0.323814 0.323814 0.323814
0.325508 0.325508 0.325508
0.327203 0.327203 0.327203
0.328899 0.328899 0.328899
0.330596 0.330596 0.330596
0.332294 0.332294 0.332294
0.333994 0.333994 0.333994
0.335695 0.335695 0.335695
0.337397 0.337397 0.337397
0.339100 0.339100 0.339100
0.340805 0.340805 0.340805
0.342510 0.342510 0.342510
0.344218 0.344218 0.344218
0.345926 0.345926 0.345926
0.347635 0.347635 0.347635
0.349346 0.349346 0.349346
0.351058 0.351058 0.351058
0.352772 0.352772 0.352772
0.354487 0.354487 0.354487
0.356203 0.356203 0.356203
0.357920 0.357920 0.357920
0.359639 0.359639 0.359639
0.361359 0.361359 0.361359
0.363081 0.363081 0.363081
0.364804 0.364804 0.364804
0.366528 0.366528 0.366528
0.368254 0.368254 0.368254
0.369981 0.369981 0.369981
0.371709 0.371709 0.371709
0.373439 0.373439 0.373439
0.375170 0.375170 0.375170
0.376903 0.376903 0.376903
0.378637 0.378637 0.378637
0.380372 0.380372 0.380372
0.382109 0.382109 0.382109
0.383848 0.383848 0.383848
0.385587 0.385587 0.385587
0.387329 0.387329 0.387329
0.389072 0.389072 0.389072
0.390816 0.390816 0.390816
0.392561 0.392561 0.392561
0.394309 0.394309 0.394309
0.396057 0.396057 0.396057
0.397808 0.397808 0.397808
0.399559 0.399559 0.399559
0.401312 0.401312 0.401312
0.403067 0.403067 0.403067
0.404823 0.404823 0.404823
0.406581 0.406581 0.406581
0.408340 0.408340 0.408340
0.410101 0.410101 0.410101
0.411863 0.411863 0.411863
0.413627 0.413627 0.413627
0.415393 0.415393 0.415393
0.417160 0.417160 0.417160
0.418928 0.418928 0.418928
0.420698 0.420698 0.420698
0.422470 0.422470 0.422470
0.424243 0.424243 0.424243
0.426018 0.426018 0.426018
0.427794 0.427794 0.427794
0.429572 0.429572 0.429572
0.431352 0.431352 0.431352
0.433133 0.433133 0.433133
0.434916 0.434916 0.434916
0.436700 0.436700 0.436700
0.438486 0.438486 0.438486
0.440273 0.440273 0.440273
0.442062 0.442062 0.442062
0.443853 0.443853 0.443853
0.445646 0.445646 0.445646
0.447440 0.447440 0.447440
0.449235 0.449235 0.449235
0.451032 0.451032 0.451032
0.452831 0.452831 0.452831
0.454632 0.454632 0.454632
0.456431 0.456431 0.456431
0.458222 0.458222 0.458222
0.460006 0.460006 0.460006
0.461783 0.461783 0.461783
0.463552 0.463552 0.463552
0.465314 0.465314 0.465314
0.467069 0.467069 0.467069
0.468817 0.468817 0.468817
0.470559 0.470559 0.470559
0.472294 0.472294 0.472294
0.474022 0.474022 0.474022
0.475744 0.475744 0.475744
0.477460 0.477460 0.477460
0.479170 0.479170 0.479170
0.480874 0.480874 0.480874
0.482571 0.482571 0.482571
0.484263 0.484263 0.484263
0.485950 0.485950 0.485950
0.487630 0.487630 0.487630
0.489305 0.489305 0.489305
0.490975 0.490975 0.490975
0.492639 0.492639 0.492639
0.494298 0.494298 0.494298
0.495952 0.495952 0.495952
0.497601 0.497601 0.497601
0.499245 0.499245 0.499245
0.500884 0.500884 0.500884
0.502518 0.502518 0.502518
0.504147 0.504147 0.504147
0.505771 0.505771 0.505771
0.507391 0.507391 0.507391
0.509006 0.509006 0.509006
0.510616 0.510616 0.510616
0.512223 0.512223 0.512223
0.513824 0.513824 0.513824
0.515422 0.515422 0.515422
0.517015 0.517015 0.517015
0.518603 0.518603 0.518603
0.520188 0.520188 0.520188
0.521768 0.521768 0.521768
0.523345 0.523345 0.523345
0.524917 0.524917 0.524917
0.526486 0.526486 0.526486
0.528050 0.528050 0.528050
0.529611 0.529611 0.529611
0.531167 0.531167 0.531167
0.532720 0.532720 0.532720
0.534269 0.534269 0.534269
0.535815 0.535815 0.535815
0.537356 0.537356 0.537356
0.538895 0.538895 0.538895
0.540429 0.540429 0.540429
0.541960 0.541960 0.541960
0.543487 0.543487 0.543487
0.545011 0.545011 0.545011
0.546532 0.546532 0.546532
0.548049 0.548049 0.548049
0.549563 0.549563 0.549563
0.551073 0.551073 0.551073
0.552580 0.552580 0.552580
0.554084 0.554084 0.554084
0.555584 0.555584 0.555584
0.557081 0.557081 0.557081
0.558575 0.558575 0.558575
0.560066 0.560066 0.560066
0.561554 0.561554 0.561554
0.563038 0.563038 0.563038
0.564520 0.564520 0.564520
0.565998 0.565998 0.565998
0.567473 0.567473 0.567473
0.568945 0.568945 0.568945
0.570415 0.570415 0.570415
0.571881 0.571881 0.571881
0.573344 0.573344 0.573344
0.574805 0.574805 0.574805
0.576262 0.576262 0.576262
0.577717 0.577717 0.577717
0.579168 0.579168 0.579168
0.580617 0.580617 0.580617
0.582063 0.582063 0.582063
0.583506 0.583506 0.583506
0.584946 0.584946 0.584946
0.586384 0.586384 0.586384
0.587819 0.587819 0.587819
0.589251 0.589251 0.589251
0.590680 0.590680 0.590680
0.592107 0.592107 0.592107
0.593530 0.593530 0.593530
0.594951 0.594951 0.594951
0.596370 0.596370 0.596370
0.597786 0.597786 0.597786
0.599199 0.599199 0.599199
0.600609 0.600609 0.600609
0.602017 0.602017 0.602017
0.603422 0.603422 0.603422
0.604825 0.604825 0.604825
0.606225 0.606225 0.606225
0.607622 0.607622 0.607622
0.609017 0.609017 0.609017
0.610409 0.610409 0.610409
0.611799 0.611799 0.611799
0.613186 0.613186 0.613186
0.614571 0.614571 0.614571
0.615953 0.615953 0.615953
0.617333 0.617333 0.617333
0.618710 0.618710 0.618710
0.620084 0.620084 0.620084
0.621457 0.621457 0.621457
0.622826 0.622826 0.622826
0.624193 0.624193 0.624193
0.625558 0.625558 0.625558
0.626920 0.626920 0.626920
0.628280 0.628280 0.628280
0.629638 0.629638 0.629638
0.630993 0.630993 0.630993
0.632345 0.632345 0.632345
0.633695 0.633695 0.633695
0.635043 0.635043 0.635043
0.636388 0.636388 0.636388
0.637731 0.637731 0.637731
0.639071 0.639071 0.639071
0.640409 0.640409 0.640409
0.641745 0.641745 0.641745
0.643078 0.643078 0.643078
0.644409 0.644409 0.644409
0.645738 0.645738 0.645738
0.647064 0.647064 0.647064
0.648388 0.648388 0.648388
0.649709 0.649709 0.649709
0.651028 0.651028 0.651028
0.652345 0.652345 0.652345
0.653659 0.653659 0.653659
0.654971 0.654971 0.654971
0.656281 0.656281 0.656281
0.657588 0.657588 0.657588
0.658893 0.658893 0.658893
0.660196 0.660196 0.660196
0.661496 0.661496 0.661496
0.662794 0.662794 0.662794
0.664089 0.664089 0.664089
0.665383 0.665383 0.665383
0.666674 0.666674 0.666674
0.667962 0.667962 0.667962
0.669249 0.669249 0.669249
0.670533 0.670533 0.670533
0.671814 0.671814 0.671814
0.673094 0.673094 0.673094
0.674371 0.674371 0.674371
0.675645 0.675645 0.675645
0.676918 0.676918 0.676918
0.678188 0.678188 0.678188
0.679455 0.679455 0.679455
0.680721 0.680721 0.680721
0.681984 0.681984 0.681984
0.683245 0.683245 0.683245
0.684503 0.684503 0.684503
0.685759 0.685759 0.685759
0.687013 0.687013 0.687013
0.688265 0.688265 0.688265
0.689514 0.689514 0.689514
0.690761 0.690761 0.690761
0.692005 0.692005 0.692005
0.693248 0.693248 0.693248
0.694488 0.694488 0.694488
0.695725 0.695725 0.695725
0.696960 0.696960 0.696960
0.698193 0.698193 0.698193
0.699424 0.699424 0.699424
0.700653 0.700653 0.700653
0.701879 0.701879 0.701879
0.703102 0.703102 0.703102
0.704324 0.704324 0.704324
0.705543 0.705543 0.705543
0.706760 0.706760 0.706760
0.707974 0.707974 0.707974
0.709186 0.709186 0.709186
0.710396 0.710396 0.710396
0.711603 0.711603 0.711603
0.712809 0.712809 0.712809
0.714011 0.714011 0.714011
0.715212 0.715212 0.715212
0.716410 0.716410 0.716410
0.717606 0.717606 0.717606
0.718799 0.718799 0.718799
0.719990 0.719990 0.719990
0.721179 0.721179 0.721179
0.722366 0.722366 0.722366
0.723550 0.723550 0.723550
0.724731 0.724731 0.724731
0.725911 0.725911 0.725911
0.727088 0.727088 0.727088
0.728263 0.728263 0.728263
0.729435 0.729435 0.729435
0.730605 0.730605 0.730605
0.731773 0.731773 0.731773
0.732938 0.732938 0.732938
0.734101 0.734101 0.734101
0.735261 0.735261 0.735261
0.736420 0.736420 0.736420
0.737576 0.737576 0.737576
0.738729 0.738729 0.738729
0.739880 0.739880 0.739880
0.741029 0.741029 0.741029
0.742175 0.742175 0.742175
0.743319 0.743319 0.743319
0.744461 0.744461 0.744461
0.745600 0.745600 0.745600
0.746737 0.746737 0.746737
0.747871 0.747871 0.747871
0.749003 0.749003 0.749003
0.750133 0.750133 0.750133
0.751260 0.751260 0.751260
0.752385 0.752385 0.752385
0.753508 0.753508 0.753508
0.754628 0.754628 0.754628
0.755745 0.755745 0.755745
0.756861 0.756861 0.756861
0.757973 0.757973 0.757973
0.759084 0.759084 0.759084
0.760192 0.760192 0.760192
0.761298 0.761298 0.761298
0.762401 0.762401 0.762401
0.763502 0.763502 0.763502
0.764600 0.764600 0.764600
0.765696 0.765696 0.765696
0.766789 0.766789 0.766789
0.767881 0.767881 0.767881
0.768969 0.768969 0.768969
0.770055 0.770055 0.770055
0.771139 0.771139 0.771139
0.772221 0.772221 0.772221
0.773299 0.773299 0.773299
0.774376 0.774376 0.774376
0.775450 0.775450 0.775450
0.776521 0.776521 0.776521
0.777591 0.777591 0.777591
0.778657 0.778657 0.778657
0.779722 0.779722 0.779722
0.780783 0.780783 0.780783
0.781843 0.781843 0.781843
0.782899 0.782899 0.782899
0.783954 0.783954 0.783954
0.785006 0.785006 0.785006
0.786055 0.786055 0.786055
0.787102 0.787102 0.787102
0.788147 0.788147 0.788147
0.789189 0.789189 0.789189
0.790228 0.790228 0.790228
0.791265 0.791265 0.791265
0.792300 0.792300 0.792300
0.793332 0.793332 0.793332
0.794362 0.794362 0.794362
0.795389 0.795389 0.795389
0.796414 0.796414 0.796414
0.797436 0.797436 0.797436
0.798455 0.798455 0.798455
0.799473 0.799473 0.799473
0.800487 0.800487 0.800487
0.801500 0.801500 0.801500
0.802509 0.802509 0.802509
0.803517 0.803517 0.803517
0.804521 0.804521 0.804521
0.805524 0.805524 0.805524
0.806523 0.806523 0.806523
0.807520 0.807520 0.807520
0.808515 0.808515 0.808515
0.809507 0.809507 0.809507
0.810497 0.810497 0.810497
0.811484 0.811484 0.811484
0.812469 0.812469 0.812469
0.813451 0.813451 0.813451
0.814431 0.814431 0.814431
0.815408 0.815408 0.815408
0.816383 0.816383 0.816383
0.817355 0.817355 0.817355
0.818324 0.818324 0.818324
0.819291 0.819291 0.819291
0.820256 0.820256 0.820256
0.821218 0.821218 0.821218
0.822178 0.822178 0.822178
0.823135 0.823135 0.823135
0.824089 0.824089 0.824089
0.825041 0.825041 0.825041
0.825991 0.825991 0.825991
0.826937 0.826937 0.826937
0.827882 0.827882 0.827882
0.828824 0.828824 0.828824
0.829763 0.829763 0.829763
0.830700 0.830700 0.830700
0.831634 0.831634 0.831634
0.832566 0.832566 0.832566
0.833495 0.833495 0.833495
0.834422 0.834422 0.834422
0.835346 0.835346 0.835346
0.836268 0.836268 0.836268
0.837187 0.837187 0.837187
0.838104 0.838104 0.838104
0.839018 0.839018 0.839018
0.839930 0.839930 0.839930
0.840839 0.840839 0.840839
0.841745 0.841745 0.841745
0.842650 0.842650 0.842650
0.843551 0.843551 0.843551
0.844450 0.844450 0.844450
0.845347 0.845347 0.845347
0.846241 0.846241 0.846241
0.847132 0.847132 0.847132
0.848021 0.848021 0.848021
0.848908 0.848908 0.848908
0.849792 0.849792 0.849792
0.850673 0.850673 0.850673
0.851552 0.851552 0.851552
0.852428 0.852428 0.852428
0.853302 0.853302 0.853302
0.854174 0.854174 0.854174
0.855043 0.855043 0.855043
0.855909 0.855909 0.855909
0.856773 0.856773 0.856773
0.857635 0.857635 0.857635
0.858493 0.858493 0.858493
0.859350 0.859350 0.859350
0.860204 0.860204 0.860204
0.861055 0.861055 0.861055
0.861904 0.861904 0.861904
0.862751 0.862751 0.862751
0.863595 0.863595 0.863595
0.864437 0.864437 0.864437
0.865276 0.865276 0.865276
0.866112 0.866112 0.866112
0.866947 0.866947 0.866947
0.867778 0.867778 0.867778
0.868608 0.868608 0.868608
0.869434 0.869434 0.869434
0.870259 0.870259 0.870259
0.871081 0.871081 0.871081
0.871900 0.871900 0.871900
0.872717 0.872717 0.872717
0.873532 0.873532 0.873532
0.874344 0.874344 0.874344
0.875153 0.875153 0.875153
0.875961 0.875961 0.875961
0.876766 0.876766 0.876766
0.877568 0.877568 0.877568
0.878368 0.878368 0.878368
0.879166 0.879166 0.879166
0.879961 0.879961 0.879961
0.880754 0.880754 0.880754
0.881544 0.881544 0.881544
0.882332 0.882332 0.882332
0.883118 0.883118 0.883118
0.883901 0.883901 0.883901
0.884682 0.884682 0.884682
0.885461 0.885461 0.885461
0.886237 0.886237 0.886237
0.887011 0.887011 0.887011
0.887782 0.887782 0.887782
0.888551 0.888551 0.888551
0.889318 0.889318 0.889318
0.890083 0.890083 0.890083
0.890845 0.890845 0.890845
0.891605 0.891605 0.891605
0.892362 0.892362 0.892362
0.893117 0.893117 0.893117
0.893870 0.893870 0.893870
0.894621 0.894621 0.894621
0.895369 0.895369 0.895369
0.896115 0.896115 0.896115
0.896859 0.896859 0.896859
0.897601 0.897601 0.897601
0.898340 0.898340 0.898340
0.899077 0.899077 0.899077
0.899812 0.899812 0.899812
0.900544 0.900544 0.900544
0.901275 0.901275 0.901275
0.902003 0.902003 0.902003
0.902729 0.902729 0.902729
0.903452 0.903452 0.903452
0.904174 0.904174 0.904174
0.904893 0.904893 0.904893
0.905610 0.905610 0.905610
0.906325 0.906325 0.906325
0.907038 0.907038 0.907038
0.907749 0.907749 0.907749
0.908457 0.908457 0.908457
0.909164 0.909164 0.909164
0.909868 0.909868 0.909868
0.910570 0.910570 0.910570
0.911271 0.911271 0.911271
0.911969 0.911969 0.911969
0.912665 0.912665 0.912665
0.913358 0.913358 0.913358
0.914050 0.914050 0.914050
0.914740 0.914740 0.914740
0.915428 0.915428 0.915428
0.916114 0.916114 0.916114
0.916797 0.916797 0.916797
0.917479 0.917479 0.917479
0.918159 0.918159 0.918159
0.918836 0.918836 0.918836
0.919512 0.919512 0.919512
0.920186 0.920186 0.920186
0.920858 0.920858 0.920858
0.921528 0.921528 0.921528
0.922196 0.922196 0.922196
0.922862 0.922862 0.922862
0.923526 0.923526 0.923526
0.924189 0.924189 0.924189
0.924849 0.924849 0.924849
0.925508 0.925508 0.925508
0.926165 0.926165 0.926165
0.926820 0.926820 0.926820
0.927473 0.927473 0.927473
0.928124 0.928124 0.928124
0.928774 0.928774 0.928774
0.929422 0.929422 0.929422
0.930068 0.930068 0.930068
0.930712 0.930712 0.930712
0.931354 0.931354 0.931354
0.931995 0.931995 0.931995
0.932634 0.932634 0.932634
0.933272 0.933272 0.933272
0.933908 0.933908 0.933908
0.934542 0.934542 0.934542
0.935174 0.935174 0.935174
0.935805 0.935805 0.935805
0.936435 0.936435 0.936435
0.937062 0.937062 0.937062
0.937689 0.937689 0.937689
0.938313 0.938313 0.938313
0.938936 0.938936 0.938936
0.939558 0.939558 0.939558
0.940178 0.940178 0.940178
0.940796 0.940796 0.940796
0.941413 0.941413 0.941413
0.942029 0.942029 0.942029
0.942643 0.942643 0.942643
0.943256 0.943256 0.943256
0.943867 0.943867 0.943867
0.944477 0.944477 0.944477
0.945086 0.945086 0.945086
0.945693 0.945693 0.945693
0.946299 0.946299 0.946299
0.946904 0.946904 0.946904
0.947507 0.947507 0.947507
0.948109 0.948109 0.948109
0.948710 0.948710 0.948710
0.949310 0.949310 0.949310
0.949908 0.949908 0.949908
0.950505 0.950505 0.950505
0.951101 0.951101 0.951101
0.951696 0.951696 0.951696
0.952290 0.952290 0.952290
0.952883 0.952883 0.952883
0.953474 0.953474 0.953474
0.954065 0.954065 0.954065
0.954654 0.954654 0.954654
0.955243 0.955243 0.955243
0.955830 0.955830 0.955830
0.956417 0.956417 0.956417
0.957003 0.957003 0.957003
0.957587 0.957587 0.957587
0.958171 0.958171 0.958171
0.958754 0.958754 0.958754
0.959336 0.959336 0.959336
0.959917 0.959917 0.959917
0.960497 0.960497 0.960497
0.961077 0.961077 0.961077
0.961656 0.961656 0.961656
0.962234 0.962234 0.962234
0.962811 0.962811 0.962811
0.963388 0.963388 0.963388
0.963964 0.963964 0.963964
0.964539 0.964539 0.964539
0.965114 0.965114 0.965114
0.965688 0.965688 0.965688
0.966262 0.966262 0.966262
0.966835 0.966835 0.966835
0.967407 0.967407 0.967407
0.967979 0.967979 0.967979
0.968551 0.968551 0.968551
0.969122 0.969122 0.969122
0.969693 0.969693 0.969693
0.970263 0.970263 0.970263
0.970834 0.970834 0.970834
0.971403 0.971403 0.971403
0.971973 0.971973 0.971973
0.972542 0.972542 0.972542
0.973111 0.973111 0.973111
0.973680 0.973680 0.973680
0.974248 0.974248 0.974248
0.974817 0.974817 0.974817
0.975385 0.975385 0.975385
0.975953 0.975953 0.975953
0.976521 0.976521 0.976521
0.977090 0.977090 0.977090
0.977658 0.977658 0.977658
0.978226 0.978226 0.978226
0.978794 0.978794 0.978794
