Luts Download/Canon Luts/1dlut/canonlog3-to-gamma-1dlut/full-to-full-range/CanonLog3_12-to-WideDR_FF_Ver.2.0.cube
# Gamma : Canon Log 3 to Wide DR
# Range : Full in / Full out
# Version : 2.0 2016/10/27
# Copyright(c) 2016 Canon Inc. All Rights Reserved.

LUT_1D_SIZE 4096
0.000000 0.000000 0.000000
0.000000 0.000000 0.000000
0.000000 0.000000 0.000000
0.000000 0.000000 0.000000
0.000000 0.000000 0.000000
0.000000 0.000000 0.000000
0.000000 0.000000 0.000000
0.000000 0.000000 0.000000
0.000000 0.000000 0.000000
0.000000 0.000000 0.000000
0.000000 0.000000 0.000000
0.000000 0.000000 0.000000
0.000000 0.000000 0.000000
0.000000 0.000000 0.000000
0.000000 0.000000 0.000000
0.000000 0.000000 0.000000
0.000000 0.000000 0.000000
0.000000 0.000000 0.000000
0.000000 0.000000 0.000000
0.000000 0.000000 0.000000
0.000000 0.000000 0.000000
0.000000 0.000000 0.000000
0.000000 0.000000 0.000000
0.000000 0.000000 0.000000
0.000000 0.000000 0.000000
0.000000 0.000000 0.000000
0.000000 0.000000 0.000000
0.000000 0.000000 0.000000
0.000000 0.000000 0.000000
0.000000 0.000000 0.000000
0.000000 0.000000 0.000000
0.000000 0.000000 0.000000
0.000000 0.000000 0.000000
0.000000 0.000000 0.000000
0.000000 0.000000 0.000000
0.000000 0.000000 0.000000
0.000000 0.000000 0.000000
0.000000 0.000000 0.000000
0.000000 0.000000 0.000000
0.000000 0.000000 0.000000
0.000000 0.000000 0.000000
0.000000 0.000000 0.000000
0.000000 0.000000 0.000000
0.000000 0.000000 0.000000
0.000000 0.000000 0.000000
0.000000 0.000000 0.000000
0.000000 0.000000 0.000000
0.000000 0.000000 0.000000
0.000000 0.000000 0.000000
0.000000 0.000000 0.000000
0.000000 0.000000 0.000000
0.000000 0.000000 0.000000
0.000000 0.000000 0.000000
0.000000 0.000000 0.000000
0.000000 0.000000 0.000000
0.000000 0.000000 0.000000
0.000000 0.000000 0.000000
0.000000 0.000000 0.000000
0.000000 0.000000 0.000000
0.000000 0.000000 0.000000
0.000000 0.000000 0.000000
0.000000 0.000000 0.000000
0.000000 0.000000 0.000000
0.000000 0.000000 0.000000
0.000000 0.000000 0.000000
0.000000 0.000000 0.000000
0.000000 0.000000 0.000000
0.000000 0.000000 0.000000
0.000000 0.000000 0.000000
0.000000 0.000000 0.000000
0.000000 0.000000 0.000000
0.000000 0.000000 0.000000
0.000000 0.000000 0.000000
0.000000 0.000000 0.000000
0.000000 0.000000 0.000000
0.000000 0.000000 0.000000
0.000000 0.000000 0.000000
0.000000 0.000000 0.000000
0.000000 0.000000 0.000000
0.000000 0.000000 0.000000
0.000000 0.000000 0.000000
0.000000 0.000000 0.000000
0.000000 0.000000 0.000000
0.000000 0.000000 0.000000
0.000000 0.000000 0.000000
0.000000 0.000000 0.000000
0.000000 0.000000 0.000000
0.000000 0.000000 0.000000
0.000000 0.000000 0.000000
0.000000 0.000000 0.000000
0.000000 0.000000 0.000000
0.000000 0.000000 0.000000
0.000000 0.000000 0.000000
0.000000 0.000000 0.000000
0.000000 0.000000 0.000000
0.000000 0.000000 0.000000
0.000000 0.000000 0.000000
0.000000 0.000000 0.000000
0.000000 0.000000 0.000000
0.000000 0.000000 0.000000
0.000000 0.000000 0.000000
0.000000 0.000000 0.000000
0.000000 0.000000 0.000000
0.000000 0.000000 0.000000
0.000000 0.000000 0.000000
0.000000 0.000000 0.000000
0.000000 0.000000 0.000000
0.000000 0.000000 0.000000
0.000000 0.000000 0.000000
0.000000 0.000000 0.000000
0.000000 0.000000 0.000000
0.000000 0.000000 0.000000
0.000000 0.000000 0.000000
0.000000 0.000000 0.000000
0.000000 0.000000 0.000000
0.000000 0.000000 0.000000
0.000000 0.000000 0.000000
0.000000 0.000000 0.000000
0.000000 0.000000 0.000000
0.000000 0.000000 0.000000
0.000000 0.000000 0.000000
0.000000 0.000000 0.000000
0.000000 0.000000 0.000000
0.000000 0.000000 0.000000
0.000000 0.000000 0.000000
0.000000 0.000000 0.000000
0.000000 0.000000 0.000000
0.000000 0.000000 0.000000
0.000000 0.000000 0.000000
0.000000 0.000000 0.000000
0.000000 0.000000 0.000000
0.000000 0.000000 0.000000
0.000000 0.000000 0.000000
0.000000 0.000000 0.000000
0.000000 0.000000 0.000000
0.000000 0.000000 0.000000
0.000000 0.000000 0.000000
0.000000 0.000000 0.000000
0.000000 0.000000 0.000000
0.000000 0.000000 0.000000
0.000000 0.000000 0.000000
0.000000 0.000000 0.000000
0.000000 0.000000 0.000000
0.000000 0.000000 0.000000
0.000000 0.000000 0.000000
0.000000 0.000000 0.000000
0.000000 0.000000 0.000000
0.000000 0.000000 0.000000
0.000000 0.000000 0.000000
0.000000 0.000000 0.000000
0.000000 0.000000 0.000000
0.000000 0.000000 0.000000
0.000000 0.000000 0.000000
0.000000 0.000000 0.000000
0.000000 0.000000 0.000000
0.000000 0.000000 0.000000
0.000000 0.000000 0.000000
0.000000 0.000000 0.000000
0.000000 0.000000 0.000000
0.000000 0.000000 0.000000
0.000000 0.000000 0.000000
0.000000 0.000000 0.000000
0.000000 0.000000 0.000000
0.000000 0.000000 0.000000
0.000000 0.000000 0.000000
0.000000 0.000000 0.000000
0.000000 0.000000 0.000000
0.000000 0.000000 0.000000
0.000000 0.000000 0.000000
0.000000 0.000000 0.000000
0.000000 0.000000 0.000000
0.000000 0.000000 0.000000
0.000000 0.000000 0.000000
0.000000 0.000000 0.000000
0.000000 0.000000 0.000000
0.000000 0.000000 0.000000
0.000000 0.000000 0.000000
0.000000 0.000000 0.000000
0.000000 0.000000 0.000000
0.000000 0.000000 0.000000
0.000000 0.000000 0.000000
0.000000 0.000000 0.000000
0.000000 0.000000 0.000000
0.000000 0.000000 0.000000
0.000000 0.000000 0.000000
0.000000 0.000000 0.000000
0.000000 0.000000 0.000000
0.000000 0.000000 0.000000
0.000000 0.000000 0.000000
0.000000 0.000000 0.000000
0.000000 0.000000 0.000000
0.000000 0.000000 0.000000
0.000000 0.000000 0.000000
0.000000 0.000000 0.000000
0.000000 0.000000 0.000000
0.000000 0.000000 0.000000
0.000000 0.000000 0.000000
0.000000 0.000000 0.000000
0.000000 0.000000 0.000000
0.000000 0.000000 0.000000
0.000000 0.000000 0.000000
0.000000 0.000000 0.000000
0.000000 0.000000 0.000000
0.000000 0.000000 0.000000
0.000000 0.000000 0.000000
0.000000 0.000000 0.000000
0.000000 0.000000 0.000000
0.000000 0.000000 0.000000
0.000000 0.000000 0.000000
0.000000 0.000000 0.000000
0.000000 0.000000 0.000000
0.000000 0.000000 0.000000
0.000000 0.000000 0.000000
0.000000 0.000000 0.000000
0.000000 0.000000 0.000000
0.000000 0.000000 0.000000
0.000000 0.000000 0.000000
0.000000 0.000000 0.000000
0.000000 0.000000 0.000000
0.000000 0.000000 0.000000
0.000000 0.000000 0.000000
0.000000 0.000000 0.000000
0.000000 0.000000 0.000000
0.000000 0.000000 0.000000
0.000000 0.000000 0.000000
0.000000 0.000000 0.000000
0.000000 0.000000 0.000000
0.000000 0.000000 0.000000
0.000000 0.000000 0.000000
0.000000 0.000000 0.000000
0.000000 0.000000 0.000000
0.000000 0.000000 0.000000
0.000000 0.000000 0.000000
0.000000 0.000000 0.000000
0.000000 0.000000 0.000000
0.000000 0.000000 0.000000
0.000000 0.000000 0.000000
0.000000 0.000000 0.000000
0.000000 0.000000 0.000000
0.000000 0.000000 0.000000
0.000000 0.000000 0.000000
0.000000 0.000000 0.000000
0.000000 0.000000 0.000000
0.000000 0.000000 0.000000
0.000000 0.000000 0.000000
0.000000 0.000000 0.000000
0.000000 0.000000 0.000000
0.000000 0.000000 0.000000
0.000000 0.000000 0.000000
0.000000 0.000000 0.000000
0.000000 0.000000 0.000000
0.000000 0.000000 0.000000
0.000000 0.000000 0.000000
0.000000 0.000000 0.000000
0.000000 0.000000 0.000000
0.000000 0.000000 0.000000
0.000000 0.000000 0.000000
0.000000 0.000000 0.000000
0.000000 0.000000 0.000000
0.000000 0.000000 0.000000
0.000000 0.000000 0.000000
0.000000 0.000000 0.000000
0.000000 0.000000 0.000000
0.000000 0.000000 0.000000
0.000000 0.000000 0.000000
0.000000 0.000000 0.000000
0.000000 0.000000 0.000000
0.000000 0.000000 0.000000
0.000000 0.000000 0.000000
0.000000 0.000000 0.000000
0.000000 0.000000 0.000000
0.000000 0.000000 0.000000
0.000000 0.000000 0.000000
0.000000 0.000000 0.000000
0.000000 0.000000 0.000000
0.000000 0.000000 0.000000
0.000000 0.000000 0.000000
0.000000 0.000000 0.000000
0.000000 0.000000 0.000000
0.000000 0.000000 0.000000
0.000000 0.000000 0.000000
0.000000 0.000000 0.000000
0.000000 0.000000 0.000000
0.000000 0.000000 0.000000
0.000000 0.000000 0.000000
0.000000 0.000000 0.000000
0.000000 0.000000 0.000000
0.000000 0.000000 0.000000
0.000000 0.000000 0.000000
0.000000 0.000000 0.000000
0.000000 0.000000 0.000000
0.000000 0.000000 0.000000
0.000000 0.000000 0.000000
0.000000 0.000000 0.000000
0.000000 0.000000 0.000000
0.000000 0.000000 0.000000
0.000000 0.000000 0.000000
0.000000 0.000000 0.000000
0.000000 0.000000 0.000000
0.000000 0.000000 0.000000
0.000000 0.000000 0.000000
0.000000 0.000000 0.000000
0.000000 0.000000 0.000000
0.000000 0.000000 0.000000
0.000000 0.000000 0.000000
0.000000 0.000000 0.000000
0.000000 0.000000 0.000000
0.000000 0.000000 0.000000
0.000000 0.000000 0.000000
0.000000 0.000000 0.000000
0.000000 0.000000 0.000000
0.000000 0.000000 0.000000
0.000000 0.000000 0.000000
0.000000 0.000000 0.000000
0.000000 0.000000 0.000000
0.000000 0.000000 0.000000
0.000000 0.000000 0.000000
0.000000 0.000000 0.000000
0.000000 0.000000 0.000000
0.000000 0.000000 0.000000
0.000000 0.000000 0.000000
0.000000 0.000000 0.000000
0.000000 0.000000 0.000000
0.000000 0.000000 0.000000
0.000000 0.000000 0.000000
0.000000 0.000000 0.000000
0.000000 0.000000 0.000000
0.000000 0.000000 0.000000
0.000000 0.000000 0.000000
0.000000 0.000000 0.000000
0.000000 0.000000 0.000000
0.000000 0.000000 0.000000
0.000000 0.000000 0.000000
0.000000 0.000000 0.000000
0.000000 0.000000 0.000000
0.000000 0.000000 0.000000
0.000000 0.000000 0.000000
0.000000 0.000000 0.000000
0.000000 0.000000 0.000000
0.000000 0.000000 0.000000
0.000000 0.000000 0.000000
0.000000 0.000000 0.000000
0.000000 0.000000 0.000000
0.000000 0.000000 0.000000
0.000000 0.000000 0.000000
0.000000 0.000000 0.000000
0.000000 0.000000 0.000000
0.000000 0.000000 0.000000
0.000000 0.000000 0.000000
0.000000 0.000000 0.000000
0.000000 0.000000 0.000000
0.000000 0.000000 0.000000
0.000000 0.000000 0.000000
0.000000 0.000000 0.000000
0.000000 0.000000 0.000000
0.000000 0.000000 0.000000
0.000000 0.000000 0.000000
0.000000 0.000000 0.000000
0.000000 0.000000 0.000000
0.000000 0.000000 0.000000
0.000000 0.000000 0.000000
0.000000 0.000000 0.000000
0.000000 0.000000 0.000000
0.000000 0.000000 0.000000
0.000000 0.000000 0.000000
0.000000 0.000000 0.000000
0.000000 0.000000 0.000000
0.000000 0.000000 0.000000
0.000000 0.000000 0.000000
0.000000 0.000000 0.000000
0.000000 0.000000 0.000000
0.000000 0.000000 0.000000
0.000000 0.000000 0.000000
0.000000 0.000000 0.000000
0.000000 0.000000 0.000000
0.000000 0.000000 0.000000
0.000000 0.000000 0.000000
0.000000 0.000000 0.000000
0.000000 0.000000 0.000000
0.000000 0.000000 0.000000
0.000000 0.000000 0.000000
0.000000 0.000000 0.000000
0.000000 0.000000 0.000000
0.000000 0.000000 0.000000
0.000000 0.000000 0.000000
0.000000 0.000000 0.000000
0.000000 0.000000 0.000000
0.000000 0.000000 0.000000
0.000000 0.000000 0.000000
0.000000 0.000000 0.000000
0.000000 0.000000 0.000000
0.000000 0.000000 0.000000
0.000000 0.000000 0.000000
0.000000 0.000000 0.000000
0.000000 0.000000 0.000000
0.000000 0.000000 0.000000
0.000000 0.000000 0.000000
0.000000 0.000000 0.000000
0.000000 0.000000 0.000000
0.000000 0.000000 0.000000
0.000000 0.000000 0.000000
0.000000 0.000000 0.000000
0.000000 0.000000 0.000000
0.000000 0.000000 0.000000
0.000000 0.000000 0.000000
0.000000 0.000000 0.000000
0.000000 0.000000 0.000000
0.000000 0.000000 0.000000
0.000000 0.000000 0.000000
0.000000 0.000000 0.000000
0.000000 0.000000 0.000000
0.000000 0.000000 0.000000
0.000000 0.000000 0.000000
0.000000 0.000000 0.000000
0.000000 0.000000 0.000000
0.000000 0.000000 0.000000
0.000000 0.000000 0.000000
0.000000 0.000000 0.000000
0.000000 0.000000 0.000000
0.000000 0.000000 0.000000
0.000000 0.000000 0.000000
0.000000 0.000000 0.000000
0.000000 0.000000 0.000000
0.000000 0.000000 0.000000
0.000000 0.000000 0.000000
0.000000 0.000000 0.000000
0.000000 0.000000 0.000000
0.000000 0.000000 0.000000
0.000000 0.000000 0.000000
0.000000 0.000000 0.000000
0.000000 0.000000 0.000000
0.000000 0.000000 0.000000
0.000000 0.000000 0.000000
0.000000 0.000000 0.000000
0.000000 0.000000 0.000000
0.000000 0.000000 0.000000
0.000000 0.000000 0.000000
0.000000 0.000000 0.000000
0.000000 0.000000 0.000000
0.000000 0.000000 0.000000
0.000000 0.000000 0.000000
0.000000 0.000000 0.000000
0.000000 0.000000 0.000000
0.000000 0.000000 0.000000
0.000000 0.000000 0.000000
0.000000 0.000000 0.000000
0.000000 0.000000 0.000000
0.000000 0.000000 0.000000
0.000000 0.000000 0.000000
0.000000 0.000000 0.000000
0.000000 0.000000 0.000000
0.000000 0.000000 0.000000
0.000000 0.000000 0.000000
0.000000 0.000000 0.000000
0.000000 0.000000 0.000000
0.000000 0.000000 0.000000
0.000000 0.000000 0.000000
0.000000 0.000000 0.000000
0.000000 0.000000 0.000000
0.000000 0.000000 0.000000
0.000000 0.000000 0.000000
0.000000 0.000000 0.000000
0.000000 0.000000 0.000000
0.000000 0.000000 0.000000
0.000000 0.000000 0.000000
0.000000 0.000000 0.000000
0.000000 0.000000 0.000000
0.000000 0.000000 0.000000
0.000000 0.000000 0.000000
0.000000 0.000000 0.000000
0.000000 0.000000 0.000000
0.000000 0.000000 0.000000
0.000000 0.000000 0.000000
0.000000 0.000000 0.000000
0.000000 0.000000 0.000000
0.000000 0.000000 0.000000
0.000000 0.000000 0.000000
0.000000 0.000000 0.000000
0.000000 0.000000 0.000000
0.000000 0.000000 0.000000
0.000000 0.000000 0.000000
0.000000 0.000000 0.000000
0.000000 0.000000 0.000000
0.000000 0.000000 0.000000
0.000000 0.000000 0.000000
0.000000 0.000000 0.000000
0.000000 0.000000 0.000000
0.000000 0.000000 0.000000
0.000000 0.000000 0.000000
0.000000 0.000000 0.000000
0.000000 0.000000 0.000000
0.000000 0.000000 0.000000
0.000000 0.000000 0.000000
0.000000 0.000000 0.000000
0.000000 0.000000 0.000000
0.000000 0.000000 0.000000
0.000000 0.000000 0.000000
0.000000 0.000000 0.000000
0.000000 0.000000 0.000000
0.000000 0.000000 0.000000
0.000000 0.000000 0.000000
0.000000 0.000000 0.000000
0.000000 0.000000 0.000000
0.000000 0.000000 0.000000
0.000000 0.000000 0.000000
0.000000 0.000000 0.000000
0.000000 0.000000 0.000000
0.000000 0.000000 0.000000
0.000000 0.000000 0.000000
0.000000 0.000000 0.000000
0.000000 0.000000 0.000000
0.000000 0.000000 0.000000
0.000000 0.000000 0.000000
0.000360 0.000360 0.000360
0.000936 0.000936 0.000936
0.001512 0.001512 0.001512
0.002088 0.002088 0.002088
0.002664 0.002664 0.002664
0.003239 0.003239 0.003239
0.003815 0.003815 0.003815
0.004390 0.004390 0.004390
0.004964 0.004964 0.004964
0.005538 0.005538 0.005538
0.006112 0.006112 0.006112
0.006684 0.006684 0.006684
0.007257 0.007257 0.007257
0.007829 0.007829 0.007829
0.008400 0.008400 0.008400
0.008970 0.008970 0.008970
0.009540 0.009540 0.009540
0.010108 0.010108 0.010108
0.010677 0.010677 0.010677
0.011244 0.011244 0.011244
0.011810 0.011810 0.011810
0.012376 0.012376 0.012376
0.012941 0.012941 0.012941
0.013505 0.013505 0.013505
0.014068 0.014068 0.014068
0.014630 0.014630 0.014630
0.015192 0.015192 0.015192
0.015752 0.015752 0.015752
0.016312 0.016312 0.016312
0.016870 0.016870 0.016870
0.017428 0.017428 0.017428
0.017985 0.017985 0.017985
0.018540 0.018540 0.018540
0.019095 0.019095 0.019095
0.019649 0.019649 0.019649
0.020202 0.020202 0.020202
0.020754 0.020754 0.020754
0.021305 0.021305 0.021305
0.021856 0.021856 0.021856
0.022405 0.022405 0.022405
0.022953 0.022953 0.022953
0.023500 0.023500 0.023500
0.024047 0.024047 0.024047
0.024592 0.024592 0.024592
0.025136 0.025136 0.025136
0.025680 0.025680 0.025680
0.026222 0.026222 0.026222
0.026764 0.026764 0.026764
0.027305 0.027305 0.027305
0.027845 0.027845 0.027845
0.028383 0.028383 0.028383
0.028921 0.028921 0.028921
0.029458 0.029458 0.029458
0.029994 0.029994 0.029994
0.030529 0.030529 0.030529
0.031064 0.031064 0.031064
0.031597 0.031597 0.031597
0.032129 0.032129 0.032129
0.032661 0.032661 0.032661
0.033191 0.033191 0.033191
0.033721 0.033721 0.033721
0.034250 0.034250 0.034250
0.034778 0.034778 0.034778
0.035305 0.035305 0.035305
0.035831 0.035831 0.035831
0.036357 0.036357 0.036357
0.036881 0.036881 0.036881
0.037405 0.037405 0.037405
0.037927 0.037927 0.037927
0.038449 0.038449 0.038449
0.038970 0.038970 0.038970
0.039491 0.039491 0.039491
0.040010 0.040010 0.040010
0.040529 0.040529 0.040529
0.041047 0.041047 0.041047
0.041564 0.041564 0.041564
0.042080 0.042080 0.042080
0.042595 0.042595 0.042595
0.043110 0.043110 0.043110
0.043624 0.043624 0.043624
0.044137 0.044137 0.044137
0.044649 0.044649 0.044649
0.045160 0.045160 0.045160
0.045671 0.045671 0.045671
0.046181 0.046181 0.046181
0.046690 0.046690 0.046690
0.047198 0.047198 0.047198
0.047706 0.047706 0.047706
0.048213 0.048213 0.048213
0.048719 0.048719 0.048719
0.049225 0.049225 0.049225
0.049729 0.049729 0.049729
0.050233 0.050233 0.050233
0.050737 0.050737 0.050737
0.051239 0.051239 0.051239
0.051741 0.051741 0.051741
0.052242 0.052242 0.052242
0.052743 0.052743 0.052743
0.053242 0.053242 0.053242
0.053742 0.053742 0.053742
0.054240 0.054240 0.054240
0.054738 0.054738 0.054738
0.055235 0.055235 0.055235
0.055731 0.055731 0.055731
0.056227 0.056227 0.056227
0.056722 0.056722 0.056722
0.057216 0.057216 0.057216
0.057710 0.057710 0.057710
0.058203 0.058203 0.058203
0.058696 0.058696 0.058696
0.059187 0.059187 0.059187
0.059679 0.059679 0.059679
0.060169 0.060169 0.060169
0.060659 0.060659 0.060659
0.061149 0.061149 0.061149
0.061639 0.061639 0.061639
0.062129 0.062129 0.062129
0.062620 0.062620 0.062620
0.063110 0.063110 0.063110
0.063601 0.063601 0.063601
0.064092 0.064092 0.064092
0.064583 0.064583 0.064583
0.065074 0.065074 0.065074
0.065565 0.065565 0.065565
0.066057 0.066057 0.066057
0.066548 0.066548 0.066548
0.067040 0.067040 0.067040
0.067532 0.067532 0.067532
0.068024 0.068024 0.068024
0.068516 0.068516 0.068516
0.069009 0.069009 0.069009
0.069501 0.069501 0.069501
0.069994 0.069994 0.069994
0.070487 0.070487 0.070487
0.070980 0.070980 0.070980
0.071473 0.071473 0.071473
0.071967 0.071967 0.071967
0.072460 0.072460 0.072460
0.072954 0.072954 0.072954
0.073448 0.073448 0.073448
0.073943 0.073943 0.073943
0.074437 0.074437 0.074437
0.074932 0.074932 0.074932
0.075427 0.075427 0.075427
0.075922 0.075922 0.075922
0.076530 0.076530 0.076530
0.077025 0.077025 0.077025
0.077518 0.077518 0.077518
0.078011 0.078011 0.078011
0.078503 0.078503 0.078503
0.078994 0.078994 0.078994
0.079485 0.079485 0.079485
0.079974 0.079974 0.079974
0.080463 0.080463 0.080463
0.080951 0.080951 0.080951
0.081439 0.081439 0.081439
0.081925 0.081925 0.081925
0.082411 0.082411 0.082411
0.082896 0.082896 0.082896
0.083380 0.083380 0.083380
0.083864 0.083864 0.083864
0.084347 0.084347 0.084347
0.084829 0.084829 0.084829
0.085310 0.085310 0.085310
0.085791 0.085791 0.085791
0.086271 0.086271 0.086271
0.086751 0.086751 0.086751
0.087229 0.087229 0.087229
0.087707 0.087707 0.087707
0.088185 0.088185 0.088185
0.088662 0.088662 0.088662
0.089138 0.089138 0.089138
0.089613 0.089613 0.089613
0.090088 0.090088 0.090088
0.090562 0.090562 0.090562
0.091036 0.091036 0.091036
0.091509 0.091509 0.091509
0.091981 0.091981 0.091981
0.092453 0.092453 0.092453
0.092924 0.092924 0.092924
0.093394 0.093394 0.093394
0.093864 0.093864 0.093864
0.094334 0.094334 0.094334
0.094803 0.094803 0.094803
0.095271 0.095271 0.095271
0.095738 0.095738 0.095738
0.096206 0.096206 0.096206
0.096672 0.096672 0.096672
0.097138 0.097138 0.097138
0.097604 0.097604 0.097604
0.098068 0.098068 0.098068
0.098533 0.098533 0.098533
0.098997 0.098997 0.098997
0.099460 0.099460 0.099460
0.099923 0.099923 0.099923
0.100385 0.100385 0.100385
0.100847 0.100847 0.100847
0.101308 0.101308 0.101308
0.101769 0.101769 0.101769
0.102229 0.102229 0.102229
0.102689 0.102689 0.102689
0.103148 0.103148 0.103148
0.103607 0.103607 0.103607
0.104066 0.104066 0.104066
0.104524 0.104524 0.104524
0.104981 0.104981 0.104981
0.105438 0.105438 0.105438
0.105895 0.105895 0.105895
0.106351 0.106351 0.106351
0.106806 0.106806 0.106806
0.107261 0.107261 0.107261
0.107716 0.107716 0.107716
0.108170 0.108170 0.108170
0.108624 0.108624 0.108624
0.109078 0.109078 0.109078
0.109531 0.109531 0.109531
0.109983 0.109983 0.109983
0.110436 0.110436 0.110436
0.110887 0.110887 0.110887
0.111339 0.111339 0.111339
0.111790 0.111790 0.111790
0.112240 0.112240 0.112240
0.112690 0.112690 0.112690
0.113140 0.113140 0.113140
0.113589 0.113589 0.113589
0.114038 0.114038 0.114038
0.114487 0.114487 0.114487
0.114935 0.114935 0.114935
0.115383 0.115383 0.115383
0.115830 0.115830 0.115830
0.116278 0.116278 0.116278
0.116724 0.116724 0.116724
0.117171 0.117171 0.117171
0.117617 0.117617 0.117617
0.118062 0.118062 0.118062
0.118508 0.118508 0.118508
0.118952 0.118952 0.118952
0.119397 0.119397 0.119397
0.119841 0.119841 0.119841
0.120285 0.120285 0.120285
0.120729 0.120729 0.120729
0.121172 0.121172 0.121172
0.121615 0.121615 0.121615
0.122058 0.122058 0.122058
0.122500 0.122500 0.122500
0.122942 0.122942 0.122942
0.123383 0.123383 0.123383
0.123825 0.123825 0.123825
0.124266 0.124266 0.124266
0.124706 0.124706 0.124706
0.125147 0.125147 0.125147
0.125587 0.125587 0.125587
0.126026 0.126026 0.126026
0.126466 0.126466 0.126466
0.126905 0.126905 0.126905
0.127344 0.127344 0.127344
0.127782 0.127782 0.127782
0.128221 0.128221 0.128221
0.128659 0.128659 0.128659
0.129096 0.129096 0.129096
0.129534 0.129534 0.129534
0.129971 0.129971 0.129971
0.130408 0.130408 0.130408
0.130845 0.130845 0.130845
0.131281 0.131281 0.131281
0.131717 0.131717 0.131717
0.132153 0.132153 0.132153
0.132588 0.132588 0.132588
0.133023 0.133023 0.133023
0.133458 0.133458 0.133458
0.133893 0.133893 0.133893
0.134328 0.134328 0.134328
0.134762 0.134762 0.134762
0.135196 0.135196 0.135196
0.135630 0.135630 0.135630
0.136063 0.136063 0.136063
0.136496 0.136496 0.136496
0.136929 0.136929 0.136929
0.137362 0.137362 0.137362
0.137795 0.137795 0.137795
0.138227 0.138227 0.138227
0.138659 0.138659 0.138659
0.139091 0.139091 0.139091
0.139523 0.139523 0.139523
0.139954 0.139954 0.139954
0.140385 0.140385 0.140385
0.140816 0.140816 0.140816
0.141247 0.141247 0.141247
0.141677 0.141677 0.141677
0.142108 0.142108 0.142108
0.142538 0.142538 0.142538
0.142968 0.142968 0.142968
0.143397 0.143397 0.143397
0.143827 0.143827 0.143827
0.144256 0.144256 0.144256
0.144685 0.144685 0.144685
0.145114 0.145114 0.145114
0.145542 0.145542 0.145542
0.145971 0.145971 0.145971
0.146399 0.146399 0.146399
0.146827 0.146827 0.146827
0.147255 0.147255 0.147255
0.147683 0.147683 0.147683
0.148110 0.148110 0.148110
0.148537 0.148537 0.148537
0.148964 0.148964 0.148964
0.149391 0.149391 0.149391
0.149818 0.149818 0.149818
0.150245 0.150245 0.150245
0.150671 0.150671 0.150671
0.151097 0.151097 0.151097
0.151523 0.151523 0.151523
0.151949 0.151949 0.151949
0.152375 0.152375 0.152375
0.152800 0.152800 0.152800
0.153225 0.153225 0.153225
0.153651 0.153651 0.153651
0.154076 0.154076 0.154076
0.154500 0.154500 0.154500
0.154925 0.154925 0.154925
0.155350 0.155350 0.155350
0.155774 0.155774 0.155774
0.156198 0.156198 0.156198
0.156622 0.156622 0.156622
0.157046 0.157046 0.157046
0.157470 0.157470 0.157470
0.157893 0.157893 0.157893
0.158317 0.158317 0.158317
0.158740 0.158740 0.158740
0.159163 0.159163 0.159163
0.159586 0.159586 0.159586
0.160009 0.160009 0.160009
0.160432 0.160432 0.160432
0.160854 0.160854 0.160854
0.161277 0.161277 0.161277
0.161699 0.161699 0.161699
0.162121 0.162121 0.162121
0.162543 0.162543 0.162543
0.162965 0.162965 0.162965
0.163386 0.163386 0.163386
0.163808 0.163808 0.163808
0.164230 0.164230 0.164230
0.164651 0.164651 0.164651
0.165072 0.165072 0.165072
0.165493 0.165493 0.165493
0.165914 0.165914 0.165914
0.166335 0.166335 0.166335
0.166756 0.166756 0.166756
0.167176 0.167176 0.167176
0.167597 0.167597 0.167597
0.168017 0.168017 0.168017
0.168437 0.168437 0.168437
0.168857 0.168857 0.168857
0.169277 0.169277 0.169277
0.169697 0.169697 0.169697
0.170117 0.170117 0.170117
0.170537 0.170537 0.170537
0.170956 0.170956 0.170956
0.171376 0.171376 0.171376
0.171795 0.171795 0.171795
0.172214 0.172214 0.172214
0.172633 0.172633 0.172633
0.173052 0.173052 0.173052
0.173471 0.173471 0.173471
0.173890 0.173890 0.173890
0.174309 0.174309 0.174309
0.174727 0.174727 0.174727
0.175146 0.175146 0.175146
0.175564 0.175564 0.175564
0.175982 0.175982 0.175982
