Luts Download/Canon Luts/1dlut/canonlog3-to-gamma-1dlut/full-to-full-range/CanonLog3_10-to-DCI_FF_Ver.2.0.cube
# Gamma : Canon Log 3 to DCI
# Range : Full in / Full out
# Version : 2.0 2016/10/27
# Copyright(c) 2016 Canon Inc. All Rights Reserved.

LUT_1D_SIZE 1024
0.000000 0.000000 0.000000
0.000000 0.000000 0.000000
0.000000 0.000000 0.000000
0.000000 0.000000 0.000000
0.000000 0.000000 0.000000
0.000000 0.000000 0.000000
0.000000 0.000000 0.000000
0.000000 0.000000 0.000000
0.000000 0.000000 0.000000
0.000000 0.000000 0.000000
0.000000 0.000000 0.000000
0.000000 0.000000 0.000000
0.000000 0.000000 0.000000
0.000000 0.000000 0.000000
0.000000 0.000000 0.000000
0.000000 0.000000 0.000000
0.000000 0.000000 0.000000
0.000000 0.000000 0.000000
0.000000 0.000000 0.000000
0.000000 0.000000 0.000000
0.000000 0.000000 0.000000
0.000000 0.000000 0.000000
0.000000 0.000000 0.000000
0.000000 0.000000 0.000000
0.000000 0.000000 0.000000
0.000000 0.000000 0.000000
0.000000 0.000000 0.000000
0.000000 0.000000 0.000000
0.000000 0.000000 0.000000
0.000000 0.000000 0.000000
0.000000 0.000000 0.000000
0.000000 0.000000 0.000000
0.000000 0.000000 0.000000
0.000000 0.000000 0.000000
0.000000 0.000000 0.000000
0.000000 0.000000 0.000000
0.000000 0.000000 0.000000
0.000000 0.000000 0.000000
0.000000 0.000000 0.000000
0.000000 0.000000 0.000000
0.000000 0.000000 0.000000
0.000000 0.000000 0.000000
0.000000 0.000000 0.000000
0.000000 0.000000 0.000000
0.000000 0.000000 0.000000
0.000000 0.000000 0.000000
0.000000 0.000000 0.000000
0.000000 0.000000 0.000000
0.000000 0.000000 0.000000
0.000000 0.000000 0.000000
0.000000 0.000000 0.000000
0.000000 0.000000 0.000000
0.000000 0.000000 0.000000
0.000000 0.000000 0.000000
0.000000 0.000000 0.000000
0.000000 0.000000 0.000000
0.000000 0.000000 0.000000
0.000000 0.000000 0.000000
0.000000 0.000000 0.000000
0.000000 0.000000 0.000000
0.000000 0.000000 0.000000
0.000000 0.000000 0.000000
0.000000 0.000000 0.000000
0.000000 0.000000 0.000000
0.000000 0.000000 0.000000
0.000000 0.000000 0.000000
0.000000 0.000000 0.000000
0.000000 0.000000 0.000000
0.000000 0.000000 0.000000
0.000000 0.000000 0.000000
0.000000 0.000000 0.000000
0.000000 0.000000 0.000000
0.000000 0.000000 0.000000
0.000000 0.000000 0.000000
0.000000 0.000000 0.000000
0.000000 0.000000 0.000000
0.000000 0.000000 0.000000
0.000000 0.000000 0.000000
0.000000 0.000000 0.000000
0.000000 0.000000 0.000000
0.000000 0.000000 0.000000
0.000000 0.000000 0.000000
0.000000 0.000000 0.000000
0.000000 0.000000 0.000000
0.000000 0.000000 0.000000
0.000000 0.000000 0.000000
0.000000 0.000000 0.000000
0.000000 0.000000 0.000000
0.000000 0.000000 0.000000
0.000000 0.000000 0.000000
0.000000 0.000000 0.000000
0.000000 0.000000 0.000000
0.000000 0.000000 0.000000
0.000000 0.000000 0.000000
0.000000 0.000000 0.000000
0.000000 0.000000 0.000000
0.000000 0.000000 0.000000
0.000000 0.000000 0.000000
0.000000 0.000000 0.000000
0.000000 0.000000 0.000000
0.000000 0.000000 0.000000
0.000000 0.000000 0.000000
0.000000 0.000000 0.000000
0.000000 0.000000 0.000000
0.000000 0.000000 0.000000
0.000000 0.000000 0.000000
0.000000 0.000000 0.000000
0.000000 0.000000 0.000000
0.000000 0.000000 0.000000
0.000000 0.000000 0.000000
0.000000 0.000000 0.000000
0.000000 0.000000 0.000000
0.000000 0.000000 0.000000
0.000000 0.000000 0.000000
0.000000 0.000000 0.000000
0.000000 0.000000 0.000000
0.000000 0.000000 0.000000
0.000000 0.000000 0.000000
0.000000 0.000000 0.000000
0.000000 0.000000 0.000000
0.000000 0.000000 0.000000
0.000000 0.000000 0.000000
0.000000 0.000000 0.000000
0.000000 0.000000 0.000000
0.000000 0.000000 0.000000
0.000000 0.000000 0.000000
0.000000 0.000000 0.000000
0.000000 0.000000 0.000000
0.000000 0.000000 0.000000
0.002322 0.002322 0.002322
0.004645 0.004645 0.004645
0.006967 0.006967 0.006967
0.009289 0.009289 0.009289
0.011612 0.011612 0.011612
0.013934 0.013934 0.013934
0.016256 0.016256 0.016256
0.018579 0.018579 0.018579
0.020901 0.020901 0.020901
0.023224 0.023224 0.023224
0.025546 0.025546 0.025546
0.027868 0.027868 0.027868
0.030191 0.030191 0.030191
0.032513 0.032513 0.032513
0.034835 0.034835 0.034835
0.037158 0.037158 0.037158
0.039480 0.039480 0.039480
0.041802 0.041802 0.041802
0.044125 0.044125 0.044125
0.046447 0.046447 0.046447
0.048769 0.048769 0.048769
0.051092 0.051092 0.051092
0.053414 0.053414 0.053414
0.055736 0.055736 0.055736
0.058059 0.058059 0.058059
0.060381 0.060381 0.060381
0.062703 0.062703 0.062703
0.065026 0.065026 0.065026
0.067352 0.067352 0.067352
0.069691 0.069691 0.069691
0.072045 0.072045 0.072045
0.074414 0.074414 0.074414
0.076797 0.076797 0.076797
0.079194 0.079194 0.079194
0.081607 0.081607 0.081607
0.084034 0.084034 0.084034
0.086476 0.086476 0.086476
0.088933 0.088933 0.088933
0.091406 0.091406 0.091406
0.093893 0.093893 0.093893
0.096396 0.096396 0.096396
0.098914 0.098914 0.098914
0.101448 0.101448 0.101448
0.103995 0.103995 0.103995
0.106530 0.106530 0.106530
0.109042 0.109042 0.109042
0.111533 0.111533 0.111533
0.114004 0.114004 0.114004
0.116455 0.116455 0.116455
0.118888 0.118888 0.118888
0.121302 0.121302 0.121302
0.123698 0.123698 0.123698
0.126078 0.126078 0.126078
0.128441 0.128441 0.128441
0.130788 0.130788 0.130788
0.133120 0.133120 0.133120
0.135438 0.135438 0.135438
0.137741 0.137741 0.137741
0.140030 0.140030 0.140030
0.142306 0.142306 0.142306
0.144570 0.144570 0.144570
0.146820 0.146820 0.146820
0.149059 0.149059 0.149059
0.151286 0.151286 0.151286
0.153501 0.153501 0.153501
0.155706 0.155706 0.155706
0.157900 0.157900 0.157900
0.160084 0.160084 0.160084
0.162257 0.162257 0.162257
0.164421 0.164421 0.164421
0.166576 0.166576 0.166576
0.168721 0.168721 0.168721
0.170858 0.170858 0.170858
0.172986 0.172986 0.172986
0.175106 0.175106 0.175106
0.177217 0.177217 0.177217
0.179321 0.179321 0.179321
0.181417 0.181417 0.181417
0.183506 0.183506 0.183506
0.185588 0.185588 0.185588
0.187662 0.187662 0.187662
0.189730 0.189730 0.189730
0.191792 0.191792 0.191792
0.193847 0.193847 0.193847
0.195895 0.195895 0.195895
0.197938 0.197938 0.197938
0.199975 0.199975 0.199975
0.202006 0.202006 0.202006
0.204032 0.204032 0.204032
0.206053 0.206053 0.206053
0.208068 0.208068 0.208068
0.210078 0.210078 0.210078
0.212084 0.212084 0.212084
0.214084 0.214084 0.214084
0.216080 0.216080 0.216080
0.218072 0.218072 0.218072
0.220059 0.220059 0.220059
0.222042 0.222042 0.222042
0.224021 0.224021 0.224021
0.225996 0.225996 0.225996
0.227967 0.227967 0.227967
0.229935 0.229935 0.229935
0.231898 0.231898 0.231898
0.233859 0.233859 0.233859
0.235816 0.235816 0.235816
0.237769 0.237769 0.237769
0.239720 0.239720 0.239720
0.241667 0.241667 0.241667
0.243612 0.243612 0.243612
0.245554 0.245554 0.245554
0.247493 0.247493 0.247493
0.249429 0.249429 0.249429
0.251362 0.251362 0.251362
0.253293 0.253293 0.253293
0.255222 0.255222 0.255222
0.257149 0.257149 0.257149
0.259073 0.259073 0.259073
0.260995 0.260995 0.260995
0.262915 0.262915 0.262915
0.264832 0.264832 0.264832
0.266748 0.266748 0.266748
0.268662 0.268662 0.268662
0.270575 0.270575 0.270575
0.272485 0.272485 0.272485
0.274394 0.274394 0.274394
0.276302 0.276302 0.276302
0.278208 0.278208 0.278208
0.280112 0.280112 0.280112
0.282016 0.282016 0.282016
0.283917 0.283917 0.283917
0.285818 0.285818 0.285818
0.287718 0.287718 0.287718
0.289616 0.289616 0.289616
0.291513 0.291513 0.291513
0.293410 0.293410 0.293410
0.295305 0.295305 0.295305
0.297200 0.297200 0.297200
0.299094 0.299094 0.299094
0.300987 0.300987 0.300987
0.302879 0.302879 0.302879
0.304771 0.304771 0.304771
0.306662 0.306662 0.306662
0.308552 0.308552 0.308552
0.310443 0.310443 0.310443
0.312332 0.312332 0.312332
0.314222 0.314222 0.314222
0.316111 0.316111 0.316111
0.317999 0.317999 0.317999
0.319888 0.319888 0.319888
0.321776 0.321776 0.321776
0.323664 0.323664 0.323664
0.325552 0.325552 0.325552
0.327440 0.327440 0.327440
0.329328 0.329328 0.329328
0.331216 0.331216 0.331216
0.333104 0.333104 0.333104
0.334992 0.334992 0.334992
0.336880 0.336880 0.336880
0.338769 0.338769 0.338769
0.340658 0.340658 0.340658
0.342547 0.342547 0.342547
0.344436 0.344436 0.344436
0.346326 0.346326 0.346326
0.348216 0.348216 0.348216
0.350107 0.350107 0.350107
0.351998 0.351998 0.351998
0.353890 0.353890 0.353890
0.355782 0.355782 0.355782
0.357675 0.357675 0.357675
0.359569 0.359569 0.359569
0.361463 0.361463 0.361463
0.363358 0.363358 0.363358
0.365253 0.365253 0.365253
0.367150 0.367150 0.367150
0.369047 0.369047 0.369047
0.370945 0.370945 0.370945
0.372844 0.372844 0.372844
0.374743 0.374743 0.374743
0.376644 0.376644 0.376644
0.378546 0.378546 0.378546
0.380449 0.380449 0.380449
0.382353 0.382353 0.382353
0.384257 0.384257 0.384257
0.386163 0.386163 0.386163
0.388071 0.388071 0.388071
0.389979 0.389979 0.389979
0.391888 0.391888 0.391888
0.393799 0.393799 0.393799
0.395711 0.395711 0.395711
0.397624 0.397624 0.397624
0.399539 0.399539 0.399539
0.401455 0.401455 0.401455
0.403372 0.403372 0.403372
0.405291 0.405291 0.405291
0.407211 0.407211 0.407211
0.409132 0.409132 0.409132
0.411055 0.411055 0.411055
0.412980 0.412980 0.412980
0.414906 0.414906 0.414906
0.416834 0.416834 0.416834
0.418763 0.418763 0.418763
0.420694 0.420694 0.420694
0.422627 0.422627 0.422627
0.424561 0.424561 0.424561
0.426497 0.426497 0.426497
0.428434 0.428434 0.428434
0.430374 0.430374 0.430374
0.432315 0.432315 0.432315
0.434258 0.434258 0.434258
0.436203 0.436203 0.436203
0.438149 0.438149 0.438149
0.440098 0.440098 0.440098
0.442048 0.442048 0.442048
0.444001 0.444001 0.444001
0.445955 0.445955 0.445955
0.447911 0.447911 0.447911
0.449870 0.449870 0.449870
0.451830 0.451830 0.451830
0.453792 0.453792 0.453792
0.455757 0.455757 0.455757
0.457723 0.457723 0.457723
0.459692 0.459692 0.459692
0.461663 0.461663 0.461663
0.463636 0.463636 0.463636
0.465611 0.465611 0.465611
0.467588 0.467588 0.467588
0.469568 0.469568 0.469568
0.471549 0.471549 0.471549
0.473533 0.473533 0.473533
0.475520 0.475520 0.475520
0.477509 0.477509 0.477509
0.479500 0.479500 0.479500
0.481493 0.481493 0.481493
0.483489 0.483489 0.483489
0.485487 0.485487 0.485487
0.487487 0.487487 0.487487
0.489490 0.489490 0.489490
0.491496 0.491496 0.491496
0.493504 0.493504 0.493504
0.495514 0.495514 0.495514
0.497527 0.497527 0.497527
0.499543 0.499543 0.499543
0.501558 0.501558 0.501558
0.503564 0.503564 0.503564
0.505562 0.505562 0.505562
0.507552 0.507552 0.507552
0.509533 0.509533 0.509533
0.511506 0.511506 0.511506
0.513471 0.513471 0.513471
0.515427 0.515427 0.515427
0.517375 0.517375 0.517375
0.519316 0.519316 0.519316
0.521248 0.521248 0.521248
0.523172 0.523172 0.523172
0.525089 0.525089 0.525089
0.526997 0.526997 0.526997
0.528898 0.528898 0.528898
0.530791 0.530791 0.530791
0.532677 0.532677 0.532677
0.534555 0.534555 0.534555
0.536425 0.536425 0.536425
0.538288 0.538288 0.538288
0.540144 0.540144 0.540144
0.541992 0.541992 0.541992
0.543833 0.543833 0.543833
0.545666 0.545666 0.545666
0.547492 0.547492 0.547492
0.549311 0.549311 0.549311
0.551123 0.551123 0.551123
0.552928 0.552928 0.552928
0.554726 0.554726 0.554726
0.556517 0.556517 0.556517
0.558301 0.558301 0.558301
0.560078 0.560078 0.560078
0.561848 0.561848 0.561848
0.563612 0.563612 0.563612
0.565369 0.565369 0.565369
0.567119 0.567119 0.567119
0.568862 0.568862 0.568862
0.570599 0.570599 0.570599
0.572329 0.572329 0.572329
0.574053 0.574053 0.574053
0.575770 0.575770 0.575770
0.577481 0.577481 0.577481
0.579185 0.579185 0.579185
0.580883 0.580883 0.580883
0.582574 0.582574 0.582574
0.584260 0.584260 0.584260
0.585939 0.585939 0.585939
0.587612 0.587612 0.587612
0.589279 0.589279 0.589279
0.590939 0.590939 0.590939
0.592594 0.592594 0.592594
0.594242 0.594242 0.594242
0.595885 0.595885 0.595885
0.597521 0.597521 0.597521
0.599152 0.599152 0.599152
0.600777 0.600777 0.600777
0.602396 0.602396 0.602396
0.604009 0.604009 0.604009
0.605616 0.605616 0.605616
0.607217 0.607217 0.607217
0.608813 0.608813 0.608813
0.610403 0.610403 0.610403
0.611987 0.611987 0.611987
0.613566 0.613566 0.613566
0.615139 0.615139 0.615139
0.616707 0.616707 0.616707
0.618269 0.618269 0.618269
0.619825 0.619825 0.619825
0.621376 0.621376 0.621376
0.622922 0.622922 0.622922
0.624462 0.624462 0.624462
0.625997 0.625997 0.625997
0.627527 0.627527 0.627527
0.629051 0.629051 0.629051
0.630570 0.630570 0.630570
0.632083 0.632083 0.632083
0.633592 0.633592 0.633592
0.635095 0.635095 0.635095
0.636593 0.636593 0.636593
0.638086 0.638086 0.638086
0.639574 0.639574 0.639574
0.641056 0.641056 0.641056
0.642534 0.642534 0.642534
0.644006 0.644006 0.644006
0.645474 0.645474 0.645474
0.646937 0.646937 0.646937
0.648394 0.648394 0.648394
0.649847 0.649847 0.649847
0.651295 0.651295 0.651295
0.652738 0.652738 0.652738
0.654176 0.654176 0.654176
0.655609 0.655609 0.655609
0.657037 0.657037 0.657037
0.658461 0.658461 0.658461
0.659880 0.659880 0.659880
0.661294 0.661294 0.661294
0.662703 0.662703 0.662703
0.664108 0.664108 0.664108
0.665508 0.665508 0.665508
0.666904 0.666904 0.666904
0.668295 0.668295 0.668295
0.669681 0.669681 0.669681
0.671063 0.671063 0.671063
0.672440 0.672440 0.672440
0.673812 0.673812 0.673812
0.675180 0.675180 0.675180
0.676544 0.676544 0.676544
0.677903 0.677903 0.677903
0.679258 0.679258 0.679258
0.680608 0.680608 0.680608
0.681954 0.681954 0.681954
0.683296 0.683296 0.683296
0.684633 0.684633 0.684633
0.685966 0.685966 0.685966
0.687294 0.687294 0.687294
0.688619 0.688619 0.688619
0.689939 0.689939 0.689939
0.691254 0.691254 0.691254
0.692566 0.692566 0.692566
0.693873 0.693873 0.693873
0.695176 0.695176 0.695176
0.696475 0.696475 0.696475
0.697770 0.697770 0.697770
0.699060 0.699060 0.699060
0.700347 0.700347 0.700347
0.701629 0.701629 0.701629
0.702907 0.702907 0.702907
0.704181 0.704181 0.704181
0.705452 0.705452 0.705452
0.706718 0.706718 0.706718
0.707980 0.707980 0.707980
0.709238 0.709238 0.709238
0.710492 0.710492 0.710492
0.711742 0.711742 0.711742
0.712988 0.712988 0.712988
0.714231 0.714231 0.714231
0.715469 0.715469 0.715469
0.716703 0.716703 0.716703
0.717934 0.717934 0.717934
0.719161 0.719161 0.719161
0.720384 0.720384 0.720384
0.721603 0.721603 0.721603
0.722818 0.722818 0.722818
0.724029 0.724029 0.724029
0.725237 0.725237 0.725237
0.726441 0.726441 0.726441
0.727641 0.727641 0.727641
0.728837 0.728837 0.728837
0.730030 0.730030 0.730030
0.731219 0.731219 0.731219
0.732404 0.732404 0.732404
0.733586 0.733586 0.733586
0.734764 0.734764 0.734764
0.735938 0.735938 0.735938
0.737109 0.737109 0.737109
0.738276 0.738276 0.738276
0.739439 0.739439 0.739439
0.740599 0.740599 0.740599
0.741755 0.741755 0.741755
0.742908 0.742908 0.742908
0.744057 0.744057 0.744057
0.745203 0.745203 0.745203
0.746345 0.746345 0.746345
0.747483 0.747483 0.747483
0.748619 0.748619 0.748619
0.749750 0.749750 0.749750
0.750878 0.750878 0.750878
0.752003 0.752003 0.752003
0.753124 0.753124 0.753124
0.754242 0.754242 0.754242
0.755356 0.755356 0.755356
0.756467 0.756467 0.756467
0.757575 0.757575 0.757575
0.758679 0.758679 0.758679
0.759780 0.759780 0.759780
0.760878 0.760878 0.760878
0.761972 0.761972 0.761972
0.763063 0.763063 0.763063
0.764150 0.764150 0.764150
0.765234 0.765234 0.765234
0.766315 0.766315 0.766315
0.767393 0.767393 0.767393
0.768467 0.768467 0.768467
0.769538 0.769538 0.769538
0.770606 0.770606 0.770606
0.771671 0.771671 0.771671
0.772732 0.772732 0.772732
0.773791 0.773791 0.773791
0.774846 0.774846 0.774846
0.775897 0.775897 0.775897
0.776946 0.776946 0.776946
0.777992 0.777992 0.777992
0.779034 0.779034 0.779034
0.780073 0.780073 0.780073
0.781109 0.781109 0.781109
0.782142 0.782142 0.782142
0.783172 0.783172 0.783172
0.784199 0.784199 0.784199
0.785222 0.785222 0.785222
0.786243 0.786243 0.786243
0.787260 0.787260 0.787260
0.788275 0.788275 0.788275
0.789286 0.789286 0.789286
0.790294 0.790294 0.790294
0.791300 0.791300 0.791300
0.792302 0.792302 0.792302
0.793301 0.793301 0.793301
0.794297 0.794297 0.794297
0.795291 0.795291 0.795291
0.796281 0.796281 0.796281
0.797268 0.797268 0.797268
0.798253 0.798253 0.798253
0.799234 0.799234 0.799234
0.800213 0.800213 0.800213
0.801188 0.801188 0.801188
0.802161 0.802161 0.802161
0.803130 0.803130 0.803130
0.804097 0.804097 0.804097
0.805061 0.805061 0.805061
0.806022 0.806022 0.806022
0.806980 0.806980 0.806980
0.807936 0.807936 0.807936
0.808888 0.808888 0.808888
0.809838 0.809838 0.809838
0.810785 0.810785 0.810785
0.811728 0.811728 0.811728
0.812670 0.812670 0.812670
0.813608 0.813608 0.813608
0.814543 0.814543 0.814543
0.815476 0.815476 0.815476
0.816406 0.816406 0.816406
0.817333 0.817333 0.817333
0.818257 0.818257 0.818257
0.819179 0.819179 0.819179
0.820098 0.820098 0.820098
0.821014 0.821014 0.821014
0.821927 0.821927 0.821927
0.822838 0.822838 0.822838
0.823746 0.823746 0.823746
0.824651 0.824651 0.824651
0.825554 0.825554 0.825554
0.826453 0.826453 0.826453
0.827351 0.827351 0.827351
0.828245 0.828245 0.828245
0.829137 0.829137 0.829137
0.830026 0.830026 0.830026
0.830912 0.830912 0.830912
0.831796 0.831796 0.831796
0.832677 0.832677 0.832677
0.833556 0.833556 0.833556
0.834432 0.834432 0.834432
0.835305 0.835305 0.835305
0.836176 0.836176 0.836176
0.837044 0.837044 0.837044
0.837910 0.837910 0.837910
0.838772 0.838772 0.838772
0.839633 0.839633 0.839633
0.840491 0.840491 0.840491
0.841346 0.841346 0.841346
0.842198 0.842198 0.842198
0.843049 0.843049 0.843049
0.843896 0.843896 0.843896
0.844741 0.844741 0.844741
0.845584 0.845584 0.845584
0.846424 0.846424 0.846424
0.847261 0.847261 0.847261
0.848096 0.848096 0.848096
0.848929 0.848929 0.848929
0.849759 0.849759 0.849759
0.850586 0.850586 0.850586
0.851411 0.851411 0.851411
0.852234 0.852234 0.852234
0.853054 0.853054 0.853054
0.853871 0.853871 0.853871
0.854686 0.854686 0.854686
0.855499 0.855499 0.855499
0.856309 0.856309 0.856309
0.857117 0.857117 0.857117
0.857923 0.857923 0.857923
0.858726 0.858726 0.858726
0.859526 0.859526 0.859526
0.860325 0.860325 0.860325
0.861120 0.861120 0.861120
0.861914 0.861914 0.861914
0.862705 0.862705 0.862705
0.863494 0.863494 0.863494
0.864280 0.864280 0.864280
0.865064 0.865064 0.865064
0.865845 0.865845 0.865845
0.866624 0.866624 0.866624
0.867401 0.867401 0.867401
0.868176 0.868176 0.868176
0.868948 0.868948 0.868948
0.869718 0.869718 0.869718
0.870485 0.870485 0.870485
0.871251 0.871251 0.871251
0.872014 0.872014 0.872014
0.872774 0.872774 0.872774
0.873532 0.873532 0.873532
0.874289 0.874289 0.874289
0.875042 0.875042 0.875042
0.875794 0.875794 0.875794
0.876543 0.876543 0.876543
0.877290 0.877290 0.877290
0.878034 0.878034 0.878034
0.878777 0.878777 0.878777
0.879517 0.879517 0.879517
0.880255 0.880255 0.880255
0.880991 0.880991 0.880991
0.881724 0.881724 0.881724
0.882455 0.882455 0.882455
0.883184 0.883184 0.883184
0.883911 0.883911 0.883911
0.884636 0.884636 0.884636
0.885358 0.885358 0.885358
0.886078 0.886078 0.886078
0.886796 0.886796 0.886796
0.887512 0.887512 0.887512
0.888225 0.888225 0.888225
0.888937 0.888937 0.888937
0.889646 0.889646 0.889646
0.890353 0.890353 0.890353
0.891058 0.891058 0.891058
0.891761 0.891761 0.891761
0.892462 0.892462 0.892462
0.893160 0.893160 0.893160
0.893856 0.893856 0.893856
0.894551 0.894551 0.894551
0.895243 0.895243 0.895243
0.895933 0.895933 0.895933
0.896621 0.896621 0.896621
0.897306 0.897306 0.897306
0.897990 0.897990 0.897990
0.898671 0.898671 0.898671
0.899351 0.899351 0.899351
0.900028 0.900028 0.900028
0.900703 0.900703 0.900703
0.901377 0.901377 0.901377
0.902048 0.902048 0.902048
0.902717 0.902717 0.902717
0.903384 0.903384 0.903384
0.904049 0.904049 0.904049
0.904712 0.904712 0.904712
0.905372 0.905372 0.905372
0.906031 0.906031 0.906031
0.906688 0.906688 0.906688
0.907343 0.907343 0.907343
0.907995 0.907995 0.907995
0.908646 0.908646 0.908646
0.909294 0.909294 0.909294
0.909941 0.909941 0.909941
0.910586 0.910586 0.910586
0.911228 0.911228 0.911228
0.911869 0.911869 0.911869
0.912507 0.912507 0.912507
0.913144 0.913144 0.913144
0.913779 0.913779 0.913779
0.914411 0.914411 0.914411
0.915042 0.915042 0.915042
0.915671 0.915671 0.915671
0.916297 0.916297 0.916297
0.916922 0.916922 0.916922
0.917545 0.917545 0.917545
0.918166 0.918166 0.918166
0.918785 0.918785 0.918785
0.919401 0.919401 0.919401
0.920016 0.920016 0.920016
0.920630 0.920630 0.920630
0.921241 0.921241 0.921241
0.921850 0.921850 0.921850
0.922457 0.922457 0.922457
0.923063 0.923063 0.923063
0.923666 0.923666 0.923666
0.924268 0.924268 0.924268
0.924867 0.924867 0.924867
0.925465 0.925465 0.925465
0.926061 0.926061 0.926061
0.926655 0.926655 0.926655
0.927247 0.927247 0.927247
0.927837 0.927837 0.927837
0.928426 0.928426 0.928426
0.929012 0.929012 0.929012
0.929597 0.929597 0.929597
0.930179 0.930179 0.930179
0.930760 0.930760 0.930760
0.931339 0.931339 0.931339
0.931916 0.931916 0.931916
0.932492 0.932492 0.932492
0.933065 0.933065 0.933065
0.933637 0.933637 0.933637
0.934207 0.934207 0.934207
0.934775 0.934775 0.934775
0.935341 0.935341 0.935341
0.935905 0.935905 0.935905
0.936468 0.936468 0.936468
0.937029 0.937029 0.937029
0.937587 0.937587 0.937587
0.938145 0.938145 0.938145
0.938700 0.938700 0.938700
0.939253 0.939253 0.939253
0.939805 0.939805 0.939805
0.940355 0.940355 0.940355
0.940903 0.940903 0.940903
0.941450 0.941450 0.941450
0.941994 0.941994 0.941994
0.942537 0.942537 0.942537
0.943078 0.943078 0.943078
0.943618 0.943618 0.943618
0.944155 0.944155 0.944155
0.944691 0.944691 0.944691
0.945225 0.945225 0.945225
0.945757 0.945757 0.945757
0.946288 0.946288 0.946288
0.946817 0.946817 0.946817
0.947344 0.947344 0.947344
0.947869 0.947869 0.947869
0.948393 0.948393 0.948393
0.948915 0.948915 0.948915
0.949435 0.949435 0.949435
0.949953 0.949953 0.949953
0.950470 0.950470 0.950470
0.950985 0.950985 0.950985
0.951499 0.951499 0.951499
0.952010 0.952010 0.952010
0.952520 0.952520 0.952520
0.953029 0.953029 0.953029
0.953535 0.953535 0.953535
0.954040 0.954040 0.954040
0.954543 0.954543 0.954543
0.955045 0.955045 0.955045
0.955545 0.955545 0.955545
0.956043 0.956043 0.956043
0.956540 0.956540 0.956540
0.957035 0.957035 0.957035
0.957528 0.957528 0.957528
0.958020 0.958020 0.958020
0.958510 0.958510 0.958510
0.958998 0.958998 0.958998
0.959485 0.959485 0.959485
0.959970 0.959970 0.959970
0.960453 0.960453 0.960453
0.960935 0.960935 0.960935
0.961415 0.961415 0.961415
0.961894 0.961894 0.961894
0.962371 0.962371 0.962371
0.962846 0.962846 0.962846
0.963320 0.963320 0.963320
0.963792 0.963792 0.963792
0.964262 0.964262 0.964262
0.964731 0.964731 0.964731
0.965198 0.965198 0.965198
0.965664 0.965664 0.965664
0.966128 0.966128 0.966128
0.966591 0.966591 0.966591
0.967052 0.967052 0.967052
0.967511 0.967511 0.967511
0.967969 0.967969 0.967969
0.968425 0.968425 0.968425
0.968880 0.968880 0.968880
0.969333 0.969333 0.969333
0.969784 0.969784 0.969784
0.970234 0.970234 0.970234
0.970683 0.970683 0.970683
0.971130 0.971130 0.971130
0.971575 0.971575 0.971575
0.972019 0.972019 0.972019
0.972461 0.972461 0.972461
0.972902 0.972902 0.972902
0.973341 0.973341 0.973341
0.973779 0.973779 0.973779
0.974215 0.974215 0.974215
0.974650 0.974650 0.974650
0.975083 0.975083 0.975083
0.975514 0.975514 0.975514
0.975944 0.975944 0.975944
0.976373 0.976373 0.976373
0.976800 0.976800 0.976800
0.977226 0.977226 0.977226
0.977650 0.977650 0.977650
0.978072 0.978072 0.978072
0.978494 0.978494 0.978494
0.978913 0.978913 0.978913
0.979331 0.979331 0.979331
0.979748 0.979748 0.979748
0.980163 0.980163 0.980163
0.980577 0.980577 0.980577
0.980989 0.980989 0.980989
0.981400 0.981400 0.981400
0.981809 0.981809 0.981809
0.982217 0.982217 0.982217
0.982623 0.982623 0.982623
0.983028 0.983028 0.983028
0.983432 0.983432 0.983432
0.983834 0.983834 0.983834
0.984235 0.984235 0.984235
0.984634 0.984634 0.984634
0.985032 0.985032 0.985032
0.985428 0.985428 0.985428
0.985823 0.985823 0.985823
0.986216 0.986216 0.986216
0.986608 0.986608 0.986608
0.986999 0.986999 0.986999
0.987388 0.987388 0.987388
0.987776 0.987776 0.987776
0.988162 0.988162 0.988162
0.988547 0.988547 0.988547
0.988931 0.988931 0.988931
0.989313 0.989313 0.989313
0.989694 0.989694 0.989694
0.990073 0.990073 0.990073
0.990451 0.990451 0.990451
0.990828 0.990828 0.990828
