Luts Download/Canon Luts/1dlut/canonlog3-to-gamma-1dlut/full-to-full-range/CanonLog3_12-to-DCI_FF_Ver.2.0.cube
# Gamma : Canon Log 3 to DCI
# Range : Full in / Full out
# Version : 2.0 2016/10/27
# Copyright(c) 2016 Canon Inc. All Rights Reserved.

LUT_1D_SIZE 4096
0.000000 0.000000 0.000000
0.000000 0.000000 0.000000
0.000000 0.000000 0.000000
0.000000 0.000000 0.000000
0.000000 0.000000 0.000000
0.000000 0.000000 0.000000
0.000000 0.000000 0.000000
0.000000 0.000000 0.000000
0.000000 0.000000 0.000000
0.000000 0.000000 0.000000
0.000000 0.000000 0.000000
0.000000 0.000000 0.000000
0.000000 0.000000 0.000000
0.000000 0.000000 0.000000
0.000000 0.000000 0.000000
0.000000 0.000000 0.000000
0.000000 0.000000 0.000000
0.000000 0.000000 0.000000
0.000000 0.000000 0.000000
0.000000 0.000000 0.000000
0.000000 0.000000 0.000000
0.000000 0.000000 0.000000
0.000000 0.000000 0.000000
0.000000 0.000000 0.000000
0.000000 0.000000 0.000000
0.000000 0.000000 0.000000
0.000000 0.000000 0.000000
0.000000 0.000000 0.000000
0.000000 0.000000 0.000000
0.000000 0.000000 0.000000
0.000000 0.000000 0.000000
0.000000 0.000000 0.000000
0.000000 0.000000 0.000000
0.000000 0.000000 0.000000
0.000000 0.000000 0.000000
0.000000 0.000000 0.000000
0.000000 0.000000 0.000000
0.000000 0.000000 0.000000
0.000000 0.000000 0.000000
0.000000 0.000000 0.000000
0.000000 0.000000 0.000000
0.000000 0.000000 0.000000
0.000000 0.000000 0.000000
0.000000 0.000000 0.000000
0.000000 0.000000 0.000000
0.000000 0.000000 0.000000
0.000000 0.000000 0.000000
0.000000 0.000000 0.000000
0.000000 0.000000 0.000000
0.000000 0.000000 0.000000
0.000000 0.000000 0.000000
0.000000 0.000000 0.000000
0.000000 0.000000 0.000000
0.000000 0.000000 0.000000
0.000000 0.000000 0.000000
0.000000 0.000000 0.000000
0.000000 0.000000 0.000000
0.000000 0.000000 0.000000
0.000000 0.000000 0.000000
0.000000 0.000000 0.000000
0.000000 0.000000 0.000000
0.000000 0.000000 0.000000
0.000000 0.000000 0.000000
0.000000 0.000000 0.000000
0.000000 0.000000 0.000000
0.000000 0.000000 0.000000
0.000000 0.000000 0.000000
0.000000 0.000000 0.000000
0.000000 0.000000 0.000000
0.000000 0.000000 0.000000
0.000000 0.000000 0.000000
0.000000 0.000000 0.000000
0.000000 0.000000 0.000000
0.000000 0.000000 0.000000
0.000000 0.000000 0.000000
0.000000 0.000000 0.000000
0.000000 0.000000 0.000000
0.000000 0.000000 0.000000
0.000000 0.000000 0.000000
0.000000 0.000000 0.000000
0.000000 0.000000 0.000000
0.000000 0.000000 0.000000
0.000000 0.000000 0.000000
0.000000 0.000000 0.000000
0.000000 0.000000 0.000000
0.000000 0.000000 0.000000
0.000000 0.000000 0.000000
0.000000 0.000000 0.000000
0.000000 0.000000 0.000000
0.000000 0.000000 0.000000
0.000000 0.000000 0.000000
0.000000 0.000000 0.000000
0.000000 0.000000 0.000000
0.000000 0.000000 0.000000
0.000000 0.000000 0.000000
0.000000 0.000000 0.000000
0.000000 0.000000 0.000000
0.000000 0.000000 0.000000
0.000000 0.000000 0.000000
0.000000 0.000000 0.000000
0.000000 0.000000 0.000000
0.000000 0.000000 0.000000
0.000000 0.000000 0.000000
0.000000 0.000000 0.000000
0.000000 0.000000 0.000000
0.000000 0.000000 0.000000
0.000000 0.000000 0.000000
0.000000 0.000000 0.000000
0.000000 0.000000 0.000000
0.000000 0.000000 0.000000
0.000000 0.000000 0.000000
0.000000 0.000000 0.000000
0.000000 0.000000 0.000000
0.000000 0.000000 0.000000
0.000000 0.000000 0.000000
0.000000 0.000000 0.000000
0.000000 0.000000 0.000000
0.000000 0.000000 0.000000
0.000000 0.000000 0.000000
0.000000 0.000000 0.000000
0.000000 0.000000 0.000000
0.000000 0.000000 0.000000
0.000000 0.000000 0.000000
0.000000 0.000000 0.000000
0.000000 0.000000 0.000000
0.000000 0.000000 0.000000
0.000000 0.000000 0.000000
0.000000 0.000000 0.000000
0.000000 0.000000 0.000000
0.000000 0.000000 0.000000
0.000000 0.000000 0.000000
0.000000 0.000000 0.000000
0.000000 0.000000 0.000000
0.000000 0.000000 0.000000
0.000000 0.000000 0.000000
0.000000 0.000000 0.000000
0.000000 0.000000 0.000000
0.000000 0.000000 0.000000
0.000000 0.000000 0.000000
0.000000 0.000000 0.000000
0.000000 0.000000 0.000000
0.000000 0.000000 0.000000
0.000000 0.000000 0.000000
0.000000 0.000000 0.000000
0.000000 0.000000 0.000000
0.000000 0.000000 0.000000
0.000000 0.000000 0.000000
0.000000 0.000000 0.000000
0.000000 0.000000 0.000000
0.000000 0.000000 0.000000
0.000000 0.000000 0.000000
0.000000 0.000000 0.000000
0.000000 0.000000 0.000000
0.000000 0.000000 0.000000
0.000000 0.000000 0.000000
0.000000 0.000000 0.000000
0.000000 0.000000 0.000000
0.000000 0.000000 0.000000
0.000000 0.000000 0.000000
0.000000 0.000000 0.000000
0.000000 0.000000 0.000000
0.000000 0.000000 0.000000
0.000000 0.000000 0.000000
0.000000 0.000000 0.000000
0.000000 0.000000 0.000000
0.000000 0.000000 0.000000
0.000000 0.000000 0.000000
0.000000 0.000000 0.000000
0.000000 0.000000 0.000000
0.000000 0.000000 0.000000
0.000000 0.000000 0.000000
0.000000 0.000000 0.000000
0.000000 0.000000 0.000000
0.000000 0.000000 0.000000
0.000000 0.000000 0.000000
0.000000 0.000000 0.000000
0.000000 0.000000 0.000000
0.000000 0.000000 0.000000
0.000000 0.000000 0.000000
0.000000 0.000000 0.000000
0.000000 0.000000 0.000000
0.000000 0.000000 0.000000
0.000000 0.000000 0.000000
0.000000 0.000000 0.000000
0.000000 0.000000 0.000000
0.000000 0.000000 0.000000
0.000000 0.000000 0.000000
0.000000 0.000000 0.000000
0.000000 0.000000 0.000000
0.000000 0.000000 0.000000
0.000000 0.000000 0.000000
0.000000 0.000000 0.000000
0.000000 0.000000 0.000000
0.000000 0.000000 0.000000
0.000000 0.000000 0.000000
0.000000 0.000000 0.000000
0.000000 0.000000 0.000000
0.000000 0.000000 0.000000
0.000000 0.000000 0.000000
0.000000 0.000000 0.000000
0.000000 0.000000 0.000000
0.000000 0.000000 0.000000
0.000000 0.000000 0.000000
0.000000 0.000000 0.000000
0.000000 0.000000 0.000000
0.000000 0.000000 0.000000
0.000000 0.000000 0.000000
0.000000 0.000000 0.000000
0.000000 0.000000 0.000000
0.000000 0.000000 0.000000
0.000000 0.000000 0.000000
0.000000 0.000000 0.000000
0.000000 0.000000 0.000000
0.000000 0.000000 0.000000
0.000000 0.000000 0.000000
0.000000 0.000000 0.000000
0.000000 0.000000 0.000000
0.000000 0.000000 0.000000
0.000000 0.000000 0.000000
0.000000 0.000000 0.000000
0.000000 0.000000 0.000000
0.000000 0.000000 0.000000
0.000000 0.000000 0.000000
0.000000 0.000000 0.000000
0.000000 0.000000 0.000000
0.000000 0.000000 0.000000
0.000000 0.000000 0.000000
0.000000 0.000000 0.000000
0.000000 0.000000 0.000000
0.000000 0.000000 0.000000
0.000000 0.000000 0.000000
0.000000 0.000000 0.000000
0.000000 0.000000 0.000000
0.000000 0.000000 0.000000
0.000000 0.000000 0.000000
0.000000 0.000000 0.000000
0.000000 0.000000 0.000000
0.000000 0.000000 0.000000
0.000000 0.000000 0.000000
0.000000 0.000000 0.000000
0.000000 0.000000 0.000000
0.000000 0.000000 0.000000
0.000000 0.000000 0.000000
0.000000 0.000000 0.000000
0.000000 0.000000 0.000000
0.000000 0.000000 0.000000
0.000000 0.000000 0.000000
0.000000 0.000000 0.000000
0.000000 0.000000 0.000000
0.000000 0.000000 0.000000
0.000000 0.000000 0.000000
0.000000 0.000000 0.000000
0.000000 0.000000 0.000000
0.000000 0.000000 0.000000
0.000000 0.000000 0.000000
0.000000 0.000000 0.000000
0.000000 0.000000 0.000000
0.000000 0.000000 0.000000
0.000000 0.000000 0.000000
0.000000 0.000000 0.000000
0.000000 0.000000 0.000000
0.000000 0.000000 0.000000
0.000000 0.000000 0.000000
0.000000 0.000000 0.000000
0.000000 0.000000 0.000000
0.000000 0.000000 0.000000
0.000000 0.000000 0.000000
0.000000 0.000000 0.000000
0.000000 0.000000 0.000000
0.000000 0.000000 0.000000
0.000000 0.000000 0.000000
0.000000 0.000000 0.000000
0.000000 0.000000 0.000000
0.000000 0.000000 0.000000
0.000000 0.000000 0.000000
0.000000 0.000000 0.000000
0.000000 0.000000 0.000000
0.000000 0.000000 0.000000
0.000000 0.000000 0.000000
0.000000 0.000000 0.000000
0.000000 0.000000 0.000000
0.000000 0.000000 0.000000
0.000000 0.000000 0.000000
0.000000 0.000000 0.000000
0.000000 0.000000 0.000000
0.000000 0.000000 0.000000
0.000000 0.000000 0.000000
0.000000 0.000000 0.000000
0.000000 0.000000 0.000000
0.000000 0.000000 0.000000
0.000000 0.000000 0.000000
0.000000 0.000000 0.000000
0.000000 0.000000 0.000000
0.000000 0.000000 0.000000
0.000000 0.000000 0.000000
0.000000 0.000000 0.000000
0.000000 0.000000 0.000000
0.000000 0.000000 0.000000
0.000000 0.000000 0.000000
0.000000 0.000000 0.000000
0.000000 0.000000 0.000000
0.000000 0.000000 0.000000
0.000000 0.000000 0.000000
0.000000 0.000000 0.000000
0.000000 0.000000 0.000000
0.000000 0.000000 0.000000
0.000000 0.000000 0.000000
0.000000 0.000000 0.000000
0.000000 0.000000 0.000000
0.000000 0.000000 0.000000
0.000000 0.000000 0.000000
0.000000 0.000000 0.000000
0.000000 0.000000 0.000000
0.000000 0.000000 0.000000
0.000000 0.000000 0.000000
0.000000 0.000000 0.000000
0.000000 0.000000 0.000000
0.000000 0.000000 0.000000
0.000000 0.000000 0.000000
0.000000 0.000000 0.000000
0.000000 0.000000 0.000000
0.000000 0.000000 0.000000
0.000000 0.000000 0.000000
0.000000 0.000000 0.000000
0.000000 0.000000 0.000000
0.000000 0.000000 0.000000
0.000000 0.000000 0.000000
0.000000 0.000000 0.000000
0.000000 0.000000 0.000000
0.000000 0.000000 0.000000
0.000000 0.000000 0.000000
0.000000 0.000000 0.000000
0.000000 0.000000 0.000000
0.000000 0.000000 0.000000
0.000000 0.000000 0.000000
0.000000 0.000000 0.000000
0.000000 0.000000 0.000000
0.000000 0.000000 0.000000
0.000000 0.000000 0.000000
0.000000 0.000000 0.000000
0.000000 0.000000 0.000000
0.000000 0.000000 0.000000
0.000000 0.000000 0.000000
0.000000 0.000000 0.000000
0.000000 0.000000 0.000000
0.000000 0.000000 0.000000
0.000000 0.000000 0.000000
0.000000 0.000000 0.000000
0.000000 0.000000 0.000000
0.000000 0.000000 0.000000
0.000000 0.000000 0.000000
0.000000 0.000000 0.000000
0.000000 0.000000 0.000000
0.000000 0.000000 0.000000
0.000000 0.000000 0.000000
0.000000 0.000000 0.000000
0.000000 0.000000 0.000000
0.000000 0.000000 0.000000
0.000000 0.000000 0.000000
0.000000 0.000000 0.000000
0.000000 0.000000 0.000000
0.000000 0.000000 0.000000
0.000000 0.000000 0.000000
0.000000 0.000000 0.000000
0.000000 0.000000 0.000000
0.000000 0.000000 0.000000
0.000000 0.000000 0.000000
0.000000 0.000000 0.000000
0.000000 0.000000 0.000000
0.000000 0.000000 0.000000
0.000000 0.000000 0.000000
0.000000 0.000000 0.000000
0.000000 0.000000 0.000000
0.000000 0.000000 0.000000
0.000000 0.000000 0.000000
0.000000 0.000000 0.000000
0.000000 0.000000 0.000000
0.000000 0.000000 0.000000
0.000000 0.000000 0.000000
0.000000 0.000000 0.000000
0.000000 0.000000 0.000000
0.000000 0.000000 0.000000
0.000000 0.000000 0.000000
0.000000 0.000000 0.000000
0.000000 0.000000 0.000000
0.000000 0.000000 0.000000
0.000000 0.000000 0.000000
0.000000 0.000000 0.000000
0.000000 0.000000 0.000000
0.000000 0.000000 0.000000
0.000000 0.000000 0.000000
0.000000 0.000000 0.000000
0.000000 0.000000 0.000000
0.000000 0.000000 0.000000
0.000000 0.000000 0.000000
0.000000 0.000000 0.000000
0.000000 0.000000 0.000000
0.000000 0.000000 0.000000
0.000000 0.000000 0.000000
0.000000 0.000000 0.000000
0.000000 0.000000 0.000000
0.000000 0.000000 0.000000
0.000000 0.000000 0.000000
0.000000 0.000000 0.000000
0.000000 0.000000 0.000000
0.000000 0.000000 0.000000
0.000000 0.000000 0.000000
0.000000 0.000000 0.000000
0.000000 0.000000 0.000000
0.000000 0.000000 0.000000
0.000000 0.000000 0.000000
0.000000 0.000000 0.000000
0.000000 0.000000 0.000000
0.000000 0.000000 0.000000
0.000000 0.000000 0.000000
0.000000 0.000000 0.000000
0.000000 0.000000 0.000000
0.000000 0.000000 0.000000
0.000000 0.000000 0.000000
0.000000 0.000000 0.000000
0.000000 0.000000 0.000000
0.000000 0.000000 0.000000
0.000000 0.000000 0.000000
0.000000 0.000000 0.000000
0.000000 0.000000 0.000000
0.000000 0.000000 0.000000
0.000000 0.000000 0.000000
0.000000 0.000000 0.000000
0.000000 0.000000 0.000000
0.000000 0.000000 0.000000
0.000000 0.000000 0.000000
0.000000 0.000000 0.000000
0.000000 0.000000 0.000000
0.000000 0.000000 0.000000
0.000000 0.000000 0.000000
0.000000 0.000000 0.000000
0.000000 0.000000 0.000000
0.000000 0.000000 0.000000
0.000000 0.000000 0.000000
0.000000 0.000000 0.000000
0.000000 0.000000 0.000000
0.000000 0.000000 0.000000
0.000000 0.000000 0.000000
0.000000 0.000000 0.000000
0.000000 0.000000 0.000000
0.000000 0.000000 0.000000
0.000000 0.000000 0.000000
0.000000 0.000000 0.000000
0.000000 0.000000 0.000000
0.000000 0.000000 0.000000
0.000000 0.000000 0.000000
0.000000 0.000000 0.000000
0.000000 0.000000 0.000000
0.000000 0.000000 0.000000
0.000000 0.000000 0.000000
0.000000 0.000000 0.000000
0.000000 0.000000 0.000000
0.000000 0.000000 0.000000
0.000000 0.000000 0.000000
0.000000 0.000000 0.000000
0.000000 0.000000 0.000000
0.000000 0.000000 0.000000
0.000000 0.000000 0.000000
0.000000 0.000000 0.000000
0.000000 0.000000 0.000000
0.000000 0.000000 0.000000
0.000000 0.000000 0.000000
0.000000 0.000000 0.000000
0.000000 0.000000 0.000000
0.000000 0.000000 0.000000
0.000000 0.000000 0.000000
0.000000 0.000000 0.000000
0.000000 0.000000 0.000000
0.000000 0.000000 0.000000
0.000000 0.000000 0.000000
0.000000 0.000000 0.000000
0.000000 0.000000 0.000000
0.000000 0.000000 0.000000
0.000000 0.000000 0.000000
0.000000 0.000000 0.000000
0.000000 0.000000 0.000000
0.000000 0.000000 0.000000
0.000000 0.000000 0.000000
0.000000 0.000000 0.000000
0.000000 0.000000 0.000000
0.000000 0.000000 0.000000
0.000000 0.000000 0.000000
0.000000 0.000000 0.000000
0.000000 0.000000 0.000000
0.000000 0.000000 0.000000
0.000000 0.000000 0.000000
0.000000 0.000000 0.000000
0.000000 0.000000 0.000000
0.000000 0.000000 0.000000
0.000000 0.000000 0.000000
0.000000 0.000000 0.000000
0.000000 0.000000 0.000000
0.000000 0.000000 0.000000
0.000000 0.000000 0.000000
0.000000 0.000000 0.000000
0.000000 0.000000 0.000000
0.000000 0.000000 0.000000
0.000000 0.000000 0.000000
0.000000 0.000000 0.000000
0.000000 0.000000 0.000000
0.000000 0.000000 0.000000
0.000000 0.000000 0.000000
0.000000 0.000000 0.000000
0.000000 0.000000 0.000000
0.000000 0.000000 0.000000
0.000000 0.000000 0.000000
0.000000 0.000000 0.000000
0.000000 0.000000 0.000000
0.000362 0.000362 0.000362
0.000943 0.000943 0.000943
0.001523 0.001523 0.001523
0.002103 0.002103 0.002103
0.002683 0.002683 0.002683
0.003263 0.003263 0.003263
0.003843 0.003843 0.003843
0.004424 0.004424 0.004424
0.005004 0.005004 0.005004
0.005584 0.005584 0.005584
0.006164 0.006164 0.006164
0.006744 0.006744 0.006744
0.007324 0.007324 0.007324
0.007904 0.007904 0.007904
0.008485 0.008485 0.008485
0.009065 0.009065 0.009065
0.009645 0.009645 0.009645
0.010225 0.010225 0.010225
0.010805 0.010805 0.010805
0.011385 0.011385 0.011385
0.011966 0.011966 0.011966
0.012546 0.012546 0.012546
0.013126 0.013126 0.013126
0.013706 0.013706 0.013706
0.014286 0.014286 0.014286
0.014866 0.014866 0.014866
0.015447 0.015447 0.015447
0.016027 0.016027 0.016027
0.016607 0.016607 0.016607
0.017187 0.017187 0.017187
0.017767 0.017767 0.017767
0.018347 0.018347 0.018347
0.018928 0.018928 0.018928
0.019508 0.019508 0.019508
0.020088 0.020088 0.020088
0.020668 0.020668 0.020668
0.021248 0.021248 0.021248
0.021828 0.021828 0.021828
0.022409 0.022409 0.022409
0.022989 0.022989 0.022989
0.023569 0.023569 0.023569
0.024149 0.024149 0.024149
0.024729 0.024729 0.024729
0.025309 0.025309 0.025309
0.025890 0.025890 0.025890
0.026470 0.026470 0.026470
0.027050 0.027050 0.027050
0.027630 0.027630 0.027630
0.028210 0.028210 0.028210
0.028790 0.028790 0.028790
0.029370 0.029370 0.029370
0.029951 0.029951 0.029951
0.030531 0.030531 0.030531
0.031111 0.031111 0.031111
0.031691 0.031691 0.031691
0.032271 0.032271 0.032271
0.032851 0.032851 0.032851
0.033432 0.033432 0.033432
0.034012 0.034012 0.034012
0.034592 0.034592 0.034592
0.035172 0.035172 0.035172
0.035752 0.035752 0.035752
0.036332 0.036332 0.036332
0.036913 0.036913 0.036913
0.037493 0.037493 0.037493
0.038073 0.038073 0.038073
0.038653 0.038653 0.038653
0.039233 0.039233 0.039233
0.039813 0.039813 0.039813
0.040394 0.040394 0.040394
0.040974 0.040974 0.040974
0.041554 0.041554 0.041554
0.042134 0.042134 0.042134
0.042714 0.042714 0.042714
0.043294 0.043294 0.043294
0.043875 0.043875 0.043875
0.044455 0.044455 0.044455
0.045035 0.045035 0.045035
0.045615 0.045615 0.045615
0.046195 0.046195 0.046195
0.046775 0.046775 0.046775
0.047356 0.047356 0.047356
0.047936 0.047936 0.047936
0.048516 0.048516 0.048516
0.049096 0.049096 0.049096
0.049676 0.049676 0.049676
0.050256 0.050256 0.050256
0.050836 0.050836 0.050836
0.051417 0.051417 0.051417
0.051997 0.051997 0.051997
0.052577 0.052577 0.052577
0.053157 0.053157 0.053157
0.053737 0.053737 0.053737
0.054317 0.054317 0.054317
0.054898 0.054898 0.054898
0.055478 0.055478 0.055478
0.056058 0.056058 0.056058
0.056638 0.056638 0.056638
0.057218 0.057218 0.057218
0.057798 0.057798 0.057798
0.058379 0.058379 0.058379
0.058959 0.058959 0.058959
0.059539 0.059539 0.059539
0.060119 0.060119 0.060119
0.060699 0.060699 0.060699
0.061279 0.061279 0.061279
0.061860 0.061860 0.061860
0.062440 0.062440 0.062440
0.063020 0.063020 0.063020
0.063600 0.063600 0.063600
0.064180 0.064180 0.064180
0.064760 0.064760 0.064760
0.065341 0.065341 0.065341
0.065921 0.065921 0.065921
0.066502 0.066502 0.066502
0.067084 0.067084 0.067084
0.067666 0.067666 0.067666
0.068250 0.068250 0.068250
0.068834 0.068834 0.068834
0.069420 0.069420 0.069420
0.070006 0.070006 0.070006
0.070593 0.070593 0.070593
0.071181 0.071181 0.071181
0.071770 0.071770 0.071770
0.072360 0.072360 0.072360
0.072951 0.072951 0.072951
0.073543 0.073543 0.073543
0.074135 0.074135 0.074135
0.074729 0.074729 0.074729
0.075323 0.075323 0.075323
0.075919 0.075919 0.075919
0.076515 0.076515 0.076515
0.077112 0.077112 0.077112
0.077710 0.077710 0.077710
0.078309 0.078309 0.078309
0.078909 0.078909 0.078909
0.079510 0.079510 0.079510
0.080112 0.080112 0.080112
0.080714 0.080714 0.080714
0.081318 0.081318 0.081318
0.081922 0.081922 0.081922
0.082528 0.082528 0.082528
0.083134 0.083134 0.083134
0.083742 0.083742 0.083742
0.084350 0.084350 0.084350
0.084959 0.084959 0.084959
0.085569 0.085569 0.085569
0.086180 0.086180 0.086180
0.086792 0.086792 0.086792
0.087405 0.087405 0.087405
0.088019 0.088019 0.088019
0.088634 0.088634 0.088634
0.089249 0.089249 0.089249
0.089866 0.089866 0.089866
0.090484 0.090484 0.090484
0.091102 0.091102 0.091102
0.091722 0.091722 0.091722
0.092342 0.092342 0.092342
0.092964 0.092964 0.092964
0.093586 0.093586 0.093586
0.094209 0.094209 0.094209
0.094834 0.094834 0.094834
0.095459 0.095459 0.095459
0.096085 0.096085 0.096085
0.096712 0.096712 0.096712
0.097340 0.097340 0.097340
0.097969 0.097969 0.097969
0.098600 0.098600 0.098600
0.099231 0.099231 0.099231
0.099863 0.099863 0.099863
0.100495 0.100495 0.100495
0.101129 0.101129 0.101129
0.101764 0.101764 0.101764
0.102400 0.102400 0.102400
0.103037 0.103037 0.103037
0.103674 0.103674 0.103674
0.104310 0.104310 0.104310
0.104945 0.104945 0.104945
0.105578 0.105578 0.105578
0.106210 0.106210 0.106210
0.106840 0.106840 0.106840
0.107469 0.107469 0.107469
0.108097 0.108097 0.108097
0.108723 0.108723 0.108723
0.109348 0.109348 0.109348
0.109972 0.109972 0.109972
0.110594 0.110594 0.110594
0.111215 0.111215 0.111215
0.111835 0.111835 0.111835
0.112453 0.112453 0.112453
0.113071 0.113071 0.113071
0.113687 0.113687 0.113687
0.114301 0.114301 0.114301
0.114915 0.114915 0.114915
0.115527 0.115527 0.115527
0.116138 0.116138 0.116138
0.116748 0.116748 0.116748
0.117357 0.117357 0.117357
0.117965 0.117965 0.117965
0.118571 0.118571 0.118571
0.119177 0.119177 0.119177
0.119781 0.119781 0.119781
0.120384 0.120384 0.120384
0.120986 0.120986 0.120986
0.121587 0.121587 0.121587
0.122187 0.122187 0.122187
0.122785 0.122785 0.122785
0.123383 0.123383 0.123383
0.123980 0.123980 0.123980
0.124575 0.124575 0.124575
0.125170 0.125170 0.125170
0.125763 0.125763 0.125763
0.126355 0.126355 0.126355
0.126947 0.126947 0.126947
0.127537 0.127537 0.127537
0.128127 0.128127 0.128127
0.128715 0.128715 0.128715
0.129303 0.129303 0.129303
0.129889 0.129889 0.129889
0.130474 0.130474 0.130474
0.131059 0.131059 0.131059
0.131643 0.131643 0.131643
0.132225 0.132225 0.132225
0.132807 0.132807 0.132807
0.133388 0.133388 0.133388
0.133968 0.133968 0.133968
0.134547 0.134547 0.134547
0.135125 0.135125 0.135125
0.135702 0.135702 0.135702
0.136278 0.136278 0.136278
0.136853 0.136853 0.136853
0.137428 0.137428 0.137428
0.138002 0.138002 0.138002
0.138574 0.138574 0.138574
0.139146 0.139146 0.139146
0.139718 0.139718 0.139718
0.140288 0.140288 0.140288
0.140857 0.140857 0.140857
0.141426 0.141426 0.141426
0.141994 0.141994 0.141994
0.142561 0.142561 0.142561
0.143127 0.143127 0.143127
0.143692 0.143692 0.143692
0.144257 0.144257 0.144257
0.144821 0.144821 0.144821
0.145384 0.145384 0.145384
0.145946 0.145946 0.145946
0.146508 0.146508 0.146508
0.147069 0.147069 0.147069
0.147629 0.147629 0.147629
0.148188 0.148188 0.148188
0.148746 0.148746 0.148746
0.149304 0.149304 0.149304
0.149861 0.149861 0.149861
0.150418 0.150418 0.150418
0.150973 0.150973 0.150973
0.151528 0.151528 0.151528
0.152082 0.152082 0.152082
0.152636 0.152636 0.152636
0.153189 0.153189 0.153189
0.153741 0.153741 0.153741
0.154292 0.154292 0.154292
0.154843 0.154843 0.154843
0.155393 0.155393 0.155393
0.155943 0.155943 0.155943
0.156492 0.156492 0.156492
0.157040 0.157040 0.157040
0.157587 0.157587 0.157587
0.158134 0.158134 0.158134
0.158680 0.158680 0.158680
0.159226 0.159226 0.159226
0.159771 0.159771 0.159771
0.160315 0.160315 0.160315
0.160859 0.160859 0.160859
0.161402 0.161402 0.161402
0.161944 0.161944 0.161944
0.162486 0.162486 0.162486
0.163027 0.163027 0.163027
0.163568 0.163568 0.163568
0.164108 0.164108 0.164108
0.164648 0.164648 0.164648
0.165186 0.165186 0.165186
0.165725 0.165725 0.165725
0.166262 0.166262 0.166262
0.166800 0.166800 0.166800
0.167336 0.167336 0.167336
0.167872 0.167872 0.167872
0.168408 0.168408 0.168408
0.168942 0.168942 0.168942
0.169477 0.169477 0.169477
0.170011 0.170011 0.170011
0.170544 0.170544 0.170544
0.171077 0.171077 0.171077
0.171609 0.171609 0.171609
0.172141 0.172141 0.172141
0.172672 0.172672 0.172672
0.173202 0.173202 0.173202
0.173732 0.173732 0.173732
0.174262 0.174262 0.174262
0.174791 0.174791 0.174791
0.175320 0.175320 0.175320
0.175848 0.175848 0.175848
0.176375 0.176375 0.176375
0.176902 0.176902 0.176902
0.177429 0.177429 0.177429
0.177955 0.177955 0.177955
0.178481 0.178481 0.178481
0.179006 0.179006 0.179006
0.179530 0.179530 0.179530
0.180055 0.180055 0.180055
0.180578 0.180578 0.180578
0.181101 0.181101 0.181101
0.181624 0.181624 0.181624
0.182147 0.182147 0.182147
0.182668 0.182668 0.182668
0.183190 0.183190 0.183190
0.183711 0.183711 0.183711
0.184231 0.184231 0.184231
0.184751 0.184751 0.184751
0.185271 0.185271 0.185271
0.185790 0.185790 0.185790
0.186309 0.186309 0.186309
0.186827 0.186827 0.186827
0.187345 0.187345 0.187345
0.187863 0.187863 0.187863
0.188380 0.188380 0.188380
0.188896 0.188896 0.188896
0.189413 0.189413 0.189413
0.189928 0.189928 0.189928
0.190444 0.190444 0.190444
0.190959 0.190959 0.190959
0.191473 0.191473 0.191473
0.191988 0.191988 0.191988
0.192501 0.192501 0.192501
0.193015 0.193015 0.193015
0.193528 0.193528 0.193528
0.194041 0.194041 0.194041
0.194553 0.194553 0.194553
0.195065 0.195065 0.195065
0.195576 0.195576 0.195576
0.196087 0.196087 0.196087
0.196598 0.196598 0.196598
0.197108 0.197108 0.197108
0.197618 0.197618 0.197618
0.198128 0.198128 0.198128
0.198637 0.198637 0.198637
0.199146 0.199146 0.199146
0.199655 0.199655 0.199655
0.200163 0.200163 0.200163
0.200671 0.200671 0.200671
0.201178 0.201178 0.201178
0.201685 0.201685 0.201685
0.202192 0.202192 0.202192
0.202699 0.202699 0.202699
0.203205 0.203205 0.203205
0.203711 0.203711 0.203711
0.204216 0.204216 0.204216
0.204721 0.204721 0.204721
0.205226 0.205226 0.205226
0.205730 0.205730 0.205730
0.206234 0.206234 0.206234
0.206738 0.206738 0.206738
0.207242 0.207242 0.207242
0.207745 0.207745 0.207745
0.208248 0.208248 0.208248
0.208750 0.208750 0.208750
0.209253 0.209253 0.209253
0.209755 0.209755 0.209755
0.210256 0.210256 0.210256
0.210757 0.210757 0.210757
