Luts Download/Canon Luts/1dlut/canonlog3-to-gamma-1dlut/full-to-full-range/CanonLog3_12-to-HLG_FF_Ver.2.1.cube
# Gamma : Canon Log 3 to HLG
# Range : Full in / Full out
# Version : 2.1 2018/10/3
# Copyright(c) 2018 Canon Inc. All Rights Reserved.

LUT_1D_SIZE 4096
0.000000 0.000000 0.000000
0.000000 0.000000 0.000000
0.000000 0.000000 0.000000
0.000000 0.000000 0.000000
0.000000 0.000000 0.000000
0.000000 0.000000 0.000000
0.000000 0.000000 0.000000
0.000000 0.000000 0.000000
0.000000 0.000000 0.000000
0.000000 0.000000 0.000000
0.000000 0.000000 0.000000
0.000000 0.000000 0.000000
0.000000 0.000000 0.000000
0.000000 0.000000 0.000000
0.000000 0.000000 0.000000
0.000000 0.000000 0.000000
0.000000 0.000000 0.000000
0.000000 0.000000 0.000000
0.000000 0.000000 0.000000
0.000000 0.000000 0.000000
0.000000 0.000000 0.000000
0.000000 0.000000 0.000000
0.000000 0.000000 0.000000
0.000000 0.000000 0.000000
0.000000 0.000000 0.000000
0.000000 0.000000 0.000000
0.000000 0.000000 0.000000
0.000000 0.000000 0.000000
0.000000 0.000000 0.000000
0.000000 0.000000 0.000000
0.000000 0.000000 0.000000
0.000000 0.000000 0.000000
0.000000 0.000000 0.000000
0.000000 0.000000 0.000000
0.000000 0.000000 0.000000
0.000000 0.000000 0.000000
0.000000 0.000000 0.000000
0.000000 0.000000 0.000000
0.000000 0.000000 0.000000
0.000000 0.000000 0.000000
0.000000 0.000000 0.000000
0.000000 0.000000 0.000000
0.000000 0.000000 0.000000
0.000000 0.000000 0.000000
0.000000 0.000000 0.000000
0.000000 0.000000 0.000000
0.000000 0.000000 0.000000
0.000000 0.000000 0.000000
0.000000 0.000000 0.000000
0.000000 0.000000 0.000000
0.000000 0.000000 0.000000
0.000000 0.000000 0.000000
0.000000 0.000000 0.000000
0.000000 0.000000 0.000000
0.000000 0.000000 0.000000
0.000000 0.000000 0.000000
0.000000 0.000000 0.000000
0.000000 0.000000 0.000000
0.000000 0.000000 0.000000
0.000000 0.000000 0.000000
0.000000 0.000000 0.000000
0.000000 0.000000 0.000000
0.000000 0.000000 0.000000
0.000000 0.000000 0.000000
0.000000 0.000000 0.000000
0.000000 0.000000 0.000000
0.000000 0.000000 0.000000
0.000000 0.000000 0.000000
0.000000 0.000000 0.000000
0.000000 0.000000 0.000000
0.000000 0.000000 0.000000
0.000000 0.000000 0.000000
0.000000 0.000000 0.000000
0.000000 0.000000 0.000000
0.000000 0.000000 0.000000
0.000000 0.000000 0.000000
0.000000 0.000000 0.000000
0.000000 0.000000 0.000000
0.000000 0.000000 0.000000
0.000000 0.000000 0.000000
0.000000 0.000000 0.000000
0.000000 0.000000 0.000000
0.000000 0.000000 0.000000
0.000000 0.000000 0.000000
0.000000 0.000000 0.000000
0.000000 0.000000 0.000000
0.000000 0.000000 0.000000
0.000000 0.000000 0.000000
0.000000 0.000000 0.000000
0.000000 0.000000 0.000000
0.000000 0.000000 0.000000
0.000000 0.000000 0.000000
0.000000 0.000000 0.000000
0.000000 0.000000 0.000000
0.000000 0.000000 0.000000
0.000000 0.000000 0.000000
0.000000 0.000000 0.000000
0.000000 0.000000 0.000000
0.000000 0.000000 0.000000
0.000000 0.000000 0.000000
0.000000 0.000000 0.000000
0.000000 0.000000 0.000000
0.000000 0.000000 0.000000
0.000000 0.000000 0.000000
0.000000 0.000000 0.000000
0.000000 0.000000 0.000000
0.000000 0.000000 0.000000
0.000000 0.000000 0.000000
0.000000 0.000000 0.000000
0.000000 0.000000 0.000000
0.000000 0.000000 0.000000
0.000000 0.000000 0.000000
0.000000 0.000000 0.000000
0.000000 0.000000 0.000000
0.000000 0.000000 0.000000
0.000000 0.000000 0.000000
0.000000 0.000000 0.000000
0.000000 0.000000 0.000000
0.000000 0.000000 0.000000
0.000000 0.000000 0.000000
0.000000 0.000000 0.000000
0.000000 0.000000 0.000000
0.000000 0.000000 0.000000
0.000000 0.000000 0.000000
0.000000 0.000000 0.000000
0.000000 0.000000 0.000000
0.000000 0.000000 0.000000
0.000000 0.000000 0.000000
0.000000 0.000000 0.000000
0.000000 0.000000 0.000000
0.000000 0.000000 0.000000
0.000000 0.000000 0.000000
0.000000 0.000000 0.000000
0.000000 0.000000 0.000000
0.000000 0.000000 0.000000
0.000000 0.000000 0.000000
0.000000 0.000000 0.000000
0.000000 0.000000 0.000000
0.000000 0.000000 0.000000
0.000000 0.000000 0.000000
0.000000 0.000000 0.000000
0.000000 0.000000 0.000000
0.000000 0.000000 0.000000
0.000000 0.000000 0.000000
0.000000 0.000000 0.000000
0.000000 0.000000 0.000000
0.000000 0.000000 0.000000
0.000000 0.000000 0.000000
0.000000 0.000000 0.000000
0.000000 0.000000 0.000000
0.000000 0.000000 0.000000
0.000000 0.000000 0.000000
0.000000 0.000000 0.000000
0.000000 0.000000 0.000000
0.000000 0.000000 0.000000
0.000000 0.000000 0.000000
0.000000 0.000000 0.000000
0.000000 0.000000 0.000000
0.000000 0.000000 0.000000
0.000000 0.000000 0.000000
0.000000 0.000000 0.000000
0.000000 0.000000 0.000000
0.000000 0.000000 0.000000
0.000000 0.000000 0.000000
0.000000 0.000000 0.000000
0.000000 0.000000 0.000000
0.000000 0.000000 0.000000
0.000000 0.000000 0.000000
0.000000 0.000000 0.000000
0.000000 0.000000 0.000000
0.000000 0.000000 0.000000
0.000000 0.000000 0.000000
0.000000 0.000000 0.000000
0.000000 0.000000 0.000000
0.000000 0.000000 0.000000
0.000000 0.000000 0.000000
0.000000 0.000000 0.000000
0.000000 0.000000 0.000000
0.000000 0.000000 0.000000
0.000000 0.000000 0.000000
0.000000 0.000000 0.000000
0.000000 0.000000 0.000000
0.000000 0.000000 0.000000
0.000000 0.000000 0.000000
0.000000 0.000000 0.000000
0.000000 0.000000 0.000000
0.000000 0.000000 0.000000
0.000000 0.000000 0.000000
0.000000 0.000000 0.000000
0.000000 0.000000 0.000000
0.000000 0.000000 0.000000
0.000000 0.000000 0.000000
0.000000 0.000000 0.000000
0.000000 0.000000 0.000000
0.000000 0.000000 0.000000
0.000000 0.000000 0.000000
0.000000 0.000000 0.000000
0.000000 0.000000 0.000000
0.000000 0.000000 0.000000
0.000000 0.000000 0.000000
0.000000 0.000000 0.000000
0.000000 0.000000 0.000000
0.000000 0.000000 0.000000
0.000000 0.000000 0.000000
0.000000 0.000000 0.000000
0.000000 0.000000 0.000000
0.000000 0.000000 0.000000
0.000000 0.000000 0.000000
0.000000 0.000000 0.000000
0.000000 0.000000 0.000000
0.000000 0.000000 0.000000
0.000000 0.000000 0.000000
0.000000 0.000000 0.000000
0.000000 0.000000 0.000000
0.000000 0.000000 0.000000
0.000000 0.000000 0.000000
0.000000 0.000000 0.000000
0.000000 0.000000 0.000000
0.000000 0.000000 0.000000
0.000000 0.000000 0.000000
0.000000 0.000000 0.000000
0.000000 0.000000 0.000000
0.000000 0.000000 0.000000
0.000000 0.000000 0.000000
0.000000 0.000000 0.000000
0.000000 0.000000 0.000000
0.000000 0.000000 0.000000
0.000000 0.000000 0.000000
0.000000 0.000000 0.000000
0.000000 0.000000 0.000000
0.000000 0.000000 0.000000
0.000000 0.000000 0.000000
0.000000 0.000000 0.000000
0.000000 0.000000 0.000000
0.000000 0.000000 0.000000
0.000000 0.000000 0.000000
0.000000 0.000000 0.000000
0.000000 0.000000 0.000000
0.000000 0.000000 0.000000
0.000000 0.000000 0.000000
0.000000 0.000000 0.000000
0.000000 0.000000 0.000000
0.000000 0.000000 0.000000
0.000000 0.000000 0.000000
0.000000 0.000000 0.000000
0.000000 0.000000 0.000000
0.000000 0.000000 0.000000
0.000000 0.000000 0.000000
0.000000 0.000000 0.000000
0.000000 0.000000 0.000000
0.000000 0.000000 0.000000
0.000000 0.000000 0.000000
0.000000 0.000000 0.000000
0.000000 0.000000 0.000000
0.000000 0.000000 0.000000
0.000000 0.000000 0.000000
0.000000 0.000000 0.000000
0.000000 0.000000 0.000000
0.000000 0.000000 0.000000
0.000000 0.000000 0.000000
0.000000 0.000000 0.000000
0.000000 0.000000 0.000000
0.000000 0.000000 0.000000
0.000000 0.000000 0.000000
0.000000 0.000000 0.000000
0.000000 0.000000 0.000000
0.000000 0.000000 0.000000
0.000000 0.000000 0.000000
0.000000 0.000000 0.000000
0.000000 0.000000 0.000000
0.000000 0.000000 0.000000
0.000000 0.000000 0.000000
0.000000 0.000000 0.000000
0.000000 0.000000 0.000000
0.000000 0.000000 0.000000
0.000000 0.000000 0.000000
0.000000 0.000000 0.000000
0.000000 0.000000 0.000000
0.000000 0.000000 0.000000
0.000000 0.000000 0.000000
0.000000 0.000000 0.000000
0.000000 0.000000 0.000000
0.000000 0.000000 0.000000
0.000000 0.000000 0.000000
0.000000 0.000000 0.000000
0.000000 0.000000 0.000000
0.000000 0.000000 0.000000
0.000000 0.000000 0.000000
0.000000 0.000000 0.000000
0.000000 0.000000 0.000000
0.000000 0.000000 0.000000
0.000000 0.000000 0.000000
0.000000 0.000000 0.000000
0.000000 0.000000 0.000000
0.000000 0.000000 0.000000
0.000000 0.000000 0.000000
0.000000 0.000000 0.000000
0.000000 0.000000 0.000000
0.000000 0.000000 0.000000
0.000000 0.000000 0.000000
0.000000 0.000000 0.000000
0.000000 0.000000 0.000000
0.000000 0.000000 0.000000
0.000000 0.000000 0.000000
0.000000 0.000000 0.000000
0.000000 0.000000 0.000000
0.000000 0.000000 0.000000
0.000000 0.000000 0.000000
0.000000 0.000000 0.000000
0.000000 0.000000 0.000000
0.000000 0.000000 0.000000
0.000000 0.000000 0.000000
0.000000 0.000000 0.000000
0.000000 0.000000 0.000000
0.000000 0.000000 0.000000
0.000000 0.000000 0.000000
0.000000 0.000000 0.000000
0.000000 0.000000 0.000000
0.000000 0.000000 0.000000
0.000000 0.000000 0.000000
0.000000 0.000000 0.000000
0.000000 0.000000 0.000000
0.000000 0.000000 0.000000
0.000000 0.000000 0.000000
0.000000 0.000000 0.000000
0.000000 0.000000 0.000000
0.000000 0.000000 0.000000
0.000000 0.000000 0.000000
0.000000 0.000000 0.000000
0.000000 0.000000 0.000000
0.000000 0.000000 0.000000
0.000000 0.000000 0.000000
0.000000 0.000000 0.000000
0.000000 0.000000 0.000000
0.000000 0.000000 0.000000
0.000000 0.000000 0.000000
0.000000 0.000000 0.000000
0.000000 0.000000 0.000000
0.000000 0.000000 0.000000
0.000000 0.000000 0.000000
0.000000 0.000000 0.000000
0.000000 0.000000 0.000000
0.000000 0.000000 0.000000
0.000000 0.000000 0.000000
0.000000 0.000000 0.000000
0.000000 0.000000 0.000000
0.000000 0.000000 0.000000
0.000000 0.000000 0.000000
0.000000 0.000000 0.000000
0.000000 0.000000 0.000000
0.000000 0.000000 0.000000
0.000000 0.000000 0.000000
0.000000 0.000000 0.000000
0.000000 0.000000 0.000000
0.000000 0.000000 0.000000
0.000000 0.000000 0.000000
0.000000 0.000000 0.000000
0.000000 0.000000 0.000000
0.000000 0.000000 0.000000
0.000000 0.000000 0.000000
0.000000 0.000000 0.000000
0.000000 0.000000 0.000000
0.000000 0.000000 0.000000
0.000000 0.000000 0.000000
0.000000 0.000000 0.000000
0.000000 0.000000 0.000000
0.000000 0.000000 0.000000
0.000000 0.000000 0.000000
0.000000 0.000000 0.000000
0.000000 0.000000 0.000000
0.000000 0.000000 0.000000
0.000000 0.000000 0.000000
0.000000 0.000000 0.000000
0.000000 0.000000 0.000000
0.000000 0.000000 0.000000
0.000000 0.000000 0.000000
0.000000 0.000000 0.000000
0.000000 0.000000 0.000000
0.000000 0.000000 0.000000
0.000000 0.000000 0.000000
0.000000 0.000000 0.000000
0.000000 0.000000 0.000000
0.000000 0.000000 0.000000
0.000000 0.000000 0.000000
0.000000 0.000000 0.000000
0.000000 0.000000 0.000000
0.000000 0.000000 0.000000
0.000000 0.000000 0.000000
0.000000 0.000000 0.000000
0.000000 0.000000 0.000000
0.000000 0.000000 0.000000
0.000000 0.000000 0.000000
0.000000 0.000000 0.000000
0.000000 0.000000 0.000000
0.000000 0.000000 0.000000
0.000000 0.000000 0.000000
0.000000 0.000000 0.000000
0.000000 0.000000 0.000000
0.000000 0.000000 0.000000
0.000000 0.000000 0.000000
0.000000 0.000000 0.000000
0.000000 0.000000 0.000000
0.000000 0.000000 0.000000
0.000000 0.000000 0.000000
0.000000 0.000000 0.000000
0.000000 0.000000 0.000000
0.000000 0.000000 0.000000
0.000000 0.000000 0.000000
0.000000 0.000000 0.000000
0.000000 0.000000 0.000000
0.000000 0.000000 0.000000
0.000000 0.000000 0.000000
0.000000 0.000000 0.000000
0.000000 0.000000 0.000000
0.000000 0.000000 0.000000
0.000000 0.000000 0.000000
0.000000 0.000000 0.000000
0.000000 0.000000 0.000000
0.000000 0.000000 0.000000
0.000000 0.000000 0.000000
0.000000 0.000000 0.000000
0.000000 0.000000 0.000000
0.000000 0.000000 0.000000
0.000000 0.000000 0.000000
0.000000 0.000000 0.000000
0.000000 0.000000 0.000000
0.000000 0.000000 0.000000
0.000000 0.000000 0.000000
0.000000 0.000000 0.000000
0.000000 0.000000 0.000000
0.000000 0.000000 0.000000
0.000000 0.000000 0.000000
0.000000 0.000000 0.000000
0.000000 0.000000 0.000000
0.000000 0.000000 0.000000
0.000000 0.000000 0.000000
0.000000 0.000000 0.000000
0.000000 0.000000 0.000000
0.000000 0.000000 0.000000
0.000000 0.000000 0.000000
0.000000 0.000000 0.000000
0.000000 0.000000 0.000000
0.000000 0.000000 0.000000
0.000000 0.000000 0.000000
0.000000 0.000000 0.000000
0.000000 0.000000 0.000000
0.000000 0.000000 0.000000
0.000000 0.000000 0.000000
0.000000 0.000000 0.000000
0.000000 0.000000 0.000000
0.000000 0.000000 0.000000
0.000000 0.000000 0.000000
0.000000 0.000000 0.000000
0.000000 0.000000 0.000000
0.000000 0.000000 0.000000
0.000000 0.000000 0.000000
0.000000 0.000000 0.000000
0.000000 0.000000 0.000000
0.000000 0.000000 0.000000
0.000000 0.000000 0.000000
0.000000 0.000000 0.000000
0.000000 0.000000 0.000000
0.000000 0.000000 0.000000
0.000000 0.000000 0.000000
0.000000 0.000000 0.000000
0.000000 0.000000 0.000000
0.000000 0.000000 0.000000
0.000000 0.000000 0.000000
0.000000 0.000000 0.000000
0.000000 0.000000 0.000000
0.000000 0.000000 0.000000
0.000000 0.000000 0.000000
0.000000 0.000000 0.000000
0.000000 0.000000 0.000000
0.000000 0.000000 0.000000
0.000000 0.000000 0.000000
0.000000 0.000000 0.000000
0.000000 0.000000 0.000000
0.000000 0.000000 0.000000
0.000000 0.000000 0.000000
0.000000 0.000000 0.000000
0.000000 0.000000 0.000000
0.000000 0.000000 0.000000
0.000000 0.000000 0.000000
0.000000 0.000000 0.000000
0.000000 0.000000 0.000000
0.000000 0.000000 0.000000
0.000000 0.000000 0.000000
0.000000 0.000000 0.000000
0.000000 0.000000 0.000000
0.000000 0.000000 0.000000
0.000000 0.000000 0.000000
0.000000 0.000000 0.000000
0.000000 0.000000 0.000000
0.000000 0.000000 0.000000
0.000000 0.000000 0.000000
0.000000 0.000000 0.000000
0.000000 0.000000 0.000000
0.000000 0.000000 0.000000
0.000000 0.000000 0.000000
0.000000 0.000000 0.000000
0.000000 0.000000 0.000000
0.000000 0.000000 0.000000
0.000000 0.000000 0.000000
0.000000 0.000000 0.000000
0.000000 0.000000 0.000000
0.000000 0.000000 0.000000
0.000000 0.000000 0.000000
0.000000 0.000000 0.000000
0.000000 0.000000 0.000000
0.000000 0.000000 0.000000
0.000000 0.000000 0.000000
0.000000 0.000000 0.000000
0.007430 0.007430 0.007430
0.011983 0.011983 0.011983
0.015230 0.015230 0.015230
0.017898 0.017898 0.017898
0.020217 0.020217 0.020217
0.022296 0.022296 0.022296
0.024197 0.024197 0.024197
0.025959 0.025959 0.025959
0.027609 0.027609 0.027609
0.029165 0.029165 0.029165
0.030643 0.030643 0.030643
0.032053 0.032053 0.032053
0.033403 0.033403 0.033403
0.034701 0.034701 0.034701
0.035952 0.035952 0.035952
0.037160 0.037160 0.037160
0.038331 0.038331 0.038331
0.039467 0.039467 0.039467
0.040571 0.040571 0.040571
0.041646 0.041646 0.041646
0.042694 0.042694 0.042694
0.043717 0.043717 0.043717
0.044716 0.044716 0.044716
0.045694 0.045694 0.045694
0.046651 0.046651 0.046651
0.047589 0.047589 0.047589
0.048508 0.048508 0.048508
0.049411 0.049411 0.049411
0.050297 0.050297 0.050297
0.051168 0.051168 0.051168
0.052025 0.052025 0.052025
0.052867 0.052867 0.052867
0.053697 0.053697 0.053697
0.054514 0.054514 0.054514
0.055318 0.055318 0.055318
0.056111 0.056111 0.056111
0.056893 0.056893 0.056893
0.057665 0.057665 0.057665
0.058426 0.058426 0.058426
0.059178 0.059178 0.059178
0.059920 0.059920 0.059920
0.060653 0.060653 0.060653
0.061377 0.061377 0.061377
0.062093 0.062093 0.062093
0.062800 0.062800 0.062800
0.063500 0.063500 0.063500
0.064192 0.064192 0.064192
0.064877 0.064877 0.064877
0.065555 0.065555 0.065555
0.066225 0.066225 0.066225
0.066889 0.066889 0.066889
0.067547 0.067547 0.067547
0.068198 0.068198 0.068198
0.068843 0.068843 0.068843
0.069482 0.069482 0.069482
0.070115 0.070115 0.070115
0.070742 0.070742 0.070742
0.071364 0.071364 0.071364
0.071981 0.071981 0.071981
0.072592 0.072592 0.072592
0.073198 0.073198 0.073198
0.073799 0.073799 0.073799
0.074396 0.074396 0.074396
0.074987 0.074987 0.074987
0.075574 0.075574 0.075574
0.076157 0.076157 0.076157
0.076735 0.076735 0.076735
0.077309 0.077309 0.077309
0.077878 0.077878 0.077878
0.078443 0.078443 0.078443
0.079005 0.079005 0.079005
0.079562 0.079562 0.079562
0.080116 0.080116 0.080116
0.080665 0.080665 0.080665
0.081211 0.081211 0.081211
0.081754 0.081754 0.081754
0.082292 0.082292 0.082292
0.082828 0.082828 0.082828
0.083359 0.083359 0.083359
0.083888 0.083888 0.083888
0.084413 0.084413 0.084413
0.084935 0.084935 0.084935
0.085454 0.085454 0.085454
0.085969 0.085969 0.085969
0.086482 0.086482 0.086482
0.086991 0.086991 0.086991
0.087498 0.087498 0.087498
0.088001 0.088001 0.088001
0.088502 0.088502 0.088502
0.089000 0.089000 0.089000
0.089495 0.089495 0.089495
0.089987 0.089987 0.089987
0.090477 0.090477 0.090477
0.090964 0.090964 0.090964
0.091449 0.091449 0.091449
0.091931 0.091931 0.091931
0.092410 0.092410 0.092410
0.092887 0.092887 0.092887
0.093362 0.093362 0.093362
0.093834 0.093834 0.093834
0.094303 0.094303 0.094303
0.094771 0.094771 0.094771
0.095236 0.095236 0.095236
0.095699 0.095699 0.095699
0.096160 0.096160 0.096160
0.096618 0.096618 0.096618
0.097074 0.097074 0.097074
0.097528 0.097528 0.097528
0.097980 0.097980 0.097980
0.098430 0.098430 0.098430
0.098878 0.098878 0.098878
0.099324 0.099324 0.099324
0.099768 0.099768 0.099768
0.100210 0.100210 0.100210
0.100651 0.100651 0.100651
0.101090 0.101090 0.101090
0.101528 0.101528 0.101528
0.101965 0.101965 0.101965
0.102401 0.102401 0.102401
0.102835 0.102835 0.102835
0.103269 0.103269 0.103269
0.103701 0.103701 0.103701
0.104132 0.104132 0.104132
0.104562 0.104562 0.104562
0.104991 0.104991 0.104991
0.105418 0.105418 0.105418
0.105845 0.105845 0.105845
0.106271 0.106271 0.106271
0.106695 0.106695 0.106695
0.107119 0.107119 0.107119
0.107541 0.107541 0.107541
0.107963 0.107963 0.107963
0.108383 0.108383 0.108383
0.108803 0.108803 0.108803
0.109221 0.109221 0.109221
0.109639 0.109639 0.109639
0.110055 0.110055 0.110055
0.110471 0.110471 0.110471
0.110886 0.110886 0.110886
0.111300 0.111300 0.111300
0.111713 0.111713 0.111713
0.112125 0.112125 0.112125
0.112536 0.112536 0.112536
0.112946 0.112946 0.112946
0.113356 0.113356 0.113356
0.113764 0.113764 0.113764
0.114172 0.114172 0.114172
0.114579 0.114579 0.114579
0.114985 0.114985 0.114985
0.115390 0.115390 0.115390
0.115795 0.115795 0.115795
0.116198 0.116198 0.116198
0.116601 0.116601 0.116601
0.117003 0.117003 0.117003
0.117405 0.117405 0.117405
0.117805 0.117805 0.117805
0.118205 0.118205 0.118205
0.118604 0.118604 0.118604
0.119003 0.119003 0.119003
0.119401 0.119401 0.119401
0.119798 0.119798 0.119798
0.120194 0.120194 0.120194
0.120589 0.120589 0.120589
0.120984 0.120984 0.120984
0.121378 0.121378 0.121378
0.121772 0.121772 0.121772
0.122165 0.122165 0.122165
0.122557 0.122557 0.122557
0.122949 0.122949 0.122949
0.123339 0.123339 0.123339
0.123730 0.123730 0.123730
0.124119 0.124119 0.124119
0.124508 0.124508 0.124508
0.124897 0.124897 0.124897
0.125284 0.125284 0.125284
0.125672 0.125672 0.125672
0.126058 0.126058 0.126058
0.126444 0.126444 0.126444
0.126829 0.126829 0.126829
0.127214 0.127214 0.127214
0.127599 0.127599 0.127599
0.127982 0.127982 0.127982
0.128365 0.128365 0.128365
0.128748 0.128748 0.128748
0.129130 0.129130 0.129130
0.129511 0.129511 0.129511
0.129892 0.129892 0.129892
0.130273 0.130273 0.130273
0.130652 0.130652 0.130652
0.131032 0.131032 0.131032
0.131411 0.131411 0.131411
0.131789 0.131789 0.131789
0.132167 0.132167 0.132167
0.132544 0.132544 0.132544
0.132921 0.132921 0.132921
0.133297 0.133297 0.133297
0.133673 0.133673 0.133673
0.134048 0.134048 0.134048
0.134423 0.134423 0.134423
0.134798 0.134798 0.134798
0.135171 0.135171 0.135171
0.135545 0.135545 0.135545
0.135918 0.135918 0.135918
0.136291 0.136291 0.136291
0.136663 0.136663 0.136663
0.137034 0.137034 0.137034
0.137406 0.137406 0.137406
0.137776 0.137776 0.137776
0.138147 0.138147 0.138147
0.138517 0.138517 0.138517
0.138886 0.138886 0.138886
0.139255 0.139255 0.139255
0.139624 0.139624 0.139624
0.139992 0.139992 0.139992
0.140360 0.140360 0.140360
0.140728 0.140728 0.140728
0.141095 0.141095 0.141095
0.141462 0.141462 0.141462
0.141828 0.141828 0.141828
0.142194 0.142194 0.142194
0.142559 0.142559 0.142559
0.142924 0.142924 0.142924
0.143289 0.143289 0.143289
0.143654 0.143654 0.143654
0.144018 0.144018 0.144018
0.144381 0.144381 0.144381
0.144745 0.144745 0.144745
0.145108 0.145108 0.145108
0.145470 0.145470 0.145470
0.145833 0.145833 0.145833
0.146195 0.146195 0.146195
0.146556 0.146556 0.146556
0.146917 0.146917 0.146917
0.147278 0.147278 0.147278
0.147639 0.147639 0.147639
0.147999 0.147999 0.147999
0.148359 0.148359 0.148359
0.148719 0.148719 0.148719
0.149078 0.149078 0.149078
0.149437 0.149437 0.149437
0.149796 0.149796 0.149796
0.150154 0.150154 0.150154
0.150512 0.150512 0.150512
0.150870 0.150870 0.150870
0.151227 0.151227 0.151227
0.151585 0.151585 0.151585
0.151941 0.151941 0.151941
0.152298 0.152298 0.152298
0.152654 0.152654 0.152654
0.153010 0.153010 0.153010
0.153366 0.153366 0.153366
0.153721 0.153721 0.153721
0.154077 0.154077 0.154077
0.154431 0.154431 0.154431
0.154786 0.154786 0.154786
0.155140 0.155140 0.155140
0.155495 0.155495 0.155495
0.155848 0.155848 0.155848
0.156202 0.156202 0.156202
0.156555 0.156555 0.156555
0.156908 0.156908 0.156908
0.157261 0.157261 0.157261
0.157614 0.157614 0.157614
0.157966 0.157966 0.157966
0.158318 0.158318 0.158318
0.158670 0.158670 0.158670
0.159021 0.159021 0.159021
0.159372 0.159372 0.159372
0.159724 0.159724 0.159724
0.160074 0.160074 0.160074
0.160425 0.160425 0.160425
0.160775 0.160775 0.160775
0.161126 0.161126 0.161126
0.161475 0.161475 0.161475
0.161825 0.161825 0.161825
0.162175 0.162175 0.162175
0.162524 0.162524 0.162524
0.162873 0.162873 0.162873
0.163222 0.163222 0.163222
0.163571 0.163571 0.163571
0.163919 0.163919 0.163919
0.164267 0.164267 0.164267
0.164615 0.164615 0.164615
0.164963 0.164963 0.164963
0.165311 0.165311 0.165311
0.165658 0.165658 0.165658
0.166005 0.166005 0.166005
0.166352 0.166352 0.166352
0.166699 0.166699 0.166699
0.167046 0.167046 0.167046
0.167392 0.167392 0.167392
0.167738 0.167738 0.167738
0.168084 0.168084 0.168084
0.168430 0.168430 0.168430
0.168776 0.168776 0.168776
0.169122 0.169122 0.169122
0.169467 0.169467 0.169467
0.169812 0.169812 0.169812
0.170157 0.170157 0.170157
0.170502 0.170502 0.170502
0.170847 0.170847 0.170847
0.171191 0.171191 0.171191
0.171536 0.171536 0.171536
0.171880 0.171880 0.171880
0.172224 0.172224 0.172224
0.172568 0.172568 0.172568
0.172911 0.172911 0.172911
0.173255 0.173255 0.173255
0.173598 0.173598 0.173598
0.173941 0.173941 0.173941
0.174284 0.174284 0.174284
0.174627 0.174627 0.174627
0.174970 0.174970 0.174970
0.175313 0.175313 0.175313
0.175655 0.175655 0.175655
0.175998 0.175998 0.175998
0.176340 0.176340 0.176340
0.176682 0.176682 0.176682
0.177024 0.177024 0.177024
0.177366 0.177366 0.177366
0.177707 0.177707 0.177707
0.178049 0.178049 0.178049
0.178390 0.178390 0.178390
0.178731 0.178731 0.178731
0.179073 0.179073 0.179073
0.179414 0.179414 0.179414
0.179754 0.179754 0.179754
0.180095 0.180095 0.180095
0.180436 0.180436 0.180436
0.180776 0.180776 0.180776
0.181117 0.181117 0.181117
0.181457 0.181457 0.181457
0.181797 0.181797 0.181797
0.182137 0.182137 0.182137
0.182477 0.182477 0.182477
0.182817 0.182817 0.182817
0.183157 0.183157 0.183157
0.183496 0.183496 0.183496
0.183836 0.183836 0.183836
0.184175 0.184175 0.184175
0.184514 0.184514 0.184514
0.184853 0.184853 0.184853
0.185192 0.185192 0.185192
0.185531 0.185531 0.185531
0.185870 0.185870 0.185870
0.186209 0.186209 0.186209
0.186548 0.186548 0.186548
0.186886 0.186886 0.186886
0.187225 0.187225 0.187225
0.187563 0.187563 0.187563
0.187901 0.187901 0.187901
0.188240 0.188240 0.188240
0.188578 0.188578 0.188578
0.188916 0.188916 0.188916
0.189254 0.189254 0.189254
0.189591 0.189591 0.189591
0.189929 0.189929 0.189929
0.190267 0.190267 0.190267
0.190604 0.190604 0.190604
0.190942 0.190942 0.190942
0.191279 0.191279 0.191279
0.191617 0.191617 0.191617
0.191954 0.191954 0.191954
0.192291 0.192291 0.192291
0.192628 0.192628 0.192628
0.192965 0.192965 0.192965
0.193302 0.193302 0.193302
0.193639 0.193639 0.193639
0.193976 0.193976 0.193976
0.194313 0.194313 0.194313
