Luts Download/Canon Luts/1dlut/canonlog3-to-gamma-1dlut/full-to-full-range/CanonLog3_12-to-Cineon_FF_Ver.2.0.cube
# Gamma : Canon Log 3 to Cineon
# Range : Full in / Full out
# Version : 2.0 2016/10/27
# Copyright(c) 2016 Canon Inc. All Rights Reserved.

LUT_1D_SIZE 4096
0.000000 0.000000 0.000000
0.000000 0.000000 0.000000
0.000000 0.000000 0.000000
0.000000 0.000000 0.000000
0.000000 0.000000 0.000000
0.000000 0.000000 0.000000
0.000000 0.000000 0.000000
0.000000 0.000000 0.000000
0.000000 0.000000 0.000000
0.000000 0.000000 0.000000
0.000000 0.000000 0.000000
0.000000 0.000000 0.000000
0.000000 0.000000 0.000000
0.000000 0.000000 0.000000
0.000000 0.000000 0.000000
0.000000 0.000000 0.000000
0.000000 0.000000 0.000000
0.000000 0.000000 0.000000
0.000000 0.000000 0.000000
0.000000 0.000000 0.000000
0.000000 0.000000 0.000000
0.000000 0.000000 0.000000
0.000000 0.000000 0.000000
0.000000 0.000000 0.000000
0.000000 0.000000 0.000000
0.000000 0.000000 0.000000
0.000000 0.000000 0.000000
0.000000 0.000000 0.000000
0.000000 0.000000 0.000000
0.000000 0.000000 0.000000
0.000000 0.000000 0.000000
0.000000 0.000000 0.000000
0.000000 0.000000 0.000000
0.000000 0.000000 0.000000
0.000000 0.000000 0.000000
0.000000 0.000000 0.000000
0.000000 0.000000 0.000000
0.000000 0.000000 0.000000
0.000000 0.000000 0.000000
0.000000 0.000000 0.000000
0.000000 0.000000 0.000000
0.000000 0.000000 0.000000
0.000000 0.000000 0.000000
0.000000 0.000000 0.000000
0.000000 0.000000 0.000000
0.000000 0.000000 0.000000
0.000000 0.000000 0.000000
0.000000 0.000000 0.000000
0.000000 0.000000 0.000000
0.000000 0.000000 0.000000
0.000000 0.000000 0.000000
0.000000 0.000000 0.000000
0.000000 0.000000 0.000000
0.000000 0.000000 0.000000
0.000000 0.000000 0.000000
0.000000 0.000000 0.000000
0.000000 0.000000 0.000000
0.000000 0.000000 0.000000
0.000000 0.000000 0.000000
0.000000 0.000000 0.000000
0.000000 0.000000 0.000000
0.000000 0.000000 0.000000
0.000000 0.000000 0.000000
0.000000 0.000000 0.000000
0.000000 0.000000 0.000000
0.000000 0.000000 0.000000
0.000000 0.000000 0.000000
0.000000 0.000000 0.000000
0.000000 0.000000 0.000000
0.000000 0.000000 0.000000
0.000000 0.000000 0.000000
0.000000 0.000000 0.000000
0.000000 0.000000 0.000000
0.000000 0.000000 0.000000
0.000000 0.000000 0.000000
0.000000 0.000000 0.000000
0.000000 0.000000 0.000000
0.000000 0.000000 0.000000
0.000000 0.000000 0.000000
0.000000 0.000000 0.000000
0.000000 0.000000 0.000000
0.000000 0.000000 0.000000
0.000000 0.000000 0.000000
0.000000 0.000000 0.000000
0.000000 0.000000 0.000000
0.000000 0.000000 0.000000
0.000000 0.000000 0.000000
0.000000 0.000000 0.000000
0.000000 0.000000 0.000000
0.000000 0.000000 0.000000
0.000000 0.000000 0.000000
0.000000 0.000000 0.000000
0.000000 0.000000 0.000000
0.000000 0.000000 0.000000
0.000000 0.000000 0.000000
0.000000 0.000000 0.000000
0.000000 0.000000 0.000000
0.000000 0.000000 0.000000
0.000000 0.000000 0.000000
0.000000 0.000000 0.000000
0.000000 0.000000 0.000000
0.000000 0.000000 0.000000
0.000000 0.000000 0.000000
0.000000 0.000000 0.000000
0.000000 0.000000 0.000000
0.000000 0.000000 0.000000
0.000000 0.000000 0.000000
0.000000 0.000000 0.000000
0.000000 0.000000 0.000000
0.000000 0.000000 0.000000
0.000000 0.000000 0.000000
0.000000 0.000000 0.000000
0.000000 0.000000 0.000000
0.000000 0.000000 0.000000
0.000000 0.000000 0.000000
0.000000 0.000000 0.000000
0.000000 0.000000 0.000000
0.000000 0.000000 0.000000
0.000000 0.000000 0.000000
0.000000 0.000000 0.000000
0.000000 0.000000 0.000000
0.000000 0.000000 0.000000
0.000000 0.000000 0.000000
0.000000 0.000000 0.000000
0.000000 0.000000 0.000000
0.000000 0.000000 0.000000
0.000000 0.000000 0.000000
0.000000 0.000000 0.000000
0.000000 0.000000 0.000000
0.000000 0.000000 0.000000
0.000000 0.000000 0.000000
0.000000 0.000000 0.000000
0.000000 0.000000 0.000000
0.000000 0.000000 0.000000
0.000000 0.000000 0.000000
0.000000 0.000000 0.000000
0.000000 0.000000 0.000000
0.000000 0.000000 0.000000
0.000000 0.000000 0.000000
0.000000 0.000000 0.000000
0.000000 0.000000 0.000000
0.000000 0.000000 0.000000
0.000000 0.000000 0.000000
0.000000 0.000000 0.000000
0.000000 0.000000 0.000000
0.000000 0.000000 0.000000
0.000000 0.000000 0.000000
0.000000 0.000000 0.000000
0.000000 0.000000 0.000000
0.000000 0.000000 0.000000
0.000000 0.000000 0.000000
0.000000 0.000000 0.000000
0.000000 0.000000 0.000000
0.000000 0.000000 0.000000
0.000000 0.000000 0.000000
0.000000 0.000000 0.000000
0.000000 0.000000 0.000000
0.000000 0.000000 0.000000
0.000000 0.000000 0.000000
0.000000 0.000000 0.000000
0.000000 0.000000 0.000000
0.000000 0.000000 0.000000
0.000000 0.000000 0.000000
0.000000 0.000000 0.000000
0.000000 0.000000 0.000000
0.000000 0.000000 0.000000
0.000000 0.000000 0.000000
0.000000 0.000000 0.000000
0.000000 0.000000 0.000000
0.000000 0.000000 0.000000
0.000000 0.000000 0.000000
0.000000 0.000000 0.000000
0.000000 0.000000 0.000000
0.000000 0.000000 0.000000
0.000000 0.000000 0.000000
0.000000 0.000000 0.000000
0.000000 0.000000 0.000000
0.000000 0.000000 0.000000
0.000000 0.000000 0.000000
0.000000 0.000000 0.000000
0.000000 0.000000 0.000000
0.000000 0.000000 0.000000
0.000000 0.000000 0.000000
0.000000 0.000000 0.000000
0.000000 0.000000 0.000000
0.000000 0.000000 0.000000
0.000000 0.000000 0.000000
0.000000 0.000000 0.000000
0.000000 0.000000 0.000000
0.000000 0.000000 0.000000
0.000000 0.000000 0.000000
0.000000 0.000000 0.000000
0.000000 0.000000 0.000000
0.000000 0.000000 0.000000
0.000000 0.000000 0.000000
0.000000 0.000000 0.000000
0.000000 0.000000 0.000000
0.000000 0.000000 0.000000
0.000000 0.000000 0.000000
0.000000 0.000000 0.000000
0.000000 0.000000 0.000000
0.000000 0.000000 0.000000
0.000000 0.000000 0.000000
0.000000 0.000000 0.000000
0.000000 0.000000 0.000000
0.000000 0.000000 0.000000
0.000000 0.000000 0.000000
0.000000 0.000000 0.000000
0.000000 0.000000 0.000000
0.000000 0.000000 0.000000
0.000000 0.000000 0.000000
0.000000 0.000000 0.000000
0.000000 0.000000 0.000000
0.000000 0.000000 0.000000
0.000000 0.000000 0.000000
0.000000 0.000000 0.000000
0.000000 0.000000 0.000000
0.000000 0.000000 0.000000
0.000000 0.000000 0.000000
0.000000 0.000000 0.000000
0.000000 0.000000 0.000000
0.000000 0.000000 0.000000
0.000000 0.000000 0.000000
0.000000 0.000000 0.000000
0.000000 0.000000 0.000000
0.000000 0.000000 0.000000
0.000000 0.000000 0.000000
0.000000 0.000000 0.000000
0.000000 0.000000 0.000000
0.000000 0.000000 0.000000
0.000000 0.000000 0.000000
0.000000 0.000000 0.000000
0.000000 0.000000 0.000000
0.000000 0.000000 0.000000
0.000000 0.000000 0.000000
0.000000 0.000000 0.000000
0.000000 0.000000 0.000000
0.000000 0.000000 0.000000
0.000000 0.000000 0.000000
0.000000 0.000000 0.000000
0.000000 0.000000 0.000000
0.000000 0.000000 0.000000
0.000000 0.000000 0.000000
0.000000 0.000000 0.000000
0.000000 0.000000 0.000000
0.000000 0.000000 0.000000
0.000000 0.000000 0.000000
0.000000 0.000000 0.000000
0.000000 0.000000 0.000000
0.000000 0.000000 0.000000
0.000000 0.000000 0.000000
0.000000 0.000000 0.000000
0.000000 0.000000 0.000000
0.000000 0.000000 0.000000
0.000000 0.000000 0.000000
0.000000 0.000000 0.000000
0.000000 0.000000 0.000000
0.000000 0.000000 0.000000
0.000000 0.000000 0.000000
0.000000 0.000000 0.000000
0.000000 0.000000 0.000000
0.000000 0.000000 0.000000
0.000000 0.000000 0.000000
0.000000 0.000000 0.000000
0.000000 0.000000 0.000000
0.000000 0.000000 0.000000
0.000000 0.000000 0.000000
0.000000 0.000000 0.000000
0.000000 0.000000 0.000000
0.000000 0.000000 0.000000
0.000000 0.000000 0.000000
0.000000 0.000000 0.000000
0.000000 0.000000 0.000000
0.000000 0.000000 0.000000
0.000000 0.000000 0.000000
0.000000 0.000000 0.000000
0.000000 0.000000 0.000000
0.000000 0.000000 0.000000
0.000000 0.000000 0.000000
0.000000 0.000000 0.000000
0.000000 0.000000 0.000000
0.000000 0.000000 0.000000
0.000000 0.000000 0.000000
0.000000 0.000000 0.000000
0.000000 0.000000 0.000000
0.000000 0.000000 0.000000
0.000000 0.000000 0.000000
0.000000 0.000000 0.000000
0.000000 0.000000 0.000000
0.000000 0.000000 0.000000
0.000000 0.000000 0.000000
0.000000 0.000000 0.000000
0.000000 0.000000 0.000000
0.000000 0.000000 0.000000
0.000000 0.000000 0.000000
0.000000 0.000000 0.000000
0.000000 0.000000 0.000000
0.000000 0.000000 0.000000
0.000000 0.000000 0.000000
0.000000 0.000000 0.000000
0.000000 0.000000 0.000000
0.000000 0.000000 0.000000
0.000000 0.000000 0.000000
0.000000 0.000000 0.000000
0.000000 0.000000 0.000000
0.000000 0.000000 0.000000
0.000000 0.000000 0.000000
0.000000 0.000000 0.000000
0.000000 0.000000 0.000000
0.000000 0.000000 0.000000
0.000000 0.000000 0.000000
0.000000 0.000000 0.000000
0.000000 0.000000 0.000000
0.000000 0.000000 0.000000
0.000000 0.000000 0.000000
0.000000 0.000000 0.000000
0.000000 0.000000 0.000000
0.000000 0.000000 0.000000
0.000000 0.000000 0.000000
0.000000 0.000000 0.000000
0.000000 0.000000 0.000000
0.000000 0.000000 0.000000
0.000000 0.000000 0.000000
0.000000 0.000000 0.000000
0.000000 0.000000 0.000000
0.000000 0.000000 0.000000
0.000000 0.000000 0.000000
0.000000 0.000000 0.000000
0.000000 0.000000 0.000000
0.000000 0.000000 0.000000
0.000000 0.000000 0.000000
0.000000 0.000000 0.000000
0.000000 0.000000 0.000000
0.000000 0.000000 0.000000
0.000000 0.000000 0.000000
0.000000 0.000000 0.000000
0.000000 0.000000 0.000000
0.000000 0.000000 0.000000
0.000000 0.000000 0.000000
0.000000 0.000000 0.000000
0.000000 0.000000 0.000000
0.000000 0.000000 0.000000
0.000000 0.000000 0.000000
0.000000 0.000000 0.000000
0.000000 0.000000 0.000000
0.000000 0.000000 0.000000
0.000000 0.000000 0.000000
0.000000 0.000000 0.000000
0.000000 0.000000 0.000000
0.000000 0.000000 0.000000
0.000000 0.000000 0.000000
0.000000 0.000000 0.000000
0.000000 0.000000 0.000000
0.000000 0.000000 0.000000
0.000000 0.000000 0.000000
0.000000 0.000000 0.000000
0.000000 0.000000 0.000000
0.000000 0.000000 0.000000
0.000000 0.000000 0.000000
0.000000 0.000000 0.000000
0.000000 0.000000 0.000000
0.000000 0.000000 0.000000
0.000000 0.000000 0.000000
0.000000 0.000000 0.000000
0.000000 0.000000 0.000000
0.000000 0.000000 0.000000
0.000000 0.000000 0.000000
0.000000 0.000000 0.000000
0.000000 0.000000 0.000000
0.000000 0.000000 0.000000
0.000000 0.000000 0.000000
0.000000 0.000000 0.000000
0.000000 0.000000 0.000000
0.000000 0.000000 0.000000
0.000000 0.000000 0.000000
0.000000 0.000000 0.000000
0.000000 0.000000 0.000000
0.000000 0.000000 0.000000
0.000000 0.000000 0.000000
0.000000 0.000000 0.000000
0.000000 0.000000 0.000000
0.000000 0.000000 0.000000
0.000000 0.000000 0.000000
0.000000 0.000000 0.000000
0.000000 0.000000 0.000000
0.000000 0.000000 0.000000
0.000000 0.000000 0.000000
0.000000 0.000000 0.000000
0.000000 0.000000 0.000000
0.000000 0.000000 0.000000
0.000000 0.000000 0.000000
0.000000 0.000000 0.000000
0.000000 0.000000 0.000000
0.000000 0.000000 0.000000
0.000000 0.000000 0.000000
0.000000 0.000000 0.000000
0.000000 0.000000 0.000000
0.000000 0.000000 0.000000
0.000000 0.000000 0.000000
0.000000 0.000000 0.000000
0.000000 0.000000 0.000000
0.000000 0.000000 0.000000
0.000000 0.000000 0.000000
0.000000 0.000000 0.000000
0.000000 0.000000 0.000000
0.000000 0.000000 0.000000
0.000000 0.000000 0.000000
0.000000 0.000000 0.000000
0.000000 0.000000 0.000000
0.000000 0.000000 0.000000
0.000000 0.000000 0.000000
0.000000 0.000000 0.000000
0.000000 0.000000 0.000000
0.000000 0.000000 0.000000
0.000000 0.000000 0.000000
0.000000 0.000000 0.000000
0.000000 0.000000 0.000000
0.000000 0.000000 0.000000
0.000280 0.000280 0.000280
0.000978 0.000978 0.000978
0.001681 0.001681 0.001681
0.002387 0.002387 0.002387
0.003097 0.003097 0.003097
0.003812 0.003812 0.003812
0.004530 0.004530 0.004530
0.005252 0.005252 0.005252
0.005979 0.005979 0.005979
0.006709 0.006709 0.006709
0.007444 0.007444 0.007444
0.008184 0.008184 0.008184
0.008927 0.008927 0.008927
0.009675 0.009675 0.009675
0.010427 0.010427 0.010427
0.011184 0.011184 0.011184
0.011945 0.011945 0.011945
0.012711 0.012711 0.012711
0.013481 0.013481 0.013481
0.014257 0.014257 0.014257
0.015036 0.015036 0.015036
0.015821 0.015821 0.015821
0.016611 0.016611 0.016611
0.017405 0.017405 0.017405
0.018205 0.018205 0.018205
0.019009 0.019009 0.019009
0.019819 0.019819 0.019819
0.020634 0.020634 0.020634
0.021454 0.021454 0.021454
0.022280 0.022280 0.022280
0.023110 0.023110 0.023110
0.023947 0.023947 0.023947
0.024789 0.024789 0.024789
0.025636 0.025636 0.025636
0.026489 0.026489 0.026489
0.027348 0.027348 0.027348
0.028213 0.028213 0.028213
0.029083 0.029083 0.029083
0.029960 0.029960 0.029960
0.030843 0.030843 0.030843
0.031731 0.031731 0.031731
0.032627 0.032627 0.032627
0.033528 0.033528 0.033528
0.034436 0.034436 0.034436
0.035350 0.035350 0.035350
0.036271 0.036271 0.036271
0.037199 0.037199 0.037199
0.038134 0.038134 0.038134
0.039075 0.039075 0.039075
0.040024 0.040024 0.040024
0.040979 0.040979 0.040979
0.041942 0.041942 0.041942
0.042912 0.042912 0.042912
0.043890 0.043890 0.043890
0.044875 0.044875 0.044875
0.045868 0.045868 0.045868
0.046869 0.046869 0.046869
0.047877 0.047877 0.047877
0.048894 0.048894 0.048894
0.049919 0.049919 0.049919
0.050952 0.050952 0.050952
0.051994 0.051994 0.051994
0.053044 0.053044 0.053044
0.054103 0.054103 0.054103
0.055171 0.055171 0.055171
0.056248 0.056248 0.056248
0.057334 0.057334 0.057334
0.058429 0.058429 0.058429
0.059534 0.059534 0.059534
0.060649 0.060649 0.060649
0.061773 0.061773 0.061773
0.062908 0.062908 0.062908
0.064053 0.064053 0.064053
0.065208 0.065208 0.065208
0.066373 0.066373 0.066373
0.067550 0.067550 0.067550
0.068737 0.068737 0.068737
0.069936 0.069936 0.069936
0.071146 0.071146 0.071146
0.072367 0.072367 0.072367
0.073601 0.073601 0.073601
0.074846 0.074846 0.074846
0.076104 0.076104 0.076104
0.077375 0.077375 0.077375
0.078658 0.078658 0.078658
0.079954 0.079954 0.079954
0.081264 0.081264 0.081264
0.082587 0.082587 0.082587
0.083924 0.083924 0.083924
0.085276 0.085276 0.085276
0.086641 0.086641 0.086641
0.088022 0.088022 0.088022
0.089418 0.089418 0.089418
0.090829 0.090829 0.090829
0.092256 0.092256 0.092256
0.093693 0.093693 0.093693
0.095116 0.095116 0.095116
0.096524 0.096524 0.096524
0.097916 0.097916 0.097916
0.099293 0.099293 0.099293
0.100655 0.100655 0.100655
0.102003 0.102003 0.102003
0.103336 0.103336 0.103336
0.104656 0.104656 0.104656
0.105962 0.105962 0.105962
0.107255 0.107255 0.107255
0.108535 0.108535 0.108535
0.109803 0.109803 0.109803
0.111057 0.111057 0.111057
0.112300 0.112300 0.112300
0.113530 0.113530 0.113530
0.114749 0.114749 0.114749
0.115956 0.115956 0.115956
0.117152 0.117152 0.117152
0.118337 0.118337 0.118337
0.119510 0.119510 0.119510
0.120673 0.120673 0.120673
0.121826 0.121826 0.121826
0.122968 0.122968 0.122968
0.124100 0.124100 0.124100
0.125222 0.125222 0.125222
0.126334 0.126334 0.126334
0.127437 0.127437 0.127437
0.128530 0.128530 0.128530
0.129614 0.129614 0.129614
0.130688 0.130688 0.130688
0.131754 0.131754 0.131754
0.132811 0.132811 0.132811
0.133859 0.133859 0.133859
0.134898 0.134898 0.134898
0.135930 0.135930 0.135930
0.136952 0.136952 0.136952
0.137967 0.137967 0.137967
0.138974 0.138974 0.138974
0.139972 0.139972 0.139972
0.140963 0.140963 0.140963
0.141947 0.141947 0.141947
0.142922 0.142922 0.142922
0.143891 0.143891 0.143891
0.144852 0.144852 0.144852
0.145806 0.145806 0.145806
0.146752 0.146752 0.146752
0.147692 0.147692 0.147692
0.148625 0.148625 0.148625
0.149551 0.149551 0.149551
0.150470 0.150470 0.150470
0.151383 0.151383 0.151383
0.152289 0.152289 0.152289
0.153189 0.153189 0.153189
0.154083 0.154083 0.154083
0.154970 0.154970 0.154970
0.155851 0.155851 0.155851
0.156726 0.156726 0.156726
0.157596 0.157596 0.157596
0.158459 0.158459 0.158459
0.159316 0.159316 0.159316
0.160168 0.160168 0.160168
0.161014 0.161014 0.161014
0.161854 0.161854 0.161854
0.162689 0.162689 0.162689
0.163519 0.163519 0.163519
0.164343 0.164343 0.164343
0.165162 0.165162 0.165162
0.165975 0.165975 0.165975
0.166784 0.166784 0.166784
0.167587 0.167587 0.167587
0.168385 0.168385 0.168385
0.169179 0.169179 0.169179
0.169967 0.169967 0.169967
0.170751 0.170751 0.170751
0.171529 0.171529 0.171529
0.172303 0.172303 0.172303
0.173073 0.173073 0.173073
0.173837 0.173837 0.173837
0.174597 0.174597 0.174597
0.175353 0.175353 0.175353
0.176104 0.176104 0.176104
0.176851 0.176851 0.176851
0.177593 0.177593 0.177593
0.178331 0.178331 0.178331
0.179065 0.179065 0.179065
0.179795 0.179795 0.179795
0.180520 0.180520 0.180520
0.181242 0.181242 0.181242
0.181959 0.181959 0.181959
0.182672 0.182672 0.182672
0.183382 0.183382 0.183382
0.184087 0.184087 0.184087
0.184788 0.184788 0.184788
0.185486 0.185486 0.185486
0.186180 0.186180 0.186180
0.186870 0.186870 0.186870
0.187556 0.187556 0.187556
0.188239 0.188239 0.188239
0.188918 0.188918 0.188918
0.189593 0.189593 0.189593
0.190265 0.190265 0.190265
0.190933 0.190933 0.190933
0.191598 0.191598 0.191598
0.192260 0.192260 0.192260
0.192918 0.192918 0.192918
0.193572 0.193572 0.193572
0.194223 0.194223 0.194223
0.194871 0.194871 0.194871
0.195516 0.195516 0.195516
0.196157 0.196157 0.196157
0.196795 0.196795 0.196795
0.197430 0.197430 0.197430
0.198062 0.198062 0.198062
0.198692 0.198692 0.198692
0.199319 0.199319 0.199319
0.199944 0.199944 0.199944
0.200568 0.200568 0.200568
0.201189 0.201189 0.201189
0.201808 0.201808 0.201808
0.202425 0.202425 0.202425
0.203040 0.203040 0.203040
0.203652 0.203652 0.203652
0.204263 0.204263 0.204263
0.204872 0.204872 0.204872
0.205479 0.205479 0.205479
0.206084 0.206084 0.206084
0.206687 0.206687 0.206687
0.207288 0.207288 0.207288
0.207887 0.207887 0.207887
0.208485 0.208485 0.208485
0.209080 0.209080 0.209080
0.209674 0.209674 0.209674
0.210265 0.210265 0.210265
0.210855 0.210855 0.210855
0.211443 0.211443 0.211443
0.212029 0.212029 0.212029
0.212614 0.212614 0.212614
0.213197 0.213197 0.213197
0.213777 0.213777 0.213777
0.214357 0.214357 0.214357
0.214934 0.214934 0.214934
0.215510 0.215510 0.215510
0.216083 0.216083 0.216083
0.216656 0.216656 0.216656
0.217226 0.217226 0.217226
0.217795 0.217795 0.217795
0.218362 0.218362 0.218362
0.218928 0.218928 0.218928
0.219492 0.219492 0.219492
0.220054 0.220054 0.220054
0.220615 0.220615 0.220615
0.221174 0.221174 0.221174
0.221731 0.221731 0.221731
0.222287 0.222287 0.222287
0.222841 0.222841 0.222841
0.223394 0.223394 0.223394
0.223945 0.223945 0.223945
0.224495 0.224495 0.224495
0.225043 0.225043 0.225043
0.225590 0.225590 0.225590
0.226135 0.226135 0.226135
0.226678 0.226678 0.226678
0.227220 0.227220 0.227220
0.227761 0.227761 0.227761
0.228300 0.228300 0.228300
0.228838 0.228838 0.228838
0.229374 0.229374 0.229374
0.229909 0.229909 0.229909
0.230443 0.230443 0.230443
0.230975 0.230975 0.230975
0.231505 0.231505 0.231505
0.232034 0.232034 0.232034
0.232562 0.232562 0.232562
0.233089 0.233089 0.233089
0.233614 0.233614 0.233614
0.234138 0.234138 0.234138
0.234660 0.234660 0.234660
0.235181 0.235181 0.235181
0.235701 0.235701 0.235701
0.236219 0.236219 0.236219
0.236736 0.236736 0.236736
0.237252 0.237252 0.237252
0.237766 0.237766 0.237766
0.238280 0.238280 0.238280
0.238791 0.238791 0.238791
0.239302 0.239302 0.239302
0.239811 0.239811 0.239811
0.240320 0.240320 0.240320
0.240826 0.240826 0.240826
0.241332 0.241332 0.241332
0.241836 0.241836 0.241836
0.242340 0.242340 0.242340
0.242842 0.242842 0.242842
0.243342 0.243342 0.243342
0.243842 0.243842 0.243842
0.244340 0.244340 0.244340
0.244837 0.244837 0.244837
0.245333 0.245333 0.245333
0.245828 0.245828 0.245828
0.246322 0.246322 0.246322
0.246814 0.246814 0.246814
0.247306 0.247306 0.247306
0.247796 0.247796 0.247796
0.248285 0.248285 0.248285
0.248773 0.248773 0.248773
0.249260 0.249260 0.249260
0.249746 0.249746 0.249746
0.250230 0.250230 0.250230
0.250714 0.250714 0.250714
0.251196 0.251196 0.251196
0.251678 0.251678 0.251678
0.252158 0.252158 0.252158
0.252637 0.252637 0.252637
0.253115 0.253115 0.253115
0.253592 0.253592 0.253592
0.254068 0.254068 0.254068
0.254543 0.254543 0.254543
0.255017 0.255017 0.255017
0.255490 0.255490 0.255490
0.255962 0.255962 0.255962
0.256433 0.256433 0.256433
0.256902 0.256902 0.256902
0.257371 0.257371 0.257371
0.257839 0.257839 0.257839
0.258306 0.258306 0.258306
0.258771 0.258771 0.258771
0.259236 0.259236 0.259236
0.259700 0.259700 0.259700
0.260163 0.260163 0.260163
0.260625 0.260625 0.260625
0.261086 0.261086 0.261086
0.261546 0.261546 0.261546
0.262005 0.262005 0.262005
0.262463 0.262463 0.262463
0.262920 0.262920 0.262920
0.263376 0.263376 0.263376
0.263831 0.263831 0.263831
0.264285 0.264285 0.264285
0.264739 0.264739 0.264739
0.265191 0.265191 0.265191
0.265643 0.265643 0.265643
0.266093 0.266093 0.266093
0.266543 0.266543 0.266543
0.266992 0.266992 0.266992
0.267440 0.267440 0.267440
0.267887 0.267887 0.267887
0.268333 0.268333 0.268333
0.268778 0.268778 0.268778
0.269223 0.269223 0.269223
0.269666 0.269666 0.269666
0.270109 0.270109 0.270109
0.270551 0.270551 0.270551
0.270992 0.270992 0.270992
0.271432 0.271432 0.271432
0.271871 0.271871 0.271871
0.272310 0.272310 0.272310
0.272747 0.272747 0.272747
0.273184 0.273184 0.273184
0.273620 0.273620 0.273620
0.274055 0.274055 0.274055
0.274489 0.274489 0.274489
0.274923 0.274923 0.274923
0.275355 0.275355 0.275355
0.275787 0.275787 0.275787
0.276218 0.276218 0.276218
0.276648 0.276648 0.276648
0.277078 0.277078 0.277078
0.277507 0.277507 0.277507
0.277934 0.277934 0.277934
0.278362 0.278362 0.278362
0.278788 0.278788 0.278788
0.279213 0.279213 0.279213
0.279638 0.279638 0.279638
0.280062 0.280062 0.280062
0.280485 0.280485 0.280485
0.280908 0.280908 0.280908
0.281330 0.281330 0.281330
0.281751 0.281751 0.281751
0.282171 0.282171 0.282171
0.282590 0.282590 0.282590
0.283009 0.283009 0.283009
0.283427 0.283427 0.283427
0.283844 0.283844 0.283844
0.284261 0.284261 0.284261
0.284677 0.284677 0.284677
0.285092 0.285092 0.285092
0.285506 0.285506 0.285506
0.285920 0.285920 0.285920
0.286333 0.286333 0.286333
0.286745 0.286745 0.286745
0.287157 0.287157 0.287157
0.287568 0.287568 0.287568
0.287978 0.287978 0.287978
0.288388 0.288388 0.288388
0.288796 0.288796 0.288796
0.289204 0.289204 0.289204
0.289612 0.289612 0.289612
0.290019 0.290019 0.290019
0.290425 0.290425 0.290425
0.290830 0.290830 0.290830
0.291235 0.291235 0.291235
0.291639 0.291639 0.291639
0.292042 0.292042 0.292042
0.292445 0.292445 0.292445
0.292847 0.292847 0.292847
0.293249 0.293249 0.293249
0.293649 0.293649 0.293649
0.294050 0.294050 0.294050
0.294449 0.294449 0.294449
0.294848 0.294848 0.294848
0.295246 0.295246 0.295246
0.295644 0.295644 0.295644
0.296041 0.296041 0.296041
0.296437 0.296437 0.296437
0.296833 0.296833 0.296833
0.297228 0.297228 0.297228
0.297622 0.297622 0.297622
0.298016 0.298016 0.298016
0.298409 0.298409 0.298409
0.298802 0.298802 0.298802
0.299194 0.299194 0.299194
0.299585 0.299585 0.299585
0.299976 0.299976 0.299976
0.300366 0.300366 0.300366
0.300756 0.300756 0.300756
0.301145 0.301145 0.301145
0.301533 0.301533 0.301533
0.301921 0.301921 0.301921
0.302308 0.302308 0.302308
0.302695 0.302695 0.302695
0.303081 0.303081 0.303081
0.303466 0.303466 0.303466
0.303851 0.303851 0.303851
0.304236 0.304236 0.304236
0.304619 0.304619 0.304619
0.305003 0.305003 0.305003
0.305385 0.305385 0.305385
0.305767 0.305767 0.305767
0.306149 0.306149 0.306149
0.306530 0.306530 0.306530
0.306910 0.306910 0.306910
0.307290 0.307290 0.307290
0.307669 0.307669 0.307669
0.308048 0.308048 0.308048
0.308426 0.308426 0.308426
0.308804 0.308804 0.308804
0.309181 0.309181 0.309181
0.309558 0.309558 0.309558
0.309934 0.309934 0.309934
0.310309 0.310309 0.310309
0.310684 0.310684 0.310684
0.311059 0.311059 0.311059
0.311433 0.311433 0.311433
0.311806 0.311806 0.311806
0.312179 0.312179 0.312179
0.312551 0.312551 0.312551
0.312923 0.312923 0.312923
0.313294 0.313294 0.313294
0.313665 0.313665 0.313665
0.314035 0.314035 0.314035
0.314405 0.314405 0.314405
0.314774 0.314774 0.314774
0.315143 0.315143 0.315143
0.315511 0.315511 0.315511
0.315879 0.315879 0.315879
0.316246 0.316246 0.316246
0.316613 0.316613 0.316613
0.316979 0.316979 0.316979
0.317345 0.317345 0.317345
