Luts Download/Canon Luts/1dlut/canonlog3-to-gamma-1dlut/full-to-full-range/CanonLog3_10-to-PQ_FF_Ver.2.1.cube
# Gamma : Canon Log 3 to PQ
# Range : Full in / Full out
# Version : 2.1 2018/10/3
# Copyright(c) 2018 Canon Inc. All Rights Reserved.

LUT_1D_SIZE 1024
0.000000 0.000000 0.000000
0.000000 0.000000 0.000000
0.000000 0.000000 0.000000
0.000000 0.000000 0.000000
0.000000 0.000000 0.000000
0.000000 0.000000 0.000000
0.000000 0.000000 0.000000
0.000000 0.000000 0.000000
0.000000 0.000000 0.000000
0.000000 0.000000 0.000000
0.000000 0.000000 0.000000
0.000000 0.000000 0.000000
0.000000 0.000000 0.000000
0.000000 0.000000 0.000000
0.000000 0.000000 0.000000
0.000000 0.000000 0.000000
0.000000 0.000000 0.000000
0.000000 0.000000 0.000000
0.000000 0.000000 0.000000
0.000000 0.000000 0.000000
0.000000 0.000000 0.000000
0.000000 0.000000 0.000000
0.000000 0.000000 0.000000
0.000000 0.000000 0.000000
0.000000 0.000000 0.000000
0.000000 0.000000 0.000000
0.000000 0.000000 0.000000
0.000000 0.000000 0.000000
0.000000 0.000000 0.000000
0.000000 0.000000 0.000000
0.000000 0.000000 0.000000
0.000000 0.000000 0.000000
0.000000 0.000000 0.000000
0.000000 0.000000 0.000000
0.000000 0.000000 0.000000
0.000000 0.000000 0.000000
0.000000 0.000000 0.000000
0.000000 0.000000 0.000000
0.000000 0.000000 0.000000
0.000000 0.000000 0.000000
0.000000 0.000000 0.000000
0.000000 0.000000 0.000000
0.000000 0.000000 0.000000
0.000000 0.000000 0.000000
0.000000 0.000000 0.000000
0.000000 0.000000 0.000000
0.000000 0.000000 0.000000
0.000000 0.000000 0.000000
0.000000 0.000000 0.000000
0.000000 0.000000 0.000000
0.000000 0.000000 0.000000
0.000000 0.000000 0.000000
0.000000 0.000000 0.000000
0.000000 0.000000 0.000000
0.000000 0.000000 0.000000
0.000000 0.000000 0.000000
0.000000 0.000000 0.000000
0.000000 0.000000 0.000000
0.000000 0.000000 0.000000
0.000000 0.000000 0.000000
0.000000 0.000000 0.000000
0.000000 0.000000 0.000000
0.000000 0.000000 0.000000
0.000000 0.000000 0.000000
0.000000 0.000000 0.000000
0.000000 0.000000 0.000000
0.000000 0.000000 0.000000
0.000000 0.000000 0.000000
0.000000 0.000000 0.000000
0.000000 0.000000 0.000000
0.000000 0.000000 0.000000
0.000000 0.000000 0.000000
0.000000 0.000000 0.000000
0.000000 0.000000 0.000000
0.000000 0.000000 0.000000
0.000000 0.000000 0.000000
0.000000 0.000000 0.000000
0.000000 0.000000 0.000000
0.000000 0.000000 0.000000
0.000000 0.000000 0.000000
0.000000 0.000000 0.000000
0.000000 0.000000 0.000000
0.000000 0.000000 0.000000
0.000000 0.000000 0.000000
0.000000 0.000000 0.000000
0.000000 0.000000 0.000000
0.000000 0.000000 0.000000
0.000000 0.000000 0.000000
0.000000 0.000000 0.000000
0.000000 0.000000 0.000000
0.000000 0.000000 0.000000
0.000000 0.000000 0.000000
0.000000 0.000000 0.000000
0.000000 0.000000 0.000000
0.000000 0.000000 0.000000
0.000000 0.000000 0.000000
0.000000 0.000000 0.000000
0.000000 0.000000 0.000000
0.000000 0.000000 0.000000
0.000000 0.000000 0.000000
0.000000 0.000000 0.000000
0.000000 0.000000 0.000000
0.000000 0.000000 0.000000
0.000000 0.000000 0.000000
0.000000 0.000000 0.000000
0.000000 0.000000 0.000000
0.000000 0.000000 0.000000
0.000000 0.000000 0.000000
0.000000 0.000000 0.000000
0.000000 0.000000 0.000000
0.000000 0.000000 0.000000
0.000000 0.000000 0.000000
0.000000 0.000000 0.000000
0.000000 0.000000 0.000000
0.000000 0.000000 0.000000
0.000000 0.000000 0.000000
0.000000 0.000000 0.000000
0.000000 0.000000 0.000000
0.000000 0.000000 0.000000
0.000000 0.000000 0.000000
0.000000 0.000000 0.000000
0.000000 0.000000 0.000000
0.000000 0.000000 0.000000
0.000000 0.000000 0.000000
0.000000 0.000000 0.000000
0.000000 0.000000 0.000000
0.000000 0.000000 0.000000
0.000000 0.000000 0.000000
0.000000 0.000000 0.000000
0.002053 0.002053 0.002053
0.005369 0.005369 0.005369
0.009223 0.009223 0.009223
0.013360 0.013360 0.013360
0.017652 0.017652 0.017652
0.022025 0.022025 0.022025
0.026435 0.026435 0.026435
0.030852 0.030852 0.030852
0.035258 0.035258 0.035258
0.039638 0.039638 0.039638
0.043985 0.043985 0.043985
0.048290 0.048290 0.048290
0.052551 0.052551 0.052551
0.056765 0.056765 0.056765
0.060929 0.060929 0.060929
0.065042 0.065042 0.065042
0.069105 0.069105 0.069105
0.073116 0.073116 0.073116
0.077076 0.077076 0.077076
0.080986 0.080986 0.080986
0.084846 0.084846 0.084846
0.088656 0.088656 0.088656
0.092640 0.092640 0.092640
0.096233 0.096233 0.096233
0.099703 0.099703 0.099703
0.103058 0.103058 0.103058
0.106305 0.106305 0.106305
0.109451 0.109451 0.109451
0.112508 0.112508 0.112508
0.115493 0.115493 0.115493
0.118410 0.118410 0.118410
0.121264 0.121264 0.121264
0.124058 0.124058 0.124058
0.126795 0.126795 0.126795
0.129477 0.129477 0.129477
0.132107 0.132107 0.132107
0.134687 0.134687 0.134687
0.137220 0.137220 0.137220
0.139708 0.139708 0.139708
0.142153 0.142153 0.142153
0.144557 0.144557 0.144557
0.146920 0.146920 0.146920
0.149246 0.149246 0.149246
0.151536 0.151536 0.151536
0.153790 0.153790 0.153790
0.156011 0.156011 0.156011
0.158199 0.158199 0.158199
0.160356 0.160356 0.160356
0.162483 0.162483 0.162483
0.164581 0.164581 0.164581
0.166650 0.166650 0.166650
0.168693 0.168693 0.168693
0.170710 0.170710 0.170710
0.172702 0.172702 0.172702
0.174669 0.174669 0.174669
0.176612 0.176612 0.176612
0.178533 0.178533 0.178533
0.180432 0.180432 0.180432
0.182309 0.182309 0.182309
0.184165 0.184165 0.184165
0.186001 0.186001 0.186001
0.187817 0.187817 0.187817
0.189615 0.189615 0.189615
0.191394 0.191394 0.191394
0.193155 0.193155 0.193155
0.194899 0.194899 0.194899
0.196626 0.196626 0.196626
0.198336 0.198336 0.198336
0.200030 0.200030 0.200030
0.201708 0.201708 0.201708
0.203372 0.203372 0.203372
0.205020 0.205020 0.205020
0.206654 0.206654 0.206654
0.208274 0.208274 0.208274
0.209881 0.209881 0.209881
0.211474 0.211474 0.211474
0.213053 0.213053 0.213053
0.214620 0.214620 0.214620
0.216175 0.216175 0.216175
0.217718 0.217718 0.217718
0.219248 0.219248 0.219248
0.220767 0.220767 0.220767
0.222275 0.222275 0.222275
0.223772 0.223772 0.223772
0.225258 0.225258 0.225258
0.226733 0.226733 0.226733
0.228198 0.228198 0.228198
0.229652 0.229652 0.229652
0.231097 0.231097 0.231097
0.232533 0.232533 0.232533
0.233958 0.233958 0.233958
0.235375 0.235375 0.235375
0.236782 0.236782 0.236782
0.238180 0.238180 0.238180
0.239570 0.239570 0.239570
0.240951 0.240951 0.240951
0.242324 0.242324 0.242324
0.243688 0.243688 0.243688
0.245045 0.245045 0.245045
0.246393 0.246393 0.246393
0.247734 0.247734 0.247734
0.249067 0.249067 0.249067
0.250393 0.250393 0.250393
0.251712 0.251712 0.251712
0.253023 0.253023 0.253023
0.254327 0.254327 0.254327
0.255624 0.255624 0.255624
0.256915 0.256915 0.256915
0.258199 0.258199 0.258199
0.259476 0.259476 0.259476
0.260747 0.260747 0.260747
0.262011 0.262011 0.262011
0.263270 0.263270 0.263270
0.264522 0.264522 0.264522
0.265768 0.265768 0.265768
0.267008 0.267008 0.267008
0.268243 0.268243 0.268243
0.269472 0.269472 0.269472
0.270695 0.270695 0.270695
0.271913 0.271913 0.271913
0.273125 0.273125 0.273125
0.274332 0.274332 0.274332
0.275534 0.275534 0.275534
0.276731 0.276731 0.276731
0.277922 0.277922 0.277922
0.279109 0.279109 0.279109
0.280290 0.280290 0.280290
0.281467 0.281467 0.281467
0.282639 0.282639 0.282639
0.283807 0.283807 0.283807
0.284970 0.284970 0.284970
0.286128 0.286128 0.286128
0.287282 0.287282 0.287282
0.288431 0.288431 0.288431
0.289576 0.289576 0.289576
0.290717 0.290717 0.290717
0.291854 0.291854 0.291854
0.292986 0.292986 0.292986
0.294114 0.294114 0.294114
0.295239 0.295239 0.295239
0.296359 0.296359 0.296359
0.297476 0.297476 0.297476
0.298588 0.298588 0.298588
0.299697 0.299697 0.299697
0.300802 0.300802 0.300802
0.301904 0.301904 0.301904
0.303002 0.303002 0.303002
0.304096 0.304096 0.304096
0.305187 0.305187 0.305187
0.306274 0.306274 0.306274
0.307358 0.307358 0.307358
0.308438 0.308438 0.308438
0.309515 0.309515 0.309515
0.310589 0.310589 0.310589
0.311660 0.311660 0.311660
0.312727 0.312727 0.312727
0.313791 0.313791 0.313791
0.314852 0.314852 0.314852
0.315910 0.315910 0.315910
0.316965 0.316965 0.316965
0.318017 0.318017 0.318017
0.319066 0.319066 0.319066
0.320112 0.320112 0.320112
0.321156 0.321156 0.321156
0.322196 0.322196 0.322196
0.323234 0.323234 0.323234
0.324269 0.324269 0.324269
0.325301 0.325301 0.325301
0.326330 0.326330 0.326330
0.327357 0.327357 0.327357
0.328381 0.328381 0.328381
0.329402 0.329402 0.329402
0.330421 0.330421 0.330421
0.331438 0.331438 0.331438
0.332452 0.332452 0.332452
0.333463 0.333463 0.333463
0.334472 0.334472 0.334472
0.335479 0.335479 0.335479
0.336483 0.336483 0.336483
0.337485 0.337485 0.337485
0.338485 0.338485 0.338485
0.339482 0.339482 0.339482
0.340477 0.340477 0.340477
0.341470 0.341470 0.341470
0.342461 0.342461 0.342461
0.343449 0.343449 0.343449
0.344435 0.344435 0.344435
0.345420 0.345420 0.345420
0.346402 0.346402 0.346402
0.347382 0.347382 0.347382
0.348360 0.348360 0.348360
0.349335 0.349335 0.349335
0.350309 0.350309 0.350309
0.351281 0.351281 0.351281
0.352251 0.352251 0.352251
0.353219 0.353219 0.353219
0.354185 0.354185 0.354185
0.355149 0.355149 0.355149
0.356112 0.356112 0.356112
0.357072 0.357072 0.357072
0.358031 0.358031 0.358031
0.358988 0.358988 0.358988
0.359943 0.359943 0.359943
0.360896 0.360896 0.360896
0.361847 0.361847 0.361847
0.362797 0.362797 0.362797
0.363745 0.363745 0.363745
0.364692 0.364692 0.364692
0.365636 0.365636 0.365636
0.366579 0.366579 0.366579
0.367521 0.367521 0.367521
0.368461 0.368461 0.368461
0.369399 0.369399 0.369399
0.370335 0.370335 0.370335
0.371270 0.371270 0.371270
0.372204 0.372204 0.372204
0.373136 0.373136 0.373136
0.374066 0.374066 0.374066
0.374995 0.374995 0.374995
0.375923 0.375923 0.375923
0.376849 0.376849 0.376849
0.377774 0.377774 0.377774
0.378697 0.378697 0.378697
0.379618 0.379618 0.379618
0.380539 0.380539 0.380539
0.381458 0.381458 0.381458
0.382375 0.382375 0.382375
0.383291 0.383291 0.383291
0.384206 0.384206 0.384206
0.385120 0.385120 0.385120
0.386032 0.386032 0.386032
0.386943 0.386943 0.386943
0.387852 0.387852 0.387852
0.388761 0.388761 0.388761
0.389668 0.389668 0.389668
0.390574 0.390574 0.390574
0.391478 0.391478 0.391478
0.392382 0.392382 0.392382
0.393284 0.393284 0.393284
0.394185 0.394185 0.394185
0.395084 0.395084 0.395084
0.395983 0.395983 0.395983
0.396880 0.396880 0.396880
0.397777 0.397777 0.397777
0.398672 0.398672 0.398672
0.399566 0.399566 0.399566
0.400459 0.400459 0.400459
0.401350 0.401350 0.401350
0.402241 0.402241 0.402241
0.403131 0.403131 0.403131
0.404019 0.404019 0.404019
0.404907 0.404907 0.404907
0.405793 0.405793 0.405793
0.406678 0.406678 0.406678
0.407563 0.407563 0.407563
0.408446 0.408446 0.408446
0.409328 0.409328 0.409328
0.410210 0.410210 0.410210
0.411090 0.411090 0.411090
0.411969 0.411969 0.411969
0.412848 0.412848 0.412848
0.413725 0.413725 0.413725
0.414601 0.414601 0.414601
0.415477 0.415477 0.415477
0.416351 0.416351 0.416351
0.417225 0.417225 0.417225
0.418098 0.418098 0.418098
0.418970 0.418970 0.418970
0.419841 0.419841 0.419841
0.420711 0.420711 0.420711
0.421580 0.421580 0.421580
0.422448 0.422448 0.422448
0.423315 0.423315 0.423315
0.424182 0.424182 0.424182
0.425048 0.425048 0.425048
0.425912 0.425912 0.425912
0.426776 0.426776 0.426776
0.427640 0.427640 0.427640
0.428502 0.428502 0.428502
0.429364 0.429364 0.429364
0.430224 0.430224 0.430224
0.431084 0.431084 0.431084
0.431944 0.431944 0.431944
0.432802 0.432802 0.432802
0.433660 0.433660 0.433660
0.434516 0.434516 0.434516
0.435373 0.435373 0.435373
0.436228 0.436228 0.436228
0.437083 0.437083 0.437083
0.437937 0.437937 0.437937
0.438790 0.438790 0.438790
0.439642 0.439642 0.439642
0.440494 0.440494 0.440494
0.441345 0.441345 0.441345
0.442195 0.442195 0.442195
0.443045 0.443045 0.443045
0.443894 0.443894 0.443894
0.444742 0.444742 0.444742
0.445590 0.445590 0.445590
0.446436 0.446436 0.446436
0.447283 0.447283 0.447283
0.448128 0.448128 0.448128
0.448973 0.448973 0.448973
0.449817 0.449817 0.449817
0.450661 0.450661 0.450661
0.451504 0.451504 0.451504
0.452346 0.452346 0.452346
0.453188 0.453188 0.453188
0.454029 0.454029 0.454029
0.454870 0.454870 0.454870
0.455710 0.455710 0.455710
0.456549 0.456549 0.456549
0.457388 0.457388 0.457388
0.458226 0.458226 0.458226
0.459063 0.459063 0.459063
0.459900 0.459900 0.459900
0.460737 0.460737 0.460737
0.461573 0.461573 0.461573
0.462408 0.462408 0.462408
0.463242 0.463242 0.463242
0.464077 0.464077 0.464077
0.464910 0.464910 0.464910
0.465743 0.465743 0.465743
0.466576 0.466576 0.466576
0.467408 0.467408 0.467408
0.468239 0.468239 0.468239
0.469070 0.469070 0.469070
0.469900 0.469900 0.469900
0.470730 0.470730 0.470730
0.471560 0.471560 0.471560
0.472388 0.472388 0.472388
0.473217 0.473217 0.473217
0.474045 0.474045 0.474045
0.474872 0.474872 0.474872
0.475699 0.475699 0.475699
0.476525 0.476525 0.476525
0.477351 0.477351 0.477351
0.478176 0.478176 0.478176
0.479001 0.479001 0.479001
0.479826 0.479826 0.479826
0.480650 0.480650 0.480650
0.481473 0.481473 0.481473
0.482296 0.482296 0.482296
0.483119 0.483119 0.483119
0.483941 0.483941 0.483941
0.484763 0.484763 0.484763
0.485584 0.485584 0.485584
0.486405 0.486405 0.486405
0.487225 0.487225 0.487225
0.488045 0.488045 0.488045
0.488865 0.488865 0.488865
0.489684 0.489684 0.489684
0.490503 0.490503 0.490503
0.491321 0.491321 0.491321
0.492139 0.492139 0.492139
0.492956 0.492956 0.492956
0.493773 0.493773 0.493773
0.494590 0.494590 0.494590
0.495406 0.495406 0.495406
0.496222 0.496222 0.496222
0.497038 0.497038 0.497038
0.497853 0.497853 0.497853
0.498667 0.498667 0.498667
0.499482 0.499482 0.499482
0.500296 0.500296 0.500296
0.501109 0.501109 0.501109
0.501922 0.501922 0.501922
0.502735 0.502735 0.502735
0.503548 0.503548 0.503548
0.504360 0.504360 0.504360
0.505171 0.505171 0.505171
0.505983 0.505983 0.505983
0.506794 0.506794 0.506794
0.507604 0.507604 0.507604
0.508415 0.508415 0.508415
0.509225 0.509225 0.509225
0.510034 0.510034 0.510034
0.510843 0.510843 0.510843
0.511652 0.511652 0.511652
0.512461 0.512461 0.512461
0.513269 0.513269 0.513269
0.514077 0.514077 0.514077
0.514885 0.514885 0.514885
0.515692 0.515692 0.515692
0.516499 0.516499 0.516499
0.517306 0.517306 0.517306
0.518112 0.518112 0.518112
0.518918 0.518918 0.518918
0.519724 0.519724 0.519724
0.520529 0.520529 0.520529
0.521334 0.521334 0.521334
0.522139 0.522139 0.522139
0.522943 0.522943 0.522943
0.523747 0.523747 0.523747
0.524551 0.524551 0.524551
0.525355 0.525355 0.525355
0.526158 0.526158 0.526158
0.526961 0.526961 0.526961
0.527764 0.527764 0.527764
0.528566 0.528566 0.528566
0.529368 0.529368 0.529368
0.530170 0.530170 0.530170
0.530972 0.530972 0.530972
0.531773 0.531773 0.531773
0.532574 0.532574 0.532574
0.533374 0.533374 0.533374
0.534175 0.534175 0.534175
0.534975 0.534975 0.534975
0.535775 0.535775 0.535775
0.536575 0.536575 0.536575
0.537374 0.537374 0.537374
0.538173 0.538173 0.538173
0.538972 0.538972 0.538972
0.539771 0.539771 0.539771
0.540569 0.540569 0.540569
0.541367 0.541367 0.541367
0.542165 0.542165 0.542165
0.542962 0.542962 0.542962
0.543760 0.543760 0.543760
0.544557 0.544557 0.544557
0.545354 0.545354 0.545354
0.546150 0.546150 0.546150
0.546947 0.546947 0.546947
0.547743 0.547743 0.547743
0.548539 0.548539 0.548539
0.549334 0.549334 0.549334
0.550130 0.550130 0.550130
0.550925 0.550925 0.550925
0.551720 0.551720 0.551720
0.552515 0.552515 0.552515
0.553309 0.553309 0.553309
0.554103 0.554103 0.554103
0.554898 0.554898 0.554898
0.555691 0.555691 0.555691
0.556485 0.556485 0.556485
0.557278 0.557278 0.557278
0.558071 0.558071 0.558071
0.558864 0.558864 0.558864
0.559657 0.559657 0.559657
0.560450 0.560450 0.560450
0.561242 0.561242 0.561242
0.562034 0.562034 0.562034
0.562826 0.562826 0.562826
0.563618 0.563618 0.563618
0.564409 0.564409 0.564409
0.565200 0.565200 0.565200
0.565991 0.565991 0.565991
0.566782 0.566782 0.566782
0.567573 0.567573 0.567573
0.568363 0.568363 0.568363
0.569154 0.569154 0.569154
0.569944 0.569944 0.569944
0.570734 0.570734 0.570734
0.571523 0.571523 0.571523
0.572313 0.572313 0.572313
0.573102 0.573102 0.573102
0.573891 0.573891 0.573891
0.574680 0.574680 0.574680
0.575469 0.575469 0.575469
0.576257 0.576257 0.576257
0.577046 0.577046 0.577046
0.577834 0.577834 0.577834
0.578622 0.578622 0.578622
0.579410 0.579410 0.579410
0.580197 0.580197 0.580197
0.580985 0.580985 0.580985
0.581772 0.581772 0.581772
0.582559 0.582559 0.582559
0.583346 0.583346 0.583346
0.584133 0.584133 0.584133
0.584919 0.584919 0.584919
0.585706 0.585706 0.585706
0.586492 0.586492 0.586492
0.587278 0.587278 0.587278
0.588064 0.588064 0.588064
0.588850 0.588850 0.588850
0.589635 0.589635 0.589635
0.590420 0.590420 0.590420
0.591206 0.591206 0.591206
0.591991 0.591991 0.591991
0.592776 0.592776 0.592776
0.593560 0.593560 0.593560
0.594345 0.594345 0.594345
0.595129 0.595129 0.595129
0.595913 0.595913 0.595913
0.596697 0.596697 0.596697
0.597481 0.597481 0.597481
0.598265 0.598265 0.598265
0.599049 0.599049 0.599049
0.599832 0.599832 0.599832
0.600615 0.600615 0.600615
0.601399 0.601399 0.601399
0.602182 0.602182 0.602182
0.602964 0.602964 0.602964
0.603747 0.603747 0.603747
0.604530 0.604530 0.604530
0.605312 0.605312 0.605312
0.606094 0.606094 0.606094
0.606876 0.606876 0.606876
0.607658 0.607658 0.607658
0.608440 0.608440 0.608440
0.609221 0.609221 0.609221
0.610003 0.610003 0.610003
0.610784 0.610784 0.610784
0.611565 0.611565 0.611565
0.612346 0.612346 0.612346
0.613127 0.613127 0.613127
0.613908 0.613908 0.613908
0.614689 0.614689 0.614689
0.615469 0.615469 0.615469
0.616250 0.616250 0.616250
0.617030 0.617030 0.617030
0.617810 0.617810 0.617810
0.618590 0.618590 0.618590
0.619369 0.619369 0.619369
0.620149 0.620149 0.620149
0.620929 0.620929 0.620929
0.621708 0.621708 0.621708
0.622487 0.622487 0.622487
0.623266 0.623266 0.623266
0.624045 0.624045 0.624045
0.624824 0.624824 0.624824
0.625603 0.625603 0.625603
0.626381 0.626381 0.626381
0.627160 0.627160 0.627160
0.627938 0.627938 0.627938
0.628716 0.628716 0.628716
0.629494 0.629494 0.629494
0.630272 0.630272 0.630272
0.631050 0.631050 0.631050
0.631828 0.631828 0.631828
0.632605 0.632605 0.632605
0.633383 0.633383 0.633383
0.634160 0.634160 0.634160
0.634937 0.634937 0.634937
0.635714 0.635714 0.635714
0.636491 0.636491 0.636491
0.637268 0.637268 0.637268
0.638044 0.638044 0.638044
0.638821 0.638821 0.638821
0.639597 0.639597 0.639597
0.640373 0.640373 0.640373
0.641149 0.641149 0.641149
0.641925 0.641925 0.641925
0.642701 0.642701 0.642701
0.643477 0.643477 0.643477
0.644253 0.644253 0.644253
0.645028 0.645028 0.645028
0.645804 0.645804 0.645804
0.646579 0.646579 0.646579
0.647354 0.647354 0.647354
0.648129 0.648129 0.648129
0.648904 0.648904 0.648904
0.649679 0.649679 0.649679
0.650454 0.650454 0.650454
0.651228 0.651228 0.651228
0.652003 0.652003 0.652003
0.652777 0.652777 0.652777
0.653551 0.653551 0.653551
0.654325 0.654325 0.654325
0.655099 0.655099 0.655099
0.655873 0.655873 0.655873
0.656647 0.656647 0.656647
0.657420 0.657420 0.657420
0.658194 0.658194 0.658194
0.658967 0.658967 0.658967
0.659741 0.659741 0.659741
0.660514 0.660514 0.660514
0.661287 0.661287 0.661287
0.662060 0.662060 0.662060
0.662833 0.662833 0.662833
0.663605 0.663605 0.663605
0.664378 0.664378 0.664378
0.665150 0.665150 0.665150
0.665923 0.665923 0.665923
0.666695 0.666695 0.666695
0.667467 0.667467 0.667467
0.668239 0.668239 0.668239
0.669011 0.669011 0.669011
0.669783 0.669783 0.669783
0.670554 0.670554 0.670554
0.671326 0.671326 0.671326
0.672097 0.672097 0.672097
0.672869 0.672869 0.672869
0.673640 0.673640 0.673640
0.674411 0.674411 0.674411
0.675182 0.675182 0.675182
0.675953 0.675953 0.675953
0.676724 0.676724 0.676724
0.677495 0.677495 0.677495
0.678265 0.678265 0.678265
0.679036 0.679036 0.679036
0.679806 0.679806 0.679806
0.680576 0.680576 0.680576
0.681346 0.681346 0.681346
0.682116 0.682116 0.682116
0.682886 0.682886 0.682886
0.683656 0.683656 0.683656
0.684426 0.684426 0.684426
0.685195 0.685195 0.685195
0.685965 0.685965 0.685965
0.686734 0.686734 0.686734
0.687503 0.687503 0.687503
0.688273 0.688273 0.688273
0.689042 0.689042 0.689042
0.689811 0.689811 0.689811
0.690579 0.690579 0.690579
0.691348 0.691348 0.691348
0.692117 0.692117 0.692117
0.692885 0.692885 0.692885
0.693654 0.693654 0.693654
0.694422 0.694422 0.694422
0.695190 0.695190 0.695190
0.695958 0.695958 0.695958
0.696726 0.696726 0.696726
0.697494 0.697494 0.697494
0.698262 0.698262 0.698262
0.699029 0.699029 0.699029
0.699797 0.699797 0.699797
0.700564 0.700564 0.700564
0.701331 0.701331 0.701331
0.702099 0.702099 0.702099
0.702866 0.702866 0.702866
0.703633 0.703633 0.703633
0.704400 0.704400 0.704400
0.705166 0.705166 0.705166
0.705933 0.705933 0.705933
0.706699 0.706699 0.706699
0.707466 0.707466 0.707466
0.708232 0.708232 0.708232
0.708998 0.708998 0.708998
0.709765 0.709765 0.709765
0.710531 0.710531 0.710531
0.711296 0.711296 0.711296
0.712062 0.712062 0.712062
0.712828 0.712828 0.712828
0.713593 0.713593 0.713593
0.714359 0.714359 0.714359
0.715124 0.715124 0.715124
0.715889 0.715889 0.715889
0.716655 0.716655 0.716655
0.717420 0.717420 0.717420
0.718185 0.718185 0.718185
0.718949 0.718949 0.718949
0.719714 0.719714 0.719714
0.720479 0.720479 0.720479
0.721243 0.721243 0.721243
0.722007 0.722007 0.722007
0.722772 0.722772 0.722772
0.723536 0.723536 0.723536
0.724300 0.724300 0.724300
0.725064 0.725064 0.725064
0.725828 0.725828 0.725828
0.726591 0.726591 0.726591
0.727355 0.727355 0.727355
0.728119 0.728119 0.728119
0.728882 0.728882 0.728882
0.729645 0.729645 0.729645
0.730408 0.730408 0.730408
0.731171 0.731171 0.731171
0.731934 0.731934 0.731934
0.732697 0.732697 0.732697
0.733460 0.733460 0.733460
0.734222 0.734222 0.734222
0.734985 0.734985 0.734985
0.735747 0.735747 0.735747
0.736510 0.736510 0.736510
0.737272 0.737272 0.737272
0.738034 0.738034 0.738034
0.738796 0.738796 0.738796
0.739558 0.739558 0.739558
0.740319 0.740319 0.740319
0.741081 0.741081 0.741081
0.741843 0.741843 0.741843
0.742604 0.742604 0.742604
0.743365 0.743365 0.743365
0.744126 0.744126 0.744126
0.744887 0.744887 0.744887
0.745648 0.745648 0.745648
0.746409 0.746409 0.746409
0.747170 0.747170 0.747170
0.747930 0.747930 0.747930
0.748691 0.748691 0.748691
0.749451 0.749451 0.749451
0.750212 0.750212 0.750212
0.750972 0.750972 0.750972
0.751732 0.751732 0.751732
0.752492 0.752492 0.752492
0.753251 0.753251 0.753251
0.754011 0.754011 0.754011
0.754771 0.754771 0.754771
0.755530 0.755530 0.755530
0.756290 0.756290 0.756290
0.757049 0.757049 0.757049
0.757808 0.757808 0.757808
0.758567 0.758567 0.758567
0.759326 0.759326 0.759326
0.760085 0.760085 0.760085
0.760843 0.760843 0.760843
0.761602 0.761602 0.761602
0.762360 0.762360 0.762360
0.763118 0.763118 0.763118
0.763877 0.763877 0.763877
0.764635 0.764635 0.764635
0.765393 0.765393 0.765393
0.766150 0.766150 0.766150
0.766908 0.766908 0.766908
0.767666 0.767666 0.767666
0.768423 0.768423 0.768423
0.769181 0.769181 0.769181
0.769938 0.769938 0.769938
0.770695 0.770695 0.770695
0.771452 0.771452 0.771452
0.772209 0.772209 0.772209
0.772966 0.772966 0.772966
0.773722 0.773722 0.773722
0.774479 0.774479 0.774479
0.775235 0.775235 0.775235
0.775991 0.775991 0.775991
0.776748 0.776748 0.776748
0.777504 0.777504 0.777504
0.778260 0.778260 0.778260
0.779015 0.779015 0.779015
0.779771 0.779771 0.779771
0.780527 0.780527 0.780527
0.781282 0.781282 0.781282
0.782037 0.782037 0.782037
0.782793 0.782793 0.782793
0.783548 0.783548 0.783548
0.784303 0.784303 0.784303
0.785057 0.785057 0.785057
0.785812 0.785812 0.785812
0.786567 0.786567 0.786567
0.787321 0.787321 0.787321
0.788075 0.788075 0.788075
0.788830 0.788830 0.788830
0.789584 0.789584 0.789584
0.790338 0.790338 0.790338
0.791091 0.791091 0.791091
0.791845 0.791845 0.791845
0.792599 0.792599 0.792599
0.793352 0.793352 0.793352
0.794105 0.794105 0.794105
0.794859 0.794859 0.794859
0.795612 0.795612 0.795612
0.796365 0.796365 0.796365
0.797117 0.797117 0.797117
0.797870 0.797870 0.797870
0.798623 0.798623 0.798623
0.799375 0.799375 0.799375
0.800127 0.800127 0.800127
0.800880 0.800880 0.800880
0.801632 0.801632 0.801632
0.802384 0.802384 0.802384
