Luts Download/Canon Luts/1dlut/canonlog3-to-gamma-1dlut/full-to-full-range/CanonLog3_10-to-Cineon_FF_Ver.2.0.cube
# Gamma : Canon Log 3 to Cineon
# Range : Full in / Full out
# Version : 2.0 2016/10/27
# Copyright(c) 2016 Canon Inc. All Rights Reserved.

LUT_1D_SIZE 1024
0.000000 0.000000 0.000000
0.000000 0.000000 0.000000
0.000000 0.000000 0.000000
0.000000 0.000000 0.000000
0.000000 0.000000 0.000000
0.000000 0.000000 0.000000
0.000000 0.000000 0.000000
0.000000 0.000000 0.000000
0.000000 0.000000 0.000000
0.000000 0.000000 0.000000
0.000000 0.000000 0.000000
0.000000 0.000000 0.000000
0.000000 0.000000 0.000000
0.000000 0.000000 0.000000
0.000000 0.000000 0.000000
0.000000 0.000000 0.000000
0.000000 0.000000 0.000000
0.000000 0.000000 0.000000
0.000000 0.000000 0.000000
0.000000 0.000000 0.000000
0.000000 0.000000 0.000000
0.000000 0.000000 0.000000
0.000000 0.000000 0.000000
0.000000 0.000000 0.000000
0.000000 0.000000 0.000000
0.000000 0.000000 0.000000
0.000000 0.000000 0.000000
0.000000 0.000000 0.000000
0.000000 0.000000 0.000000
0.000000 0.000000 0.000000
0.000000 0.000000 0.000000
0.000000 0.000000 0.000000
0.000000 0.000000 0.000000
0.000000 0.000000 0.000000
0.000000 0.000000 0.000000
0.000000 0.000000 0.000000
0.000000 0.000000 0.000000
0.000000 0.000000 0.000000
0.000000 0.000000 0.000000
0.000000 0.000000 0.000000
0.000000 0.000000 0.000000
0.000000 0.000000 0.000000
0.000000 0.000000 0.000000
0.000000 0.000000 0.000000
0.000000 0.000000 0.000000
0.000000 0.000000 0.000000
0.000000 0.000000 0.000000
0.000000 0.000000 0.000000
0.000000 0.000000 0.000000
0.000000 0.000000 0.000000
0.000000 0.000000 0.000000
0.000000 0.000000 0.000000
0.000000 0.000000 0.000000
0.000000 0.000000 0.000000
0.000000 0.000000 0.000000
0.000000 0.000000 0.000000
0.000000 0.000000 0.000000
0.000000 0.000000 0.000000
0.000000 0.000000 0.000000
0.000000 0.000000 0.000000
0.000000 0.000000 0.000000
0.000000 0.000000 0.000000
0.000000 0.000000 0.000000
0.000000 0.000000 0.000000
0.000000 0.000000 0.000000
0.000000 0.000000 0.000000
0.000000 0.000000 0.000000
0.000000 0.000000 0.000000
0.000000 0.000000 0.000000
0.000000 0.000000 0.000000
0.000000 0.000000 0.000000
0.000000 0.000000 0.000000
0.000000 0.000000 0.000000
0.000000 0.000000 0.000000
0.000000 0.000000 0.000000
0.000000 0.000000 0.000000
0.000000 0.000000 0.000000
0.000000 0.000000 0.000000
0.000000 0.000000 0.000000
0.000000 0.000000 0.000000
0.000000 0.000000 0.000000
0.000000 0.000000 0.000000
0.000000 0.000000 0.000000
0.000000 0.000000 0.000000
0.000000 0.000000 0.000000
0.000000 0.000000 0.000000
0.000000 0.000000 0.000000
0.000000 0.000000 0.000000
0.000000 0.000000 0.000000
0.000000 0.000000 0.000000
0.000000 0.000000 0.000000
0.000000 0.000000 0.000000
0.000000 0.000000 0.000000
0.000000 0.000000 0.000000
0.000000 0.000000 0.000000
0.000000 0.000000 0.000000
0.000000 0.000000 0.000000
0.000000 0.000000 0.000000
0.000000 0.000000 0.000000
0.000000 0.000000 0.000000
0.000000 0.000000 0.000000
0.000000 0.000000 0.000000
0.000000 0.000000 0.000000
0.000000 0.000000 0.000000
0.000000 0.000000 0.000000
0.001899 0.001899 0.001899
0.004758 0.004758 0.004758
0.007681 0.007681 0.007681
0.010674 0.010674 0.010674
0.013739 0.013739 0.013739
0.016879 0.016879 0.016879
0.020099 0.020099 0.020099
0.023402 0.023402 0.023402
0.026793 0.026793 0.026793
0.030277 0.030277 0.030277
0.033858 0.033858 0.033858
0.037544 0.037544 0.037544
0.041339 0.041339 0.041339
0.045251 0.045251 0.045251
0.049287 0.049287 0.049287
0.053455 0.053455 0.053455
0.057764 0.057764 0.057764
0.062224 0.062224 0.062224
0.066845 0.066845 0.066845
0.071641 0.071641 0.071641
0.076625 0.076625 0.076625
0.081811 0.081811 0.081811
0.087218 0.087218 0.087218
0.092864 0.092864 0.092864
0.098511 0.098511 0.098511
0.103917 0.103917 0.103917
0.109104 0.109104 0.109104
0.114087 0.114087 0.114087
0.118883 0.118883 0.118883
0.123505 0.123505 0.123505
0.127964 0.127964 0.127964
0.132273 0.132273 0.132273
0.136441 0.136441 0.136441
0.140477 0.140477 0.140477
0.144389 0.144389 0.144389
0.148184 0.148184 0.148184
0.151870 0.151870 0.151870
0.155452 0.155452 0.155452
0.158936 0.158936 0.158936
0.162327 0.162327 0.162327
0.165630 0.165630 0.165630
0.168849 0.168849 0.168849
0.171990 0.171990 0.171990
0.175054 0.175054 0.175054
0.178047 0.178047 0.178047
0.180971 0.180971 0.180971
0.183829 0.183829 0.183829
0.186625 0.186625 0.186625
0.189360 0.189360 0.189360
0.192038 0.192038 0.192038
0.194661 0.194661 0.194661
0.197231 0.197231 0.197231
0.199754 0.199754 0.199754
0.202242 0.202242 0.202242
0.204697 0.204697 0.204697
0.207121 0.207121 0.207121
0.209514 0.209514 0.209514
0.211877 0.211877 0.211877
0.214211 0.214211 0.214211
0.216518 0.216518 0.216518
0.218796 0.218796 0.218796
0.221049 0.221049 0.221049
0.223276 0.223276 0.223276
0.225478 0.225478 0.225478
0.227655 0.227655 0.227655
0.229809 0.229809 0.229809
0.231941 0.231941 0.231941
0.234050 0.234050 0.234050
0.236137 0.236137 0.236137
0.238203 0.238203 0.238203
0.240248 0.240248 0.240248
0.242274 0.242274 0.242274
0.244280 0.244280 0.244280
0.246267 0.246267 0.246267
0.248235 0.248235 0.248235
0.250185 0.250185 0.250185
0.252117 0.252117 0.252117
0.254032 0.254032 0.254032
0.255931 0.255931 0.255931
0.257813 0.257813 0.257813
0.259678 0.259678 0.259678
0.261528 0.261528 0.261528
0.263363 0.263363 0.263363
0.265183 0.265183 0.265183
0.266988 0.266988 0.266988
0.268778 0.268778 0.268778
0.270555 0.270555 0.270555
0.272318 0.272318 0.272318
0.274067 0.274067 0.274067
0.275803 0.275803 0.275803
0.277526 0.277526 0.277526
0.279237 0.279237 0.279237
0.280935 0.280935 0.280935
0.282622 0.282622 0.282622
0.284296 0.284296 0.284296
0.285959 0.285959 0.285959
0.287610 0.287610 0.287610
0.289250 0.289250 0.289250
0.290879 0.290879 0.290879
0.292498 0.292498 0.292498
0.294105 0.294105 0.294105
0.295703 0.295703 0.295703
0.297290 0.297290 0.297290
0.298868 0.298868 0.298868
0.300435 0.300435 0.300435
0.301993 0.301993 0.301993
0.303542 0.303542 0.303542
0.305081 0.305081 0.305081
0.306612 0.306612 0.306612
0.308133 0.308133 0.308133
0.309645 0.309645 0.309645
0.311149 0.311149 0.311149
0.312645 0.312645 0.312645
0.314132 0.314132 0.314132
0.315611 0.315611 0.315611
0.317082 0.317082 0.317082
0.318545 0.318545 0.318545
0.320000 0.320000 0.320000
0.321448 0.321448 0.321448
0.322888 0.322888 0.322888
0.324320 0.324320 0.324320
0.325746 0.325746 0.325746
0.327164 0.327164 0.327164
0.328575 0.328575 0.328575
0.329980 0.329980 0.329980
0.331377 0.331377 0.331377
0.332768 0.332768 0.332768
0.334152 0.334152 0.334152
0.335529 0.335529 0.335529
0.336901 0.336901 0.336901
0.338265 0.338265 0.338265
0.339624 0.339624 0.339624
0.340977 0.340977 0.340977
0.342323 0.342323 0.342323
0.343664 0.343664 0.343664
0.344999 0.344999 0.344999
0.346327 0.346327 0.346327
0.347651 0.347651 0.347651
0.348968 0.348968 0.348968
0.350281 0.350281 0.350281
0.351587 0.351587 0.351587
0.352889 0.352889 0.352889
0.354185 0.354185 0.354185
0.355476 0.355476 0.355476
0.356761 0.356761 0.356761
0.358042 0.358042 0.358042
0.359318 0.359318 0.359318
0.360588 0.360588 0.360588
0.361854 0.361854 0.361854
0.363115 0.363115 0.363115
0.364372 0.364372 0.364372
0.365624 0.365624 0.365624
0.366871 0.366871 0.366871
0.368113 0.368113 0.368113
0.369351 0.369351 0.369351
0.370585 0.370585 0.370585
0.371814 0.371814 0.371814
0.373039 0.373039 0.373039
0.374260 0.374260 0.374260
0.375477 0.375477 0.375477
0.376689 0.376689 0.376689
0.377898 0.377898 0.377898
0.379102 0.379102 0.379102
0.380302 0.380302 0.380302
0.381499 0.381499 0.381499
0.382691 0.382691 0.382691
0.383880 0.383880 0.383880
0.385065 0.385065 0.385065
0.386246 0.386246 0.386246
0.387423 0.387423 0.387423
0.388597 0.388597 0.388597
0.389767 0.389767 0.389767
0.390934 0.390934 0.390934
0.392097 0.392097 0.392097
0.393257 0.393257 0.393257
0.394413 0.394413 0.394413
0.395566 0.395566 0.395566
0.396715 0.396715 0.396715
0.397862 0.397862 0.397862
0.399005 0.399005 0.399005
0.400144 0.400144 0.400144
0.401281 0.401281 0.401281
0.402414 0.402414 0.402414
0.403544 0.403544 0.403544
0.404671 0.404671 0.404671
0.405795 0.405795 0.405795
0.406917 0.406917 0.406917
0.408035 0.408035 0.408035
0.409150 0.409150 0.409150
0.410262 0.410262 0.410262
0.411371 0.411371 0.411371
0.412478 0.412478 0.412478
0.413581 0.413581 0.413581
0.414682 0.414682 0.414682
0.415781 0.415781 0.415781
0.416876 0.416876 0.416876
0.417969 0.417969 0.417969
0.419059 0.419059 0.419059
0.420146 0.420146 0.420146
0.421231 0.421231 0.421231
0.422313 0.422313 0.422313
0.423393 0.423393 0.423393
0.424470 0.424470 0.424470
0.425545 0.425545 0.425545
0.426617 0.426617 0.426617
0.427687 0.427687 0.427687
0.428754 0.428754 0.428754
0.429819 0.429819 0.429819
0.430882 0.430882 0.430882
0.431942 0.431942 0.431942
0.433000 0.433000 0.433000
0.434055 0.434055 0.434055
0.435109 0.435109 0.435109
0.436160 0.436160 0.436160
0.437209 0.437209 0.437209
0.438255 0.438255 0.438255
0.439300 0.439300 0.439300
0.440342 0.440342 0.440342
0.441383 0.441383 0.441383
0.442421 0.442421 0.442421
0.443457 0.443457 0.443457
0.444491 0.444491 0.444491
0.445523 0.445523 0.445523
0.446553 0.446553 0.446553
0.447580 0.447580 0.447580
0.448606 0.448606 0.448606
0.449630 0.449630 0.449630
0.450652 0.450652 0.450652
0.451672 0.451672 0.451672
0.452690 0.452690 0.452690
0.453707 0.453707 0.453707
0.454721 0.454721 0.454721
0.455734 0.455734 0.455734
0.456744 0.456744 0.456744
0.457753 0.457753 0.457753
0.458760 0.458760 0.458760
0.459766 0.459766 0.459766
0.460769 0.460769 0.460769
0.461771 0.461771 0.461771
0.462771 0.462771 0.462771
0.463769 0.463769 0.463769
0.464766 0.464766 0.464766
0.465761 0.465761 0.465761
0.466754 0.466754 0.466754
0.467746 0.467746 0.467746
0.468736 0.468736 0.468736
0.469724 0.469724 0.469724
0.470711 0.470711 0.470711
0.471696 0.471696 0.471696
0.472680 0.472680 0.472680
0.473662 0.473662 0.473662
0.474642 0.474642 0.474642
0.475621 0.475621 0.475621
0.476599 0.476599 0.476599
0.477575 0.477575 0.477575
0.478549 0.478549 0.478549
0.479522 0.479522 0.479522
0.480494 0.480494 0.480494
0.481464 0.481464 0.481464
0.482432 0.482432 0.482432
0.483400 0.483400 0.483400
0.484365 0.484365 0.484365
0.485330 0.485330 0.485330
0.486293 0.486293 0.486293
0.487254 0.487254 0.487254
0.488215 0.488215 0.488215
0.489174 0.489174 0.489174
0.490131 0.490131 0.490131
0.491087 0.491087 0.491087
0.492042 0.492042 0.492042
0.492996 0.492996 0.492996
0.493948 0.493948 0.493948
0.494899 0.494899 0.494899
0.495849 0.495849 0.495849
0.496798 0.496798 0.496798
0.497745 0.497745 0.497745
0.498691 0.498691 0.498691
0.499636 0.499636 0.499636
0.500580 0.500580 0.500580
0.501522 0.501522 0.501522
0.502463 0.502463 0.502463
0.503403 0.503403 0.503403
0.504342 0.504342 0.504342
0.505280 0.505280 0.505280
0.506217 0.506217 0.506217
0.507152 0.507152 0.507152
0.508086 0.508086 0.508086
0.509019 0.509019 0.509019
0.509951 0.509951 0.509951
0.510882 0.510882 0.510882
0.511812 0.511812 0.511812
0.512741 0.512741 0.512741
0.513669 0.513669 0.513669
0.514595 0.514595 0.514595
0.515521 0.515521 0.515521
0.516445 0.516445 0.516445
0.517369 0.517369 0.517369
0.518291 0.518291 0.518291
0.519213 0.519213 0.519213
0.520133 0.520133 0.520133
0.521053 0.521053 0.521053
0.521971 0.521971 0.521971
0.522888 0.522888 0.522888
0.523805 0.523805 0.523805
0.524720 0.524720 0.524720
0.525635 0.525635 0.525635
0.526548 0.526548 0.526548
0.527461 0.527461 0.527461
0.528373 0.528373 0.528373
0.529283 0.529283 0.529283
0.530193 0.530193 0.530193
0.531102 0.531102 0.531102
0.532010 0.532010 0.532010
0.532917 0.532917 0.532917
0.533823 0.533823 0.533823
0.534728 0.534728 0.534728
0.535633 0.535633 0.535633
0.536536 0.536536 0.536536
0.537439 0.537439 0.537439
0.538340 0.538340 0.538340
0.539241 0.539241 0.539241
0.540141 0.540141 0.540141
0.541041 0.541041 0.541041
0.541939 0.541939 0.541939
0.542837 0.542837 0.542837
0.543733 0.543733 0.543733
0.544629 0.544629 0.544629
0.545524 0.545524 0.545524
0.546419 0.546419 0.546419
0.547312 0.547312 0.547312
0.548205 0.548205 0.548205
0.549097 0.549097 0.549097
0.549988 0.549988 0.549988
0.550878 0.550878 0.550878
0.551768 0.551768 0.551768
0.552657 0.552657 0.552657
0.553545 0.553545 0.553545
0.554432 0.554432 0.554432
0.555319 0.555319 0.555319
0.556205 0.556205 0.556205
0.557090 0.557090 0.557090
0.557974 0.557974 0.557974
0.558858 0.558858 0.558858
0.559741 0.559741 0.559741
0.560623 0.560623 0.560623
0.561505 0.561505 0.561505
0.562386 0.562386 0.562386
0.563266 0.563266 0.563266
0.564146 0.564146 0.564146
0.565024 0.565024 0.565024
0.565903 0.565903 0.565903
0.566780 0.566780 0.566780
0.567657 0.567657 0.567657
0.568533 0.568533 0.568533
0.569409 0.569409 0.569409
0.570283 0.570283 0.570283
0.571158 0.571158 0.571158
0.572031 0.572031 0.572031
0.572904 0.572904 0.572904
0.573777 0.573777 0.573777
0.574648 0.574648 0.574648
0.575519 0.575519 0.575519
0.576390 0.576390 0.576390
0.577260 0.577260 0.577260
0.578129 0.578129 0.578129
0.578997 0.578997 0.578997
0.579865 0.579865 0.579865
0.580733 0.580733 0.580733
0.581600 0.581600 0.581600
0.582466 0.582466 0.582466
0.583332 0.583332 0.583332
0.584197 0.584197 0.584197
0.585061 0.585061 0.585061
0.585925 0.585925 0.585925
0.586788 0.586788 0.586788
0.587651 0.587651 0.587651
0.588514 0.588514 0.588514
0.589375 0.589375 0.589375
0.590236 0.590236 0.590236
0.591097 0.591097 0.591097
0.591957 0.591957 0.591957
0.592817 0.592817 0.592817
0.593676 0.593676 0.593676
0.594534 0.594534 0.594534
0.595392 0.595392 0.595392
0.596250 0.596250 0.596250
0.597107 0.597107 0.597107
0.597963 0.597963 0.597963
0.598819 0.598819 0.598819
0.599674 0.599674 0.599674
0.600529 0.600529 0.600529
0.601384 0.601384 0.601384
0.602238 0.602238 0.602238
0.603091 0.603091 0.603091
0.603944 0.603944 0.603944
0.604796 0.604796 0.604796
0.605648 0.605648 0.605648
0.606500 0.606500 0.606500
0.607351 0.607351 0.607351
0.608202 0.608202 0.608202
0.609052 0.609052 0.609052
0.609901 0.609901 0.609901
0.610750 0.610750 0.610750
0.611599 0.611599 0.611599
0.612447 0.612447 0.612447
0.613295 0.613295 0.613295
0.614143 0.614143 0.614143
0.614990 0.614990 0.614990
0.615836 0.615836 0.615836
0.616682 0.616682 0.616682
0.617528 0.617528 0.617528
0.618373 0.618373 0.618373
0.619218 0.619218 0.619218
0.620062 0.620062 0.620062
0.620906 0.620906 0.620906
0.621749 0.621749 0.621749
0.622592 0.622592 0.622592
0.623435 0.623435 0.623435
0.624277 0.624277 0.624277
0.625119 0.625119 0.625119
0.625961 0.625961 0.625961
0.626802 0.626802 0.626802
0.627642 0.627642 0.627642
0.628483 0.628483 0.628483
0.629322 0.629322 0.629322
0.630162 0.630162 0.630162
0.631001 0.631001 0.631001
0.631840 0.631840 0.631840
0.632678 0.632678 0.632678
0.633516 0.633516 0.633516
0.634353 0.634353 0.634353
0.635191 0.635191 0.635191
0.636027 0.636027 0.636027
0.636864 0.636864 0.636864
0.637700 0.637700 0.637700
0.638536 0.638536 0.638536
0.639371 0.639371 0.639371
0.640206 0.640206 0.640206
0.641041 0.641041 0.641041
0.641875 0.641875 0.641875
0.642709 0.642709 0.642709
0.643542 0.643542 0.643542
0.644376 0.644376 0.644376
0.645209 0.645209 0.645209
0.646041 0.646041 0.646041
0.646873 0.646873 0.646873
0.647705 0.647705 0.647705
0.648537 0.648537 0.648537
0.649368 0.649368 0.649368
0.650199 0.650199 0.650199
0.651029 0.651029 0.651029
0.651860 0.651860 0.651860
0.652690 0.652690 0.652690
0.653519 0.653519 0.653519
0.654348 0.654348 0.654348
0.655177 0.655177 0.655177
0.656006 0.656006 0.656006
0.656834 0.656834 0.656834
0.657662 0.657662 0.657662
0.658490 0.658490 0.658490
0.659317 0.659317 0.659317
0.660145 0.660145 0.660145
0.660971 0.660971 0.660971
0.661798 0.661798 0.661798
0.662624 0.662624 0.662624
0.663450 0.663450 0.663450
0.664276 0.664276 0.664276
0.665101 0.665101 0.665101
0.665926 0.665926 0.665926
0.666751 0.666751 0.666751
0.667575 0.667575 0.667575
0.668399 0.668399 0.668399
0.669223 0.669223 0.669223
0.670047 0.670047 0.670047
0.670870 0.670870 0.670870
0.671693 0.671693 0.671693
0.672516 0.672516 0.672516
0.673339 0.673339 0.673339
0.674161 0.674161 0.674161
0.674983 0.674983 0.674983
0.675804 0.675804 0.675804
0.676626 0.676626 0.676626
0.677447 0.677447 0.677447
0.678268 0.678268 0.678268
0.679089 0.679089 0.679089
0.679909 0.679909 0.679909
0.680729 0.680729 0.680729
0.681549 0.681549 0.681549
0.682369 0.682369 0.682369
0.683188 0.683188 0.683188
0.684007 0.684007 0.684007
0.684826 0.684826 0.684826
0.685645 0.685645 0.685645
0.686463 0.686463 0.686463
0.687281 0.687281 0.687281
0.688099 0.688099 0.688099
0.688917 0.688917 0.688917
0.689734 0.689734 0.689734
0.690552 0.690552 0.690552
0.691369 0.691369 0.691369
0.692185 0.692185 0.692185
0.693002 0.693002 0.693002
0.693818 0.693818 0.693818
0.694634 0.694634 0.694634
0.695450 0.695450 0.695450
0.696266 0.696266 0.696266
0.697081 0.697081 0.697081
0.697896 0.697896 0.697896
0.698711 0.698711 0.698711
0.699526 0.699526 0.699526
0.700340 0.700340 0.700340
0.701155 0.701155 0.701155
0.701969 0.701969 0.701969
0.702782 0.702782 0.702782
0.703596 0.703596 0.703596
0.704410 0.704410 0.704410
0.705223 0.705223 0.705223
0.706036 0.706036 0.706036
0.706849 0.706849 0.706849
0.707661 0.707661 0.707661
0.708474 0.708474 0.708474
0.709286 0.709286 0.709286
0.710098 0.710098 0.710098
0.710909 0.710909 0.710909
0.711721 0.711721 0.711721
0.712532 0.712532 0.712532
0.713344 0.713344 0.713344
0.714155 0.714155 0.714155
0.714965 0.714965 0.714965
0.715776 0.715776 0.715776
0.716586 0.716586 0.716586
0.717397 0.717397 0.717397
0.718207 0.718207 0.718207
0.719017 0.719017 0.719017
0.719826 0.719826 0.719826
0.720636 0.720636 0.720636
0.721445 0.721445 0.721445
0.722254 0.722254 0.722254
0.723063 0.723063 0.723063
0.723872 0.723872 0.723872
0.724680 0.724680 0.724680
0.725489 0.725489 0.725489
0.726297 0.726297 0.726297
0.727105 0.727105 0.727105
0.727913 0.727913 0.727913
0.728721 0.728721 0.728721
0.729528 0.729528 0.729528
0.730336 0.730336 0.730336
0.731143 0.731143 0.731143
0.731950 0.731950 0.731950
0.732757 0.732757 0.732757
0.733563 0.733563 0.733563
0.734370 0.734370 0.734370
0.735176 0.735176 0.735176
0.735983 0.735983 0.735983
0.736789 0.736789 0.736789
0.737594 0.737594 0.737594
0.738400 0.738400 0.738400
0.739206 0.739206 0.739206
0.740011 0.740011 0.740011
0.740816 0.740816 0.740816
0.741621 0.741621 0.741621
0.742426 0.742426 0.742426
0.743231 0.743231 0.743231
0.744036 0.744036 0.744036
0.744840 0.744840 0.744840
0.745645 0.745645 0.745645
0.746449 0.746449 0.746449
0.747253 0.747253 0.747253
0.748057 0.748057 0.748057
0.748860 0.748860 0.748860
0.749664 0.749664 0.749664
0.750467 0.750467 0.750467
0.751271 0.751271 0.751271
0.752074 0.752074 0.752074
0.752877 0.752877 0.752877
0.753680 0.753680 0.753680
0.754482 0.754482 0.754482
0.755285 0.755285 0.755285
0.756087 0.756087 0.756087
0.756890 0.756890 0.756890
0.757692 0.757692 0.757692
0.758494 0.758494 0.758494
0.759296 0.759296 0.759296
0.760098 0.760098 0.760098
0.760899 0.760899 0.760899
0.761701 0.761701 0.761701
0.762502 0.762502 0.762502
0.763303 0.763303 0.763303
0.764105 0.764105 0.764105
0.764906 0.764906 0.764906
0.765706 0.765706 0.765706
0.766507 0.766507 0.766507
0.767308 0.767308 0.767308
0.768108 0.768108 0.768108
0.768909 0.768909 0.768909
0.769709 0.769709 0.769709
0.770509 0.770509 0.770509
0.771309 0.771309 0.771309
0.772109 0.772109 0.772109
0.772908 0.772908 0.772908
0.773708 0.773708 0.773708
0.774508 0.774508 0.774508
0.775307 0.775307 0.775307
0.776106 0.776106 0.776106
0.776905 0.776905 0.776905
0.777704 0.777704 0.777704
0.778503 0.778503 0.778503
0.779302 0.779302 0.779302
0.780101 0.780101 0.780101
0.780899 0.780899 0.780899
0.781698 0.781698 0.781698
0.782496 0.782496 0.782496
0.783294 0.783294 0.783294
0.784092 0.784092 0.784092
0.784890 0.784890 0.784890
0.785688 0.785688 0.785688
0.786486 0.786486 0.786486
0.787284 0.787284 0.787284
0.788081 0.788081 0.788081
0.788879 0.788879 0.788879
0.789676 0.789676 0.789676
0.790474 0.790474 0.790474
0.791271 0.791271 0.791271
0.792068 0.792068 0.792068
0.792865 0.792865 0.792865
0.793662 0.793662 0.793662
0.794458 0.794458 0.794458
0.795255 0.795255 0.795255
0.796051 0.796051 0.796051
0.796848 0.796848 0.796848
0.797644 0.797644 0.797644
0.798441 0.798441 0.798441
0.799237 0.799237 0.799237
0.800033 0.800033 0.800033
0.800829 0.800829 0.800829
0.801625 0.801625 0.801625
0.802420 0.802420 0.802420
0.803216 0.803216 0.803216
0.804012 0.804012 0.804012
0.804807 0.804807 0.804807
0.805602 0.805602 0.805602
0.806398 0.806398 0.806398
0.807193 0.807193 0.807193
0.807988 0.807988 0.807988
0.808783 0.808783 0.808783
0.809578 0.809578 0.809578
0.810373 0.810373 0.810373
0.811168 0.811168 0.811168
0.811962 0.811962 0.811962
0.812757 0.812757 0.812757
0.813551 0.813551 0.813551
0.814346 0.814346 0.814346
0.815140 0.815140 0.815140
0.815934 0.815934 0.815934
0.816728 0.816728 0.816728
0.817522 0.817522 0.817522
0.818316 0.818316 0.818316
0.819110 0.819110 0.819110
0.819904 0.819904 0.819904
0.820698 0.820698 0.820698
0.821491 0.821491 0.821491
0.822285 0.822285 0.822285
0.823079 0.823079 0.823079
0.823872 0.823872 0.823872
0.824665 0.824665 0.824665
0.825458 0.825458 0.825458
0.826252 0.826252 0.826252
0.827045 0.827045 0.827045
0.827838 0.827838 0.827838
0.828631 0.828631 0.828631
0.829424 0.829424 0.829424
0.830216 0.830216 0.830216
0.831009 0.831009 0.831009
0.831802 0.831802 0.831802
0.832594 0.832594 0.832594
0.833387 0.833387 0.833387
0.834179 0.834179 0.834179
0.834971 0.834971 0.834971
0.835764 0.835764 0.835764
0.836556 0.836556 0.836556
0.837348 0.837348 0.837348
0.838140 0.838140 0.838140
0.838932 0.838932 0.838932
0.839724 0.839724 0.839724
0.840516 0.840516 0.840516
0.841307 0.841307 0.841307
0.842099 0.842099 0.842099
0.842891 0.842891 0.842891
0.843682 0.843682 0.843682
0.844474 0.844474 0.844474
0.845265 0.845265 0.845265
0.846056 0.846056 0.846056
0.846848 0.846848 0.846848
0.847639 0.847639 0.847639
0.848430 0.848430 0.848430
0.849221 0.849221 0.849221
0.850012 0.850012 0.850012
0.850803 0.850803 0.850803
0.851594 0.851594 0.851594
0.852385 0.852385 0.852385
0.853176 0.853176 0.853176
0.853966 0.853966 0.853966
0.854757 0.854757 0.854757
0.855547 0.855547 0.855547
0.856338 0.856338 0.856338
0.857128 0.857128 0.857128
0.857919 0.857919 0.857919
0.858709 0.858709 0.858709
0.859499 0.859499 0.859499
0.860290 0.860290 0.860290
0.861080 0.861080 0.861080
0.861870 0.861870 0.861870
0.862660 0.862660 0.862660
0.863450 0.863450 0.863450
0.864240 0.864240 0.864240
0.865029 0.865029 0.865029
0.865819 0.865819 0.865819
0.866609 0.866609 0.866609
0.867399 0.867399 0.867399
0.868188 0.868188 0.868188
0.868978 0.868978 0.868978
0.869767 0.869767 0.869767
0.870557 0.870557 0.870557
0.871346 0.871346 0.871346
0.872136 0.872136 0.872136
0.872925 0.872925 0.872925
0.873714 0.873714 0.873714
0.874503 0.874503 0.874503
0.875292 0.875292 0.875292
0.876081 0.876081 0.876081
0.876870 0.876870 0.876870
0.877659 0.877659 0.877659
0.878448 0.878448 0.878448
0.879237 0.879237 0.879237
0.880026 0.880026 0.880026
0.880815 0.880815 0.880815
0.881603 0.881603 0.881603
0.882392 0.882392 0.882392
0.883181 0.883181 0.883181
0.883969 0.883969 0.883969
0.884758 0.884758 0.884758
0.885546 0.885546 0.885546
0.886335 0.886335 0.886335
0.887123 0.887123 0.887123
0.887911 0.887911 0.887911
0.888700 0.888700 0.888700
0.889488 0.889488 0.889488
0.890276 0.890276 0.890276
0.891064 0.891064 0.891064
0.891852 0.891852 0.891852
0.892640 0.892640 0.892640
0.893428 0.893428 0.893428
0.894216 0.894216 0.894216
0.895004 0.895004 0.895004
0.895792 0.895792 0.895792
0.896580 0.896580 0.896580
0.897367 0.897367 0.897367
0.898155 0.898155 0.898155
0.898943 0.898943 0.898943
0.899730 0.899730 0.899730
0.900518 0.900518 0.900518
0.901305 0.901305 0.901305
0.902093 0.902093 0.902093
0.902880 0.902880 0.902880
0.903668 0.903668 0.903668
0.904455 0.904455 0.904455
0.905243 0.905243 0.905243
0.906030 0.906030 0.906030
0.906817 0.906817 0.906817
0.907604 0.907604 0.907604
0.908391 0.908391 0.908391
0.909178 0.909178 0.909178
0.909966 0.909966 0.909966
0.910753 0.910753 0.910753
0.911540 0.911540 0.911540
0.912327 0.912327 0.912327
0.913113 0.913113 0.913113
