Luts Download/Canon Luts/1dlut/canonlog3-to-gamma-1dlut/full-to-full-range/CanonLog3_10-to-HLG_FF_Ver.2.1.cube
# Gamma : Canon Log 3 to HLG
# Range : Full in / Full out
# Version : 2.1 2018/10/3
# Copyright(c) 2018 Canon Inc. All Rights Reserved.

LUT_1D_SIZE 1024
0.000000 0.000000 0.000000
0.000000 0.000000 0.000000
0.000000 0.000000 0.000000
0.000000 0.000000 0.000000
0.000000 0.000000 0.000000
0.000000 0.000000 0.000000
0.000000 0.000000 0.000000
0.000000 0.000000 0.000000
0.000000 0.000000 0.000000
0.000000 0.000000 0.000000
0.000000 0.000000 0.000000
0.000000 0.000000 0.000000
0.000000 0.000000 0.000000
0.000000 0.000000 0.000000
0.000000 0.000000 0.000000
0.000000 0.000000 0.000000
0.000000 0.000000 0.000000
0.000000 0.000000 0.000000
0.000000 0.000000 0.000000
0.000000 0.000000 0.000000
0.000000 0.000000 0.000000
0.000000 0.000000 0.000000
0.000000 0.000000 0.000000
0.000000 0.000000 0.000000
0.000000 0.000000 0.000000
0.000000 0.000000 0.000000
0.000000 0.000000 0.000000
0.000000 0.000000 0.000000
0.000000 0.000000 0.000000
0.000000 0.000000 0.000000
0.000000 0.000000 0.000000
0.000000 0.000000 0.000000
0.000000 0.000000 0.000000
0.000000 0.000000 0.000000
0.000000 0.000000 0.000000
0.000000 0.000000 0.000000
0.000000 0.000000 0.000000
0.000000 0.000000 0.000000
0.000000 0.000000 0.000000
0.000000 0.000000 0.000000
0.000000 0.000000 0.000000
0.000000 0.000000 0.000000
0.000000 0.000000 0.000000
0.000000 0.000000 0.000000
0.000000 0.000000 0.000000
0.000000 0.000000 0.000000
0.000000 0.000000 0.000000
0.000000 0.000000 0.000000
0.000000 0.000000 0.000000
0.000000 0.000000 0.000000
0.000000 0.000000 0.000000
0.000000 0.000000 0.000000
0.000000 0.000000 0.000000
0.000000 0.000000 0.000000
0.000000 0.000000 0.000000
0.000000 0.000000 0.000000
0.000000 0.000000 0.000000
0.000000 0.000000 0.000000
0.000000 0.000000 0.000000
0.000000 0.000000 0.000000
0.000000 0.000000 0.000000
0.000000 0.000000 0.000000
0.000000 0.000000 0.000000
0.000000 0.000000 0.000000
0.000000 0.000000 0.000000
0.000000 0.000000 0.000000
0.000000 0.000000 0.000000
0.000000 0.000000 0.000000
0.000000 0.000000 0.000000
0.000000 0.000000 0.000000
0.000000 0.000000 0.000000
0.000000 0.000000 0.000000
0.000000 0.000000 0.000000
0.000000 0.000000 0.000000
0.000000 0.000000 0.000000
0.000000 0.000000 0.000000
0.000000 0.000000 0.000000
0.000000 0.000000 0.000000
0.000000 0.000000 0.000000
0.000000 0.000000 0.000000
0.000000 0.000000 0.000000
0.000000 0.000000 0.000000
0.000000 0.000000 0.000000
0.000000 0.000000 0.000000
0.000000 0.000000 0.000000
0.000000 0.000000 0.000000
0.000000 0.000000 0.000000
0.000000 0.000000 0.000000
0.000000 0.000000 0.000000
0.000000 0.000000 0.000000
0.000000 0.000000 0.000000
0.000000 0.000000 0.000000
0.000000 0.000000 0.000000
0.000000 0.000000 0.000000
0.000000 0.000000 0.000000
0.000000 0.000000 0.000000
0.000000 0.000000 0.000000
0.000000 0.000000 0.000000
0.000000 0.000000 0.000000
0.000000 0.000000 0.000000
0.000000 0.000000 0.000000
0.000000 0.000000 0.000000
0.000000 0.000000 0.000000
0.000000 0.000000 0.000000
0.000000 0.000000 0.000000
0.000000 0.000000 0.000000
0.000000 0.000000 0.000000
0.000000 0.000000 0.000000
0.000000 0.000000 0.000000
0.000000 0.000000 0.000000
0.000000 0.000000 0.000000
0.000000 0.000000 0.000000
0.000000 0.000000 0.000000
0.000000 0.000000 0.000000
0.000000 0.000000 0.000000
0.000000 0.000000 0.000000
0.000000 0.000000 0.000000
0.000000 0.000000 0.000000
0.000000 0.000000 0.000000
0.000000 0.000000 0.000000
0.000000 0.000000 0.000000
0.000000 0.000000 0.000000
0.000000 0.000000 0.000000
0.000000 0.000000 0.000000
0.000000 0.000000 0.000000
0.000000 0.000000 0.000000
0.000000 0.000000 0.000000
0.000000 0.000000 0.000000
0.000000 0.000000 0.000000
0.018809 0.018809 0.018809
0.026600 0.026600 0.026600
0.032578 0.032578 0.032578
0.037618 0.037618 0.037618
0.042058 0.042058 0.042058
0.046072 0.046072 0.046072
0.049764 0.049764 0.049764
0.053200 0.053200 0.053200
0.056427 0.056427 0.056427
0.059479 0.059479 0.059479
0.062382 0.062382 0.062382
0.065156 0.065156 0.065156
0.067817 0.067817 0.067817
0.070377 0.070377 0.070377
0.072847 0.072847 0.072847
0.075236 0.075236 0.075236
0.077551 0.077551 0.077551
0.079800 0.079800 0.079800
0.081986 0.081986 0.081986
0.084116 0.084116 0.084116
0.086193 0.086193 0.086193
0.088222 0.088222 0.088222
0.090205 0.090205 0.090205
0.092145 0.092145 0.092145
0.094045 0.094045 0.094045
0.095907 0.095907 0.095907
0.097734 0.097734 0.097734
0.099528 0.099528 0.099528
0.101292 0.101292 0.101292
0.103036 0.103036 0.103036
0.104762 0.104762 0.104762
0.106470 0.106470 0.106470
0.108161 0.108161 0.108161
0.109837 0.109837 0.109837
0.111497 0.111497 0.111497
0.113143 0.113143 0.113143
0.114775 0.114775 0.114775
0.116395 0.116395 0.116395
0.118001 0.118001 0.118001
0.119596 0.119596 0.119596
0.121180 0.121180 0.121180
0.122752 0.122752 0.122752
0.124314 0.124314 0.124314
0.125867 0.125867 0.125867
0.127409 0.127409 0.127409
0.128943 0.128943 0.128943
0.130468 0.130468 0.130468
0.131984 0.131984 0.131984
0.133492 0.133492 0.133492
0.134993 0.134993 0.134993
0.136486 0.136486 0.136486
0.137972 0.137972 0.137972
0.139451 0.139451 0.139451
0.140924 0.140924 0.140924
0.142390 0.142390 0.142390
0.143850 0.143850 0.143850
0.145305 0.145305 0.145305
0.146753 0.146753 0.146753
0.148197 0.148197 0.148197
0.149635 0.149635 0.149635
0.151068 0.151068 0.151068
0.152497 0.152497 0.152497
0.153920 0.153920 0.153920
0.155340 0.155340 0.155340
0.156755 0.156755 0.156755
0.158166 0.158166 0.158166
0.159573 0.159573 0.159573
0.160977 0.160977 0.160977
0.162377 0.162377 0.162377
0.163773 0.163773 0.163773
0.165166 0.165166 0.165166
0.166556 0.166556 0.166556
0.167942 0.167942 0.167942
0.169326 0.169326 0.169326
0.170707 0.170707 0.170707
0.172086 0.172086 0.172086
0.173461 0.173461 0.173461
0.174834 0.174834 0.174834
0.176205 0.176205 0.176205
0.177574 0.177574 0.177574
0.178940 0.178940 0.178940
0.180305 0.180305 0.180305
0.181667 0.181667 0.181667
0.183028 0.183028 0.183028
0.184387 0.184387 0.184387
0.185744 0.185744 0.185744
0.187100 0.187100 0.187100
0.188454 0.188454 0.188454
0.189806 0.189806 0.189806
0.191158 0.191158 0.191158
0.192508 0.192508 0.192508
0.193857 0.193857 0.193857
0.195204 0.195204 0.195204
0.196551 0.196551 0.196551
0.197897 0.197897 0.197897
0.199242 0.199242 0.199242
0.200586 0.200586 0.200586
0.201929 0.201929 0.201929
0.203271 0.203271 0.203271
0.204613 0.204613 0.204613
0.205955 0.205955 0.205955
0.207295 0.207295 0.207295
0.208636 0.208636 0.208636
0.209976 0.209976 0.209976
0.211315 0.211315 0.211315
0.212655 0.212655 0.212655
0.213994 0.213994 0.213994
0.215333 0.215333 0.215333
0.216671 0.216671 0.216671
0.218010 0.218010 0.218010
0.219349 0.219349 0.219349
0.220688 0.220688 0.220688
0.222026 0.222026 0.222026
0.223365 0.223365 0.223365
0.224705 0.224705 0.224705
0.226044 0.226044 0.226044
0.227384 0.227384 0.227384
0.228724 0.228724 0.228724
0.230064 0.230064 0.230064
0.231405 0.231405 0.231405
0.232746 0.232746 0.232746
0.234088 0.234088 0.234088
0.235430 0.235430 0.235430
0.236773 0.236773 0.236773
0.238116 0.238116 0.238116
0.239460 0.239460 0.239460
0.240805 0.240805 0.240805
0.242150 0.242150 0.242150
0.243496 0.243496 0.243496
0.244843 0.244843 0.244843
0.246191 0.246191 0.246191
0.247540 0.247540 0.247540
0.248890 0.248890 0.248890
0.250240 0.250240 0.250240
0.251592 0.251592 0.251592
0.252945 0.252945 0.252945
0.254298 0.254298 0.254298
0.255653 0.255653 0.255653
0.257009 0.257009 0.257009
0.258366 0.258366 0.258366
0.259724 0.259724 0.259724
0.261084 0.261084 0.261084
0.262444 0.262444 0.262444
0.263806 0.263806 0.263806
0.265170 0.265170 0.265170
0.266534 0.266534 0.266534
0.267900 0.267900 0.267900
0.269268 0.269268 0.269268
0.270637 0.270637 0.270637
0.272007 0.272007 0.272007
0.273379 0.273379 0.273379
0.274752 0.274752 0.274752
0.276127 0.276127 0.276127
0.277503 0.277503 0.277503
0.278881 0.278881 0.278881
0.280261 0.280261 0.280261
0.281642 0.281642 0.281642
0.283025 0.283025 0.283025
0.284410 0.284410 0.284410
0.285797 0.285797 0.285797
0.287185 0.287185 0.287185
0.288575 0.288575 0.288575
0.289967 0.289967 0.289967
0.291361 0.291361 0.291361
0.292756 0.292756 0.292756
0.294154 0.294154 0.294154
0.295553 0.295553 0.295553
0.296954 0.296954 0.296954
0.298358 0.298358 0.298358
0.299763 0.299763 0.299763
0.301170 0.301170 0.301170
0.302580 0.302580 0.302580
0.303991 0.303991 0.303991
0.305405 0.305405 0.305405
0.306820 0.306820 0.306820
0.308238 0.308238 0.308238
0.309658 0.309658 0.309658
0.311080 0.311080 0.311080
0.312505 0.312505 0.312505
0.313931 0.313931 0.313931
0.315360 0.315360 0.315360
0.316791 0.316791 0.316791
0.318225 0.318225 0.318225
0.319661 0.319661 0.319661
0.321099 0.321099 0.321099
0.322539 0.322539 0.322539
0.323982 0.323982 0.323982
0.325427 0.325427 0.325427
0.326875 0.326875 0.326875
0.328325 0.328325 0.328325
0.329778 0.329778 0.329778
0.331233 0.331233 0.331233
0.332691 0.332691 0.332691
0.334151 0.334151 0.334151
0.335614 0.335614 0.335614
0.337079 0.337079 0.337079
0.338547 0.338547 0.338547
0.340018 0.340018 0.340018
0.341491 0.341491 0.341491
0.342967 0.342967 0.342967
0.344445 0.344445 0.344445
0.345927 0.345927 0.345927
0.347411 0.347411 0.347411
0.348898 0.348898 0.348898
0.350387 0.350387 0.350387
0.351880 0.351880 0.351880
0.353375 0.353375 0.353375
0.354873 0.354873 0.354873
0.356374 0.356374 0.356374
0.357878 0.357878 0.357878
0.359384 0.359384 0.359384
0.360894 0.360894 0.360894
0.362406 0.362406 0.362406
0.363922 0.363922 0.363922
0.365440 0.365440 0.365440
0.366962 0.366962 0.366962
0.368486 0.368486 0.368486
0.370013 0.370013 0.370013
0.371544 0.371544 0.371544
0.373078 0.373078 0.373078
0.374614 0.374614 0.374614
0.376154 0.376154 0.376154
0.377697 0.377697 0.377697
0.379243 0.379243 0.379243
0.380792 0.380792 0.380792
0.382345 0.382345 0.382345
0.383900 0.383900 0.383900
0.385459 0.385459 0.385459
0.387021 0.387021 0.387021
0.388587 0.388587 0.388587
0.390155 0.390155 0.390155
0.391727 0.391727 0.391727
0.393303 0.393303 0.393303
0.394881 0.394881 0.394881
0.396463 0.396463 0.396463
0.398049 0.398049 0.398049
0.399637 0.399637 0.399637
0.401229 0.401229 0.401229
0.402825 0.402825 0.402825
0.404424 0.404424 0.404424
0.406027 0.406027 0.406027
0.407633 0.407633 0.407633
0.409242 0.409242 0.409242
0.410855 0.410855 0.410855
0.412472 0.412472 0.412472
0.414092 0.414092 0.414092
0.415716 0.415716 0.415716
0.417343 0.417343 0.417343
0.418974 0.418974 0.418974
0.420609 0.420609 0.420609
0.422247 0.422247 0.422247
0.423889 0.423889 0.423889
0.425535 0.425535 0.425535
0.427185 0.427185 0.427185
0.428838 0.428838 0.428838
0.430495 0.430495 0.430495
0.432155 0.432155 0.432155
0.433820 0.433820 0.433820
0.435488 0.435488 0.435488
0.437160 0.437160 0.437160
0.438836 0.438836 0.438836
0.440516 0.440516 0.440516
0.442200 0.442200 0.442200
0.443887 0.443887 0.443887
0.445579 0.445579 0.445579
0.447274 0.447274 0.447274
0.448974 0.448974 0.448974
0.450677 0.450677 0.450677
0.452385 0.452385 0.452385
0.454096 0.454096 0.454096
0.455812 0.455812 0.455812
0.457531 0.457531 0.457531
0.459255 0.459255 0.459255
0.460983 0.460983 0.460983
0.462714 0.462714 0.462714
0.464450 0.464450 0.464450
0.466190 0.466190 0.466190
0.467935 0.467935 0.467935
0.469683 0.469683 0.469683
0.471436 0.471436 0.471436
0.473193 0.473193 0.473193
0.474954 0.474954 0.474954
0.476719 0.476719 0.476719
0.478489 0.478489 0.478489
0.480263 0.480263 0.480263
0.482041 0.482041 0.482041
0.483824 0.483824 0.483824
0.485611 0.485611 0.485611
0.487402 0.487402 0.487402
0.489198 0.489198 0.489198
0.490998 0.490998 0.490998
0.492802 0.492802 0.492802
0.494611 0.494611 0.494611
0.496425 0.496425 0.496425
0.498243 0.498243 0.498243
0.500065 0.500065 0.500065
0.501886 0.501886 0.501886
0.503699 0.503699 0.503699
0.505505 0.505505 0.505505
0.507304 0.507304 0.507304
0.509096 0.509096 0.509096
0.510881 0.510881 0.510881
0.512659 0.512659 0.512659
0.514431 0.514431 0.514431
0.516195 0.516195 0.516195
0.517954 0.517954 0.517954
0.519705 0.519705 0.519705
0.521451 0.521451 0.521451
0.523190 0.523190 0.523190
0.524923 0.524923 0.524923
0.526649 0.526649 0.526649
0.528370 0.528370 0.528370
0.530085 0.530085 0.530085
0.531794 0.531794 0.531794
0.533497 0.533497 0.533497
0.535194 0.535194 0.535194
0.536885 0.536885 0.536885
0.538571 0.538571 0.538571
0.540252 0.540252 0.540252
0.541927 0.541927 0.541927
0.543596 0.543596 0.543596
0.545261 0.545261 0.545261
0.546920 0.546920 0.546920
0.548574 0.548574 0.548574
0.550222 0.550222 0.550222
0.551866 0.551866 0.551866
0.553505 0.553505 0.553505
0.555138 0.555138 0.555138
0.556767 0.556767 0.556767
0.558391 0.558391 0.558391
0.560010 0.560010 0.560010
0.561625 0.561625 0.561625
0.563235 0.563235 0.563235
0.564840 0.564840 0.564840
0.566441 0.566441 0.566441
0.568037 0.568037 0.568037
0.569629 0.569629 0.569629
0.571216 0.571216 0.571216
0.572799 0.572799 0.572799
0.574378 0.574378 0.574378
0.575953 0.575953 0.575953
0.577523 0.577523 0.577523
0.579089 0.579089 0.579089
0.580651 0.580651 0.580651
0.582209 0.582209 0.582209
0.583764 0.583764 0.583764
0.585314 0.585314 0.585314
0.586860 0.586860 0.586860
0.588402 0.588402 0.588402
0.589941 0.589941 0.589941
0.591475 0.591475 0.591475
0.593006 0.593006 0.593006
0.594534 0.594534 0.594534
0.596057 0.596057 0.596057
0.597577 0.597577 0.597577
0.599094 0.599094 0.599094
0.600606 0.600606 0.600606
0.602116 0.602116 0.602116
0.603622 0.603622 0.603622
0.605124 0.605124 0.605124
0.606623 0.606623 0.606623
0.608119 0.608119 0.608119
0.609611 0.609611 0.609611
0.611100 0.611100 0.611100
0.612586 0.612586 0.612586
0.614069 0.614069 0.614069
0.615548 0.615548 0.615548
0.617024 0.617024 0.617024
0.618497 0.618497 0.618497
0.619967 0.619967 0.619967
0.621434 0.621434 0.621434
0.622898 0.622898 0.622898
0.624359 0.624359 0.624359
0.625817 0.625817 0.625817
0.627272 0.627272 0.627272
0.628724 0.628724 0.628724
0.630174 0.630174 0.630174
0.631620 0.631620 0.631620
0.633064 0.633064 0.633064
0.634504 0.634504 0.634504
0.635942 0.635942 0.635942
0.637378 0.637378 0.637378
0.638810 0.638810 0.638810
0.640240 0.640240 0.640240
0.641668 0.641668 0.641668
0.643092 0.643092 0.643092
0.644514 0.644514 0.644514
0.645934 0.645934 0.645934
0.647350 0.647350 0.647350
0.648765 0.648765 0.648765
0.650177 0.650177 0.650177
0.651586 0.651586 0.651586
0.652993 0.652993 0.652993
0.654397 0.654397 0.654397
0.655799 0.655799 0.655799
0.657199 0.657199 0.657199
0.658596 0.658596 0.658596
0.659991 0.659991 0.659991
0.661384 0.661384 0.661384
0.662774 0.662774 0.662774
0.664162 0.664162 0.664162
0.665548 0.665548 0.665548
0.666932 0.666932 0.666932
0.668313 0.668313 0.668313
0.669692 0.669692 0.669692
0.671069 0.671069 0.671069
0.672444 0.672444 0.672444
0.673817 0.673817 0.673817
0.675187 0.675187 0.675187
0.676556 0.676556 0.676556
0.677922 0.677922 0.677922
0.679287 0.679287 0.679287
0.680649 0.680649 0.680649
0.682009 0.682009 0.682009
0.683368 0.683368 0.683368
0.684724 0.684724 0.684724
0.686078 0.686078 0.686078
0.687431 0.687431 0.687431
0.688781 0.688781 0.688781
0.690130 0.690130 0.690130
0.691476 0.691476 0.691476
0.692821 0.692821 0.692821
0.694164 0.694164 0.694164
0.695505 0.695505 0.695505
0.696844 0.696844 0.696844
0.698182 0.698182 0.698182
0.699517 0.699517 0.699517
0.700851 0.700851 0.700851
0.702183 0.702183 0.702183
0.703514 0.703514 0.703514
0.704842 0.704842 0.704842
0.706169 0.706169 0.706169
0.707494 0.707494 0.707494
0.708818 0.708818 0.708818
0.710140 0.710140 0.710140
0.711460 0.711460 0.711460
0.712778 0.712778 0.712778
0.714095 0.714095 0.714095
0.715410 0.715410 0.715410
0.716724 0.716724 0.716724
0.718036 0.718036 0.718036
0.719346 0.719346 0.719346
0.720655 0.720655 0.720655
0.721963 0.721963 0.721963
0.723268 0.723268 0.723268
0.724573 0.724573 0.724573
0.725876 0.725876 0.725876
0.727177 0.727177 0.727177
0.728477 0.728477 0.728477
0.729775 0.729775 0.729775
0.731072 0.731072 0.731072
0.732367 0.732367 0.732367
0.733661 0.733661 0.733661
0.734954 0.734954 0.734954
0.736245 0.736245 0.736245
0.737534 0.737534 0.737534
0.738823 0.738823 0.738823
0.740110 0.740110 0.740110
0.741395 0.741395 0.741395
0.742679 0.742679 0.742679
0.743962 0.743962 0.743962
0.745244 0.745244 0.745244
0.746524 0.746524 0.746524
0.747803 0.747803 0.747803
0.749081 0.749081 0.749081
0.750357 0.750357 0.750357
0.751632 0.751632 0.751632
0.752906 0.752906 0.752906
0.754178 0.754178 0.754178
0.755449 0.755449 0.755449
0.756719 0.756719 0.756719
0.757988 0.757988 0.757988
0.759256 0.759256 0.759256
0.760522 0.760522 0.760522
0.761787 0.761787 0.761787
0.763051 0.763051 0.763051
0.764314 0.764314 0.764314
0.765575 0.765575 0.765575
0.766836 0.766836 0.766836
0.768095 0.768095 0.768095
0.769353 0.769353 0.769353
0.770610 0.770610 0.770610
0.771866 0.771866 0.771866
0.773121 0.773121 0.773121
0.774374 0.774374 0.774374
0.775627 0.775627 0.775627
0.776878 0.776878 0.776878
0.778129 0.778129 0.778129
0.779378 0.779378 0.779378
0.780626 0.780626 0.780626
0.781873 0.781873 0.781873
0.783119 0.783119 0.783119
0.784365 0.784365 0.784365
0.785609 0.785609 0.785609
0.786852 0.786852 0.786852
0.788094 0.788094 0.788094
0.789335 0.789335 0.789335
0.790574 0.790574 0.790574
0.791813 0.791813 0.791813
0.793051 0.793051 0.793051
0.794288 0.794288 0.794288
0.795525 0.795525 0.795525
0.796760 0.796760 0.796760
0.797994 0.797994 0.797994
0.799227 0.799227 0.799227
0.800459 0.800459 0.800459
0.801690 0.801690 0.801690
0.802921 0.802921 0.802921
0.804150 0.804150 0.804150
0.805379 0.805379 0.805379
0.806606 0.806606 0.806606
0.807833 0.807833 0.807833
0.809059 0.809059 0.809059
0.810284 0.810284 0.810284
0.811508 0.811508 0.811508
0.812731 0.812731 0.812731
0.813953 0.813953 0.813953
0.815175 0.815175 0.815175
0.816395 0.816395 0.816395
0.817615 0.817615 0.817615
0.818834 0.818834 0.818834
0.820052 0.820052 0.820052
0.821269 0.821269 0.821269
0.822486 0.822486 0.822486
0.823702 0.823702 0.823702
0.824916 0.824916 0.824916
0.826130 0.826130 0.826130
0.827344 0.827344 0.827344
0.828556 0.828556 0.828556
0.829768 0.829768 0.829768
0.830978 0.830978 0.830978
0.832188 0.832188 0.832188
0.833398 0.833398 0.833398
0.834606 0.834606 0.834606
0.835814 0.835814 0.835814
0.837021 0.837021 0.837021
0.838227 0.838227 0.838227
0.839433 0.839433 0.839433
0.840638 0.840638 0.840638
0.841842 0.841842 0.841842
0.843045 0.843045 0.843045
0.844248 0.844248 0.844248
0.845450 0.845450 0.845450
0.846651 0.846651 0.846651
0.847851 0.847851 0.847851
0.849051 0.849051 0.849051
0.850250 0.850250 0.850250
0.851449 0.851449 0.851449
0.852646 0.852646 0.852646
0.853843 0.853843 0.853843
0.855040 0.855040 0.855040
0.856236 0.856236 0.856236
0.857431 0.857431 0.857431
0.858625 0.858625 0.858625
0.859819 0.859819 0.859819
0.861012 0.861012 0.861012
0.862204 0.862204 0.862204
0.863396 0.863396 0.863396
0.864587 0.864587 0.864587
0.865778 0.865778 0.865778
0.866968 0.866968 0.866968
0.868157 0.868157 0.868157
0.869346 0.869346 0.869346
0.870534 0.870534 0.870534
0.871721 0.871721 0.871721
0.872908 0.872908 0.872908
0.874094 0.874094 0.874094
0.875280 0.875280 0.875280
0.876465 0.876465 0.876465
0.877649 0.877649 0.877649
0.878833 0.878833 0.878833
0.880016 0.880016 0.880016
0.881199 0.881199 0.881199
0.882381 0.882381 0.882381
0.883563 0.883563 0.883563
0.884744 0.884744 0.884744
0.885924 0.885924 0.885924
0.887104 0.887104 0.887104
0.888284 0.888284 0.888284
0.889462 0.889462 0.889462
0.890641 0.890641 0.890641
0.891818 0.891818 0.891818
0.892995 0.892995 0.892995
0.894172 0.894172 0.894172
0.895348 0.895348 0.895348
0.896524 0.896524 0.896524
0.897699 0.897699 0.897699
0.898873 0.898873 0.898873
0.900047 0.900047 0.900047
0.901221 0.901221 0.901221
0.902394 0.902394 0.902394
0.903567 0.903567 0.903567
0.904739 0.904739 0.904739
0.905910 0.905910 0.905910
0.907081 0.907081 0.907081
0.908252 0.908252 0.908252
0.909422 0.909422 0.909422
0.910591 0.910591 0.910591
0.911760 0.911760 0.911760
0.912929 0.912929 0.912929
0.914097 0.914097 0.914097
0.915265 0.915265 0.915265
0.916432 0.916432 0.916432
0.917599 0.917599 0.917599
0.918765 0.918765 0.918765
0.919931 0.919931 0.919931
0.921096 0.921096 0.921096
0.922261 0.922261 0.922261
0.923426 0.923426 0.923426
0.924590 0.924590 0.924590
0.925753 0.925753 0.925753
0.926916 0.926916 0.926916
0.928079 0.928079 0.928079
0.929241 0.929241 0.929241
0.930403 0.930403 0.930403
0.931565 0.931565 0.931565
0.932726 0.932726 0.932726
0.933886 0.933886 0.933886
0.935046 0.935046 0.935046
0.936206 0.936206 0.936206
0.937365 0.937365 0.937365
0.938524 0.938524 0.938524
0.939683 0.939683 0.939683
0.940841 0.940841 0.940841
0.941999 0.941999 0.941999
0.943156 0.943156 0.943156
0.944313 0.944313 0.944313
0.945469 0.945469 0.945469
0.946625 0.946625 0.946625
0.947781 0.947781 0.947781
0.948937 0.948937 0.948937
0.950092 0.950092 0.950092
0.951246 0.951246 0.951246
0.952400 0.952400 0.952400
0.953554 0.953554 0.953554
0.954708 0.954708 0.954708
0.955861 0.955861 0.955861
0.957014 0.957014 0.957014
0.958166 0.958166 0.958166
0.959318 0.959318 0.959318
0.960470 0.960470 0.960470
0.961621 0.961621 0.961621
0.962772 0.962772 0.962772
0.963922 0.963922 0.963922
0.965073 0.965073 0.965073
0.966223 0.966223 0.966223
0.967372 0.967372 0.967372
0.968521 0.968521 0.968521
0.969670 0.969670 0.969670
0.970819 0.970819 0.970819
0.971967 0.971967 0.971967
0.973115 0.973115 0.973115
0.974262 0.974262 0.974262
0.975409 0.975409 0.975409
0.976556 0.976556 0.976556
0.977703 0.977703 0.977703
0.978849 0.978849 0.978849
0.979995 0.979995 0.979995
0.981141 0.981141 0.981141
0.982286 0.982286 0.982286
0.983431 0.983431 0.983431
0.984575 0.984575 0.984575
0.985720 0.985720 0.985720
0.986864 0.986864 0.986864
0.988007 0.988007 0.988007
0.989151 0.989151 0.989151
0.990294 0.990294 0.990294
0.991437 0.991437 0.991437
0.992579 0.992579 0.992579
0.993721 0.993721 0.993721
0.994863 0.994863 0.994863
0.996005 0.996005 0.996005
0.997146 0.997146 0.997146
0.998287 0.998287 0.998287
0.999428 0.999428 0.999428
1.000000 1.000000 1.000000
1.000000 1.000000 1.000000
1.000000 1.000000 1.000000
1.000000 1.000000 1.000000
1.000000 1.000000 1.000000
1.000000 1.000000 1.000000
1.000000 1.000000 1.000000
1.000000 1.000000 1.000000
1.000000 1.000000 1.000000
1.000000 1.000000 1.000000
1.000000 1.000000 1.000000
1.000000 1.000000 1.000000
1.000000 1.000000 1.000000
1.000000 1.000000 1.000000
1.000000 1.000000 1.000000
1.000000 1.000000 1.000000
1.000000 1.000000 1.000000
1.000000 1.000000 1.000000
1.000000 1.000000 1.000000
1.000000 1.000000 1.000000
1.000000 1.000000 1.000000
1.000000 1.000000 1.000000
1.000000 1.000000 1.000000
1.000000 1.000000 1.000000
1.000000 1.000000 1.000000
1.000000 1.000000 1.000000
1.000000 1.000000 1.000000
1.000000 1.000000 1.000000
1.000000 1.000000 1.000000
1.000000 1.000000 1.000000
1.000000 1.000000 1.000000
1.000000 1.000000 1.000000
1.000000 1.000000 1.000000
1.000000 1.000000 1.000000
1.000000 1.000000 1.000000
1.000000 1.000000 1.000000
1.000000 1.000000 1.000000
1.000000 1.000000 1.000000
1.000000 1.000000 1.000000
1.000000 1.000000 1.000000
1.000000 1.000000 1.000000
1.000000 1.000000 1.000000
1.000000 1.000000 1.000000
1.000000 1.000000 1.000000
1.000000 1.000000 1.000000
1.000000 1.000000 1.000000
1.000000 1.000000 1.000000
1.000000 1.000000 1.000000
1.000000 1.000000 1.000000
1.000000 1.000000 1.000000
1.000000 1.000000 1.000000
1.000000 1.000000 1.000000
1.000000 1.000000 1.000000
1.000000 1.000000 1.000000
1.000000 1.000000 1.000000
1.000000 1.000000 1.000000
1.000000 1.000000 1.000000
1.000000 1.000000 1.000000
1.000000 1.000000 1.000000
1.000000 1.000000 1.000000
1.000000 1.000000 1.000000
1.000000 1.000000 1.000000
1.000000 1.000000 1.000000
1.000000 1.000000 1.000000
1.000000 1.000000 1.000000
1.000000 1.000000 1.000000
1.000000 1.000000 1.000000
1.000000 1.000000 1.000000
1.000000 1.000000 1.000000
1.000000 1.000000 1.000000
1.000000 1.000000 1.000000
1.000000 1.000000 1.000000
1.000000 1.000000 1.000000
1.000000 1.000000 1.000000
1.000000 1.000000 1.000000
1.000000 1.000000 1.000000
1.000000 1.000000 1.000000
1.000000 1.000000 1.000000
1.000000 1.000000 1.000000
