Luts Download/Canon Luts/1dlut/canonlog3-to-gamma-1dlut/full-to-full-range/CanonLog3_12-to-PQ_FF_Ver.2.1.cube
# Gamma : Canon Log 3 to PQ
# Range : Full in / Full out
# Version : 2.1 2018/10/3
# Copyright(c) 2018 Canon Inc. All Rights Reserved.

LUT_1D_SIZE 4096
0.000000 0.000000 0.000000
0.000000 0.000000 0.000000
0.000000 0.000000 0.000000
0.000000 0.000000 0.000000
0.000000 0.000000 0.000000
0.000000 0.000000 0.000000
0.000000 0.000000 0.000000
0.000000 0.000000 0.000000
0.000000 0.000000 0.000000
0.000000 0.000000 0.000000
0.000000 0.000000 0.000000
0.000000 0.000000 0.000000
0.000000 0.000000 0.000000
0.000000 0.000000 0.000000
0.000000 0.000000 0.000000
0.000000 0.000000 0.000000
0.000000 0.000000 0.000000
0.000000 0.000000 0.000000
0.000000 0.000000 0.000000
0.000000 0.000000 0.000000
0.000000 0.000000 0.000000
0.000000 0.000000 0.000000
0.000000 0.000000 0.000000
0.000000 0.000000 0.000000
0.000000 0.000000 0.000000
0.000000 0.000000 0.000000
0.000000 0.000000 0.000000
0.000000 0.000000 0.000000
0.000000 0.000000 0.000000
0.000000 0.000000 0.000000
0.000000 0.000000 0.000000
0.000000 0.000000 0.000000
0.000000 0.000000 0.000000
0.000000 0.000000 0.000000
0.000000 0.000000 0.000000
0.000000 0.000000 0.000000
0.000000 0.000000 0.000000
0.000000 0.000000 0.000000
0.000000 0.000000 0.000000
0.000000 0.000000 0.000000
0.000000 0.000000 0.000000
0.000000 0.000000 0.000000
0.000000 0.000000 0.000000
0.000000 0.000000 0.000000
0.000000 0.000000 0.000000
0.000000 0.000000 0.000000
0.000000 0.000000 0.000000
0.000000 0.000000 0.000000
0.000000 0.000000 0.000000
0.000000 0.000000 0.000000
0.000000 0.000000 0.000000
0.000000 0.000000 0.000000
0.000000 0.000000 0.000000
0.000000 0.000000 0.000000
0.000000 0.000000 0.000000
0.000000 0.000000 0.000000
0.000000 0.000000 0.000000
0.000000 0.000000 0.000000
0.000000 0.000000 0.000000
0.000000 0.000000 0.000000
0.000000 0.000000 0.000000
0.000000 0.000000 0.000000
0.000000 0.000000 0.000000
0.000000 0.000000 0.000000
0.000000 0.000000 0.000000
0.000000 0.000000 0.000000
0.000000 0.000000 0.000000
0.000000 0.000000 0.000000
0.000000 0.000000 0.000000
0.000000 0.000000 0.000000
0.000000 0.000000 0.000000
0.000000 0.000000 0.000000
0.000000 0.000000 0.000000
0.000000 0.000000 0.000000
0.000000 0.000000 0.000000
0.000000 0.000000 0.000000
0.000000 0.000000 0.000000
0.000000 0.000000 0.000000
0.000000 0.000000 0.000000
0.000000 0.000000 0.000000
0.000000 0.000000 0.000000
0.000000 0.000000 0.000000
0.000000 0.000000 0.000000
0.000000 0.000000 0.000000
0.000000 0.000000 0.000000
0.000000 0.000000 0.000000
0.000000 0.000000 0.000000
0.000000 0.000000 0.000000
0.000000 0.000000 0.000000
0.000000 0.000000 0.000000
0.000000 0.000000 0.000000
0.000000 0.000000 0.000000
0.000000 0.000000 0.000000
0.000000 0.000000 0.000000
0.000000 0.000000 0.000000
0.000000 0.000000 0.000000
0.000000 0.000000 0.000000
0.000000 0.000000 0.000000
0.000000 0.000000 0.000000
0.000000 0.000000 0.000000
0.000000 0.000000 0.000000
0.000000 0.000000 0.000000
0.000000 0.000000 0.000000
0.000000 0.000000 0.000000
0.000000 0.000000 0.000000
0.000000 0.000000 0.000000
0.000000 0.000000 0.000000
0.000000 0.000000 0.000000
0.000000 0.000000 0.000000
0.000000 0.000000 0.000000
0.000000 0.000000 0.000000
0.000000 0.000000 0.000000
0.000000 0.000000 0.000000
0.000000 0.000000 0.000000
0.000000 0.000000 0.000000
0.000000 0.000000 0.000000
0.000000 0.000000 0.000000
0.000000 0.000000 0.000000
0.000000 0.000000 0.000000
0.000000 0.000000 0.000000
0.000000 0.000000 0.000000
0.000000 0.000000 0.000000
0.000000 0.000000 0.000000
0.000000 0.000000 0.000000
0.000000 0.000000 0.000000
0.000000 0.000000 0.000000
0.000000 0.000000 0.000000
0.000000 0.000000 0.000000
0.000000 0.000000 0.000000
0.000000 0.000000 0.000000
0.000000 0.000000 0.000000
0.000000 0.000000 0.000000
0.000000 0.000000 0.000000
0.000000 0.000000 0.000000
0.000000 0.000000 0.000000
0.000000 0.000000 0.000000
0.000000 0.000000 0.000000
0.000000 0.000000 0.000000
0.000000 0.000000 0.000000
0.000000 0.000000 0.000000
0.000000 0.000000 0.000000
0.000000 0.000000 0.000000
0.000000 0.000000 0.000000
0.000000 0.000000 0.000000
0.000000 0.000000 0.000000
0.000000 0.000000 0.000000
0.000000 0.000000 0.000000
0.000000 0.000000 0.000000
0.000000 0.000000 0.000000
0.000000 0.000000 0.000000
0.000000 0.000000 0.000000
0.000000 0.000000 0.000000
0.000000 0.000000 0.000000
0.000000 0.000000 0.000000
0.000000 0.000000 0.000000
0.000000 0.000000 0.000000
0.000000 0.000000 0.000000
0.000000 0.000000 0.000000
0.000000 0.000000 0.000000
0.000000 0.000000 0.000000
0.000000 0.000000 0.000000
0.000000 0.000000 0.000000
0.000000 0.000000 0.000000
0.000000 0.000000 0.000000
0.000000 0.000000 0.000000
0.000000 0.000000 0.000000
0.000000 0.000000 0.000000
0.000000 0.000000 0.000000
0.000000 0.000000 0.000000
0.000000 0.000000 0.000000
0.000000 0.000000 0.000000
0.000000 0.000000 0.000000
0.000000 0.000000 0.000000
0.000000 0.000000 0.000000
0.000000 0.000000 0.000000
0.000000 0.000000 0.000000
0.000000 0.000000 0.000000
0.000000 0.000000 0.000000
0.000000 0.000000 0.000000
0.000000 0.000000 0.000000
0.000000 0.000000 0.000000
0.000000 0.000000 0.000000
0.000000 0.000000 0.000000
0.000000 0.000000 0.000000
0.000000 0.000000 0.000000
0.000000 0.000000 0.000000
0.000000 0.000000 0.000000
0.000000 0.000000 0.000000
0.000000 0.000000 0.000000
0.000000 0.000000 0.000000
0.000000 0.000000 0.000000
0.000000 0.000000 0.000000
0.000000 0.000000 0.000000
0.000000 0.000000 0.000000
0.000000 0.000000 0.000000
0.000000 0.000000 0.000000
0.000000 0.000000 0.000000
0.000000 0.000000 0.000000
0.000000 0.000000 0.000000
0.000000 0.000000 0.000000
0.000000 0.000000 0.000000
0.000000 0.000000 0.000000
0.000000 0.000000 0.000000
0.000000 0.000000 0.000000
0.000000 0.000000 0.000000
0.000000 0.000000 0.000000
0.000000 0.000000 0.000000
0.000000 0.000000 0.000000
0.000000 0.000000 0.000000
0.000000 0.000000 0.000000
0.000000 0.000000 0.000000
0.000000 0.000000 0.000000
0.000000 0.000000 0.000000
0.000000 0.000000 0.000000
0.000000 0.000000 0.000000
0.000000 0.000000 0.000000
0.000000 0.000000 0.000000
0.000000 0.000000 0.000000
0.000000 0.000000 0.000000
0.000000 0.000000 0.000000
0.000000 0.000000 0.000000
0.000000 0.000000 0.000000
0.000000 0.000000 0.000000
0.000000 0.000000 0.000000
0.000000 0.000000 0.000000
0.000000 0.000000 0.000000
0.000000 0.000000 0.000000
0.000000 0.000000 0.000000
0.000000 0.000000 0.000000
0.000000 0.000000 0.000000
0.000000 0.000000 0.000000
0.000000 0.000000 0.000000
0.000000 0.000000 0.000000
0.000000 0.000000 0.000000
0.000000 0.000000 0.000000
0.000000 0.000000 0.000000
0.000000 0.000000 0.000000
0.000000 0.000000 0.000000
0.000000 0.000000 0.000000
0.000000 0.000000 0.000000
0.000000 0.000000 0.000000
0.000000 0.000000 0.000000
0.000000 0.000000 0.000000
0.000000 0.000000 0.000000
0.000000 0.000000 0.000000
0.000000 0.000000 0.000000
0.000000 0.000000 0.000000
0.000000 0.000000 0.000000
0.000000 0.000000 0.000000
0.000000 0.000000 0.000000
0.000000 0.000000 0.000000
0.000000 0.000000 0.000000
0.000000 0.000000 0.000000
0.000000 0.000000 0.000000
0.000000 0.000000 0.000000
0.000000 0.000000 0.000000
0.000000 0.000000 0.000000
0.000000 0.000000 0.000000
0.000000 0.000000 0.000000
0.000000 0.000000 0.000000
0.000000 0.000000 0.000000
0.000000 0.000000 0.000000
0.000000 0.000000 0.000000
0.000000 0.000000 0.000000
0.000000 0.000000 0.000000
0.000000 0.000000 0.000000
0.000000 0.000000 0.000000
0.000000 0.000000 0.000000
0.000000 0.000000 0.000000
0.000000 0.000000 0.000000
0.000000 0.000000 0.000000
0.000000 0.000000 0.000000
0.000000 0.000000 0.000000
0.000000 0.000000 0.000000
0.000000 0.000000 0.000000
0.000000 0.000000 0.000000
0.000000 0.000000 0.000000
0.000000 0.000000 0.000000
0.000000 0.000000 0.000000
0.000000 0.000000 0.000000
0.000000 0.000000 0.000000
0.000000 0.000000 0.000000
0.000000 0.000000 0.000000
0.000000 0.000000 0.000000
0.000000 0.000000 0.000000
0.000000 0.000000 0.000000
0.000000 0.000000 0.000000
0.000000 0.000000 0.000000
0.000000 0.000000 0.000000
0.000000 0.000000 0.000000
0.000000 0.000000 0.000000
0.000000 0.000000 0.000000
0.000000 0.000000 0.000000
0.000000 0.000000 0.000000
0.000000 0.000000 0.000000
0.000000 0.000000 0.000000
0.000000 0.000000 0.000000
0.000000 0.000000 0.000000
0.000000 0.000000 0.000000
0.000000 0.000000 0.000000
0.000000 0.000000 0.000000
0.000000 0.000000 0.000000
0.000000 0.000000 0.000000
0.000000 0.000000 0.000000
0.000000 0.000000 0.000000
0.000000 0.000000 0.000000
0.000000 0.000000 0.000000
0.000000 0.000000 0.000000
0.000000 0.000000 0.000000
0.000000 0.000000 0.000000
0.000000 0.000000 0.000000
0.000000 0.000000 0.000000
0.000000 0.000000 0.000000
0.000000 0.000000 0.000000
0.000000 0.000000 0.000000
0.000000 0.000000 0.000000
0.000000 0.000000 0.000000
0.000000 0.000000 0.000000
0.000000 0.000000 0.000000
0.000000 0.000000 0.000000
0.000000 0.000000 0.000000
0.000000 0.000000 0.000000
0.000000 0.000000 0.000000
0.000000 0.000000 0.000000
0.000000 0.000000 0.000000
0.000000 0.000000 0.000000
0.000000 0.000000 0.000000
0.000000 0.000000 0.000000
0.000000 0.000000 0.000000
0.000000 0.000000 0.000000
0.000000 0.000000 0.000000
0.000000 0.000000 0.000000
0.000000 0.000000 0.000000
0.000000 0.000000 0.000000
0.000000 0.000000 0.000000
0.000000 0.000000 0.000000
0.000000 0.000000 0.000000
0.000000 0.000000 0.000000
0.000000 0.000000 0.000000
0.000000 0.000000 0.000000
0.000000 0.000000 0.000000
0.000000 0.000000 0.000000
0.000000 0.000000 0.000000
0.000000 0.000000 0.000000
0.000000 0.000000 0.000000
0.000000 0.000000 0.000000
0.000000 0.000000 0.000000
0.000000 0.000000 0.000000
0.000000 0.000000 0.000000
0.000000 0.000000 0.000000
0.000000 0.000000 0.000000
0.000000 0.000000 0.000000
0.000000 0.000000 0.000000
0.000000 0.000000 0.000000
0.000000 0.000000 0.000000
0.000000 0.000000 0.000000
0.000000 0.000000 0.000000
0.000000 0.000000 0.000000
0.000000 0.000000 0.000000
0.000000 0.000000 0.000000
0.000000 0.000000 0.000000
0.000000 0.000000 0.000000
0.000000 0.000000 0.000000
0.000000 0.000000 0.000000
0.000000 0.000000 0.000000
0.000000 0.000000 0.000000
0.000000 0.000000 0.000000
0.000000 0.000000 0.000000
0.000000 0.000000 0.000000
0.000000 0.000000 0.000000
0.000000 0.000000 0.000000
0.000000 0.000000 0.000000
0.000000 0.000000 0.000000
0.000000 0.000000 0.000000
0.000000 0.000000 0.000000
0.000000 0.000000 0.000000
0.000000 0.000000 0.000000
0.000000 0.000000 0.000000
0.000000 0.000000 0.000000
0.000000 0.000000 0.000000
0.000000 0.000000 0.000000
0.000000 0.000000 0.000000
0.000000 0.000000 0.000000
0.000000 0.000000 0.000000
0.000000 0.000000 0.000000
0.000000 0.000000 0.000000
0.000000 0.000000 0.000000
0.000000 0.000000 0.000000
0.000000 0.000000 0.000000
0.000000 0.000000 0.000000
0.000000 0.000000 0.000000
0.000000 0.000000 0.000000
0.000000 0.000000 0.000000
0.000000 0.000000 0.000000
0.000000 0.000000 0.000000
0.000000 0.000000 0.000000
0.000000 0.000000 0.000000
0.000000 0.000000 0.000000
0.000000 0.000000 0.000000
0.000000 0.000000 0.000000
0.000000 0.000000 0.000000
0.000000 0.000000 0.000000
0.000000 0.000000 0.000000
0.000000 0.000000 0.000000
0.000000 0.000000 0.000000
0.000000 0.000000 0.000000
0.000000 0.000000 0.000000
0.000000 0.000000 0.000000
0.000000 0.000000 0.000000
0.000000 0.000000 0.000000
0.000000 0.000000 0.000000
0.000000 0.000000 0.000000
0.000000 0.000000 0.000000
0.000000 0.000000 0.000000
0.000000 0.000000 0.000000
0.000000 0.000000 0.000000
0.000000 0.000000 0.000000
0.000000 0.000000 0.000000
0.000000 0.000000 0.000000
0.000000 0.000000 0.000000
0.000000 0.000000 0.000000
0.000000 0.000000 0.000000
0.000000 0.000000 0.000000
0.000000 0.000000 0.000000
0.000000 0.000000 0.000000
0.000000 0.000000 0.000000
0.000000 0.000000 0.000000
0.000000 0.000000 0.000000
0.000000 0.000000 0.000000
0.000000 0.000000 0.000000
0.000000 0.000000 0.000000
0.000000 0.000000 0.000000
0.000000 0.000000 0.000000
0.000000 0.000000 0.000000
0.000000 0.000000 0.000000
0.000000 0.000000 0.000000
0.000000 0.000000 0.000000
0.000000 0.000000 0.000000
0.000000 0.000000 0.000000
0.000000 0.000000 0.000000
0.000000 0.000000 0.000000
0.000000 0.000000 0.000000
0.000000 0.000000 0.000000
0.000000 0.000000 0.000000
0.000000 0.000000 0.000000
0.000000 0.000000 0.000000
0.000000 0.000000 0.000000
0.000000 0.000000 0.000000
0.000000 0.000000 0.000000
0.000000 0.000000 0.000000
0.000000 0.000000 0.000000
0.000000 0.000000 0.000000
0.000000 0.000000 0.000000
0.000000 0.000000 0.000000
0.000000 0.000000 0.000000
0.000000 0.000000 0.000000
0.000000 0.000000 0.000000
0.000000 0.000000 0.000000
0.000000 0.000000 0.000000
0.000000 0.000000 0.000000
0.000000 0.000000 0.000000
0.000000 0.000000 0.000000
0.000000 0.000000 0.000000
0.000000 0.000000 0.000000
0.000000 0.000000 0.000000
0.000000 0.000000 0.000000
0.000000 0.000000 0.000000
0.000000 0.000000 0.000000
0.000000 0.000000 0.000000
0.000000 0.000000 0.000000
0.000000 0.000000 0.000000
0.000000 0.000000 0.000000
0.000000 0.000000 0.000000
0.000000 0.000000 0.000000
0.000000 0.000000 0.000000
0.000000 0.000000 0.000000
0.000000 0.000000 0.000000
0.000000 0.000000 0.000000
0.000000 0.000000 0.000000
0.000000 0.000000 0.000000
0.000000 0.000000 0.000000
0.000000 0.000000 0.000000
0.000000 0.000000 0.000000
0.000000 0.000000 0.000000
0.000000 0.000000 0.000000
0.000000 0.000000 0.000000
0.000000 0.000000 0.000000
0.000000 0.000000 0.000000
0.000000 0.000000 0.000000
0.000000 0.000000 0.000000
0.000000 0.000000 0.000000
0.000000 0.000000 0.000000
0.000000 0.000000 0.000000
0.000000 0.000000 0.000000
0.000000 0.000000 0.000000
0.000000 0.000000 0.000000
0.000000 0.000000 0.000000
0.000000 0.000000 0.000000
0.000000 0.000000 0.000000
0.000000 0.000000 0.000000
0.000000 0.000000 0.000000
0.000000 0.000000 0.000000
0.000000 0.000000 0.000000
0.000000 0.000000 0.000000
0.000000 0.000000 0.000000
0.000000 0.000000 0.000000
0.000000 0.000000 0.000000
0.000000 0.000000 0.000000
0.000000 0.000000 0.000000
0.000000 0.000000 0.000000
0.000000 0.000000 0.000000
0.000000 0.000000 0.000000
0.000000 0.000000 0.000000
0.000157 0.000157 0.000157
0.000575 0.000575 0.000575
0.001131 0.001131 0.001131
0.001785 0.001785 0.001785
0.002515 0.002515 0.002515
0.003305 0.003305 0.003305
0.004144 0.004144 0.004144
0.005025 0.005025 0.005025
0.005939 0.005939 0.005939
0.006882 0.006882 0.006882
0.007850 0.007850 0.007850
0.008839 0.008839 0.008839
0.009846 0.009846 0.009846
0.010868 0.010868 0.010868
0.011904 0.011904 0.011904
0.012952 0.012952 0.012952
0.014010 0.014010 0.014010
0.015076 0.015076 0.015076
0.016149 0.016149 0.016149
0.017229 0.017229 0.017229
0.018314 0.018314 0.018314
0.019404 0.019404 0.019404
0.020497 0.020497 0.020497
0.021594 0.021594 0.021594
0.022692 0.022692 0.022692
0.023793 0.023793 0.023793
0.024895 0.024895 0.024895
0.025998 0.025998 0.025998
0.027102 0.027102 0.027102
0.028206 0.028206 0.028206
0.029309 0.029309 0.029309
0.030413 0.030413 0.030413
0.031515 0.031515 0.031515
0.032617 0.032617 0.032617
0.033718 0.033718 0.033718
0.034817 0.034817 0.034817
0.035915 0.035915 0.035915
0.037011 0.037011 0.037011
0.038105 0.038105 0.038105
0.039197 0.039197 0.039197
0.040287 0.040287 0.040287
0.041375 0.041375 0.041375
0.042461 0.042461 0.042461
0.043544 0.043544 0.043544
0.044624 0.044624 0.044624
0.045703 0.045703 0.045703
0.046778 0.046778 0.046778
0.047851 0.047851 0.047851
0.048921 0.048921 0.048921
0.049988 0.049988 0.049988
0.051052 0.051052 0.051052
0.052113 0.052113 0.052113
0.053172 0.053172 0.053172
0.054227 0.054227 0.054227
0.055280 0.055280 0.055280
0.056329 0.056329 0.056329
0.057375 0.057375 0.057375
0.058418 0.058418 0.058418
0.059458 0.059458 0.059458
0.060495 0.060495 0.060495
0.061529 0.061529 0.061529
0.062559 0.062559 0.062559
0.063587 0.063587 0.063587
0.064611 0.064611 0.064611
0.065632 0.065632 0.065632
0.066650 0.066650 0.066650
0.067664 0.067664 0.067664
0.068676 0.068676 0.068676
0.069684 0.069684 0.069684
0.070689 0.070689 0.070689
0.071691 0.071691 0.071691
0.072690 0.072690 0.072690
0.073685 0.073685 0.073685
0.074677 0.074677 0.074677
0.075666 0.075666 0.075666
0.076652 0.076652 0.076652
0.077635 0.077635 0.077635
0.078615 0.078615 0.078615
0.079591 0.079591 0.079591
0.080565 0.080565 0.080565
0.081535 0.081535 0.081535
0.082502 0.082502 0.082502
0.083466 0.083466 0.083466
0.084427 0.084427 0.084427
0.085385 0.085385 0.085385
0.086340 0.086340 0.086340
0.087291 0.087291 0.087291
0.088240 0.088240 0.088240
0.089442 0.089442 0.089442
0.090382 0.090382 0.090382
0.091312 0.091312 0.091312
0.092234 0.092234 0.092234
0.093148 0.093148 0.093148
0.094053 0.094053 0.094053
0.094950 0.094950 0.094950
0.095839 0.095839 0.095839
0.096721 0.096721 0.096721
0.097595 0.097595 0.097595
0.098461 0.098461 0.098461
0.099320 0.099320 0.099320
0.100172 0.100172 0.100172
0.101017 0.101017 0.101017
0.101854 0.101854 0.101854
0.102685 0.102685 0.102685
0.103509 0.103509 0.103509
0.104326 0.104326 0.104326
0.105137 0.105137 0.105137
0.105941 0.105941 0.105941
0.106740 0.106740 0.106740
0.107531 0.107531 0.107531
0.108317 0.108317 0.108317
0.109097 0.109097 0.109097
0.109870 0.109870 0.109870
0.110638 0.110638 0.110638
0.111402 0.111402 0.111402
0.112160 0.112160 0.112160
0.112914 0.112914 0.112914
0.113664 0.113664 0.113664
0.114410 0.114410 0.114410
0.115151 0.115151 0.115151
0.115888 0.115888 0.115888
0.116620 0.116620 0.116620
0.117349 0.117349 0.117349
0.118074 0.118074 0.118074
0.118795 0.118795 0.118795
0.119511 0.119511 0.119511
0.120224 0.120224 0.120224
0.120933 0.120933 0.120933
0.121638 0.121638 0.121638
0.122340 0.122340 0.122340
0.123038 0.123038 0.123038
0.123732 0.123732 0.123732
0.124422 0.124422 0.124422
0.125109 0.125109 0.125109
0.125793 0.125793 0.125793
0.126473 0.126473 0.126473
0.127149 0.127149 0.127149
0.127823 0.127823 0.127823
0.128492 0.128492 0.128492
0.129159 0.129159 0.129159
0.129822 0.129822 0.129822
0.130483 0.130483 0.130483
0.131139 0.131139 0.131139
0.131793 0.131793 0.131793
0.132444 0.132444 0.132444
0.133091 0.133091 0.133091
0.133736 0.133736 0.133736
0.134378 0.134378 0.134378
0.135016 0.135016 0.135016
0.135652 0.135652 0.135652
0.136285 0.136285 0.136285
0.136915 0.136915 0.136915
0.137542 0.137542 0.137542
0.138166 0.138166 0.138166
0.138787 0.138787 0.138787
0.139406 0.139406 0.139406
0.140022 0.140022 0.140022
0.140636 0.140636 0.140636
0.141246 0.141246 0.141246
0.141854 0.141854 0.141854
0.142460 0.142460 0.142460
0.143063 0.143063 0.143063
0.143663 0.143663 0.143663
0.144261 0.144261 0.144261
0.144857 0.144857 0.144857
0.145450 0.145450 0.145450
0.146040 0.146040 0.146040
0.146628 0.146628 0.146628
0.147214 0.147214 0.147214
0.147797 0.147797 0.147797
0.148378 0.148378 0.148378
0.148957 0.148957 0.148957
0.149533 0.149533 0.149533
0.150108 0.150108 0.150108
0.150679 0.150679 0.150679
0.151249 0.151249 0.151249
0.151817 0.151817 0.151817
0.152382 0.152382 0.152382
0.152945 0.152945 0.152945
0.153506 0.153506 0.153506
0.154065 0.154065 0.154065
0.154622 0.154622 0.154622
0.155177 0.155177 0.155177
0.155729 0.155729 0.155729
0.156280 0.156280 0.156280
0.156829 0.156829 0.156829
0.157375 0.157375 0.157375
0.157920 0.157920 0.157920
0.158463 0.158463 0.158463
0.159004 0.159004 0.159004
0.159542 0.159542 0.159542
0.160079 0.160079 0.160079
0.160615 0.160615 0.160615
0.161148 0.161148 0.161148
0.161679 0.161679 0.161679
0.162209 0.162209 0.162209
0.162736 0.162736 0.162736
0.163262 0.163262 0.163262
0.163786 0.163786 0.163786
0.164309 0.164309 0.164309
0.164829 0.164829 0.164829
0.165348 0.165348 0.165348
0.165865 0.165865 0.165865
0.166381 0.166381 0.166381
0.166894 0.166894 0.166894
0.167406 0.167406 0.167406
0.167917 0.167917 0.167917
0.168425 0.168425 0.168425
0.168933 0.168933 0.168933
0.169438 0.169438 0.169438
0.169942 0.169942 0.169942
0.170444 0.170444 0.170444
0.170945 0.170945 0.170945
0.171444 0.171444 0.171444
0.171942 0.171942 0.171942
0.172438 0.172438 0.172438
0.172932 0.172932 0.172932
0.173425 0.173425 0.173425
0.173916 0.173916 0.173916
0.174406 0.174406 0.174406
0.174895 0.174895 0.174895
0.175382 0.175382 0.175382
0.175868 0.175868 0.175868
0.176352 0.176352 0.176352
0.176834 0.176834 0.176834
0.177316 0.177316 0.177316
0.177796 0.177796 0.177796
0.178274 0.178274 0.178274
0.178751 0.178751 0.178751
0.179227 0.179227 0.179227
0.179701 0.179701 0.179701
0.180174 0.180174 0.180174
0.180646 0.180646 0.180646
0.181116 0.181116 0.181116
0.181585 0.181585 0.181585
0.182053 0.182053 0.182053
0.182519 0.182519 0.182519
0.182984 0.182984 0.182984
0.183448 0.183448 0.183448
0.183910 0.183910 0.183910
0.184372 0.184372 0.184372
0.184832 0.184832 0.184832
0.185290 0.185290 0.185290
0.185748 0.185748 0.185748
0.186204 0.186204 0.186204
0.186659 0.186659 0.186659
0.187113 0.187113 0.187113
0.187566 0.187566 0.187566
0.188017 0.188017 0.188017
0.188468 0.188468 0.188468
0.188917 0.188917 0.188917
0.189365 0.189365 0.189365
0.189811 0.189811 0.189811
0.190257 0.190257 0.190257
0.190702 0.190702 0.190702
0.191145 0.191145 0.191145
0.191587 0.191587 0.191587
0.192028 0.192028 0.192028
0.192468 0.192468 0.192468
0.192907 0.192907 0.192907
0.193345 0.193345 0.193345
0.193782 0.193782 0.193782
0.194217 0.194217 0.194217
0.194652 0.194652 0.194652
0.195086 0.195086 0.195086
0.195518 0.195518 0.195518
0.195949 0.195949 0.195949
0.196380 0.196380 0.196380
0.196809 0.196809 0.196809
0.197238 0.197238 0.197238
0.197665 0.197665 0.197665
0.198091 0.198091 0.198091
0.198516 0.198516 0.198516
0.198941 0.198941 0.198941
0.199364 0.199364 0.199364
0.199786 0.199786 0.199786
0.200208 0.200208 0.200208
0.200628 0.200628 0.200628
0.201047 0.201047 0.201047
0.201466 0.201466 0.201466
0.201883 0.201883 0.201883
0.202300 0.202300 0.202300
0.202716 0.202716 0.202716
0.203130 0.203130 0.203130
0.203544 0.203544 0.203544
0.203957 0.203957 0.203957
0.204369 0.204369 0.204369
0.204780 0.204780 0.204780
0.205190 0.205190 0.205190
0.205599 0.205599 0.205599
0.206007 0.206007 0.206007
0.206415 0.206415 0.206415
0.206821 0.206821 0.206821
0.207227 0.207227 0.207227
0.207632 0.207632 0.207632
0.208036 0.208036 0.208036
0.208439 0.208439 0.208439
0.208841 0.208841 0.208841
0.209242 0.209242 0.209242
0.209643 0.209643 0.209643
0.210042 0.210042 0.210042
0.210441 0.210441 0.210441
0.210839 0.210839 0.210839
0.211236 0.211236 0.211236
0.211633 0.211633 0.211633
0.212028 0.212028 0.212028
0.212423 0.212423 0.212423
0.212817 0.212817 0.212817
0.213210 0.213210 0.213210
0.213602 0.213602 0.213602
0.213994 0.213994 0.213994
0.214385 0.214385 0.214385
0.214775 0.214775 0.214775
0.215164 0.215164 0.215164
0.215552 0.215552 0.215552
0.215940 0.215940 0.215940
0.216327 0.216327 0.216327
0.216713 0.216713 0.216713
0.217099 0.217099 0.217099
0.217483 0.217483 0.217483
0.217867 0.217867 0.217867
0.218250 0.218250 0.218250
0.218633 0.218633 0.218633
0.219015 0.219015 0.219015
0.219396 0.219396 0.219396
0.219776 0.219776 0.219776
0.220155 0.220155 0.220155
0.220534 0.220534 0.220534
0.220912 0.220912 0.220912
0.221290 0.221290 0.221290
0.221667 0.221667 0.221667
0.222043 0.222043 0.222043
0.222418 0.222418 0.222418
0.222793 0.222793 0.222793
0.223167 0.223167 0.223167
0.223540 0.223540 0.223540
0.223913 0.223913 0.223913
0.224284 0.224284 0.224284
0.224656 0.224656 0.224656
0.225026 0.225026 0.225026
0.225396 0.225396 0.225396
0.225766 0.225766 0.225766
0.226134 0.226134 0.226134
0.226502 0.226502 0.226502
0.226870 0.226870 0.226870
0.227236 0.227236 0.227236
0.227602 0.227602 0.227602
0.227968 0.227968 0.227968
0.228332 0.228332 0.228332
0.228697 0.228697 0.228697
0.229060 0.229060 0.229060
0.229423 0.229423 0.229423
0.229785 0.229785 0.229785
0.230147 0.230147 0.230147
0.230508 0.230508 0.230508
0.230868 0.230868 0.230868
0.231228 0.231228 0.231228
0.231587 0.231587 0.231587
0.231946 0.231946 0.231946
0.232304 0.232304 0.232304
0.232661 0.232661 0.232661
0.233018 0.233018 0.233018
0.233375 0.233375 0.233375
0.233730 0.233730 0.233730
0.234085 0.234085 0.234085
0.234440 0.234440 0.234440
0.234794 0.234794 0.234794
0.235147 0.235147 0.235147
0.235500 0.235500 0.235500
0.235852 0.235852 0.235852
